;FLAVOR:Marlin
;TIME:2591
;Filament used: 2.24802m
;Layer height: 0.2
;MINX:-39.767
;MINY:-49.869
;MINZ:0.2
;MAXX:39.806
;MAXY:26.024
;MAXZ:3.8
;POSTPROCESSED
;Generated with Cura_SteamEngine 4.13.1
M82 ;absolute extrusion mode
START_PRINT BED_TEMP=80 EXTRUDER_TEMP=220.0
G92 E0
G92 E0
G1 F1800 E-2
;LAYER_COUNT:19
;LAYER:0
M107
G0 F4800 X-.342 Y25.896 Z0.2
;TYPE:SKIRT
G1 F1800 E0
G1 F600 X-3.821 Y26.004 E0.11577
G1 X-4.965 Y26.024 E0.15382
G1 X-12.727 Y26.024 E0.41199
G1 X-13.433 Y26.014 E0.43547
G1 X-13.805 Y25.999 E0.44786
G1 X-16.126 Y25.867 E0.52518
G1 X-18.888 Y25.79 E0.61708
G1 X-21.583 Y25.79 E0.70671
G1 X-24.335 Y25.869 E0.79828
G1 X-25.538 Y25.943 E0.83837
G1 X-25.697 Y25.941 E0.84366
G1 X-26.686 Y25.994 E0.8766
G1 X-26.809 Y25.998 E0.88069
G1 X-28.165 Y26.024 E0.9258
G1 X-35.54 Y26.024 E1.1711
G1 X-36.227 Y26.014 E1.19395
G1 X-36.762 Y25.966 E1.21181
G1 X-37.283 Y25.839 E1.22965
G1 X-37.779 Y25.637 E1.24746
G1 X-38.24 Y25.363 E1.2653
G1 X-38.655 Y25.023 E1.28314
G1 X-39.015 Y24.626 E1.30097
G1 X-39.312 Y24.179 E1.31882
G1 X-39.54 Y23.694 E1.33664
G1 X-39.693 Y23.18 E1.35448
G1 X-39.767 Y22.648 E1.37234
G1 X-39.762 Y22.112 E1.39017
G1 X-39.678 Y21.583 E1.40799
G1 X-39.566 Y21.204 E1.42113
G1 X-39.245 Y20.306 E1.45285
G1 X-28.675 Y-7.815 E2.45205
G1 X-28.411 Y-8.489 E2.47612
G1 X-28.179 Y-8.972 E2.49395
G1 X-27.666 Y-9.689 E2.52327
G1 X-26.405 Y-11.278 E2.59074
G1 X-24.783 Y-13.447 E2.68082
G1 X-23.198 Y-15.697 E2.77236
G1 X-21.692 Y-17.966 E2.86294
G1 X-20.262 Y-20.26 E2.95285
G1 X-18.866 Y-22.648 E3.04485
G1 X-17.573 Y-25.009 E3.13438
G1 X-16.33 Y-27.442 E3.22525
G1 X-15.155 Y-29.911 E3.31619
G1 X-14.067 Y-32.375 E3.40578
G1 X-12.509 Y-36.261 E3.54503
G1 X-8.509 Y-46.907 E3.92329
G1 X-8.246 Y-47.576 E3.9472
G1 X-8.014 Y-48.059 E3.96502
G1 X-7.712 Y-48.502 E3.98285
G1 X-7.347 Y-48.896 E4.00071
G1 X-6.928 Y-49.231 E4.01856
G1 X-6.464 Y-49.5 E4.03639
G1 X-5.965 Y-49.697 E4.05424
G1 X-5.443 Y-49.817 E4.07205
G1 X-4.894 Y-49.862 E4.09037
G1 X-4.393 Y-49.869 E4.10704
G1 X4.275 Y-49.869 E4.39534
G1 X4.975 Y-49.859 E4.41862
G1 X5.51 Y-49.811 E4.43649
G1 X6.031 Y-49.685 E4.45432
G1 X6.527 Y-49.482 E4.47214
G1 X6.988 Y-49.208 E4.48998
G1 X7.404 Y-48.869 E4.50783
G1 X7.764 Y-48.472 E4.52565
G1 X8.061 Y-48.025 E4.5435
G1 X8.277 Y-47.572 E4.56019
G1 X8.506 Y-46.988 E4.58106
G1 X12.482 Y-36.408 E4.95698
G1 X13.498 Y-33.817 E5.04954
G1 X14.567 Y-31.303 E5.1404
G1 X15.701 Y-28.829 E5.23092
G1 X16.906 Y-26.389 E5.32143
G1 X18.168 Y-24.003 E5.41121
G1 X19.532 Y-21.595 E5.50326
G1 X20.933 Y-19.274 E5.59343
G1 X22.403 Y-16.989 E5.68379
G1 X23.96 Y-14.712 E5.77554
G1 X25.535 Y-12.544 E5.86467
G1 X27.79 Y-9.644 E5.98685
G1 X27.906 Y-9.499 E5.99303
G1 X28.209 Y-9.056 E6.01088
G1 X28.431 Y-8.605 E6.0276
G1 X28.649 Y-8.056 E6.04724
G1 X39.353 Y20.43 E7.05937
G1 X39.598 Y21.112 E7.08348
G1 X39.741 Y21.629 E7.10132
G1 X39.806 Y22.161 E7.11914
G1 X39.791 Y22.697 E7.13698
G1 X39.697 Y23.225 E7.15481
G1 X39.525 Y23.733 E7.17265
G1 X39.28 Y24.21 E7.19049
G1 X38.966 Y24.645 E7.20833
G1 X38.591 Y25.029 E7.22618
G1 X38.164 Y25.353 E7.24401
G1 X37.693 Y25.609 E7.26184
G1 X37.189 Y25.793 E7.27969
G1 X36.664 Y25.9 E7.29751
G1 X36.275 Y25.928 E7.31048
G1 X35.373 Y25.944 E7.34048
G1 X27.611 Y25.944 E7.59865
G1 X26.8 Y25.931 E7.62563
G1 X26.548 Y25.919 E7.63402
G1 X24.236 Y25.788 E7.71104
G1 X21.469 Y25.71 E7.80311
G1 X18.775 Y25.71 E7.89271
G1 X16.027 Y25.788 E7.98414
G1 X14.829 Y25.862 E8.02407
G1 X14.669 Y25.86 E8.02939
G1 X13.659 Y25.914 E8.06303
G1 X13.535 Y25.918 E8.06716
G1 X12.17 Y25.944 E8.11256
G1 X4.798 Y25.944 E8.35776
G1 X3.073 Y25.919 E8.41514
G1 X2.371 Y25.899 E8.4385
G1 X-.342 Y25.896 E8.52873
G0 F4800 X-.353 Y25.496
G1 F600 X-3.828 Y25.605 E8.64437
G1 X-4.909 Y25.624 E8.68033
G1 X-12.721 Y25.624 E8.94015
G1 X-13.427 Y25.614 E8.96364
G1 X-13.782 Y25.6 E8.97545
G1 X-16.127 Y25.467 E9.05358
G1 X-18.876 Y25.39 E9.14504
G1 X-21.594 Y25.39 E9.23544
G1 X-24.342 Y25.469 E9.32688
G1 X-25.563 Y25.544 E9.36757
G1 X-25.723 Y25.541 E9.37289
G1 X-26.708 Y25.594 E9.4057
G1 X-26.817 Y25.598 E9.40933
G1 X-28.165 Y25.624 E9.45417
G1 X-35.535 Y25.624 E9.6993
G1 X-36.222 Y25.614 E9.72215
G1 X-36.725 Y25.566 E9.73895
G1 X-37.215 Y25.44 E9.75578
G1 X-37.678 Y25.239 E9.77257
G1 X-38.104 Y24.967 E9.78938
G1 X-38.482 Y24.631 E9.8062
G1 X-38.803 Y24.24 E9.82303
G1 X-39.058 Y23.803 E9.83986
G1 X-39.24 Y23.332 E9.85665
G1 X-39.347 Y22.838 E9.87346
G1 X-39.374 Y22.333 E9.89028
G1 X-39.321 Y21.83 E9.90711
G1 X-39.189 Y21.339 E9.92402
G1 X-38.87 Y20.447 E9.95552
G1 X-28.303 Y-7.669 E10.95453
G1 X-28.039 Y-8.343 E10.97861
G1 X-27.818 Y-8.798 E10.99543
G1 X-27.35 Y-9.444 E11.02196
G1 X-26.1 Y-11.019 E11.08884
G1 X-24.44 Y-13.239 E11.18104
G1 X-22.864 Y-15.475 E11.27202
G1 X-21.378 Y-17.715 E11.36143
G1 X-19.889 Y-20.104 E11.45506
G1 X-18.543 Y-22.407 E11.54378
G1 X-17.21 Y-24.841 E11.63608
G1 X-15.96 Y-27.288 E11.72747
G1 X-14.786 Y-29.755 E11.81834
G1 X-13.696 Y-32.223 E11.90808
G1 X-12.147 Y-36.088 E12.04657
G1 X-8.137 Y-46.761 E12.42578
G1 X-7.874 Y-47.43 E12.44969
G1 X-7.653 Y-47.884 E12.46648
G1 X-7.362 Y-48.298 E12.48331
G1 X-7.01 Y-48.661 E12.50013
G1 X-6.606 Y-48.964 E12.51693
G1 X-6.158 Y-49.2 E12.53377
G1 X-5.679 Y-49.362 E12.55059
G1 X-5.014 Y-49.457 E12.57293
G1 X-4.388 Y-49.469 E12.59376
G1 X4.27 Y-49.469 E12.88172
G1 X4.97 Y-49.459 E12.90501
G1 X5.473 Y-49.412 E12.92181
G1 X5.963 Y-49.286 E12.93864
G1 X6.426 Y-49.084 E12.95544
G1 X6.853 Y-48.812 E12.97228
G1 X7.231 Y-48.477 E12.98908
G1 X7.551 Y-48.086 E13.00588
G1 X7.87 Y-47.508 E13.02784
G1 X8.119 Y-46.882 E13.05025
G1 X12.109 Y-36.262 E13.42758
G1 X13.121 Y-33.681 E13.51978
G1 X14.193 Y-31.158 E13.61096
G1 X15.338 Y-28.664 E13.70223
G1 X16.552 Y-26.204 E13.79347
G1 X17.825 Y-23.798 E13.88401
G1 X19.184 Y-21.397 E13.97577
G1 X20.598 Y-19.056 E14.06673
G1 X22.085 Y-16.744 E14.15816
G1 X23.605 Y-14.52 E14.24776
G1 X25.234 Y-12.278 E14.33993
G1 X27.454 Y-9.424 E14.4602
G1 X27.594 Y-9.249 E14.46765
G1 X27.877 Y-8.831 E14.48444
G1 X28.107 Y-8.342 E14.50241
G1 X28.291 Y-7.87 E14.51926
G1 X38.977 Y20.565 E15.52959
G1 X39.222 Y21.247 E15.5537
G1 X39.354 Y21.735 E15.57051
G1 X39.409 Y22.238 E15.58734
G1 X39.383 Y22.743 E15.60416
G1 X39.278 Y23.237 E15.62096
G1 X39.097 Y23.709 E15.63777
G1 X38.844 Y24.147 E15.65459
G1 X38.525 Y24.539 E15.6714
G1 X38.148 Y24.876 E15.68822
G1 X37.722 Y25.149 E15.70505
G1 X37.259 Y25.352 E15.72186
G1 X36.77 Y25.48 E15.73868
G1 X36.267 Y25.528 E15.75548
G1 X35.373 Y25.544 E15.78522
G1 X27.617 Y25.544 E16.04319
G1 X26.912 Y25.534 E16.06664
G1 X26.57 Y25.52 E16.07802
G1 X24.233 Y25.388 E16.15587
G1 X21.48 Y25.31 E16.24748
G1 X18.763 Y25.31 E16.33784
G1 X16.02 Y25.388 E16.42911
G1 X14.804 Y25.463 E16.46963
G1 X14.643 Y25.46 E16.47499
G1 X13.637 Y25.514 E16.5085
G1 X13.528 Y25.518 E16.51213
G1 X12.17 Y25.544 E16.5573
G1 X4.804 Y25.544 E16.8023
G1 X3.085 Y25.519 E16.85948
G1 X2.383 Y25.499 E16.88283
G1 X-.353 Y25.496 E16.97383
G1 F1800 E14.97383
;MESH:A.stl
G0 F4800 X-.353 Y14.18
G0 X-4.448 Y14.118
G1 F1800 E16.97383
G0 F4800 X-4.504 Y14.2
;TYPE:WALL-INNER
G1 F600 X-15.177 Y-14.2 E17.98292
G1 X-7.216 Y-14.2 E18.24771
G1 X-5.86 Y-9.726 E18.4032
G1 X-5.621 Y-9.381 E18.41716
G1 X-5.219 Y-9.248 E18.43124
G1 X5.499 Y-9.248 E18.78772
G1 X5.897 Y-9.379 E18.80166
G1 X6.143 Y-9.726 E18.81581
G1 X7.464 Y-14.2 E18.97096
G1 X15.177 Y-14.2 E19.2275
G1 X4.502 Y14.2 E20.23661
G1 X-4.504 Y14.2 E20.53615
G0 F4800 X-4.448 Y14.118
G0 X0.112 Y8.157
G0 X0.112 Y8.057
G1 F600 X0.606 Y7.892 E20.55347
G1 X0.85 Y7.55 E20.56745
G1 X4.181 Y-3.418 E20.9487
G1 X4.175 Y-3.838 E20.96267
G1 X3.858 Y-4.246 E20.97985
G1 X3.478 Y-4.361 E20.99306
G1 X-3.295 Y-4.361 E21.21833
G1 X-3.694 Y-4.23 E21.2323
G1 X-3.99 Y-3.81 E21.24939
G1 X-3.99 Y-3.412 E21.26262
G1 X-.624 Y7.551 E21.64405
G1 X-.382 Y7.892 E21.65796
G1 X0.112 Y8.057 E21.67528
G0 F4800 X0.112 Y7.635
;TYPE:WALL-OUTER
G1 F600 X0.356 Y7.554 E21.68383
G1 X0.486 Y7.371 E21.6913
G1 X3.78 Y-3.475 E22.06831
G1 X3.777 Y-3.698 E22.07573
G1 X3.62 Y-3.9 E22.08424
G1 X3.419 Y-3.961 E22.09122
G1 X-3.231 Y-3.961 E22.3124
G1 X-3.443 Y-3.891 E22.31983
G1 X-3.59 Y-3.683 E22.3283
G1 X-3.59 Y-3.472 E22.33532
G1 X-.26 Y7.372 E22.71261
G1 X-.131 Y7.554 E22.72003
G1 X0.112 Y7.635 E22.72855
G0 F4800 X0.301 Y7.572
G0 X0.458 Y8.047
G0 X4.446 Y14.118
G0 X4.779 Y14.6
G1 F600 X-4.781 Y14.6 E23.04652
G1 X-15.754 Y-14.6 E24.08403
G1 X-6.919 Y-14.6 E24.37788
G1 X-5.495 Y-9.902 E24.54116
G1 X-5.368 Y-9.719 E24.54856
G1 X-5.154 Y-9.648 E24.55606
G1 X5.435 Y-9.648 E24.90826
G1 X5.647 Y-9.718 E24.91568
G1 X5.778 Y-9.903 E24.92322
G1 X7.165 Y-14.6 E25.08611
G1 X15.754 Y-14.6 E25.37178
G1 X4.779 Y14.6 E26.40931
G0 F4800 X4.579 Y14.6
G0 X4.446 Y14.118
G0 X7.753 Y-5.69
;TYPE:SKIN
G1 F600 X7.672 Y-5.794 E26.4137
G1 X7.808 Y-5.838 E26.41845
G1 X7.753 Y-5.69 E26.4237
G0 F4800 X7.717 Y-5.084
G1 F600 X7.008 Y-5.996 E26.46212
G1 X8.122 Y-6.363 E26.50114
G1 X8.782 Y-7.293 E26.53907
G1 X7.726 Y-4.484 E26.63888
G1 X7.717 Y-5.084 E26.65884
G0 F4800 X7.319 Y-4.944
G1 F600 X6.344 Y-6.199 E26.71169
G1 X7.872 Y-6.702 E26.7652
G1 X9.026 Y-8.327 E26.83149
G1 X9.826 Y-11.04 E26.92556
G1 X10.619 Y-11.04 E26.95194
G1 X6.364 Y0.271 E27.35388
G1 X7.348 Y-2.968 E27.46647
G1 X7.319 Y-4.944 E27.5322
G0 F4800 X6.921 Y-4.804
G1 F600 X5.613 Y-6.488 E27.60312
G1 X5.941 Y-6.488 E27.61403
G1 X7.622 Y-7.041 E27.67289
G1 X8.661 Y-8.504 E27.73257
G1 X9.527 Y-11.44 E27.83438
G1 X11.196 Y-11.44 E27.8899
G1 X2.591 Y11.44 E28.70293
G1 X-2.593 Y11.44 E28.87535
G1 X-11.196 Y-11.44 E29.68836
G1 X-9.264 Y-11.44 E29.75262
G1 X-8.378 Y-8.512 E29.85436
G1 X-7.366 Y-7.049 E29.91353
G1 X-5.661 Y-6.488 E29.97323
G1 X-5.477 Y-6.488 E29.97935
G1 X-6.75 Y-4.686 E30.05273
G1 X-6.75 Y-2.998 E30.10887
G1 X-3.133 Y8.786 E30.51886
G1 X-2.113 Y10.224 E30.5775
G1 X0.112 Y10.969 E30.65554
G1 X2.331 Y10.224 E30.73339
G1 X3.361 Y8.785 E30.79225
G1 X6.947 Y-3.025 E31.20276
G1 X6.921 Y-4.804 E31.26194
G0 F4800 X6.523 Y-4.664
G1 F600 X5.262 Y-6.287 E31.33029
G1 X3.827 Y-6.721 E31.38016
G1 X-3.673 Y-6.721 E31.62961
G1 X-5.174 Y-6.224 E31.6822
G1 X-6.35 Y-4.559 E31.75
G1 X-6.35 Y-3.058 E31.79992
G1 X-2.769 Y8.607 E32.20577
G1 X-1.862 Y9.886 E32.25792
G1 X0.112 Y10.547 E32.32716
G1 X2.081 Y9.886 E32.39624
G1 X2.997 Y8.606 E32.44859
G1 X6.546 Y-3.082 E32.85486
G1 X6.523 Y-4.664 E32.90748
G0 F4800 X6.125 Y-4.524
G1 F600 X5.024 Y-5.941 E32.96717
G1 X3.768 Y-6.321 E33.01081
G1 X-3.609 Y-6.321 E33.25617
G1 X-4.923 Y-5.886 E33.30221
G1 X-5.95 Y-4.432 E33.36142
G1 X-5.95 Y-3.118 E33.40512
G1 X-2.405 Y8.428 E33.80684
G1 X-1.611 Y9.548 E33.8525
G1 X0.112 Y10.125 E33.91293
G1 X1.831 Y9.548 E33.97324
G1 X2.633 Y8.427 E34.01909
G1 X6.145 Y-3.139 E34.42112
G1 X6.125 Y-4.524 E34.46719
G0 F4800 X5.727 Y-4.384
G1 F600 X4.786 Y-5.595 E34.5182
G1 X3.709 Y-5.921 E34.55562
G1 X-3.545 Y-5.921 E34.79689
G1 X-4.672 Y-5.548 E34.83637
G1 X-5.55 Y-4.305 E34.88699
G1 X-5.55 Y-3.178 E34.92447
G1 X-2.041 Y8.249 E35.32205
G1 X-1.36 Y9.21 E35.36123
G1 X0.112 Y9.703 E35.41286
G1 X1.581 Y9.21 E35.4644
G1 X2.269 Y8.248 E35.50373
G1 X5.744 Y-3.196 E35.90152
G1 X5.727 Y-4.384 E35.94104
G0 F4800 X5.329 Y-4.244
G1 F600 X4.548 Y-5.249 E35.98338
G1 X3.65 Y-5.521 E36.01458
G1 X-3.481 Y-5.521 E36.25176
G1 X-4.421 Y-5.21 E36.28469
G1 X-5.15 Y-4.178 E36.32672
G1 X-5.15 Y-3.238 E36.35798
G1 X-1.677 Y8.07 E36.75143
G1 X-1.109 Y8.872 E36.78411
G1 X0.112 Y9.281 E36.82694
G1 X1.331 Y8.872 E36.86971
G1 X1.905 Y8.069 E36.90254
G1 X5.343 Y-3.253 E37.29609
G1 X5.329 Y-4.244 E37.32905
G0 F4800 X4.931 Y-4.104
G1 F600 X4.31 Y-4.903 E37.36271
G1 X3.591 Y-5.121 E37.3877
G1 X-3.417 Y-5.121 E37.62078
G1 X-4.17 Y-4.872 E37.64716
G1 X-4.75 Y-4.051 E37.6806
G1 X-4.75 Y-3.298 E37.70564
G1 X-1.314 Y7.891 E38.09494
G1 X-.858 Y8.534 E38.12116
G1 X0.112 Y8.859 E38.15518
G1 X1.081 Y8.534 E38.18918
G1 X1.541 Y7.89 E38.2155
G1 X4.942 Y-3.31 E38.60481
G1 X4.931 Y-4.104 E38.63122
G0 F4800 X4.533 Y-3.964
G1 F600 X4.072 Y-4.557 E38.6562
G1 X3.532 Y-4.721 E38.67497
G1 X-3.353 Y-4.721 E38.90397
G1 X-3.919 Y-4.534 E38.92379
G1 X-4.35 Y-3.924 E38.94864
G1 X-4.35 Y-3.358 E38.96746
G1 X-.951 Y7.712 E39.35262
G1 X-.607 Y8.196 E39.37237
G1 X0.112 Y8.437 E39.39759
G1 X0.831 Y8.196 E39.42281
G1 X1.177 Y7.711 E39.44263
G1 X4.541 Y-3.367 E39.82769
G1 X4.533 Y-3.964 E39.84755
G0 F4800 X7.372 Y-7.38
G1 F600 X8.296 Y-8.681 E39.90063
G1 X9.228 Y-11.84 E40.01017
G1 X11.773 Y-11.84 E40.09482
G1 X2.868 Y11.84 E40.93627
G1 X-2.87 Y11.84 E41.12712
G1 X-11.773 Y-11.84 E41.96854
G1 X-8.967 Y-11.84 E42.06187
G1 X-8.013 Y-8.688 E42.1714
G1 X-7.113 Y-7.387 E42.22402
G1 X-5.597 Y-6.888 E42.2771
G1 X5.877 Y-6.888 E42.65873
G1 X7.372 Y-7.38 E42.71108
G0 F4800 X7.122 Y-7.719
G1 F600 X7.931 Y-8.858 E42.75754
G1 X8.929 Y-12.24 E42.87482
G1 X12.35 Y-12.24 E42.98861
G1 X3.145 Y12.24 E43.85847
G1 X-3.147 Y12.24 E44.06775
G1 X-12.35 Y-12.24 E44.93759
G1 X-8.67 Y-12.24 E45.05999
G1 X-7.648 Y-8.864 E45.17731
G1 X-6.86 Y-7.725 E45.22337
G1 X-5.533 Y-7.288 E45.26984
G1 X5.813 Y-7.288 E45.64721
G1 X7.122 Y-7.719 E45.69305
G0 F4800 X6.872 Y-8.058
G1 F600 X7.566 Y-9.035 E45.73291
G1 X8.63 Y-12.64 E45.85792
G1 X12.927 Y-12.64 E46.00084
G1 X3.422 Y12.64 E46.89913
G1 X-3.424 Y12.64 E47.12682
G1 X-12.927 Y-12.64 E48.02509
G1 X-8.373 Y-12.64 E48.17655
G1 X-7.283 Y-9.04 E48.30166
G1 X-6.607 Y-8.063 E48.34117
G1 X-5.469 Y-7.688 E48.38102
G1 X5.749 Y-7.688 E48.75414
G1 X6.872 Y-8.058 E48.79346
G0 F4800 X6.622 Y-8.397
G1 F600 X7.201 Y-9.212 E48.82671
G1 X8.331 Y-13.04 E48.95946
G1 X13.504 Y-13.04 E49.13152
G1 X3.699 Y13.04 E50.05822
G1 X-3.701 Y13.04 E50.30435
G1 X-13.504 Y-13.04 E51.23102
G1 X-8.076 Y-13.04 E51.41156
G1 X-6.918 Y-9.216 E51.54445
G1 X-6.354 Y-8.401 E51.57742
G1 X-5.405 Y-8.088 E51.61065
G1 X5.685 Y-8.088 E51.97951
G1 X6.622 Y-8.397 E52.01232
G0 F4800 X6.372 Y-8.736
G1 F600 X6.836 Y-9.389 E52.03897
G1 X8.032 Y-13.44 E52.17945
G1 X14.081 Y-13.44 E52.38064
G1 X3.976 Y13.44 E53.33576
G1 X-3.978 Y13.44 E53.60031
G1 X-14.081 Y-13.44 E54.55541
G1 X-7.779 Y-13.44 E54.76501
G1 X-6.553 Y-9.392 E54.90569
G1 X-6.101 Y-8.739 E54.93211
G1 X-5.341 Y-8.488 E54.95873
G1 X5.621 Y-8.488 E55.32332
G1 X6.372 Y-8.736 E55.34963
G0 F4800 X6.122 Y-9.075
G1 F600 X6.471 Y-9.566 E55.36966
G1 X7.733 Y-13.84 E55.51789
G1 X14.658 Y-13.84 E55.74821
G1 X4.253 Y13.84 E56.73175
G1 X-4.255 Y13.84 E57.01473
G1 X-14.658 Y-13.84 E57.99824
G1 X-7.482 Y-13.84 E58.23691
G1 X-6.188 Y-9.568 E58.38538
G1 X-5.848 Y-9.077 E58.40524
G1 X-5.277 Y-8.888 E58.42525
G1 X5.557 Y-8.888 E58.78559
G1 X6.122 Y-9.075 E58.80538
G0 F4800 X-6.151 Y-6.228
G1 F600 X-7.15 Y-4.813 E58.86299
G1 X-7.15 Y-2.938 E58.92535
G1 X-5.275 Y3.171 E59.1379
G1 X-10.619 Y-11.04 E59.64287
G1 X-9.561 Y-11.04 E59.67806
G1 X-8.743 Y-8.336 E59.77202
G1 X-7.619 Y-6.711 E59.83774
G1 X-6.151 Y-6.228 E59.88914
G0 F4800 X-6.79 Y-6.017
G1 F600 X-7.55 Y-4.94 E59.93298
G1 X-7.55 Y-4.014 E59.96378
G1 X-10.042 Y-10.64 E60.19923
G1 X-9.858 Y-10.64 E60.20535
G1 X-9.108 Y-8.16 E60.29153
G1 X-7.872 Y-6.373 E60.36379
G1 X-6.79 Y-6.017 E60.40168
G0 F4800 X-7.429 Y-5.806
G1 F600 X-7.669 Y-5.466 E60.41552
G1 X-7.849 Y-5.944 E60.43251
G1 X-7.429 Y-5.806 E60.44721
G0 F4800 X-.936 Y11.04
G1 F600 X-2.316 Y11.04 E60.49311
G1 X-2.645 Y10.166 E60.52417
G1 X-2.364 Y10.562 E60.54032
G1 X-.936 Y11.04 E60.59041
G0 F4800 X2.482 Y10.595
G1 F600 X2.314 Y11.04 E60.60623
G1 X1.157 Y11.04 E60.64471
G1 X2.482 Y10.595 E60.6912
G0 F4800 X2.498 Y10.418
;TYPE:SKIN
G1 F600 X2.445 Y10.364 E60.69246
G0 F4800 X2.563 Y10.2
G1 F600 X2.786 Y10.423 E60.6977
G0 F4800 X2.864 Y10.218
G1 F600 X2.68 Y10.034 E60.70203
G0 F4800 X2.798 Y9.869
G1 F600 X2.941 Y10.012 E60.70539
G0 F4800 X3.019 Y9.807
G1 F600 X2.916 Y9.705 E60.7078
G0 F4800 X3.034 Y9.539
G1 F600 X3.096 Y9.601 E60.70926
G0 F4800 X1.022 Y11.204
G1 F600 X0.755 Y10.937 E60.71554
G0 F4800 X0.543 Y11.008
G1 F600 X0.799 Y11.264 E60.72156
G0 F4800 X0.516 Y11.264
G1 F600 X0.331 Y11.079 E60.72591
G0 F4800 X0.233 Y11.264
G1 F600 X0.12 Y11.151 E60.72857
G0 F4800 X-0.049 Y11.264
G1 F600 X-.296 Y11.016 E60.73439
G0 F4800 X-.332 Y11.264
G1 F600 X-.721 Y10.874 E60.74355
G0 F4800 X-.784 Y11.095
G1 F600 X-.615 Y11.264 E60.74753
