;FLAVOR:Marlin
;TIME:3161
;Filament used: 2.73537m
;Layer height: 0.2
;MINX:-44.948
;MINY:-46.959
;MINZ:0.2
;MAXX:46.529
;MAXY:21.234
;MAXZ:3.8
;POSTPROCESSED
;Generated with Cura_SteamEngine 4.13.1
M82 ;absolute extrusion mode
START_PRINT BED_TEMP=80 EXTRUDER_TEMP=220.0
G92 E0
G92 E0
G1 F1800 E-2
;LAYER_COUNT:19
;LAYER:0
M107
G0 F4800 X0.705 Y18.4 Z0.2
;TYPE:SKIRT
G1 F1800 E0
G1 F600 X-2.076 Y18.439 E0.09251
G1 X-4.804 Y18.555 E0.18332
G1 X-7.533 Y18.749 E0.27432
G1 X-10.21 Y19.014 E0.36379
G1 X-12.949 Y19.364 E0.45563
G1 X-15.6 Y19.781 E0.54489
G1 X-18.583 Y20.339 E0.64582
G1 X-19.107 Y20.446 E0.66361
G1 X-20.091 Y20.637 E0.69695
G1 X-20.661 Y20.739 E0.71621
G1 X-20.875 Y20.77 E0.7234
G1 X-22.006 Y20.903 E0.76128
G1 X-24.564 Y21.154 E0.84677
G1 X-25.079 Y21.197 E0.86395
G1 X-25.303 Y21.208 E0.87141
G1 X-26.57 Y21.234 E0.91356
G1 X-40.693 Y21.234 E1.3833
G1 X-41.391 Y21.224 E1.40651
G1 X-41.925 Y21.176 E1.42435
G1 X-42.446 Y21.05 E1.44217
G1 X-42.943 Y20.847 E1.46003
G1 X-43.404 Y20.573 E1.47787
G1 X-43.819 Y20.234 E1.49569
G1 X-44.179 Y19.836 E1.51354
G1 X-44.476 Y19.39 E1.53136
G1 X-44.704 Y18.904 E1.54922
G1 X-44.856 Y18.39 E1.56704
G1 X-44.938 Y17.722 E1.58943
G1 X-44.948 Y17.292 E1.60373
G1 X-44.948 Y-11.315 E2.55521
G1 X-44.937 Y-12.019 E2.57862
G1 X-44.888 Y-12.553 E2.59646
G1 X-44.761 Y-13.074 E2.6143
G1 X-44.558 Y-13.571 E2.63215
G1 X-44.284 Y-14.031 E2.64996
G1 X-43.753 Y-14.632 E2.67663
G1 X-42.993 Y-15.32 E2.71073
G1 X-40.998 Y-17.179 E2.80143
G1 X-39.059 Y-19.091 E2.892
G1 X-37.172 Y-21.061 E2.98273
G1 X-35.329 Y-23.095 E3.07402
G1 X-33.573 Y-25.149 E3.1639
G1 X-31.862 Y-27.27 E3.25454
G1 X-30.213 Y-29.436 E3.34508
G1 X-28.602 Y-31.68 E3.43696
G1 X-27.093 Y-33.912 E3.52657
G1 X-25.633 Y-36.209 E3.6171
G1 X-24.224 Y-38.572 E3.7086
G1 X-22.899 Y-40.944 E3.79897
G1 X-21.648 Y-43.341 E3.8889
G1 X-21.324 Y-44.006 E3.9135
G1 X-20.837 Y-44.971 E3.94945
G1 X-20.56 Y-45.43 E3.96728
G1 X-20.219 Y-45.844 E3.98512
G1 X-19.819 Y-46.202 E4.00298
G1 X-19.371 Y-46.496 E4.0208
G1 X-18.884 Y-46.721 E4.03864
G1 X-18.369 Y-46.871 E4.05648
G1 X-17.734 Y-46.947 E4.07775
G1 X-17.3 Y-46.959 E4.09219
G1 X11.314 Y-46.959 E5.0439
G1 X12.015 Y-46.949 E5.06722
G1 X12.55 Y-46.901 E5.08508
G1 X13.071 Y-46.775 E5.10291
G1 X13.567 Y-46.572 E5.12074
G1 X14.028 Y-46.298 E5.13857
G1 X14.444 Y-45.959 E5.15642
G1 X14.804 Y-45.562 E5.17425
G1 X15.054 Y-45.197 E5.18896
G1 X15.562 Y-44.345 E5.22195
G1 X15.898 Y-43.762 E5.24433
G1 X17.323 Y-41.444 E5.33483
G1 X18.834 Y-39.135 E5.42661
G1 X20.388 Y-36.901 E5.51713
G1 X21.99 Y-34.733 E5.60678
G1 X23.688 Y-32.565 E5.69838
G1 X25.428 Y-30.469 E5.78898
G1 X27.21 Y-28.44 E5.8788
G1 X29.083 Y-26.425 E5.9703
G1 X30.994 Y-24.486 E6.06085
G1 X32.942 Y-22.616 E6.15066
G1 X34.997 Y-20.752 E6.24294
G1 X37.059 Y-18.986 E6.33323
G1 X39.18 Y-17.27 E6.42398
G1 X40.813 Y-16.015 E6.49248
G1 X41.41 Y-15.566 E6.51732
G1 X41.881 Y-15.142 E6.5384
G1 X42.554 Y-14.419 E6.57125
G1 X42.959 Y-13.956 E6.59171
G1 X43.327 Y-13.447 E6.6126
G1 X43.805 Y-12.649 E6.64354
G1 X43.867 Y-12.542 E6.64766
G1 X44.132 Y-12.063 E6.66586
G1 X44.381 Y-11.505 E6.68619
G1 X44.551 Y-11.002 E6.70385
G1 X44.666 Y-10.636 E6.71661
G1 X44.84 Y-10.053 E6.73684
G1 X44.966 Y-9.434 E6.75785
G1 X45.083 Y-8.404 E6.79233
G1 X45.14 Y-7.691 E6.81612
G1 X45.177 Y-6.978 E6.83987
G1 X45.228 Y-5.648 E6.88413
G1 X45.409 Y-2.921 E6.97503
G1 X45.667 Y-.206 E7.06574
G1 X46.004 Y2.519 E7.15707
G1 X46.14 Y3.425 E7.18754
G1 X46.411 Y5.317 E7.25111
G1 X46.5 Y5.997 E7.27392
G1 X46.529 Y6.532 E7.29174
G1 X46.511 Y6.831 E7.3017
G1 X46.398 Y7.935 E7.33861
G1 X46.338 Y8.423 E7.35497
G1 X46.247 Y9.098 E7.37762
G1 X46.136 Y9.623 E7.39547
G1 X46.036 Y9.918 E7.40583
G1 X45.617 Y10.998 E7.44436
G1 X45.481 Y11.328 E7.45623
G1 X45.207 Y11.97 E7.47944
G1 X44.96 Y12.446 E7.49728
G1 X44.79 Y12.699 E7.50742
G1 X44.125 Y13.595 E7.54453
G1 X43.875 Y13.919 E7.55814
G1 X43.472 Y14.427 E7.57971
G1 X43.109 Y14.822 E7.59755
G1 X42.885 Y15.014 E7.60736
G1 X42.061 Y15.665 E7.64229
G1 X41.679 Y15.955 E7.65824
G1 X41.125 Y16.363 E7.68113
G1 X40.67 Y16.648 E7.69899
G1 X40.097 Y16.907 E7.7199
G1 X39.545 Y17.128 E7.73968
G1 X38.856 Y17.391 E7.7642
G1 X38.369 Y17.539 E7.78113
G1 X37.966 Y17.628 E7.79486
G1 X36.854 Y17.845 E7.83254
G1 X36.305 Y17.943 E7.85109
G1 X36.093 Y17.974 E7.85822
G1 X34.98 Y18.105 E7.89549
G1 X32.403 Y18.358 E7.98162
G1 X31.888 Y18.401 E7.9988
G1 X31.664 Y18.412 E8.00626
G1 X30.397 Y18.438 E8.04841
G1 X16.275 Y18.438 E8.51811
G1 X14.295 Y18.41 E8.58397
G1 X12.907 Y18.4 E8.63014
G1 X0.705 Y18.4 E9.03598
G0 F4800 X0.699 Y18
G1 F600 X-2.098 Y18.04 E9.12902
G1 X-4.815 Y18.155 E9.21947
G1 X-7.561 Y18.35 E9.31103
G1 X-10.267 Y18.618 E9.40147
G1 X-12.99 Y18.966 E9.49278
G1 X-15.697 Y19.392 E9.58392
G1 X-18.631 Y19.941 E9.6832
G1 X-19.184 Y20.053 E9.70196
G1 X-20.161 Y20.243 E9.73507
G1 X-20.731 Y20.345 E9.75433
G1 X-20.921 Y20.373 E9.76072
G1 X-22.045 Y20.505 E9.79836
G1 X-24.598 Y20.755 E9.88368
G1 X-25.113 Y20.798 E9.90086
G1 X-25.312 Y20.808 E9.90749
G1 X-26.57 Y20.834 E9.94934
G1 X-40.687 Y20.834 E10.41888
G1 X-41.385 Y20.824 E10.44209
G1 X-41.888 Y20.777 E10.4589
G1 X-42.378 Y20.651 E10.47572
G1 X-42.842 Y20.449 E10.49256
G1 X-43.268 Y20.177 E10.50937
G1 X-43.646 Y19.842 E10.52617
G1 X-43.966 Y19.451 E10.54297
G1 X-44.221 Y19.014 E10.5598
G1 X-44.404 Y18.543 E10.5766
G1 X-44.511 Y18.049 E10.59342
G1 X-44.547 Y17.379 E10.61573
G1 X-44.548 Y-11.309 E11.5699
G1 X-44.537 Y-12.013 E11.59332
G1 X-44.489 Y-12.516 E11.61012
G1 X-44.362 Y-13.006 E11.62696
G1 X-44.16 Y-13.469 E11.64376
G1 X-43.888 Y-13.895 E11.66057
G1 X-43.485 Y-14.335 E11.68042
G1 X-42.751 Y-15 E11.71336
G1 X-40.729 Y-16.884 E11.80528
G1 X-38.772 Y-18.813 E11.89667
G1 X-36.869 Y-20.8 E11.98818
G1 X-35.03 Y-22.83 E12.07929
G1 X-33.274 Y-24.884 E12.16917
G1 X-31.535 Y-27.038 E12.26124
G1 X-29.898 Y-29.189 E12.35115
G1 X-28.279 Y-31.445 E12.4435
G1 X-26.757 Y-33.695 E12.53385
G1 X-25.28 Y-36.02 E12.62547
G1 X-23.89 Y-38.351 E12.71573
G1 X-22.554 Y-40.743 E12.80686
G1 X-21.278 Y-43.187 E12.89856
G1 X-20.967 Y-43.826 E12.9222
G1 X-20.48 Y-44.791 E12.95815
G1 X-20.217 Y-45.223 E12.97497
G1 X-19.89 Y-45.608 E12.99177
G1 X-19.506 Y-45.937 E13.00859
G1 X-19.075 Y-46.201 E13.0254
G1 X-18.607 Y-46.394 E13.04224
G1 X-18.115 Y-46.511 E13.05906
G1 X-17.399 Y-46.557 E13.08292
G1 X-17.3 Y-46.559 E13.08621
G1 X11.309 Y-46.559 E14.03775
G1 X12.01 Y-46.549 E14.06107
G1 X12.513 Y-46.502 E14.07787
G1 X13.003 Y-46.376 E14.0947
G1 X13.466 Y-46.174 E14.1115
G1 X13.893 Y-45.902 E14.12834
G1 X14.271 Y-45.567 E14.14514
G1 X14.71 Y-44.991 E14.16923
G1 X15.216 Y-44.145 E14.20201
G1 X15.56 Y-43.549 E14.2249
G1 X16.99 Y-41.222 E14.31575
G1 X18.487 Y-38.933 E14.40671
G1 X20.055 Y-36.681 E14.49798
G1 X21.7 Y-34.455 E14.59004
G1 X23.367 Y-32.326 E14.67998
G1 X25.118 Y-30.216 E14.77117
G1 X26.918 Y-28.168 E14.86186
G1 X28.805 Y-26.137 E14.95407
G1 X30.715 Y-24.199 E15.04457
G1 X32.679 Y-22.314 E15.13511
G1 X34.711 Y-20.47 E15.22638
G1 X36.796 Y-18.685 E15.31767
G1 X38.945 Y-16.947 E15.40959
G1 X40.599 Y-15.675 E15.47899
G1 X41.169 Y-15.246 E15.50272
G1 X41.588 Y-14.869 E15.52147
G1 X42.337 Y-14.063 E15.55806
G1 X42.657 Y-13.694 E15.57431
G1 X42.984 Y-13.241 E15.59289
G1 X43.462 Y-12.443 E15.62383
G1 X43.517 Y-12.348 E15.62748
G1 X43.782 Y-11.869 E15.64569
G1 X44.004 Y-11.373 E15.66376
G1 X44.171 Y-10.877 E15.68117
G1 X44.282 Y-10.521 E15.69357
G1 X44.456 Y-9.938 E15.71381
G1 X44.569 Y-9.389 E15.73245
G1 X44.674 Y-8.476 E15.76301
G1 X44.734 Y-7.761 E15.78688
G1 X44.778 Y-6.963 E15.81346
G1 X44.83 Y-5.607 E15.85859
G1 X45.011 Y-2.89 E15.94916
G1 X45.27 Y-.155 E16.04054
G1 X45.605 Y2.555 E16.13136
G1 X45.744 Y3.482 E16.16253
G1 X46.014 Y5.369 E16.22594
G1 X46.103 Y6.049 E16.24875
G1 X46.113 Y6.79 E16.27339
G1 X46 Y7.886 E16.31004
G1 X45.941 Y8.37 E16.32626
G1 X45.85 Y9.045 E16.34891
G1 X45.663 Y9.774 E16.37394
G1 X45.246 Y10.846 E16.4122
G1 X45.113 Y11.171 E16.42388
G1 X44.839 Y11.813 E16.4471
G1 X44.468 Y12.461 E16.47193
G1 X43.808 Y13.352 E16.50881
G1 X43.562 Y13.671 E16.52221
G1 X43.159 Y14.179 E16.54378
G1 X42.637 Y14.7 E16.56831
G1 X41.819 Y15.346 E16.60297
G1 X41.442 Y15.633 E16.61873
G1 X40.888 Y16.041 E16.64162
G1 X40.255 Y16.403 E16.66587
G1 X39.397 Y16.756 E16.69673
G1 X38.713 Y17.018 E16.72109
G1 X37.986 Y17.216 E16.74615
G1 X36.834 Y17.442 E16.7852
G1 X36.234 Y17.549 E16.80547
G1 X36.046 Y17.577 E16.81179
G1 X34.941 Y17.707 E16.84879
G1 X32.369 Y17.959 E16.93475
G1 X31.854 Y18.002 E16.95194
G1 X31.655 Y18.012 E16.95857
G1 X30.397 Y18.038 E17.00042
G1 X16.281 Y18.038 E17.46992
G1 X14.301 Y18.01 E17.53578
G1 X12.909 Y18 E17.58208
G1 X0.699 Y18 E17.98818
G1 F1800 E15.98818
;MESH:B.stl(2)
G0 F4800 X0.699 Y14.18
G0 X-3.454 Y14.101
G1 F1800 E17.98818
G0 F4800 X-3.457 Y14.2
;TYPE:WALL-INNER
G1 F600 X-5.43 Y14.071 E18.05394
G1 X-7.077 Y13.7 E18.1101
G1 X-8.463 Y13.095 E18.1604
G1 X-9.621 Y12.249 E18.20809
G1 X-10.518 Y11.244 E18.2529
G1 X-11.157 Y10.13 E18.29561
G1 X-11.545 Y8.89 E18.33883
G1 X-11.673 Y7.558 E18.38333
G1 X-11.296 Y5.31 E18.45915
G1 X-10.854 Y4.377 E18.49349
G1 X-10.228 Y3.515 E18.52892
G1 X-9.025 Y2.511 E18.58103
G1 X-7.164 Y1.647 E18.64928
G1 X-6.858 Y1.362 E18.66318
G1 X-6.763 Y0.851 E18.68047
G1 X-6.975 Y0.412 E18.69669
G1 X-7.243 Y0.237 E18.70733
G1 X-10.022 Y-.81 E18.8061
G1 X-10.959 Y-1.447 E18.84379
G1 X-11.724 Y-2.218 E18.87991
G1 X-12.305 Y-3.097 E18.91496
G1 X-12.711 Y-4.058 E18.94966
G1 X-13.061 Y-6.474 E19.03085
G1 X-12.815 Y-8.481 E19.0981
G1 X-12.085 Y-10.262 E19.16212
G1 X-10.933 Y-11.758 E19.22492
G1 X-9.426 Y-12.903 E19.28787
G1 X-8.122 Y-13.422 E19.33455
G1 X-6.186 Y-13.799 E19.40016
G1 X-2.105 Y-14.2 E19.53654
G1 X13.059 Y-14.2 E20.0409
G1 X13.059 Y14.2 E20.98549
G1 X-3.457 Y14.2 E21.53481
G0 F4800 X-3.454 Y14.101
G0 X5.115 Y9.65
G0 X5.05 Y9.575
G1 F600 X5.307 Y9.064 E21.55384
G1 X5.307 Y3.137 E21.75097
G1 X5.16 Y2.69 E21.76662
G1 X4.649 Y2.433 E21.78564
G1 X0.451 Y2.433 E21.92527
G1 X-1.493 Y2.629 E21.99026
G1 X-1.658 Y2.674 E21.99594
G1 X-2.959 Y3.291 E22.04384
G1 X-3.156 Y3.46 E22.05247
G1 X-3.875 Y4.491 E22.09427
G1 X-3.957 Y4.692 E22.10149
G1 X-4.189 Y6.054 E22.14745
G1 X-4.189 Y6.229 E22.15327
G1 X-3.955 Y7.517 E22.19681
G1 X-3.867 Y7.721 E22.2042
G1 X-3.148 Y8.714 E22.24497
G1 X-2.956 Y8.876 E22.25333
G1 X-1.674 Y9.484 E22.30052
G1 X-1.509 Y9.529 E22.30621
G1 X0.389 Y9.722 E22.36966
G1 X4.603 Y9.722 E22.50982
G1 X5.05 Y9.575 E22.52547
G0 F4800 X5.115 Y9.65
G0 X5.345 Y3.726
G0 X5.115 Y-1.748
G0 X5.05 Y-1.823
G1 F600 X5.307 Y-2.334 E22.5445
G1 X5.307 Y-8.65 E22.75457
G1 X5.16 Y-9.097 E22.77022
G1 X4.649 Y-9.354 E22.78924
G1 X-.277 Y-9.353 E22.95308
G1 X-2.393 Y-9.132 E23.02384
G1 X-2.557 Y-9.087 E23.0295
G1 X-4.007 Y-8.396 E23.08292
G1 X-4.196 Y-8.24 E23.09107
G1 X-5.017 Y-7.13 E23.13699
G1 X-5.106 Y-6.926 E23.1444
G1 X-5.375 Y-5.518 E23.19207
G1 X-5.375 Y-5.323 E23.19856
G1 X-5.106 Y-3.997 E23.24356
G1 X-5.011 Y-3.788 E23.2512
G1 X-4.194 Y-2.735 E23.29552
G1 X-4.004 Y-2.586 E23.30356
G1 X-2.553 Y-1.929 E23.35653
G1 X-2.395 Y-1.887 E23.36197
G1 X-.224 Y-1.676 E23.43452
G1 X4.603 Y-1.676 E23.59506
G1 X5.05 Y-1.823 E23.61072
G0 F4800 X4.767 Y-2.151
;TYPE:WALL-OUTER
G1 F600 X4.907 Y-2.429 E23.62107
G1 X4.907 Y-8.586 E23.82585
G1 X4.832 Y-8.814 E23.83383
G1 X4.554 Y-8.954 E23.84419
G1 X-.256 Y-8.953 E24.00417
G1 X-2.319 Y-8.738 E24.07315
G1 X-2.417 Y-8.711 E24.07654
G1 X-3.791 Y-8.056 E24.12716
G1 X-3.904 Y-7.963 E24.13203
G1 X-4.668 Y-6.929 E24.17479
G1 X-4.721 Y-6.807 E24.17921
G1 X-4.975 Y-5.48 E24.22415
G1 X-4.975 Y-5.363 E24.22804
G1 X-4.723 Y-4.121 E24.27019
G1 X-4.666 Y-3.996 E24.27476
G1 X-3.908 Y-3.019 E24.31589
G1 X-3.795 Y-2.93 E24.32068
G1 X-2.419 Y-2.307 E24.37091
G1 X-2.324 Y-2.282 E24.37418
G1 X-.205 Y-2.076 E24.44499
G1 X4.539 Y-2.076 E24.60278
G1 X4.767 Y-2.151 E24.61076
G0 F4800 X4.857 Y-2.329
G0 X5.303 Y-2.104
G0 X5.307 Y2.818
G0 X4.832 Y2.973
G1 F600 X4.554 Y2.833 E24.62111
G1 X0.471 Y2.833 E24.75691
G1 X-1.42 Y3.024 E24.82013
G1 X-1.519 Y3.051 E24.82354
G1 X-2.739 Y3.63 E24.86846
G1 X-2.857 Y3.731 E24.87362
G1 X-3.521 Y4.683 E24.91223
G1 X-3.57 Y4.803 E24.91654
G1 X-3.789 Y6.088 E24.9599
G1 X-3.789 Y6.193 E24.96339
G1 X-3.57 Y7.4 E25.00419
G1 X-3.517 Y7.522 E25.00861
G1 X-2.853 Y8.44 E25.04629
G1 X-2.738 Y8.537 E25.0513
G1 X-1.535 Y9.107 E25.09557
G1 X-1.436 Y9.134 E25.09899
G1 X0.409 Y9.322 E25.16067
G1 X4.539 Y9.322 E25.29803
G1 X4.767 Y9.247 E25.30602
G1 X4.907 Y8.969 E25.31637
G1 X4.907 Y3.201 E25.50821
G1 X4.832 Y2.973 E25.5162
G0 F4800 X4.654 Y2.883
G0 X4.879 Y2.437
G0 X-6.689 Y0.999
G0 X-7.18 Y0.907
G1 F600 X-7.287 Y0.686 E25.52436
G1 X-7.425 Y0.596 E25.52984
G1 X-10.21 Y-.454 E25.62884
G1 X-11.216 Y-1.138 E25.6693
G1 X-12.035 Y-1.963 E25.70796
G1 X-12.658 Y-2.906 E25.74556
G1 X-13.1 Y-3.951 E25.78329
G1 X-13.465 Y-6.469 E25.86792
G1 X-13.206 Y-8.583 E25.93876
G1 X-12.435 Y-10.464 E26.00637
G1 X-11.218 Y-12.043 E26.07268
G1 X-9.622 Y-13.256 E26.13935
G1 X-8.236 Y-13.808 E26.18897
G1 X-6.248 Y-14.195 E26.25633
G1 X-2.124 Y-14.6 E26.39416
G1 X13.459 Y-14.6 E26.91245
G1 X13.459 Y14.6 E27.88365
G1 X-3.468 Y14.6 E28.44664
G1 X-5.487 Y14.468 E28.51394
G1 X-7.205 Y14.081 E28.57251
G1 X-8.662 Y13.445 E28.62538
G1 X-9.889 Y12.549 E28.67592
G1 X-10.846 Y11.477 E28.72371
G1 X-11.526 Y10.291 E28.76918
G1 X-11.939 Y8.971 E28.81519
G1 X-12.076 Y7.545 E28.86283
G1 X-11.68 Y5.186 E28.94239
G1 X-11.2 Y4.172 E28.9797
G1 X-10.524 Y3.241 E29.01797
G1 X-9.24 Y2.17 E29.07358
G1 X-7.39 Y1.311 E29.14142
G1 X-7.227 Y1.159 E29.14884
G1 X-7.18 Y0.907 E29.15736
G0 F4800 X-7.267 Y0.727
G0 X-6.816 Y0.511
G0 X4.609 Y-1.637
G0 X9.099 Y-9.795
;TYPE:SKIN
G1 F600 X8.953 Y-10.24 E29.17294
G1 X9.099 Y-10.24 E29.1778
G1 X9.099 Y-9.795 E29.1926
G0 F4800 X8.867 Y-9.22
G1 F600 X8.4 Y-10.64 E29.24232
G1 X9.499 Y-10.64 E29.27887
G1 X9.499 Y10.64 E29.98664
G1 X8.5 Y10.64 E30.01987
G1 X8.867 Y9.909 E30.04708
G1 X8.867 Y2.567 E30.29127
G1 X8.079 Y0.172 E30.37513
G1 X8.042 Y0.153 E30.37651
G1 X8.867 Y-1.489 E30.43763
G1 X8.867 Y-9.22 E30.69477
G0 F4800 X8.467 Y-9.156
G1 F600 X7.847 Y-11.04 E30.76074
G1 X9.899 Y-11.04 E30.82898
G1 X9.899 Y11.04 E31.56337
G1 X7.851 Y11.04 E31.63149
G1 X8.467 Y9.814 E31.67712
G1 X8.467 Y2.631 E31.91603
G1 X7.751 Y0.455 E31.99222
G1 X7.505 Y0.331 E32.00138
G1 X8.467 Y-1.584 E32.07266
G1 X8.467 Y-9.156 E32.32451
G0 F4800 X8.067 Y-9.092
G1 F600 X7.423 Y-11.049 E32.39303
G1 X6.645 Y-11.44 E32.42199
G1 X10.299 Y-11.44 E32.54352
G1 X10.299 Y11.44 E33.30451
G1 X7.202 Y11.44 E33.40752
G1 X8.067 Y9.719 E33.47159
G1 X8.067 Y2.695 E33.7052
G1 X7.423 Y0.738 E33.77373
G1 X6.898 Y0.474 E33.79327
G1 X7.002 Y0.44 E33.79691
G1 X8.067 Y-1.679 E33.87579
G1 X8.067 Y-9.092 E34.12235
G0 F4800 X7.667 Y-9.028
G1 F600 X7.095 Y-10.766 E34.1832
G1 X5.209 Y-11.714 E34.25341
G1 X-.4 Y-11.713 E34.43997
G1 X-2.83 Y-11.457 E34.52124
G1 X-3.382 Y-11.308 E34.54025
G1 X-5.287 Y-10.402 E34.61042
G1 X-5.923 Y-9.875 E34.63789
G1 X-7.073 Y-8.319 E34.70224
G1 X-7.373 Y-7.628 E34.7273
G1 X-7.735 Y-5.742 E34.79117
G1 X-7.735 Y-5.087 E34.81296
G1 X-7.365 Y-3.265 E34.87479
G1 X-7.046 Y-2.561 E34.9005
G1 X-6.663 Y-2.067 E34.92129
G1 X-8.926 Y-2.918 E35.0017
G1 X-9.441 Y-3.267 E35.02239
G1 X-9.881 Y-3.713 E35.04323
G1 X-10.22 Y-4.225 E35.06366
G1 X-10.418 Y-4.694 E35.08059
G1 X-10.678 Y-6.5 E35.14128
G1 X-10.508 Y-7.887 E35.18775
G1 X-10.024 Y-9.07 E35.23026
G1 X-9.254 Y-10.071 E35.27227
G1 X-8.261 Y-10.824 E35.31372
G1 X-7.45 Y-11.146 E35.34274
G1 X-5.821 Y-11.463 E35.39794
G1 X-1.994 Y-11.84 E35.52584
G1 X10.699 Y-11.84 E35.94801
G1 X10.699 Y11.84 E36.73561
G1 X5.716 Y11.84 E36.90135
G1 X6.719 Y11.51 E36.93647
G1 X7.667 Y9.624 E37.00667
G1 X7.667 Y2.759 E37.235
G1 X7.095 Y1.021 E37.29586
G1 X5.853 Y0.397 E37.34209
G1 X6.719 Y0.112 E37.37241
G1 X7.667 Y-1.774 E37.44262
G1 X7.667 Y-9.028 E37.68389
G0 F4800 X7.267 Y-8.964
G1 F600 X6.767 Y-10.483 E37.73708
G1 X5.114 Y-11.314 E37.79861
G1 X-.379 Y-11.313 E37.98131
G1 X-2.756 Y-11.063 E38.06081
G1 X-3.243 Y-10.931 E38.07759
G1 X-5.07 Y-10.062 E38.14488
G1 X-5.63 Y-9.598 E38.16907
G1 X-6.724 Y-8.118 E38.23028
G1 X-6.988 Y-7.509 E38.25236
G1 X-7.335 Y-5.704 E38.31349
