;FLAVOR:Marlin
;TIME:2425
;Filament used: 2.11204m
;Layer height: 0.2
;MINX:-19.694
;MINY:-48.339
;MINZ:0.2
;MAXX:49.211
;MAXY:48.514
;MAXZ:3.8
;POSTPROCESSED
;Generated with Cura_SteamEngine 4.13.1
M82 ;absolute extrusion mode
START_PRINT BED_TEMP=80 EXTRUDER_TEMP=220.0
G92 E0
G92 E0
G1 F1800 E-2
;LAYER_COUNT:19
;LAYER:0
M107
G0 F4800 X-18.876 Y0.392 Z0.2
;TYPE:SKIRT
G1 F1800 E0
G1 F600 X-18.911 Y-.209 E0.02002
G1 X-18.915 Y-.533 E0.0308
G1 X-18.875 Y-1.762 E0.0717
G1 X-18.823 Y-2.741 E0.10431
G1 X-18.704 Y-4.494 E0.16275
G1 X-18.653 Y-5.119 E0.1836
G1 X-18.505 Y-7.851 E0.2746
G1 X-18.434 Y-10.581 E0.36543
G1 X-18.441 Y-13.311 E0.45623
G1 X-18.524 Y-16.008 E0.54598
G1 X-18.686 Y-18.763 E0.63777
G1 X-18.92 Y-21.435 E0.72698
G1 X-19.269 Y-24.415 E0.82677
G1 X-19.349 Y-25.017 E0.84697
G1 X-19.363 Y-25.137 E0.85099
G1 X-19.487 Y-26.402 E0.89326
G1 X-19.651 Y-28.464 E0.96206
G1 X-19.694 Y-29.149 E0.98489
G1 X-19.684 Y-29.817 E1.00711
G1 X-19.677 Y-29.927 E1.01078
G1 X-19.399 Y-33.409 E1.12696
G1 X-19.34 Y-34.032 E1.14777
G1 X-19.275 Y-34.452 E1.16191
G1 X-19.042 Y-35.53 E1.19859
G1 X-18.981 Y-35.789 E1.20744
G1 X-18.826 Y-36.403 E1.2285
G1 X-18.734 Y-36.711 E1.23919
G1 X-18.356 Y-37.791 E1.27725
G1 X-18.311 Y-37.913 E1.28158
G1 X-18.049 Y-38.583 E1.3055
G1 X-17.71 Y-39.273 E1.33107
G1 X-17.362 Y-39.892 E1.35469
G1 X-16.976 Y-40.553 E1.38015
G1 X-16.613 Y-41.077 E1.40135
G1 X-16.417 Y-41.328 E1.41195
G1 X-15.981 Y-41.871 E1.43511
G1 X-15.579 Y-42.357 E1.45608
G1 X-15.299 Y-42.658 E1.46976
G1 X-14.583 Y-43.345 E1.50276
G1 X-14.357 Y-43.553 E1.51298
G1 X-13.819 Y-44.037 E1.53705
G1 X-13.298 Y-44.449 E1.55914
G1 X-12.401 Y-45.09 E1.59581
G1 X-11.85 Y-45.472 E1.61811
G1 X-11.493 Y-45.69 E1.63202
G1 X-10.725 Y-46.099 E1.66096
G1 X-10.162 Y-46.389 E1.68202
G1 X-9.485 Y-46.724 E1.70715
G1 X-8.915 Y-46.954 E1.72759
G1 X-8.555 Y-47.076 E1.74023
G1 X-7.499 Y-47.418 E1.77715
G1 X-6.821 Y-47.627 E1.80075
G1 X-6.446 Y-47.721 E1.81361
G1 X-5.704 Y-47.864 E1.83874
G1 X-4.622 Y-48.051 E1.87526
G1 X-4 Y-48.15 E1.89621
G1 X-3.69 Y-48.186 E1.90659
G1 X-2.698 Y-48.256 E1.93967
G1 X-1.551 Y-48.316 E1.97787
G1 X-.969 Y-48.339 E1.99724
G1 X-.643 Y-48.337 E2.00808
G1 X0.462 Y-48.28 E2.04488
G1 X2.39 Y-48.144 E2.10917
G1 X3.067 Y-48.085 E2.13177
G1 X3.611 Y-48 E2.15008
G1 X4.225 Y-47.859 E2.17104
G1 X5.996 Y-47.431 E2.23164
G1 X6.681 Y-47.254 E2.25517
G1 X7.257 Y-47.051 E2.27548
G1 X7.982 Y-46.724 E2.30193
G1 X9.331 Y-46.093 E2.35147
G1 X9.956 Y-45.79 E2.37457
G1 X10.56 Y-45.42 E2.39813
G1 X11.179 Y-44.951 E2.42396
G1 X12.284 Y-44.085 E2.47065
G1 X12.806 Y-43.664 E2.49296
G1 X13.319 Y-43.158 E2.51692
G1 X13.926 Y-42.425 E2.54858
G1 X14.695 Y-41.463 E2.58954
G1 X15.136 Y-40.896 E2.61343
G1 X15.254 Y-40.734 E2.6201
G1 X15.596 Y-40.241 E2.64005
G1 X16.473 Y-38.931 E2.69249
G1 X18.04 Y-36.728 E2.7824
G1 X19.683 Y-34.549 E2.87317
G1 X21.382 Y-32.426 E2.96361
G1 X23.162 Y-30.324 E3.05522
G1 X24.947 Y-28.336 E3.14409
G1 X26.84 Y-26.341 E3.23556
G1 X28.811 Y-24.381 E3.32801
G1 X30.755 Y-22.551 E3.41681
G1 X32.789 Y-20.744 E3.5073
G1 X34.903 Y-18.972 E3.59905
G1 X37.019 Y-17.295 E3.68885
G1 X39.22 Y-15.651 E3.78022
G1 X42.675 Y-13.255 E3.92006
G1 X43.428 Y-12.658 E3.95202
G1 X43.993 Y-12.174 E3.97677
G1 X44.489 Y-11.738 E3.99873
G1 X44.86 Y-11.359 E4.01637
G1 X45.518 Y-10.581 E4.05026
G1 X45.796 Y-10.239 E4.06492
G1 X46.27 Y-9.64 E4.09033
G1 X46.61 Y-9.133 E4.11063
G1 X46.814 Y-8.789 E4.12393
G1 X47.309 Y-7.926 E4.15702
G1 X47.659 Y-7.299 E4.18091
G1 X47.859 Y-6.885 E4.1962
G1 X48.084 Y-6.346 E4.21562
G1 X48.405 Y-5.547 E4.24426
G1 X48.674 Y-4.852 E4.26905
G1 X48.83 Y-4.339 E4.28688
G1 X48.908 Y-3.809 E4.3047
G1 X48.906 Y-3.127 E4.32739
G1 X48.868 Y-.351 E4.41973
G1 X48.907 Y2.38 E4.51057
G1 X49.025 Y5.127 E4.60202
G1 X49.139 Y6.848 E4.65938
G1 X49.211 Y7.809 E4.69144
G1 X49.211 Y8.345 E4.70926
G1 X49.066 Y9.123 E4.73559
G1 X48.95 Y9.5 E4.7487
G1 X48.27 Y11.527 E4.81982
G1 X48.055 Y12.138 E4.84136
G1 X47.794 Y12.712 E4.86233
G1 X47.239 Y13.694 E4.89985
G1 X46.565 Y14.834 E4.9439
G1 X46.211 Y15.411 E4.96641
G1 X45.783 Y15.975 E4.98996
G1 X45.472 Y16.308 E5.00511
G1 X44.248 Y17.555 E5.06323
G1 X43.733 Y18.064 E5.08731
G1 X43.199 Y18.499 E5.11022
G1 X43.028 Y18.611 E5.11702
G1 X42.468 Y18.959 E5.13895
G1 X41.692 Y19.428 E5.16911
G1 X39.336 Y20.897 E5.26145
G1 X37.06 Y22.409 E5.35233
G1 X34.825 Y23.986 E5.44331
G1 X32.663 Y25.604 E5.53313
G1 X30.509 Y27.314 E5.6246
G1 X28.442 Y29.052 E5.71442
G1 X26.393 Y30.878 E5.80571
G1 X24.407 Y32.749 E5.89646
G1 X22.495 Y34.657 E5.9863
G1 X20.59 Y36.666 E6.07838
G1 X18.798 Y38.668 E6.16775
G1 X16.335 Y41.614 E6.29547
G1 X16.017 Y42.009 E6.31233
G1 X15.587 Y42.531 E6.33483
G1 X15.297 Y42.843 E6.34899
G1 X14.613 Y43.497 E6.38047
G1 X14.37 Y43.723 E6.39151
G1 X13.822 Y44.216 E6.41602
G1 X13.325 Y44.609 E6.4371
G1 X13.238 Y44.673 E6.44069
G1 X12.416 Y45.259 E6.47427
G1 X11.858 Y45.646 E6.49685
G1 X11.5 Y45.865 E6.51081
G1 X10.732 Y46.274 E6.53975
G1 X10.169 Y46.564 E6.56081
G1 X9.492 Y46.899 E6.58594
G1 X8.922 Y47.129 E6.60638
G1 X8.562 Y47.251 E6.61902
G1 X7.506 Y47.593 E6.65594
G1 X6.828 Y47.802 E6.67954
G1 X6.453 Y47.896 E6.6924
G1 X5.711 Y48.039 E6.71753
G1 X4.629 Y48.226 E6.75405
G1 X4.007 Y48.325 E6.775
G1 X3.697 Y48.361 E6.78538
G1 X2.705 Y48.431 E6.81846
G1 X1.559 Y48.491 E6.85663
G1 X0.979 Y48.514 E6.87593
G1 X0.65 Y48.512 E6.88687
G1 X-.463 Y48.454 E6.92394
G1 X-2.327 Y48.322 E6.9861
G1 X-3.045 Y48.261 E7.01006
G1 X-3.551 Y48.183 E7.02709
G1 X-4.141 Y48.05 E7.04721
G1 X-6.009 Y47.6 E7.11111
G1 X-6.658 Y47.433 E7.1334
G1 X-7.236 Y47.231 E7.15377
G1 X-8.025 Y46.876 E7.18254
G1 X-9.31 Y46.274 E7.22974
G1 X-9.95 Y45.964 E7.25339
G1 X-10.558 Y45.591 E7.27712
G1 X-11.156 Y45.136 E7.30211
G1 X-12.311 Y44.233 E7.35087
G1 X-12.803 Y43.836 E7.3719
G1 X-13.312 Y43.334 E7.39568
G1 X-13.883 Y42.645 E7.42544
G1 X-14.676 Y41.652 E7.46771
G1 X-15.114 Y41.09 E7.4914
G1 X-15.495 Y40.487 E7.51513
G1 X-15.852 Y39.773 E7.54168
G1 X-16.485 Y38.455 E7.59031
G1 X-16.761 Y37.86 E7.61212
G1 X-16.973 Y37.274 E7.63285
G1 X-17.224 Y36.332 E7.66528
G1 X-17.592 Y34.856 E7.71587
G1 X-17.751 Y34.179 E7.739
G1 X-17.832 Y33.672 E7.75608
G1 X-17.9 Y32.894 E7.78205
G1 X-18.046 Y30.905 E7.84838
G1 X-18.081 Y30.304 E7.86841
G1 X-18.085 Y29.98 E7.87918
G1 X-18.045 Y28.751 E7.92008
G1 X-17.993 Y27.771 E7.95272
G1 X-17.921 Y26.721 E7.98773
G1 X-17.741 Y24.509 E8.06154
G1 X-17.595 Y21.776 E8.15257
G1 X-17.527 Y19.049 E8.2433
G1 X-17.536 Y16.308 E8.33447
G1 X-17.622 Y13.621 E8.42388
G1 X-17.787 Y10.867 E8.51565
G1 X-18.026 Y8.173 E8.6056
G1 X-18.345 Y5.436 E8.69725
G1 X-18.542 Y4.02 E8.7448
G1 X-18.637 Y3.364 E8.76685
G1 X-18.661 Y3.165 E8.77351
G1 X-18.73 Y2.381 E8.79969
G1 X-18.876 Y0.392 E8.86602
G0 F4800 X-18.477 Y0.369
G1 F600 X-18.512 Y-.232 E8.88605
G1 X-18.515 Y-.521 E8.89566
G1 X-18.476 Y-1.741 E8.93626
G1 X-18.424 Y-2.714 E8.96866
G1 X-18.305 Y-4.461 E9.0269
G1 X-18.252 Y-5.1 E9.04823
G1 X-18.105 Y-7.818 E9.13876
G1 X-18.034 Y-10.571 E9.23036
G1 X-18.041 Y-13.325 E9.32196
G1 X-18.125 Y-16.042 E9.41237
G1 X-18.284 Y-18.75 E9.50259
G1 X-18.527 Y-21.521 E9.59511
G1 X-18.871 Y-24.462 E9.6936
G1 X-18.965 Y-25.177 E9.71758
G1 X-19.088 Y-26.434 E9.75959
G1 X-19.252 Y-28.49 E9.82819
G1 X-19.295 Y-29.175 E9.85102
G1 X-19.284 Y-29.797 E9.87171
G1 X-19.278 Y-29.895 E9.87497
G1 X-19.001 Y-33.372 E9.99099
G1 X-18.942 Y-33.995 E10.0118
G1 X-18.884 Y-34.367 E10.02432
G1 X-18.652 Y-35.44 E10.06083
G1 X-18.594 Y-35.691 E10.0694
G1 X-18.439 Y-36.305 E10.09046
G1 X-18.356 Y-36.579 E10.09999
G1 X-17.978 Y-37.659 E10.13804
G1 X-17.938 Y-37.767 E10.14188
G1 X-17.676 Y-38.437 E10.1658
G1 X-17.357 Y-39.086 E10.18986
G1 X-17.014 Y-39.696 E10.21313
G1 X-16.631 Y-40.352 E10.2384
G1 X-16.293 Y-40.837 E10.25806
G1 X-16.105 Y-41.077 E10.2682
G1 X-15.673 Y-41.616 E10.29117
G1 X-15.271 Y-42.102 E10.31215
G1 X-15.022 Y-42.37 E10.32432
G1 X-14.359 Y-43.007 E10.3549
G1 X-14.089 Y-43.256 E10.36711
G1 X-13.551 Y-43.74 E10.39118
G1 X-13.056 Y-44.13 E10.41214
G1 X-12.173 Y-44.761 E10.44824
G1 X-11.622 Y-45.143 E10.47054
G1 X-11.304 Y-45.337 E10.48293
G1 X-10.542 Y-45.743 E10.51165
G1 X-9.984 Y-46.03 E10.53252
G1 X-9.307 Y-46.365 E10.55764
G1 X-8.778 Y-46.579 E10.57662
G1 X-8.431 Y-46.696 E10.5888
G1 X-7.382 Y-47.036 E10.62548
G1 X-6.704 Y-47.245 E10.64907
G1 X-6.37 Y-47.329 E10.66053
G1 X-5.636 Y-47.47 E10.68539
G1 X-4.559 Y-47.656 E10.72174
G1 X-3.937 Y-47.755 E10.74269
G1 X-3.662 Y-47.787 E10.7519
G1 X-2.677 Y-47.857 E10.78474
G1 X-1.535 Y-47.917 E10.82277
G1 X-.953 Y-47.94 E10.84215
G1 X-.664 Y-47.938 E10.85176
G1 X0.434 Y-47.881 E10.88833
G1 X2.355 Y-47.746 E10.95238
G1 X3.032 Y-47.687 E10.97498
G1 X3.521 Y-47.61 E10.99145
G1 X4.131 Y-47.47 E11.01226
G1 X5.896 Y-47.043 E11.07266
G1 X6.581 Y-46.866 E11.09619
G1 X7.093 Y-46.686 E11.11424
G1 X7.813 Y-46.362 E11.1405
G1 X9.157 Y-45.733 E11.18986
G1 X9.782 Y-45.43 E11.21296
G1 X10.319 Y-45.101 E11.23391
G1 X10.933 Y-44.636 E11.25952
G1 X12.033 Y-43.774 E11.306
G1 X12.555 Y-43.353 E11.32831
G1 X13.01 Y-42.903 E11.34959
G1 X13.613 Y-42.175 E11.38103
G1 X14.379 Y-41.218 E11.4218
G1 X14.82 Y-40.651 E11.4457
G1 X14.925 Y-40.507 E11.45162
G1 X15.263 Y-40.018 E11.47139
G1 X16.13 Y-38.723 E11.52323
G1 X17.71 Y-36.501 E11.61391
G1 X19.384 Y-34.281 E11.70639
G1 X21.062 Y-32.184 E11.79572
G1 X22.844 Y-30.081 E11.8874
G1 X24.676 Y-28.039 E11.97864
G1 X26.551 Y-26.064 E12.06922
G1 X28.519 Y-24.107 E12.16153
G1 X30.498 Y-22.244 E12.25193
G1 X32.532 Y-20.437 E12.34242
G1 X34.643 Y-18.667 E12.43405
G1 X36.772 Y-16.981 E12.52437
G1 X38.961 Y-15.345 E12.61526
G1 X42.439 Y-12.932 E12.75606
G1 X43.172 Y-12.351 E12.78717
G1 X43.729 Y-11.873 E12.81158
G1 X44.225 Y-11.437 E12.83354
G1 X44.555 Y-11.101 E12.84921
G1 X45.208 Y-10.328 E12.88286
G1 X45.482 Y-9.991 E12.89731
G1 X45.956 Y-9.392 E12.92272
G1 X46.269 Y-8.925 E12.94141
G1 X46.467 Y-8.59 E12.95436
G1 X46.96 Y-7.731 E12.9873
G1 X47.31 Y-7.104 E13.01118
G1 X47.49 Y-6.731 E13.02496
G1 X47.713 Y-6.196 E13.04424
G1 X48.032 Y-5.403 E13.07266
G1 X48.301 Y-4.708 E13.09745
G1 X48.446 Y-4.224 E13.11426
G1 X48.513 Y-3.722 E13.1311
G1 X48.505 Y-3.083 E13.15236
G1 X48.468 Y-.351 E13.24323
G1 X48.508 Y2.402 E13.33481
G1 X48.624 Y5.129 E13.42559
G1 X48.74 Y6.878 E13.48389
G1 X48.812 Y7.839 E13.51594
G1 X48.81 Y8.344 E13.53274
G1 X48.683 Y9.007 E13.55519
G1 X48.571 Y9.372 E13.56789
G1 X47.893 Y11.394 E13.63882
G1 X47.678 Y12.005 E13.66036
G1 X47.446 Y12.516 E13.67903
G1 X46.895 Y13.491 E13.71628
G1 X46.224 Y14.624 E13.76007
G1 X45.87 Y15.201 E13.78259
G1 X45.489 Y15.703 E13.80355
G1 X45.186 Y16.028 E13.81833
G1 X43.966 Y17.271 E13.87626
G1 X43.451 Y17.78 E13.90034
G1 X42.977 Y18.167 E13.92069
G1 X42.817 Y18.271 E13.92704
G1 X42.261 Y18.617 E13.94882
G1 X41.46 Y19.101 E13.97995
G1 X39.134 Y20.552 E14.07113
G1 X36.814 Y22.093 E14.16376
G1 X34.617 Y23.642 E14.25317
G1 X32.373 Y25.322 E14.34641
G1 X30.286 Y26.979 E14.43504
G1 X28.165 Y28.763 E14.52722
G1 X26.117 Y30.587 E14.61844
G1 X24.15 Y32.441 E14.70834
G1 X22.162 Y34.424 E14.80173
G1 X20.333 Y36.354 E14.89017
G1 X18.491 Y38.413 E14.98206
G1 X15.984 Y41.411 E15.11204
G1 X15.708 Y41.755 E15.12671
G1 X15.278 Y42.277 E15.1492
G1 X15.02 Y42.554 E15.16179
G1 X14.34 Y43.204 E15.19308
G1 X14.102 Y43.426 E15.20391
G1 X13.554 Y43.919 E15.22842
G1 X13.083 Y44.29 E15.24836
G1 X13.006 Y44.348 E15.25157
G1 X12.188 Y44.93 E15.28496
G1 X11.63 Y45.317 E15.30755
G1 X11.311 Y45.512 E15.31998
G1 X10.549 Y45.918 E15.3487
G1 X9.991 Y46.205 E15.36957
G1 X9.314 Y46.54 E15.39469
G1 X8.785 Y46.754 E15.41367
G1 X8.438 Y46.871 E15.42585
G1 X7.389 Y47.211 E15.46253
G1 X6.711 Y47.42 E15.48613
G1 X6.377 Y47.504 E15.49758
G1 X5.643 Y47.645 E15.52244
G1 X4.566 Y47.831 E15.55879
G1 X3.944 Y47.93 E15.57974
G1 X3.669 Y47.962 E15.58895
G1 X2.684 Y48.032 E15.62179
G1 X1.543 Y48.091 E15.65979
G1 X0.963 Y48.114 E15.6791
G1 X0.671 Y48.113 E15.68881
G1 X-.434 Y48.055 E15.72561
G1 X-2.293 Y47.924 E15.7876
G1 X-3.011 Y47.863 E15.81156
G1 X-3.57 Y47.77 E15.83041
G1 X-4.087 Y47.652 E15.84805
G1 X-5.909 Y47.213 E15.91038
G1 X-6.558 Y47.046 E15.93267
G1 X-7.072 Y46.866 E15.95079
G1 X-7.855 Y46.514 E15.97934
G1 X-9.136 Y45.914 E16.02639
G1 X-9.776 Y45.604 E16.05004
G1 X-10.316 Y45.272 E16.07112
G1 X-10.91 Y44.821 E16.09593
G1 X-12.06 Y43.921 E16.1445
G1 X-12.552 Y43.524 E16.16553
G1 X-13.004 Y43.078 E16.18665
G1 X-13.57 Y42.395 E16.21615
G1 X-14.361 Y41.406 E16.25827
G1 X-14.799 Y40.844 E16.28197
G1 X-15.137 Y40.308 E16.30305
G1 X-15.491 Y39.6 E16.32937
G1 X-16.122 Y38.287 E16.37783
G1 X-16.398 Y37.692 E16.39964
G1 X-16.587 Y37.17 E16.41811
G1 X-16.836 Y36.235 E16.45029
G1 X-17.202 Y34.765 E16.50067
G1 X-17.361 Y34.088 E16.5238
G1 X-17.434 Y33.637 E16.539
G1 X-17.501 Y32.864 E16.5648
G1 X-17.647 Y30.882 E16.6309
G1 X-17.682 Y30.281 E16.65093
G1 X-17.685 Y29.992 E16.66054
G1 X-17.646 Y28.772 E16.70114
G1 X-17.594 Y27.798 E16.73358
G1 X-17.522 Y26.753 E16.76842
G1 X-17.34 Y24.518 E16.843
G1 X-17.195 Y21.807 E16.9333
G1 X-17.127 Y19.058 E17.02476
G1 X-17.136 Y16.303 E17.11639
G1 X-17.222 Y13.584 E17.20687
G1 X-17.387 Y10.843 E17.2982
G1 X-17.628 Y8.124 E17.38899
G1 X-17.943 Y5.426 E17.47934
G1 X-18.146 Y3.965 E17.5284
G1 X-18.242 Y3.306 E17.55055
G1 X-18.262 Y3.13 E17.55644
G1 X-18.331 Y2.351 E17.58245
G1 X-18.477 Y0.369 E17.64855
G1 F1800 E15.64855
;MESH:C.stl(3)
G0 F4800 X-14.687 Y0.091
G1 F1800 E17.64855
G0 F4800 X-14.734 Y-.546
;TYPE:WALL-INNER
G1 F600 X-14.597 Y-3.13 E17.73461
G1 X-14.183 Y-5.415 E17.81185
G1 X-13.514 Y-7.355 E17.8801
G1 X-12.587 Y-8.993 E17.9427
G1 X-11.382 Y-10.402 E18.00437
G1 X-9.883 Y-11.625 E18.06871
G1 X-8.082 Y-12.659 E18.13778
G1 X-6.78 Y-13.182 E18.18445
G1 X-5.304 Y-6.554 E18.4103
G1 X-6.761 Y-5.901 E18.46341
G1 X-6.894 Y-5.812 E18.46873
G1 X-7.897 Y-4.891 E18.51402
G1 X-7.973 Y-4.801 E18.51794
G1 X-8.71 Y-3.704 E18.56189
G1 X-8.765 Y-3.595 E18.56595
G1 X-9.219 Y-2.336 E18.61047
G1 X-9.247 Y-2.22 E18.61444
G1 X-9.397 Y-.824 E18.66113
G1 X-9.397 Y-.718 E18.66466
G1 X-9.232 Y0.833 E18.71654
G1 X-9.204 Y0.953 E18.72064
G1 X-8.701 Y2.326 E18.76927
G1 X-8.639 Y2.443 E18.77367
G1 X-7.803 Y3.62 E18.82169
G1 X-7.718 Y3.714 E18.82591
G1 X-6.553 Y4.692 E18.8765
G1 X-6.46 Y4.754 E18.88022
G1 X-5.331 Y5.337 E18.92248
G1 X-5.244 Y5.372 E18.9256
G1 X-3.841 Y5.787 E18.97426
G1 X-3.744 Y5.804 E18.97753
G1 X-.202 Y6.126 E19.09583
G1 X-.112 Y6.126 E19.09882
G1 X4.148 Y5.742 E19.24108
G1 X4.252 Y5.722 E19.24461
G1 X5.831 Y5.228 E19.29963
G1 X5.937 Y5.181 E19.30349
G1 X7.124 Y4.48 E19.34934
G1 X7.228 Y4.396 E19.35379
G1 X8.085 Y3.514 E19.39469
G1 X8.16 Y3.419 E19.39872
G1 X8.779 Y2.36 E19.43951
G1 X8.824 Y2.252 E19.44341
G1 X9.188 Y1.056 E19.48499
G1 X9.209 Y0.955 E19.48842
G1 X9.33 Y-.411 E19.53403
G1 X9.325 Y-.536 E19.53819
G1 X8.939 Y-2.953 E19.6196
G1 X8.891 Y-3.1 E19.62474
G1 X8.388 Y-4.095 E19.66182
G1 X8.321 Y-4.195 E19.66583
G1 X7.614 Y-5.02 E19.70196
G1 X7.504 Y-5.115 E19.7068
G1 X5.607 Y-6.331 E19.78174
G1 X5.49 Y-6.388 E19.78607
G1 X3.691 Y-6.963 E19.84889
G1 X5.68 Y-13.542 E20.07749
G1 X7.958 Y-12.777 E20.15741
G1 X10.373 Y-11.347 E20.25076
G1 X12.243 Y-9.51 E20.33795
G1 X13.579 Y-7.297 E20.42393
G1 X14.406 Y-4.499 E20.52097
G1 X14.686 Y-.976 E20.63851
G1 X14.342 Y3.336 E20.78239
G1 X13.92 Y5.126 E20.84355
G1 X13.34 Y6.678 E20.89866
G1 X12.558 Y8.062 E20.95153
G1 X11.523 Y9.354 E21.00659
G1 X10.214 Y10.566 E21.06593
G1 X8.649 Y11.682 E21.12986
G1 X6.841 Y12.612 E21.19748
G1 X4.796 Y13.275 E21.26898
G1 X2.484 Y13.679 E21.34705
G1 X-0.082 Y13.816 E21.43251
G1 X-3.488 Y13.575 E21.54608
G1 X-6.41 Y12.87 E21.64605
G1 X-8.899 Y11.706 E21.73744
G1 X-10.973 Y10.082 E21.82506
G1 X-12.607 Y8.043 E21.91196
G1 X-13.779 Y5.605 E22.00194
G1 X-14.492 Y2.742 E22.10007
G1 X-14.734 Y-.546 E22.20972
G0 F4800 X-15.135 Y-.538
;TYPE:WALL-OUTER
G1 F600 X-14.994 Y-3.183 E22.29782
G1 X-14.572 Y-5.512 E22.37654
G1 X-13.88 Y-7.521 E22.44722
G1 X-12.916 Y-9.224 E22.5123
G1 X-11.662 Y-10.69 E22.57647
G1 X-10.111 Y-11.955 E22.64304
G1 X-8.258 Y-13.019 E22.71411
G1 X-6.492 Y-13.729 E22.77741
G1 X-4.843 Y-6.322 E23.0298
G1 X-6.567 Y-5.549 E23.09264
G1 X-6.647 Y-5.496 E23.09583
