;FLAVOR:Marlin
;TIME:2939
;Filament used: 2.52984m
;Layer height: 0.2
;MINX:-47.35
;MINY:-46.253
;MINZ:0.2
;MAXX:20.448
;MAXY:46.335
;MAXZ:3.8
;POSTPROCESSED
;Generated with Cura_SteamEngine 4.13.1
M82 ;absolute extrusion mode
START_PRINT BED_TEMP=80 EXTRUDER_TEMP=220.0
G92 E0
G92 E0
G1 F1800 E-2
;LAYER_COUNT:19
;LAYER:0
M107
G0 F4800 X18.344 Y-1.312 Z0.2
;TYPE:SKIRT
G1 F1800 E0
G1 F600 X18.394 Y0.147 E0.04856
G1 X18.398 Y0.509 E0.0606
G1 X18.398 Y13.38 E0.48869
G1 X18.393 Y14.907 E0.53948
G1 X18.4 Y15.834 E0.57031
G1 X18.4 Y28.465 E0.99042
G1 X18.387 Y29.276 E1.01739
G1 X18.358 Y29.807 E1.03508
G1 X18.162 Y32.429 E1.12253
G1 X18.107 Y33.053 E1.14337
G1 X17.997 Y33.675 E1.16438
G1 X17.752 Y34.579 E1.19553
G1 X17.373 Y35.903 E1.24133
G1 X17.148 Y36.653 E1.26738
G1 X16.956 Y37.154 E1.28522
G1 X16.831 Y37.395 E1.29425
G1 X16.46 Y38.049 E1.31926
G1 X15.833 Y39.113 E1.36034
G1 X15.46 Y39.728 E1.38426
G1 X15.039 Y40.29 E1.40762
G1 X14.601 Y40.754 E1.42884
G1 X13.6 Y41.77 E1.47628
G1 X13.136 Y42.227 E1.49794
G1 X12.582 Y42.674 E1.52161
G1 X11.799 Y43.186 E1.55273
G1 X10.901 Y43.753 E1.58805
G1 X10.298 Y44.122 E1.61157
G1 X9.738 Y44.401 E1.63237
G1 X8.833 Y44.757 E1.66472
G1 X7.743 Y45.164 E1.70342
G1 X7.048 Y45.411 E1.72795
G1 X6.56 Y45.548 E1.74481
G1 X5.972 Y45.67 E1.76478
G1 X4.384 Y45.982 E1.81861
G1 X3.706 Y46.104 E1.84152
G1 X3.137 Y46.17 E1.86057
G1 X2.844 Y46.192 E1.87035
G1 X0.987 Y46.306 E1.93223
G1 X0.394 Y46.334 E1.95197
G1 X0.069 Y46.335 E1.96278
G1 X-1.145 Y46.282 E2.0032
G1 X-3.748 Y46.114 E2.08995
G1 X-4.4 Y46.063 E2.11171
G1 X-5.154 Y45.933 E2.13715
G1 X-5.501 Y45.848 E2.14904
G1 X-7.548 Y45.321 E2.21934
G1 X-8.224 Y45.137 E2.24264
G1 X-8.893 Y44.881 E2.26647
G1 X-9.306 Y44.672 E2.28186
G1 X-10.797 Y43.871 E2.33816
G1 X-11.422 Y43.524 E2.36193
G1 X-11.915 Y43.195 E2.38165
G1 X-12.397 Y42.796 E2.40246
G1 X-13.507 Y41.837 E2.45125
G1 X-14.044 Y41.358 E2.47518
G1 X-14.398 Y40.995 E2.49204
G1 X-14.935 Y40.359 E2.51973
G1 X-15.716 Y39.41 E2.56061
G1 X-17.491 Y37.373 E2.65047
G1 X-19.355 Y35.353 E2.74189
G1 X-21.24 Y33.423 E2.83162
G1 X-23.201 Y31.526 E2.92237
G1 X-25.208 Y29.69 E3.01284
G1 X-27.297 Y27.886 E3.10464
G1 X-29.377 Y26.188 E3.19395
G1 X-31.569 Y24.503 E3.2859
G1 X-33.773 Y22.903 E3.37649
G1 X-35.998 Y21.383 E3.46611
G1 X-38.312 Y19.897 E3.55758
G1 X-40.666 Y18.478 E3.649
G1 X-42.999 Y17.158 E3.73815
G1 X-44.753 Y16.237 E3.80405
G1 X-45.451 Y15.86 E3.83043
G1 X-45.902 Y15.57 E3.84826
G1 X-46.306 Y15.217 E3.86611
G1 X-46.653 Y14.808 E3.88395
G1 X-46.935 Y14.352 E3.90178
G1 X-47.146 Y13.859 E3.91962
G1 X-47.281 Y13.34 E3.93745
G1 X-47.338 Y12.803 E3.95541
G1 X-47.35 Y12.368 E3.96989
G1 X-47.35 Y-16.255 E4.92189
G1 X-47.34 Y-16.948 E4.94494
G1 X-47.292 Y-17.482 E4.96278
G1 X-47.165 Y-18.003 E4.98061
G1 X-46.963 Y-18.5 E4.99846
G1 X-46.689 Y-18.961 E5.01629
G1 X-46.35 Y-19.376 E5.03412
G1 X-45.952 Y-19.736 E5.05197
G1 X-45.493 Y-20.04 E5.07028
G1 X-44.727 Y-20.467 E5.09944
G1 X-43.773 Y-20.984 E5.13553
G1 X-41.404 Y-22.354 E5.22655
G1 X-39.086 Y-23.784 E5.31714
G1 X-36.793 Y-25.289 E5.40837
G1 X-34.566 Y-26.843 E5.49869
G1 X-32.389 Y-28.455 E5.58879
G1 X-30.23 Y-30.151 E5.6801
G1 X-28.134 Y-31.895 E5.77079
G1 X-26.094 Y-33.693 E5.86123
G1 X-24.097 Y-35.555 E5.95205
G1 X-22.168 Y-37.459 E6.04219
G1 X-20.275 Y-39.437 E6.13326
G1 X-18.427 Y-41.48 E6.22488
G1 X-16.677 Y-43.527 E6.31445
G1 X-16.135 Y-44.199 E6.34317
G1 X-15.525 Y-44.935 E6.37496
G1 X-15.153 Y-45.322 E6.39282
G1 X-14.595 Y-45.731 E6.41583
G1 X-14.116 Y-45.972 E6.43366
G1 X-13.606 Y-46.139 E6.45151
G1 X-12.844 Y-46.243 E6.47709
G1 X-12.422 Y-46.253 E6.49113
G1 X16.193 Y-46.253 E7.44287
G1 X16.891 Y-46.243 E7.46609
G1 X17.425 Y-46.195 E7.48392
G1 X17.946 Y-46.069 E7.50175
G1 X18.443 Y-45.866 E7.5196
G1 X18.904 Y-45.592 E7.53744
G1 X19.319 Y-45.253 E7.55526
G1 X19.679 Y-44.855 E7.57311
G1 X19.976 Y-44.409 E7.59093
G1 X20.204 Y-43.923 E7.60879
G1 X20.356 Y-43.409 E7.62662
G1 X20.438 Y-42.744 E7.6489
G1 X20.448 Y-42.323 E7.66291
G1 X20.448 Y-29.737 E8.08152
G1 X20.435 Y-28.927 E8.10847
G1 X20.406 Y-28.395 E8.12619
G1 X20.214 Y-25.82 E8.21207
G1 X20.15 Y-25.112 E8.23571
G1 X20.042 Y-24.422 E8.25894
G1 X19.677 Y-22.506 E8.32381
G1 X19.246 Y-19.828 E8.41403
G1 X18.884 Y-17.107 E8.50533
G1 X18.603 Y-14.393 E8.59608
G1 X18.398 Y-11.671 E8.68687
G1 X18.271 Y-8.945 E8.77764
G1 X18.22 Y-6.247 E8.86739
G1 X18.247 Y-3.497 E8.95886
G1 X18.344 Y-1.312 E9.0316
G0 F4800 X17.944 Y-1.298
G1 F600 X17.994 Y0.152 E9.07986
G1 X17.998 Y0.514 E9.0919
G1 X17.998 Y13.378 E9.51976
G1 X17.993 Y14.905 E9.57055
G1 X18 Y15.837 E9.60155
G1 X18 Y28.459 E10.02135
G1 X17.99 Y29.165 E10.04484
G1 X17.959 Y29.781 E10.06535
G1 X17.764 Y32.394 E10.1525
G1 X17.709 Y33.018 E10.17334
G1 X17.61 Y33.571 E10.19202
G1 X17.368 Y34.469 E10.22296
G1 X17.002 Y35.749 E10.26724
G1 X16.765 Y36.539 E10.29467
G1 X16.483 Y37.198 E10.31851
G1 X16.115 Y37.846 E10.34329
G1 X15.491 Y38.905 E10.38418
G1 X15.118 Y39.52 E10.4081
G1 X14.743 Y40.021 E10.42891
G1 X14.313 Y40.476 E10.44974
G1 X13.355 Y41.45 E10.49518
G1 X12.855 Y41.942 E10.51851
G1 X12.363 Y42.339 E10.53953
G1 X11.586 Y42.848 E10.57043
G1 X10.692 Y43.411 E10.60557
G1 X10.089 Y43.78 E10.62908
G1 X9.592 Y44.028 E10.64755
G1 X8.693 Y44.382 E10.67969
G1 X7.609 Y44.787 E10.71818
G1 X6.914 Y45.034 E10.74271
G1 X6.4 Y45.173 E10.76042
G1 X5.895 Y45.278 E10.77758
G1 X4.313 Y45.588 E10.83119
G1 X3.635 Y45.71 E10.85411
G1 X3.099 Y45.772 E10.87205
G1 X2.819 Y45.793 E10.88139
G1 X0.968 Y45.906 E10.94307
G1 X0.375 Y45.934 E10.96282
G1 X0.086 Y45.935 E10.97243
G1 X-1.119 Y45.882 E11.01255
G1 X-3.717 Y45.715 E11.09913
G1 X-4.369 Y45.664 E11.12089
G1 X-5.068 Y45.542 E11.14449
G1 X-5.401 Y45.461 E11.15588
G1 X-7.443 Y44.935 E11.22602
G1 X-8.119 Y44.751 E11.24932
G1 X-8.714 Y44.523 E11.27051
G1 X-9.117 Y44.32 E11.28552
G1 X-10.603 Y43.522 E11.34162
G1 X-11.228 Y43.175 E11.3654
G1 X-11.667 Y42.882 E11.38295
G1 X-12.139 Y42.491 E11.40334
G1 X-13.241 Y41.538 E11.4518
G1 X-13.778 Y41.059 E11.47573
G1 X-14.092 Y40.736 E11.49071
G1 X-14.626 Y40.105 E11.51821
G1 X-15.426 Y39.133 E11.56008
G1 X-17.178 Y37.123 E11.64876
G1 X-19.058 Y35.085 E11.74098
G1 X-20.959 Y33.139 E11.83146
G1 X-22.936 Y31.226 E11.92296
G1 X-24.942 Y29.391 E12.01339
G1 X-27.045 Y27.575 E12.1058
G1 X-29.126 Y25.877 E12.19513
G1 X-31.335 Y24.177 E12.28784
G1 X-33.535 Y22.582 E12.37822
G1 X-35.802 Y21.033 E12.46954
G1 X-38.094 Y19.561 E12.56014
G1 X-40.441 Y18.145 E12.65131
G1 X-42.807 Y16.807 E12.74172
G1 X-44.563 Y15.885 E12.80768
G1 X-45.261 Y15.508 E12.83407
G1 X-45.685 Y15.233 E12.85088
G1 X-46.061 Y14.895 E12.86769
G1 X-46.379 Y14.502 E12.88451
G1 X-46.631 Y14.064 E12.90132
G1 X-46.811 Y13.591 E12.91815
G1 X-46.914 Y13.096 E12.93496
G1 X-46.948 Y12.467 E12.95592
G1 X-46.95 Y12.368 E12.95921
G1 X-46.95 Y-16.249 E13.91101
G1 X-46.94 Y-16.942 E13.93407
G1 X-46.892 Y-17.446 E13.95091
G1 X-46.767 Y-17.935 E13.96769
G1 X-46.565 Y-18.399 E13.98452
G1 X-46.293 Y-18.825 E14.00133
G1 X-45.957 Y-19.203 E14.01816
G1 X-45.566 Y-19.524 E14.03498
G1 X-45.299 Y-19.691 E14.04546
G1 X-44.536 Y-20.116 E14.07451
G1 X-43.56 Y-20.644 E14.11141
G1 X-41.189 Y-22.016 E14.20252
G1 X-38.879 Y-23.442 E14.29282
G1 X-36.574 Y-24.954 E14.3845
G1 X-34.345 Y-26.509 E14.4749
G1 X-32.127 Y-28.152 E14.5667
G1 X-29.994 Y-29.827 E14.65691
G1 X-27.859 Y-31.604 E14.7493
G1 X-25.84 Y-33.384 E14.83882
G1 X-23.808 Y-35.279 E14.93123
G1 X-21.898 Y-37.163 E15.02046
G1 X-19.974 Y-39.173 E15.11301
G1 X-18.125 Y-41.217 E15.20468
G1 X-16.378 Y-43.261 E15.29411
G1 X-15.827 Y-43.944 E15.3233
G1 X-15.217 Y-44.68 E15.35509
G1 X-14.864 Y-45.043 E15.37193
G1 X-14.389 Y-45.388 E15.39146
G1 X-13.937 Y-45.613 E15.40825
G1 X-13.454 Y-45.764 E15.42508
G1 X-12.833 Y-45.843 E15.4459
G1 X-12.422 Y-45.853 E15.45958
G1 X16.187 Y-45.853 E16.41112
G1 X16.885 Y-45.843 E16.43434
G1 X17.388 Y-45.796 E16.45114
G1 X17.878 Y-45.67 E16.46797
G1 X18.342 Y-45.468 E16.4848
G1 X18.768 Y-45.196 E16.50161
G1 X19.146 Y-44.861 E16.51841
G1 X19.466 Y-44.47 E16.53521
G1 X19.721 Y-44.033 E16.55204
G1 X19.904 Y-43.562 E16.56885
G1 X20.011 Y-43.068 E16.58566
G1 X20.047 Y-42.413 E16.60748
G1 X20.048 Y-29.743 E17.02888
G1 X20.038 Y-29.038 E17.05233
G1 X20.007 Y-28.421 E17.07288
G1 X19.811 Y-25.801 E17.16027
G1 X19.752 Y-25.148 E17.18207
G1 X19.648 Y-24.49 E17.20423
G1 X19.283 Y-22.573 E17.26914
G1 X18.847 Y-19.873 E17.3601
G1 X18.488 Y-17.165 E17.45096
G1 X18.204 Y-14.431 E17.54238
G1 X18.001 Y-11.719 E17.63283
G1 X17.87 Y-8.924 E17.7259
G1 X17.82 Y-6.251 E17.81482
G1 X17.846 Y-3.503 E17.90622
G1 X17.944 Y-1.298 E17.97963
G1 F1800 E15.97963
;MESH:D.stl(3)
G0 F4800 X14.116 Y-.999
G0 X13.903 Y-2.455
G1 F1800 E17.97963
G0 F4800 X14.001 Y-2.469
;TYPE:WALL-INNER
G1 F600 X14.198 Y0.049 E18.06364
G1 X14.198 Y13.003 E18.49449
G1 X-14.202 Y13.003 E19.43908
G1 X-14.202 Y0.048 E19.86996
G1 X-13.935 Y-3.506 E19.9885
G1 X-13.156 Y-6.233 E20.08283
G1 X-11.915 Y-8.342 E20.16422
G1 X-10.218 Y-10.065 E20.24465
G1 X-8.129 Y-11.385 E20.32684
G1 X-5.698 Y-12.293 E20.41315
G1 X-2.996 Y-12.821 E20.50472
G1 X-.107 Y-12.999 E20.60099
G1 X4.041 Y-12.734 E20.73924
G1 X7.065 Y-11.957 E20.84308
G1 X9.333 Y-10.738 E20.92872
G1 X11.202 Y-9.125 E21.01084
G1 X12.586 Y-7.254 E21.08824
G1 X13.413 Y-5.256 E21.16016
G1 X14.001 Y-2.469 E21.2549
G0 F4800 X13.903 Y-2.455
G0 X8.919 Y-.324
G0 X8.82 Y-.312
G1 F600 X8.8 Y-.421 E21.25858
G1 X8.291 Y-2.154 E21.31866
G1 X8.199 Y-2.329 E21.32523
G1 X7.242 Y-3.513 E21.37587
G1 X7.112 Y-3.625 E21.38158
G1 X5.664 Y-4.504 E21.43792
G1 X5.524 Y-4.562 E21.44296
G1 X3.351 Y-5.099 E21.5174
G1 X3.26 Y-5.114 E21.52047
G1 X0.099 Y-5.291 E21.62577
G1 X-2.173 Y-5.192 E21.70141
G1 X-2.231 Y-5.185 E21.70335
G1 X-4.081 Y-4.889 E21.76567
G1 X-4.162 Y-4.87 E21.76844
G1 X-5.67 Y-4.362 E21.82136
G1 X-5.779 Y-4.311 E21.82536
G1 X-6.916 Y-3.587 E21.8702
G1 X-7.028 Y-3.488 E21.87517
G1 X-7.85 Y-2.522 E21.91736
G1 X-7.923 Y-2.413 E21.92172
G1 X-8.506 Y-1.181 E21.96705
G1 X-8.541 Y-1.08 E21.97061
G1 X-8.881 Y0.387 E22.02069
G1 X-8.895 Y0.467 E22.02339
G1 X-9.008 Y2.188 E22.08076
G1 X-9.008 Y4.629 E22.16195
G1 X-8.861 Y5.076 E22.1776
G1 X-8.35 Y5.333 E22.19662
G1 X8.28 Y5.333 E22.74974
G1 X8.727 Y5.186 E22.76539
G1 X8.984 Y4.675 E22.78441
G1 X8.984 Y2.23 E22.86573
G1 X8.82 Y-.312 E22.95046
G0 F4800 X8.919 Y-.324
G0 X9.023 Y2.229
G0 X9.022 Y4.684
G0 X8.444 Y4.858
;TYPE:WALL-OUTER
G1 F600 X8.584 Y4.58 E22.96081
G1 X8.584 Y2.243 E23.03854
G1 X8.422 Y-.263 E23.12206
G1 X8.41 Y-.328 E23.12426
G1 X7.918 Y-2.003 E23.18232
G1 X7.863 Y-2.108 E23.18627
G1 X6.954 Y-3.233 E23.23437
G1 X6.876 Y-3.3 E23.23779
G1 X5.482 Y-4.146 E23.29203
G1 X5.398 Y-4.181 E23.29505
G1 X3.271 Y-4.707 E23.36793
G1 X3.216 Y-4.716 E23.36978
G1 X0.097 Y-4.891 E23.47368
G1 X-2.142 Y-4.793 E23.54822
G1 X-2.177 Y-4.789 E23.5494
G1 X-4.005 Y-4.496 E23.61097
G1 X-4.053 Y-4.485 E23.61261
G1 X-5.52 Y-3.991 E23.66409
G1 X-5.585 Y-3.96 E23.66649
G1 X-6.675 Y-3.266 E23.70947
G1 X-6.742 Y-3.207 E23.71244
G1 X-7.53 Y-2.281 E23.75288
G1 X-7.574 Y-2.215 E23.75552
G1 X-8.135 Y-1.03 E23.79912
G1 X-8.156 Y-.969 E23.80127
G1 X-8.489 Y0.465 E23.85023
G1 X-8.497 Y0.513 E23.85185
G1 X-8.608 Y2.201 E23.90812
G1 X-8.608 Y4.565 E23.98674
G1 X-8.533 Y4.793 E23.99473
G1 X-8.255 Y4.933 E24.00508
G1 X8.216 Y4.933 E24.55291
G1 X8.444 Y4.858 E24.56089
G0 F4800 X8.534 Y4.68
G0 X8.98 Y4.905
G0 X14.099 Y0.052
G0 X14.598 Y0.031
G1 F600 X14.598 Y13.403 E25.00564
G1 X-14.602 Y13.403 E25.97684
G1 X-14.602 Y0.031 E26.42159
G1 X-14.331 Y-3.578 E26.54197
G1 X-13.527 Y-6.392 E26.63931
G1 X-12.235 Y-8.587 E26.72402
G1 X-10.471 Y-10.378 E26.80763
G1 X-8.307 Y-11.746 E26.89278
G1 X-5.806 Y-12.68 E26.98158
G1 X-3.052 Y-13.218 E27.07491
G1 X-.106 Y-13.4 E27.17308
G1 X4.103 Y-13.131 E27.31336
G1 X7.211 Y-12.332 E27.42009
G1 X9.562 Y-11.068 E27.50887
G1 X11.499 Y-9.397 E27.59395
G1 X12.937 Y-7.453 E27.67438
G1 X13.796 Y-5.378 E27.74907
G1 X14.398 Y-2.522 E27.84615
G1 X14.598 Y0.031 E27.93133
G0 F4800 X14.598 Y0.231
G0 X14.098 Y0.231
G0 X10.238 Y9.043
;TYPE:SKIN
G1 F600 X9.674 Y9.043 E27.95008
G1 X10.238 Y8.858 E27.96983
G1 X10.238 Y9.043 E27.97598
G0 F4800 X10.638 Y9.443
G1 F600 X-10.642 Y9.443 E28.68376
G1 X-10.642 Y8.166 E28.72623
G1 X-9.195 Y8.893 E28.78009
G1 X8.85 Y8.893 E29.38027
G1 X10.638 Y8.305 E29.44287
G1 X10.638 Y9.443 E29.48072
G0 F4800 X11.038 Y9.843
G1 F600 X-11.042 Y9.843 E30.2151
G1 X-11.042 Y7.517 E30.29247
G1 X-9.1 Y8.493 E30.36476
G1 X8.786 Y8.493 E30.95965
G1 X10.962 Y7.777 E31.03584
G1 X11.038 Y7.626 E31.04146
G1 X11.038 Y9.843 E31.1152
G0 F4800 X11.838 Y10.643
G1 F600 X-11.842 Y10.643 E31.9028
G1 X-11.842 Y0.145 E32.25196
G1 X-11.599 Y-3.083 E32.35963
G1 X-10.967 Y-5.298 E32.43624
G1 X-10.027 Y-6.898 E32.49796
G1 X-8.723 Y-8.22 E32.55972
G1 X-7.085 Y-9.254 E32.62415
G1 X-5.059 Y-10.011 E32.69609
G1 X-2.678 Y-10.477 E32.77678
G1 X-.112 Y-10.632 E32.86228
G1 X3.679 Y-10.391 E32.98863
G1 X6.201 Y-9.744 E33.07522
G1 X7.977 Y-8.791 E33.14226
G1 X9.454 Y-7.515 E33.20718
G1 X10.516 Y-6.079 E33.26658
G1 X11.152 Y-4.542 E33.32191
G1 X11.659 Y-2.151 E33.4032
G1 X11.838 Y0.152 E33.48003
G1 X11.838 Y10.643 E33.82896
G0 F4800 X12.238 Y11.043
G1 F600 X-12.242 Y11.043 E34.64317
G1 X-12.242 Y0.128 E35.00621
G1 X-11.995 Y-3.155 E35.11571
G1 X-11.338 Y-5.456 E35.1953
G1 X-10.347 Y-7.143 E35.26037
G1 X-8.978 Y-8.532 E35.32524
G1 X-7.26 Y-9.616 E35.3928
G1 X-5.167 Y-10.398 E35.46712
G1 X-2.734 Y-10.874 E35.54957
G1 X-.111 Y-11.033 E35.63697
G1 X3.74 Y-10.788 E35.76532
G1 X6.347 Y-10.119 E35.85484
G1 X8.209 Y-9.12 E35.92512
G1 X9.749 Y-7.789 E35.99282
G1 X10.867 Y-6.278 E36.05533
G1 X11.535 Y-4.664 E36.11343
G1 X12.056 Y-2.205 E36.19703
G1 X12.238 Y0.134 E36.27507
G1 X12.238 Y11.043 E36.6379
G0 F4800 X12.638 Y11.443
G1 F600 X-12.642 Y11.443 E37.47872
G1 X-12.642 Y0.111 E37.85562
G1 X-12.391 Y-3.227 E37.96696
G1 X-11.709 Y-5.615 E38.04956
G1 X-10.667 Y-7.388 E38.11796
G1 X-9.231 Y-8.845 E38.186
G1 X-7.438 Y-9.977 E38.25652
G1 X-5.275 Y-10.785 E38.33332
G1 X-2.79 Y-11.271 E38.41754
G1 X-.11 Y-11.434 E38.50684
G1 X3.801 Y-11.185 E38.63718
G1 X6.494 Y-10.494 E38.72966
G1 X8.438 Y-9.45 E38.80305
G1 X10.046 Y-8.061 E38.87372
G1 X11.218 Y-6.477 E38.93926
G1 X11.918 Y-4.786 E39.00013
G1 X12.453 Y-2.258 E39.08607
G1 X12.638 Y0.116 E39.16527
G1 X12.638 Y11.443 E39.54201
G0 F4800 X13.038 Y11.843
G1 F600 X-13.042 Y11.843 E40.40943
G1 X-13.042 Y0.094 E40.80021
G1 X-12.787 Y-3.299 E40.91338
G1 X-12.08 Y-5.774 E40.99899
G1 X-10.987 Y-7.633 E41.07071
G1 X-9.486 Y-9.157 E41.14186
G1 X-7.613 Y-10.339 E41.21552
G1 X-5.383 Y-11.172 E41.2947
G1 X-2.846 Y-11.668 E41.38068
G1 X-.109 Y-11.835 E41.47188
G1 X3.864 Y-11.582 E41.60429
G1 X6.64 Y-10.869 E41.69962
G1 X8.67 Y-9.779 E41.77625
G1 X10.341 Y-8.335 E41.84971
G1 X11.569 Y-6.676 E41.91836
G1 X12.301 Y-4.908 E41.982
G1 X12.85 Y-2.311 E42.07029
G1 X13.038 Y0.098 E42.15065
G1 X13.038 Y11.843 E42.54129
G0 F4800 X13.438 Y12.243
G1 F600 X-13.442 Y12.243 E43.43533
G1 X-13.442 Y0.077 E43.83997
G1 X-13.183 Y-3.371 E43.95497
G1 X-12.451 Y-5.933 E44.0436
G1 X-11.307 Y-7.878 E44.11865
G1 X-9.739 Y-9.47 E44.19297
G1 X-7.791 Y-10.7 E44.26959
G1 X-5.491 Y-11.559 E44.35125
G1 X-2.902 Y-12.065 E44.43899
G1 X-.108 Y-12.236 E44.5321
G1 X3.925 Y-11.979 E44.66651
G1 X6.787 Y-11.244 E44.76478
G1 X8.899 Y-10.109 E44.84453
G1 X10.638 Y-8.607 E44.92096
G1 X11.92 Y-6.875 E44.99263
G1 X12.684 Y-5.03 E45.05905
G1 X13.247 Y-2.364 E45.14967
G1 X13.438 Y0.08 E45.23121
G1 X13.438 Y12.243 E45.63575
G0 F4800 X13.838 Y12.643
G1 F600 X-13.842 Y12.643 E46.55639
G1 X-13.842 Y0.06 E46.97491
G1 X-13.579 Y-3.443 E47.09174
G1 X-12.822 Y-6.092 E47.18338
G1 X-11.627 Y-8.123 E47.26175
G1 X-9.992 Y-9.783 E47.33925
G1 X-7.969 Y-11.061 E47.41884
G1 X-5.599 Y-11.946 E47.50298
G1 X-2.958 Y-12.462 E47.59248
G1 X-.108 Y-12.637 E47.68745
G1 X3.986 Y-12.376 E47.82389
G1 X6.934 Y-11.619 E47.92512
G1 X9.128 Y-10.439 E48.00798
G1 X10.935 Y-8.879 E48.08738
G1 X12.271 Y-7.074 E48.16207
G1 X13.067 Y-5.152 E48.23126
G1 X13.644 Y-2.417 E48.32423
G1 X13.838 Y0.062 E48.40694
G1 X13.838 Y12.643 E48.82538
G0 F4800 X10.679 Y7.449
G1 F600 X11.438 Y5.939 E48.88159
G1 X11.438 Y10.243 E49.02474
