;FLAVOR:Marlin
;TIME:2733
;Filament used: 2.41085m
;Layer height: 0.2
;MINX:-42.797
;MINY:-18.856
;MINZ:0.2
;MAXX:42.506
;MAXY:45.147
;MAXZ:3.8
;POSTPROCESSED
;Generated with Cura_SteamEngine 4.13.1
M82 ;absolute extrusion mode
START_PRINT BED_TEMP=80 EXTRUDER_TEMP=220.0
G92 E0
G92 E0
G1 F1800 E-2
;LAYER_COUNT:19
;LAYER:0
M107
G0 F4800 X3.99 Y-18.357 Z0.2
;TYPE:SKIRT
G1 F1800 E0
G1 F600 X6.77 Y-18.396 E0.09247
G1 X9.493 Y-18.512 E0.18312
G1 X12.343 Y-18.716 E0.27816
G1 X13.715 Y-18.834 E0.32396
G1 X14.241 Y-18.855 E0.34147
G1 X38.251 Y-18.856 E1.14004
G1 X38.949 Y-18.846 E1.16326
G1 X39.483 Y-18.798 E1.18109
G1 X40.004 Y-18.672 E1.19892
G1 X40.501 Y-18.469 E1.21678
G1 X40.962 Y-18.195 E1.23461
G1 X41.377 Y-17.856 E1.25244
G1 X41.737 Y-17.458 E1.27029
G1 X42.034 Y-17.012 E1.28811
G1 X42.262 Y-16.526 E1.30596
G1 X42.414 Y-16.012 E1.32379
G1 X42.496 Y-15.347 E1.34608
G1 X42.506 Y-14.926 E1.36008
G1 X42.506 Y13.675 E2.31135
G1 X42.496 Y14.388 E2.33507
G1 X42.448 Y14.923 E2.35294
G1 X42.322 Y15.444 E2.37077
G1 X42.12 Y15.941 E2.38861
G1 X41.846 Y16.402 E2.40645
G1 X41.507 Y16.817 E2.42427
G1 X41.16 Y17.137 E2.43997
G1 X40.178 Y17.931 E2.48197
G1 X39.798 Y18.23 E2.49805
G1 X37.707 Y19.971 E2.58855
G1 X35.687 Y21.754 E2.67816
G1 X33.652 Y23.652 E2.77072
G1 X31.743 Y25.537 E2.85995
G1 X29.849 Y27.518 E2.95111
G1 X28.007 Y29.554 E3.04243
G1 X26.253 Y31.609 E3.13229
G1 X24.529 Y33.748 E3.22366
G1 X22.908 Y35.881 E3.31277
G1 X21.27 Y38.167 E3.4063
G1 X19.773 Y40.386 E3.49533
G1 X18.333 Y42.656 E3.58474
G1 X17.855 Y43.43 E3.615
G1 X17.54 Y43.864 E3.63284
G1 X17.164 Y44.246 E3.65066
G1 X16.735 Y44.568 E3.6685
G1 X16.264 Y44.823 E3.68632
G1 X15.759 Y45.006 E3.70418
G1 X15.233 Y45.111 E3.72202
G1 X14.571 Y45.146 E3.74407
G1 X-14.144 Y45.147 E4.69914
G1 X-14.845 Y45.137 E4.72245
G1 X-15.38 Y45.089 E4.74032
G1 X-15.901 Y44.963 E4.75815
G1 X-16.397 Y44.76 E4.77597
G1 X-16.858 Y44.486 E4.79381
G1 X-17.274 Y44.147 E4.81166
G1 X-17.634 Y43.75 E4.82948
G1 X-17.831 Y43.47 E4.84087
G1 X-18.556 Y42.331 E4.88578
G1 X-18.852 Y41.853 E4.90448
G1 X-20.344 Y39.59 E4.99463
G1 X-21.905 Y37.364 E5.08506
G1 X-23.545 Y35.156 E5.17654
G1 X-25.221 Y33.032 E5.26653
G1 X-26.973 Y30.934 E5.35744
G1 X-28.775 Y28.898 E5.44787
G1 X-30.658 Y26.886 E5.53952
G1 X-32.546 Y24.979 E5.62878
G1 X-34.548 Y23.071 E5.72076
G1 X-36.552 Y21.266 E5.81047
G1 X-38.642 Y19.487 E5.90175
G1 X-40.631 Y17.885 E5.9867
G1 X-40.961 Y17.626 E6.00065
G1 X-41.357 Y17.264 E6.01849
G1 X-41.695 Y16.847 E6.03635
G1 X-41.967 Y16.385 E6.05418
G1 X-42.167 Y15.888 E6.072
G1 X-42.291 Y15.366 E6.08984
G1 X-42.345 Y14.581 E6.11601
G1 X-42.347 Y14.47 E6.11971
G1 X-42.347 Y9.451 E6.28664
G1 X-42.334 Y8.643 E6.31352
G1 X-42.284 Y7.49 E6.3519
G1 X-42.244 Y6.776 E6.37569
G1 X-42.169 Y4.012 E6.46765
G1 X-42.173 Y1.281 E6.55848
G1 X-42.252 Y-1.414 E6.64816
G1 X-42.41 Y-4.15 E6.73931
G1 X-42.724 Y-7.514 E6.85168
G1 X-42.775 Y-8.111 E6.87161
G1 X-42.796 Y-8.634 E6.88902
G1 X-42.797 Y-14.149 E7.07245
G1 X-42.788 Y-14.838 E7.09537
G1 X-42.741 Y-15.372 E7.1132
G1 X-42.615 Y-15.894 E7.13106
G1 X-42.413 Y-16.39 E7.14887
G1 X-42.14 Y-16.852 E7.16672
G1 X-41.801 Y-17.267 E7.18454
G1 X-41.404 Y-17.628 E7.20239
G1 X-40.958 Y-17.926 E7.22023
G1 X-40.473 Y-18.154 E7.23806
G1 X-39.959 Y-18.308 E7.2559
G1 X-39.289 Y-18.39 E7.27835
G1 X-38.867 Y-18.4 E7.29239
G1 X-14.961 Y-18.4 E8.08751
G1 X-13.176 Y-18.377 E8.14688
G1 X-12.814 Y-18.387 E8.15893
G1 X-11.377 Y-18.357 E8.20673
G1 X3.99 Y-18.357 E8.71784
G0 F4800 X3.996 Y-17.957
G1 F600 X6.793 Y-17.997 E8.81088
G1 X9.505 Y-18.112 E8.90116
G1 X12.401 Y-18.319 E8.99773
G1 X13.749 Y-18.435 E9.04273
G1 X14.253 Y-18.455 E9.05951
G1 X38.245 Y-18.456 E9.85748
G1 X38.943 Y-18.446 E9.8807
G1 X39.446 Y-18.399 E9.8975
G1 X39.936 Y-18.273 E9.91433
G1 X40.4 Y-18.071 E9.93116
G1 X40.826 Y-17.799 E9.94797
G1 X41.204 Y-17.464 E9.96477
G1 X41.524 Y-17.073 E9.98158
G1 X41.779 Y-16.636 E9.99841
G1 X41.962 Y-16.165 E10.01521
G1 X42.069 Y-15.671 E10.03202
G1 X42.105 Y-15.016 E10.05384
G1 X42.106 Y13.67 E11.00794
G1 X42.096 Y14.383 E11.03166
G1 X42.049 Y14.886 E11.04846
G1 X41.923 Y15.376 E11.06529
G1 X41.722 Y15.84 E11.08211
G1 X41.45 Y16.266 E11.09892
G1 X41.114 Y16.644 E11.11574
G1 X40.909 Y16.826 E11.12486
G1 X39.931 Y17.616 E11.16667
G1 X39.561 Y17.907 E11.18233
G1 X37.45 Y19.665 E11.2737
G1 X35.396 Y21.478 E11.36482
G1 X33.381 Y23.357 E11.45646
G1 X31.473 Y25.241 E11.54564
G1 X29.547 Y27.255 E11.63833
G1 X27.706 Y29.291 E11.72963
G1 X25.936 Y31.365 E11.82031
G1 X24.232 Y33.479 E11.91062
G1 X22.563 Y35.675 E12.00236
G1 X20.98 Y37.884 E12.09275
G1 X19.438 Y40.17 E12.18446
G1 X17.972 Y42.479 E12.27543
G1 X17.515 Y43.219 E12.30436
G1 X17.216 Y43.627 E12.32119
G1 X16.857 Y43.983 E12.338
G1 X16.446 Y44.278 E12.35483
G1 X15.994 Y44.504 E12.37164
G1 X15.511 Y44.656 E12.38848
G1 X14.881 Y44.737 E12.4096
G1 X14.47 Y44.747 E12.42328
G1 X-14.139 Y44.747 E13.37482
G1 X-14.84 Y44.737 E13.39813
G1 X-15.343 Y44.69 E13.41494
G1 X-15.833 Y44.564 E13.43176
G1 X-16.296 Y44.362 E13.44857
G1 X-16.723 Y44.09 E13.4654
G1 X-17.101 Y43.755 E13.4822
G1 X-17.493 Y43.256 E13.50331
G1 X-18.216 Y42.121 E13.54807
G1 X-18.521 Y41.628 E13.56735
G1 X-20.015 Y39.363 E13.6576
G1 X-21.571 Y37.142 E13.74779
G1 X-23.239 Y34.899 E13.84076
G1 X-24.915 Y32.773 E13.9308
G1 X-26.667 Y30.675 E14.02171
G1 X-28.482 Y28.625 E14.11278
G1 X-30.348 Y26.631 E14.20361
G1 X-32.287 Y24.673 E14.29526
G1 X-34.268 Y22.785 E14.38628
G1 X-36.29 Y20.962 E14.47683
G1 X-38.395 Y19.171 E14.56876
G1 X-40.35 Y17.597 E14.65224
G1 X-40.714 Y17.311 E14.66763
G1 X-41.086 Y16.968 E14.68446
G1 X-41.399 Y16.571 E14.70128
G1 X-41.645 Y16.13 E14.71807
G1 X-41.819 Y15.655 E14.7349
G1 X-41.916 Y15.159 E14.75171
G1 X-41.945 Y14.568 E14.77139
G1 X-41.947 Y14.47 E14.77465
G1 X-41.947 Y9.457 E14.94138
G1 X-41.937 Y8.751 E14.96487
G1 X-41.885 Y7.512 E15.00611
G1 X-41.844 Y6.774 E15.03069
G1 X-41.769 Y4.022 E15.12226
G1 X-41.773 Y1.304 E15.21266
G1 X-41.854 Y-1.449 E15.30427
G1 X-42.012 Y-4.182 E15.39532
G1 X-42.325 Y-7.548 E15.50775
G1 X-42.376 Y-8.145 E15.52768
G1 X-42.396 Y-8.646 E15.54436
G1 X-42.397 Y-14.144 E15.72722
G1 X-42.388 Y-14.833 E15.75014
G1 X-42.341 Y-15.336 E15.76695
G1 X-42.216 Y-15.826 E15.78376
G1 X-42.015 Y-16.29 E15.80058
G1 X-41.744 Y-16.717 E15.8174
G1 X-41.409 Y-17.095 E15.8342
G1 X-41.018 Y-17.416 E15.85103
G1 X-40.582 Y-17.672 E15.86785
G1 X-40.111 Y-17.855 E15.88465
G1 X-39.617 Y-17.962 E15.90146
G1 X-38.957 Y-17.999 E15.92345
G1 X-14.966 Y-18 E16.72139
G1 X-13.034 Y-17.974 E16.78566
G1 X-12.822 Y-17.987 E16.79272
G1 X-11.385 Y-17.957 E16.84053
G1 X3.996 Y-17.957 E17.3521
G1 F1800 E15.3521
;MESH:E.stl(1)
G0 F4800 X3.996 Y-14.137
G0 X11.286 Y-14.087
G1 F1800 E17.3521
G0 F4800 X11.356 Y-14.157
;TYPE:WALL-INNER
G1 F600 X11.356 Y-9.352 E17.51192
G1 X-3.492 Y-9.352 E18.00576
G1 X-3.939 Y-9.205 E18.02141
G1 X-4.196 Y-8.694 E18.04044
G1 X-4.196 Y-3.688 E18.20694
G1 X-4.049 Y-3.241 E18.22259
G1 X-3.538 Y-2.984 E18.24161
G1 X10.231 Y-2.984 E18.69957
G1 X10.231 Y1.535 E18.84987
G1 X-3.492 Y1.535 E19.3063
G1 X-3.939 Y1.682 E19.32195
G1 X-4.196 Y2.193 E19.34098
G1 X-4.196 Y8.345 E19.54559
G1 X-4.049 Y8.792 E19.56125
G1 X-3.538 Y9.049 E19.58027
G1 X11.806 Y9.049 E20.09061
G1 X11.806 Y14.243 E20.26337
G1 X-11.887 Y14.243 E21.0514
G1 X-11.887 Y-14.157 E21.99599
G1 X11.356 Y-14.157 E22.76905
G0 F4800 X11.756 Y-14.557
;TYPE:WALL-OUTER
G1 F600 X11.756 Y-8.952 E22.95547
G1 X-3.428 Y-8.952 E23.4605
G1 X-3.656 Y-8.877 E23.46848
G1 X-3.796 Y-8.599 E23.47883
G1 X-3.796 Y-3.752 E23.64004
G1 X-3.721 Y-3.524 E23.64803
G1 X-3.443 Y-3.384 E23.65838
G1 X10.631 Y-3.384 E24.12648
G1 X10.631 Y1.935 E24.30339
G1 X-3.428 Y1.935 E24.771
G1 X-3.656 Y2.01 E24.77898
G1 X-3.796 Y2.288 E24.78933
G1 X-3.796 Y8.281 E24.98866
G1 X-3.721 Y8.509 E24.99664
G1 X-3.443 Y8.649 E25.007
G1 X12.206 Y8.649 E25.52749
G1 X12.206 Y14.643 E25.72685
G1 X-12.287 Y14.643 E26.54149
G1 X-12.287 Y-14.557 E27.51268
G1 X11.756 Y-14.557 E28.31236
G0 F4800 X11.756 Y-14.357
G0 X11.286 Y-14.087
G0 X-7.927 Y-10.089
;TYPE:SKIN
G1 F600 X-7.927 Y-10.197 E28.31595
G1 X-7.873 Y-10.197 E28.31774
G1 X-7.927 Y-10.089 E28.32176
G0 F4800 X-7.756 Y-9.539
G1 F600 X-7.756 Y-3.118 E28.53532
G1 X-6.968 Y-.723 E28.61918
G1 X-6.766 Y-.621 E28.62671
G1 X-7.756 Y1.348 E28.70001
G1 X-7.756 Y8.915 E28.95169
G1 X-7.174 Y10.683 E29.0136
G1 X-8.327 Y10.683 E29.05195
G1 X-8.327 Y-10.597 E29.75972
G1 X-7.224 Y-10.597 E29.79641
G1 X-7.756 Y-9.539 E29.8358
G0 F4800 X-7.356 Y-9.444
G1 F600 X-7.356 Y-3.182 E30.04407
G1 X-6.64 Y-1.006 E30.12026
G1 X-6.229 Y-.799 E30.13557
G1 X-7.356 Y1.443 E30.21903
G1 X-7.356 Y8.851 E30.46542
G1 X-6.64 Y11.027 E30.54161
G1 X-6.529 Y11.083 E30.54575
G1 X-8.727 Y11.083 E30.61885
G1 X-8.727 Y-10.997 E31.35324
G1 X-6.575 Y-10.997 E31.42481
G1 X-7.356 Y-9.444 E31.48263
G0 F4800 X-6.956 Y-9.349
G1 F600 X-6.956 Y-3.246 E31.68561
G1 X-6.312 Y-1.289 E31.75414
G1 X-5.294 Y-.777 E31.79204
G1 X-5.891 Y-.581 E31.81294
G1 X-6.956 Y1.538 E31.89182
G1 X-6.956 Y8.787 E32.13292
G1 X-6.312 Y10.744 E32.20144
G1 X-4.842 Y11.483 E32.25617
G1 X-9.127 Y11.483 E32.39869
G1 X-9.127 Y-11.397 E33.15968
G1 X-5.927 Y-11.397 E33.26611
G1 X-6.956 Y-9.349 E33.34234
G0 F4800 X-6.556 Y-9.254
G1 F600 X-6.556 Y-3.31 E33.54004
G1 X-5.984 Y-1.572 E33.6009
G1 X-4.249 Y-.7 E33.66548
G1 X-5.608 Y-.253 E33.71306
G1 X-6.556 Y1.633 E33.78327
G1 X-6.556 Y8.723 E34.01909
G1 X-5.984 Y10.461 E34.07994
G1 X-4.098 Y11.409 E34.15015
G1 X9.446 Y11.409 E34.60062
G1 X9.446 Y11.883 E34.61639
G1 X-9.527 Y11.883 E35.24743
G1 X-9.527 Y-11.797 E36.03503
G1 X8.996 Y-11.797 E36.65111
G1 X8.996 Y-11.712 E36.65394
G1 X-3.87 Y-11.712 E37.08186
G1 X-5.608 Y-11.14 E37.14272
G1 X-6.556 Y-9.254 E37.21293
G0 F4800 X-6.156 Y-9.159
G1 F600 X-6.156 Y-3.374 E37.40534
G1 X-5.656 Y-1.855 E37.45853
G1 X-4.003 Y-1.024 E37.52006
G1 X8.271 Y-1.024 E37.9283
G1 X8.271 Y-.425 E37.94822
G1 X-3.806 Y-.425 E38.3499
G1 X-5.325 Y0.075 E38.40309
G1 X-6.156 Y1.728 E38.46463
G1 X-6.156 Y8.659 E38.69515
G1 X-5.656 Y10.178 E38.74834
G1 X-4.003 Y11.009 E38.80988
G1 X9.846 Y11.009 E39.2705
G1 X9.846 Y12.283 E39.31287
G1 X-9.927 Y12.283 E39.97052
G1 X-9.927 Y-12.197 E40.78473
G1 X9.396 Y-12.197 E41.42742
G1 X9.396 Y-11.312 E41.45685
G1 X-3.806 Y-11.312 E41.89595
G1 X-5.325 Y-10.812 E41.94914
G1 X-6.156 Y-9.159 E42.01068
G0 F4800 X-5.756 Y-9.064
G1 F600 X-5.756 Y-3.438 E42.1978
G1 X-5.328 Y-2.138 E42.24332
G1 X-3.908 Y-1.424 E42.29618
G1 X8.671 Y-1.424 E42.71456
G1 X8.671 Y-0.025 E42.76109
G1 X-3.742 Y-0.025 E43.17395
G1 X-5.042 Y0.403 E43.21947
G1 X-5.756 Y1.823 E43.27233
G1 X-5.756 Y8.595 E43.49757
G1 X-5.328 Y9.895 E43.54309
G1 X-3.908 Y10.609 E43.59596
G1 X10.246 Y10.609 E44.06672
G1 X10.246 Y12.683 E44.1357
G1 X-10.327 Y12.683 E44.81996
G1 X-10.327 Y-12.597 E45.66078
G1 X9.796 Y-12.597 E46.33007
G1 X9.796 Y-10.912 E46.38612
G1 X-3.742 Y-10.912 E46.83639
G1 X-5.042 Y-10.484 E46.88191
G1 X-5.756 Y-9.064 E46.93478
G0 F4800 X-5.356 Y-8.969
G1 F600 X-5.356 Y-3.502 E47.11661
G1 X-5 Y-2.421 E47.15446
G1 X-3.813 Y-1.824 E47.19866
G1 X9.071 Y-1.824 E47.62718
G1 X9.071 Y0.375 E47.70032
G1 X-3.678 Y0.375 E48.12435
G1 X-4.759 Y0.731 E48.16221
G1 X-5.356 Y1.918 E48.2064
G1 X-5.356 Y8.531 E48.42635
G1 X-5 Y9.612 E48.4642
G1 X-3.813 Y10.209 E48.50839
G1 X10.646 Y10.209 E48.9893
G1 X10.646 Y13.083 E49.08489
G1 X-10.727 Y13.083 E49.79576
G1 X-10.727 Y-12.997 E50.66318
G1 X10.196 Y-12.997 E51.35909
G1 X10.196 Y-10.512 E51.44174
G1 X-3.678 Y-10.512 E51.90319
G1 X-4.759 Y-10.156 E51.94104
G1 X-5.356 Y-8.969 E51.98523
G0 F4800 X-4.956 Y-8.874
G1 F600 X-4.956 Y-3.566 E52.16178
G1 X-4.672 Y-2.704 E52.19197
G1 X-3.718 Y-2.224 E52.22749
G1 X9.471 Y-2.224 E52.66615
G1 X9.471 Y0.775 E52.7659
G1 X-3.614 Y0.775 E53.20111
G1 X-4.476 Y1.059 E53.2313
G1 X-4.956 Y2.013 E53.26682
G1 X-4.956 Y8.467 E53.48148
G1 X-4.672 Y9.329 E53.51166
G1 X-3.718 Y9.809 E53.54718
G1 X11.046 Y9.809 E54.03824
G1 X11.046 Y13.483 E54.16043
G1 X-11.127 Y13.483 E54.89791
G1 X-11.127 Y-13.397 E55.79194
G1 X10.596 Y-13.397 E56.51445
G1 X10.596 Y-10.112 E56.62371
G1 X-3.614 Y-10.112 E57.09634
G1 X-4.476 Y-9.828 E57.12652
G1 X-4.956 Y-8.874 E57.16204
G0 F4800 X-4.556 Y-8.779
G1 F600 X-4.556 Y-3.63 E57.3333
G1 X-4.344 Y-2.987 E57.35582
G1 X-3.623 Y-2.624 E57.38267
G1 X9.871 Y-2.624 E57.83148
G1 X9.871 Y1.175 E57.95784
G1 X-3.55 Y1.175 E58.40422
G1 X-4.193 Y1.387 E58.42674
G1 X-4.556 Y2.108 E58.45359
G1 X-4.556 Y8.403 E58.66296
G1 X-4.344 Y9.046 E58.68548
G1 X-3.623 Y9.409 E58.71233
G1 X11.446 Y9.409 E59.21352
G1 X11.446 Y13.883 E59.36233
G1 X-11.527 Y13.883 E60.12641
G1 X-11.527 Y-13.797 E61.04706
G1 X10.996 Y-13.797 E61.79617
G1 X10.996 Y-9.712 E61.93204
G1 X-3.55 Y-9.712 E62.41584
G1 X-4.193 Y-9.5 E62.43836
G1 X-4.556 Y-8.779 E62.46521
G0 F4800 X-7.927 Y-2.358
G1 F600 X-7.299 Y-.451 E62.53199
G1 X-7.927 Y0.798 E62.57849
G1 X-7.927 Y-2.358 E62.68345
G0 F4800 X-7.927 Y9.675
G1 F600 X-7.727 Y10.283 E62.70474
G1 X-7.927 Y10.283 E62.71139
G1 X-7.927 Y9.675 E62.73162
G0 F4800 X-8.01 Y9.525
;TYPE:SKIN
G1 F600 X-8.152 Y9.384 E62.73494
G0 F4800 X-8.152 Y9.101
G1 F600 X-7.766 Y9.486 E62.74401
G0 F4800 X-7.882 Y9.087
G1 F600 X-8.152 Y8.818 E62.75035
G0 F4800 X-7.93 Y8.756
G1 F600 X-8.152 Y8.535 E62.75556
G0 F4800 X-7.93 Y8.473
G1 F600 X-8.152 Y8.252 E62.76077
G0 F4800 X-7.93 Y8.191
G1 F600 X-8.152 Y7.969 E62.76599
G0 F4800 X-7.93 Y7.908
G1 F600 X-8.152 Y7.686 E62.77121
G0 F4800 X-7.93 Y7.625
G1 F600 X-8.152 Y7.404 E62.77642
G0 F4800 X-7.93 Y7.342
G1 F600 X-8.152 Y7.121 E62.78163
G0 F4800 X-7.93 Y7.059
G1 F600 X-8.152 Y6.838 E62.78684
G0 F4800 X-7.93 Y6.776
G1 F600 X-8.152 Y6.555 E62.79205
G0 F4800 X-7.93 Y6.494
G1 F600 X-8.152 Y6.272 E62.79727
G0 F4800 X-7.93 Y6.211
G1 F600 X-8.152 Y5.989 E62.80249
G0 F4800 X-7.93 Y5.928
G1 F600 X-8.152 Y5.707 E62.8077
G0 F4800 X-7.93 Y5.645
G1 F600 X-8.152 Y5.424 E62.81291
G0 F4800 X-7.93 Y5.362
G1 F600 X-8.151 Y5.142 E62.81809
G0 F4800 X-7.93 Y5.08
G1 F600 X-8.151 Y4.859 E62.82329
G0 F4800 X-7.93 Y4.797
G1 F600 X-8.151 Y4.576 E62.82849
G0 F4800 X-7.93 Y4.514
G1 F600 X-8.151 Y4.293 E62.83369
G0 F4800 X-7.93 Y4.232
G1 F600 X-8.151 Y4.01 E62.8389
G0 F4800 X-7.93 Y3.949
G1 F600 X-8.151 Y3.727 E62.84411
G0 F4800 X-7.93 Y3.666
G1 F600 X-8.151 Y3.445 E62.8493
G0 F4800 X-7.93 Y3.383
G1 F600 X-8.151 Y3.162 E62.8545
G0 F4800 X-7.93 Y3.1
G1 F600 X-8.151 Y2.879 E62.8597
G0 F4800 X-7.93 Y2.817
G1 F600 X-8.151 Y2.596 E62.8649
G0 F4800 X-7.93 Y2.534
G1 F600 X-8.151 Y2.313 E62.87009
G0 F4800 X-7.93 Y2.252
G1 F600 X-8.151 Y2.03 E62.8753
G0 F4800 X-7.93 Y1.969
G1 F600 X-8.151 Y1.747 E62.88051
G0 F4800 X-7.93 Y1.686
G1 F600 X-8.151 Y1.465 E62.88571
G0 F4800 X-7.93 Y1.403
G1 F600 X-8.151 Y1.182 E62.89091
G0 F4800 X-8.137 Y0.913
G1 F600 X-7.867 Y1.183 E62.89726
G0 F4800 X-7.702 Y-0.065
G1 F600 X-7.751 Y-.114 E62.89841
G0 F4800 X-7.597 Y-.243
G1 F600 X-7.751 Y-.397 E62.90203
G0 F4800 X-7.503 Y-.432
G1 F600 X-7.751 Y-.68 E62.90786
G0 F4800 X-7.601 Y-.813
G1 F600 X-7.751 Y-.963 E62.91139
G0 F4800 X-7.099 Y-.593
G1 F600 X-7.016 Y-.511 E62.91333
G0 F4800 X-5.996 Y-.905
G1 F600 X-5.864 Y-.773 E62.91644
G0 F4800 X-5.125 Y-.883
G1 F600 X-4.909 Y-.666 E62.92153
G0 F4800 X-4.088 Y-.694
G1 F600 X-3.954 Y-.56 E62.92468
G0 F4800 X-3.711 Y-.6
G1 F600 X-3.959 Y-.848 E62.93051
G0 F4800 X-3.676 Y-.848
G1 F600 X-3.428 Y-.6 E62.93634
G0 F4800 X-3.394 Y-.848
G1 F600 X-3.145 Y-.6 E62.94219
G0 F4800 X-3.111 Y-.848
G1 F600 X-2.863 Y-.6 E62.94802
G0 F4800 X-2.828 Y-.848
G1 F600 X-2.58 Y-.6 E62.95385
G0 F4800 X-2.545 Y-.848
G1 F600 X-2.297 Y-.6 E62.95969
G0 F4800 X-2.262 Y-.848
G1 F600 X-2.014 Y-.6 E62.96552
G0 F4800 X-1.979 Y-.848
G1 F600 X-1.731 Y-.6 E62.97135
G0 F4800 X-1.697 Y-.848
G1 F600 X-1.448 Y-.6 E62.9772
G0 F4800 X-1.414 Y-.848
G1 F600 X-1.166 Y-.6 E62.98303
G0 F4800 X-1.131 Y-.848
G1 F600 X-.883 Y-.6 E62.98886
G0 F4800 X-.848 Y-.848
G1 F600 X-.6 Y-.6 E62.99469
G0 F4800 X-.565 Y-.848
G1 F600 X-.317 Y-.6 E63.00053
G0 F4800 X-.282 Y-.848
G1 F600 X-0.034 Y-.6 E63.00636
G0 F4800 X0.00 Y-.848
G1 F600 X0.248 Y-.6 E63.01219
G0 F4800 X0.282 Y-.848
G1 F600 X0.531 Y-.6 E63.01804
G0 F4800 X0.565 Y-.848
G1 F600 X0.813 Y-.6 E63.02387
