;FLAVOR:Marlin
;TIME:2123
;Filament used: 1.83781m
;Layer height: 0.2
;MINX:-39.36
;MINY:-42.789
;MINZ:0.2
;MAXX:28.695
;MAXY:31.462
;MAXZ:3.8
;POSTPROCESSED
;Generated with Cura_SteamEngine 4.13.1
M82 ;absolute extrusion mode
START_PRINT BED_TEMP=80 EXTRUDER_TEMP=220.0
G92 E0
G92 E0
G1 F1800 E-2
;LAYER_COUNT:19
;LAYER:0
M107
G0 F4800 X25.67 Y-9.106 Z0.2
;TYPE:SKIRT
G1 F1800 E0
G1 F600 X26.776 Y-6.571 E0.09199
G1 X27.918 Y-4.141 E0.18129
G1 X28.323 Y-3.308 E0.2121
G1 X28.521 Y-2.81 E0.22992
G1 X28.642 Y-2.287 E0.24778
G1 X28.693 Y-1.518 E0.27341
G1 X28.695 Y-1.408 E0.27707
G1 X28.695 Y27.171 E1.22761
G1 X28.686 Y27.898 E1.25179
G1 X28.639 Y28.432 E1.26962
G1 X28.514 Y28.953 E1.28744
G1 X28.312 Y29.45 E1.30529
G1 X28.039 Y29.912 E1.32314
G1 X27.701 Y30.328 E1.34096
G1 X27.304 Y30.689 E1.35881
G1 X26.858 Y30.987 E1.37665
G1 X26.373 Y31.215 E1.39448
G1 X25.859 Y31.369 E1.41232
G1 X25.187 Y31.452 E1.43484
G1 X24.765 Y31.462 E1.44888
G1 X3.227 Y31.462 E2.16524
G1 X2.521 Y31.451 E2.18872
G1 X1.987 Y31.402 E2.20656
G1 X1.466 Y31.275 E2.2244
G1 X0.777 Y30.969 E2.24947
G1 X-0.011 Y30.514 E2.27973
G1 X-2.38 Y29.191 E2.36998
G1 X-4.804 Y27.927 E2.46091
G1 X-7.264 Y26.731 E2.55188
G1 X-9.76 Y25.604 E2.64297
G1 X-12.254 Y24.56 E2.7329
G1 X-14.847 Y23.561 E2.82532
G1 X-17.364 Y22.674 E2.91408
G1 X-19.963 Y21.839 E3.00488
G1 X-22.598 Y21.073 E3.09615
G1 X-25.23 Y20.388 E3.1866
G1 X-27.899 Y19.774 E3.27769
G1 X-30.553 Y19.24 E3.36773
G1 X-33.263 Y18.777 E3.45918
G1 X-36.007 Y18.387 E3.55136
G1 X-36.22 Y18.359 E3.5585
G1 X-36.745 Y18.25 E3.57634
G1 X-37.248 Y18.064 E3.59417
G1 X-37.718 Y17.805 E3.61202
G1 X-38.144 Y17.479 E3.62986
G1 X-38.517 Y17.094 E3.64769
G1 X-38.829 Y16.658 E3.66553
G1 X-39.072 Y16.18 E3.68336
G1 X-39.242 Y15.671 E3.70121
G1 X-39.35 Y14.888 E3.7275
G1 X-39.36 Y14.458 E3.7418
G1 X-39.36 Y9.405 E3.90987
G1 X-39.349 Y8.699 E3.93335
G1 X-39.269 Y8.001 E3.95672
G1 X-39.063 Y7.038 E3.98947
G1 X-38.845 Y6.088 E4.02189
G1 X-38.31 Y3.417 E4.11249
G1 X-37.854 Y0.748 E4.20255
G1 X-37.47 Y-1.953 E4.29329
G1 X-37.335 Y-2.999 E4.32837
G1 X-37.227 Y-3.525 E4.34623
G1 X-37.042 Y-4.028 E4.36406
G1 X-36.784 Y-4.498 E4.38189
G1 X-36.598 Y-4.759 E4.39255
G1 X-36.15 Y-5.33 E4.41669
G1 X-35.231 Y-6.469 E4.46536
G1 X-33.604 Y-8.609 E4.55478
G1 X-31.996 Y-10.849 E4.64649
G1 X-30.463 Y-13.12 E4.73762
G1 X-29.03 Y-15.378 E4.82657
G1 X-27.612 Y-17.758 E4.91871
G1 X-26.288 Y-20.131 E5.00909
G1 X-25.03 Y-22.543 E5.09957
G1 X-23.827 Y-25.016 E5.19104
G1 X-22.718 Y-27.472 E5.28067
G1 X-21.641 Y-30.047 E5.3735
G1 X-20.691 Y-32.519 E5.46158
G1 X-19.771 Y-35.127 E5.55356
G1 X-18.94 Y-37.711 E5.64384
G1 X-18.258 Y-40.055 E5.72504
G1 X-18.195 Y-40.256 E5.73204
G1 X-17.997 Y-40.754 E5.74987
G1 X-17.727 Y-41.217 E5.7677
G1 X-17.391 Y-41.636 E5.78556
G1 X-16.997 Y-41.999 E5.80338
G1 X-16.554 Y-42.3 E5.82119
G1 X-16.07 Y-42.532 E5.83904
G1 X-15.557 Y-42.69 E5.8569
G1 X-14.872 Y-42.777 E5.87986
G1 X-14.439 Y-42.789 E5.89427
G1 X14.176 Y-42.789 E6.84601
G1 X14.874 Y-42.779 E6.86923
G1 X15.408 Y-42.731 E6.88706
G1 X15.929 Y-42.605 E6.90489
G1 X16.426 Y-42.402 E6.92274
G1 X16.887 Y-42.128 E6.94058
G1 X17.302 Y-41.789 E6.9584
G1 X17.662 Y-41.391 E6.97625
G1 X17.959 Y-40.945 E6.99407
G1 X18.187 Y-40.459 E7.01193
G1 X18.339 Y-39.945 E7.02976
G1 X18.409 Y-39.488 E7.04513
G1 X18.529 Y-38.097 E7.09157
G1 X18.801 Y-35.378 E7.18246
G1 X19.15 Y-32.688 E7.27268
G1 X19.578 Y-29.973 E7.36409
G1 X20.073 Y-27.333 E7.45343
G1 X20.656 Y-24.637 E7.54517
G1 X21.3 Y-22.023 E7.63471
G1 X22.038 Y-19.355 E7.72678
G1 X22.835 Y-16.76 E7.81707
G1 X23.709 Y-14.178 E7.90774
G1 X24.655 Y-11.625 E7.99829
G1 X25.67 Y-9.106 E8.08862
G0 F4800 X25.303 Y-8.946
G1 F600 X26.405 Y-6.42 E8.18028
G1 X27.558 Y-3.966 E8.27046
G1 X27.963 Y-3.133 E8.30127
G1 X28.147 Y-2.662 E8.31809
G1 X28.255 Y-2.169 E8.33487
G1 X28.293 Y-1.506 E8.35696
G1 X28.295 Y-1.408 E8.36022
G1 X28.295 Y27.166 E9.3106
G1 X28.286 Y27.893 E9.33478
G1 X28.24 Y28.396 E9.35158
G1 X28.115 Y28.886 E9.3684
G1 X27.914 Y29.35 E9.38522
G1 X27.643 Y29.777 E9.40204
G1 X27.308 Y30.156 E9.41886
G1 X26.918 Y30.477 E9.43566
G1 X26.482 Y30.733 E9.45248
G1 X26.011 Y30.916 E9.46928
G1 X25.517 Y31.024 E9.4861
G1 X24.855 Y31.061 E9.50815
G1 X3.233 Y31.062 E10.22731
G1 X2.527 Y31.051 E10.25079
G1 X2.024 Y31.003 E10.2676
G1 X1.534 Y30.876 E10.28443
G1 X0.977 Y30.622 E10.30479
G1 X0.229 Y30.19 E10.33352
G1 X-2.206 Y28.83 E10.42629
G1 X-4.623 Y27.57 E10.51694
G1 X-7.103 Y26.365 E10.60865
G1 X-9.577 Y25.247 E10.69895
G1 X-12.105 Y24.19 E10.79008
G1 X-14.707 Y23.187 E10.88283
G1 X-17.246 Y22.292 E10.97237
G1 X-19.844 Y21.457 E11.06314
G1 X-22.49 Y20.688 E11.15479
G1 X-25.145 Y19.997 E11.24603
G1 X-27.795 Y19.387 E11.33648
G1 X-30.518 Y18.839 E11.42886
G1 X-33.17 Y18.387 E11.51834
G1 X-35.917 Y17.996 E11.61062
G1 X-36.168 Y17.963 E11.61904
G1 X-36.663 Y17.857 E11.63588
G1 X-37.134 Y17.676 E11.65266
G1 X-37.572 Y17.422 E11.6695
G1 X-37.963 Y17.102 E11.68631
G1 X-38.3 Y16.725 E11.70313
G1 X-38.573 Y16.299 E11.71996
G1 X-38.775 Y15.836 E11.73676
G1 X-38.902 Y15.347 E11.75356
G1 X-38.959 Y14.545 E11.7803
G1 X-38.96 Y9.411 E11.95106
G1 X-38.949 Y8.705 E11.97455
G1 X-38.878 Y8.085 E11.9953
G1 X-38.673 Y7.128 E12.02785
G1 X-38.458 Y6.191 E12.05983
G1 X-37.918 Y3.491 E12.15141
G1 X-37.457 Y0.8 E12.24222
G1 X-37.08 Y-1.857 E12.33147
G1 X-36.939 Y-2.948 E12.36806
G1 X-36.834 Y-3.443 E12.38489
G1 X-36.654 Y-3.915 E12.40169
G1 X-36.284 Y-4.512 E12.42505
G1 X-35.839 Y-5.079 E12.44903
G1 X-34.918 Y-6.221 E12.49782
G1 X-33.276 Y-8.379 E12.58801
G1 X-31.656 Y-10.637 E12.68044
G1 X-30.154 Y-12.862 E12.76973
G1 X-28.666 Y-15.206 E12.86208
G1 X-27.277 Y-17.537 E12.95233
G1 X-25.927 Y-19.957 E13.04449
G1 X-24.673 Y-22.362 E13.1347
G1 X-23.467 Y-24.842 E13.22642
G1 X-22.35 Y-27.315 E13.31668
G1 X-21.279 Y-29.874 E13.40894
G1 X-20.312 Y-32.391 E13.49863
G1 X-19.389 Y-35.009 E13.59095
G1 X-18.561 Y-37.582 E13.68085
G1 X-17.877 Y-39.935 E13.76235
G1 X-17.814 Y-40.136 E13.76936
G1 X-17.625 Y-40.605 E13.78618
G1 X-17.364 Y-41.038 E13.80299
G1 X-17.039 Y-41.425 E13.8198
G1 X-16.657 Y-41.756 E13.83661
G1 X-16.227 Y-42.023 E13.85345
G1 X-15.761 Y-42.218 E13.87025
G1 X-15.27 Y-42.338 E13.88706
G1 X-14.539 Y-42.387 E13.91143
G1 X-14.439 Y-42.389 E13.91476
G1 X14.17 Y-42.389 E14.8663
G1 X14.868 Y-42.379 E14.88951
G1 X15.371 Y-42.332 E14.90632
G1 X15.861 Y-42.206 E14.92314
G1 X16.325 Y-42.004 E14.93998
G1 X16.751 Y-41.732 E14.95679
G1 X17.129 Y-41.397 E14.97359
G1 X17.449 Y-41.006 E14.99039
G1 X17.704 Y-40.569 E15.00722
G1 X17.887 Y-40.098 E15.02402
G1 X18.01 Y-39.454 E15.04583
G1 X18.126 Y-38.106 E15.09083
G1 X18.401 Y-35.357 E15.18272
G1 X18.757 Y-32.611 E15.27482
G1 X19.184 Y-29.902 E15.36603
G1 X19.681 Y-27.253 E15.45567
G1 X20.27 Y-24.529 E15.54837
G1 X20.913 Y-21.917 E15.63784
G1 X21.646 Y-19.268 E15.72925
G1 X22.457 Y-16.63 E15.82105
G1 X23.331 Y-14.047 E15.91174
G1 X24.285 Y-11.472 E16.00308
G1 X25.303 Y-8.946 E16.09366
G1 F1800 E14.09366
;MESH:F.stl
G0 F4800 X10.646 Y-9.368
G1 F1800 E16.09366
G0 F4800 X10.66 Y-9.354
;TYPE:WALL-INNER
G1 F600 X-2.245 Y-9.354 E16.52288
G1 X-2.692 Y-9.207 E16.53853
G1 X-2.949 Y-8.696 E16.55756
G1 X-2.949 Y-3.219 E16.73972
G1 X-2.802 Y-2.772 E16.75537
G1 X-2.291 Y-2.515 E16.7744
G1 X8.675 Y-2.515 E17.13913
G1 X8.675 Y1.942 E17.28737
G1 X-2.245 Y1.942 E17.65057
G1 X-2.692 Y2.089 E17.66622
G1 X-2.949 Y2.6 E17.68524
G1 X-2.949 Y14.2 E18.07106
G1 X-10.66 Y14.2 E18.32753
G1 X-10.66 Y-14.2 E19.27212
G1 X10.66 Y-14.2 E19.98122
G1 X10.66 Y-9.354 E20.1424
G0 F4800 X11.06 Y-8.954
;TYPE:WALL-OUTER
G1 F600 X-2.181 Y-8.954 E20.5828
G1 X-2.409 Y-8.879 E20.59078
G1 X-2.549 Y-8.601 E20.60114
G1 X-2.549 Y-3.283 E20.77801
G1 X-2.474 Y-3.055 E20.786
G1 X-2.196 Y-2.915 E20.79635
G1 X9.075 Y-2.915 E21.17122
G1 X9.075 Y2.342 E21.34607
G1 X-2.181 Y2.342 E21.72045
G1 X-2.409 Y2.417 E21.72843
G1 X-2.549 Y2.695 E21.73878
G1 X-2.549 Y14.6 E22.13475
G1 X-11.06 Y14.6 E22.41782
G1 X-11.06 Y-14.6 E23.38902
G1 X11.06 Y-14.6 E24.12473
G1 X11.06 Y-8.954 E24.31252
G0 F4800 X10.86 Y-8.954
G0 X10.59 Y-9.424
G0 X-6.7 Y-10.052
;TYPE:SKIN
G1 F600 X-6.7 Y-10.24 E24.31877
G1 X-6.605 Y-10.24 E24.32193
G1 X-6.7 Y-10.052 E24.32894
G0 F4800 X-6.509 Y-9.541
G1 F600 X-6.509 Y-2.649 E24.55817
G1 X-5.721 Y-.254 E24.64203
G1 X-5.544 Y-.165 E24.64861
G1 X-6.509 Y1.755 E24.72009
G1 X-6.509 Y10.64 E25.0156
G1 X-7.1 Y10.64 E25.03526
G1 X-7.1 Y-10.64 E25.74304
G1 X-5.957 Y-10.64 E25.78105
G1 X-6.509 Y-9.541 E25.82196
G0 F4800 X-6.109 Y-9.446
G1 F600 X-6.109 Y-2.713 E26.0459
G1 X-5.393 Y-.537 E26.12209
G1 X-5.007 Y-.343 E26.13646
G1 X-6.109 Y1.85 E26.21809
G1 X-6.109 Y11.04 E26.52375
G1 X-7.5 Y11.04 E26.57001
G1 X-7.5 Y-11.04 E27.3044
G1 X-5.308 Y-11.04 E27.3773
G1 X-6.109 Y-9.446 E27.43664
G0 F4800 X-5.709 Y-9.351
G1 F600 X-5.709 Y-2.777 E27.65529
G1 X-5.065 Y-.82 E27.72381
G1 X-4.121 Y-.346 E27.75895
G1 X-4.644 Y-.174 E27.77726
G1 X-5.709 Y1.945 E27.85614
G1 X-5.709 Y11.44 E28.17194
G1 X-7.9 Y11.44 E28.24481
G1 X-7.9 Y-11.44 E29.00581
G1 X-4.659 Y-11.44 E29.1136
G1 X-5.709 Y-9.351 E29.19137
G0 F4800 X-5.309 Y-9.256
G1 F600 X-5.309 Y-2.841 E29.40473
G1 X-4.737 Y-1.103 E29.46559
G1 X-3.077 Y-.269 E29.52737
G1 X-4.361 Y0.154 E29.57234
G1 X-5.309 Y2.04 E29.64255
G1 X-5.309 Y11.84 E29.96849
G1 X-8.3 Y11.84 E30.06798
G1 X-8.3 Y-11.84 E30.85558
G1 X8.3 Y-11.84 E31.40769
G1 X8.3 Y-11.714 E31.41189
G1 X-2.623 Y-11.714 E31.77519
G1 X-4.361 Y-11.142 E31.83604
G1 X-5.309 Y-9.256 E31.90625
G0 F4800 X-4.909 Y-9.161
G1 F600 X-4.909 Y-2.905 E32.11432
G1 X-4.409 Y-1.386 E32.16751
G1 X-2.756 Y-.555 E32.22905
G1 X6.715 Y-.555 E32.54406
G1 X6.715 Y-0.018 E32.56192
G1 X-2.559 Y-0.018 E32.87037
G1 X-4.078 Y0.482 E32.92356
G1 X-4.909 Y2.135 E32.98509
G1 X-4.909 Y12.24 E33.32119
G1 X-8.7 Y12.24 E33.44728
G1 X-8.7 Y-12.24 E34.26149
G1 X8.7 Y-12.24 E34.84021
G1 X8.7 Y-11.314 E34.87101
G1 X-2.559 Y-11.314 E35.24549
G1 X-4.078 Y-10.814 E35.29868
G1 X-4.909 Y-9.161 E35.36021
G0 F4800 X-4.509 Y-9.066
G1 F600 X-4.509 Y-2.969 E35.563
G1 X-4.081 Y-1.669 E35.60852
G1 X-2.661 Y-.955 E35.66138
G1 X7.115 Y-.955 E35.98653
G1 X7.115 Y0.382 E36.031
G1 X-2.495 Y0.382 E36.35063
G1 X-3.795 Y0.81 E36.39615
G1 X-4.509 Y2.23 E36.44902
G1 X-4.509 Y12.64 E36.79526
G1 X-9.1 Y12.64 E36.94795
G1 X-9.1 Y-12.64 E37.78877
G1 X9.1 Y-12.64 E38.3941
G1 X9.1 Y-10.914 E38.45151
G1 X-2.495 Y-10.914 E38.83716
G1 X-3.795 Y-10.486 E38.88268
G1 X-4.509 Y-9.066 E38.93555
G0 F4800 X-4.109 Y-8.971
G1 F600 X-4.109 Y-3.033 E39.13305
G1 X-3.753 Y-1.952 E39.1709
G1 X-2.566 Y-1.355 E39.21509
G1 X7.515 Y-1.355 E39.55039
G1 X7.515 Y0.782 E39.62146
G1 X-2.431 Y0.782 E39.95227
G1 X-3.512 Y1.138 E39.99012
G1 X-4.109 Y2.325 E40.03431
G1 X-4.109 Y13.04 E40.3907
G1 X-9.5 Y13.04 E40.57
G1 X-9.5 Y-13.04 E41.43743
G1 X9.5 Y-13.04 E42.06937
G1 X9.5 Y-10.514 E42.15338
G1 X-2.431 Y-10.514 E42.55021
G1 X-3.512 Y-10.158 E42.58806
G1 X-4.109 Y-8.971 E42.63226
G0 F4800 X-3.709 Y-8.876
G1 F600 X-3.709 Y-3.097 E42.82447
G1 X-3.425 Y-2.235 E42.85465
G1 X-2.471 Y-1.755 E42.89017
G1 X7.915 Y-1.755 E43.23561
G1 X7.915 Y1.182 E43.3333
G1 X-2.367 Y1.182 E43.67528
G1 X-3.229 Y1.466 E43.70547
G1 X-3.709 Y2.42 E43.74099
G1 X-3.709 Y13.44 E44.10751
G1 X-9.9 Y13.44 E44.31343
G1 X-9.9 Y-13.44 E45.20746
G1 X9.9 Y-13.44 E45.86601
G1 X9.9 Y-10.114 E45.97663
G1 X-2.367 Y-10.114 E46.38463
G1 X-3.229 Y-9.83 E46.41482
G1 X-3.709 Y-8.876 E46.45034
G0 F4800 X-3.309 Y-8.781
G1 F600 X-3.309 Y-3.161 E46.63726
G1 X-3.097 Y-2.518 E46.65978
G1 X-2.376 Y-2.155 E46.68663
G1 X8.315 Y-2.155 E47.04221
G1 X8.315 Y1.582 E47.16651
G1 X-2.303 Y1.582 E47.51966
G1 X-2.946 Y1.794 E47.54218
G1 X-3.309 Y2.515 E47.56903
G1 X-3.309 Y13.84 E47.9457
G1 X-10.3 Y13.84 E48.17822
G1 X-10.3 Y-13.84 E49.09886
G1 X10.3 Y-13.84 E49.78402
G1 X10.3 Y-9.714 E49.92125
G1 X-2.303 Y-9.714 E50.34043
G1 X-2.946 Y-9.502 E50.36295
G1 X-3.309 Y-8.781 E50.3898
G0 F4800 X-6.7 Y-1.95
G1 F600 X-6.065 Y-0.019 E50.45741
G1 X-6.7 Y1.244 E50.50442
G1 X-6.7 Y-1.95 E50.61066
G0 F4800 X-6.646 Y-2.121
;TYPE:SKIN
G1 F600 X-6.924 Y-2.399 E50.6172
G0 F4800 X-6.924 Y-2.682
G1 F600 X-6.593 Y-2.351 E50.62498
G0 F4800 X-6.683 Y-2.723
G1 F600 X-6.924 Y-2.964 E50.63065
G0 F4800 X-6.683 Y-3.006
G1 F600 X-6.924 Y-3.247 E50.63632
G0 F4800 X-6.683 Y-3.289
G1 F600 X-6.924 Y-3.53 E50.64198
G0 F4800 X-6.683 Y-3.572
G1 F600 X-6.924 Y-3.813 E50.64765
G0 F4800 X-6.683 Y-3.855
G1 F600 X-6.924 Y-4.096 E50.65332
G0 F4800 X-6.683 Y-4.137
G1 F600 X-6.924 Y-4.379 E50.659
G0 F4800 X-6.683 Y-4.42
G1 F600 X-6.924 Y-4.661 E50.66467
G0 F4800 X-6.683 Y-4.703
G1 F600 X-6.924 Y-4.944 E50.67034
G0 F4800 X-6.683 Y-4.986
G1 F600 X-6.924 Y-5.227 E50.676
G0 F4800 X-6.683 Y-5.269
G1 F600 X-6.924 Y-5.51 E50.68167
G0 F4800 X-6.683 Y-5.552
G1 F600 X-6.924 Y-5.793 E50.68734
G0 F4800 X-6.683 Y-5.835
G1 F600 X-6.925 Y-6.076 E50.69302
G0 F4800 X-6.683 Y-6.117
G1 F600 X-6.925 Y-6.359 E50.69871
G0 F4800 X-6.683 Y-6.4
G1 F600 X-6.925 Y-6.642 E50.7044
G0 F4800 X-6.683 Y-6.683
G1 F600 X-6.925 Y-6.925 E50.71009
G0 F4800 X-6.683 Y-6.966
G1 F600 X-6.925 Y-7.208 E50.71578
G0 F4800 X-6.683 Y-7.249
G1 F600 X-6.925 Y-7.491 E50.72148
G0 F4800 X-6.683 Y-7.532
G1 F600 X-6.925 Y-7.773 E50.72716
G0 F4800 X-6.683 Y-7.814
G1 F600 X-6.925 Y-8.056 E50.73285
G0 F4800 X-6.683 Y-8.097
G1 F600 X-6.925 Y-8.339 E50.73854
G0 F4800 X-6.683 Y-8.38
G1 F600 X-6.925 Y-8.622 E50.74423
G0 F4800 X-6.683 Y-8.663
G1 F600 X-6.925 Y-8.905 E50.74992
G0 F4800 X-6.683 Y-8.946
G1 F600 X-6.925 Y-9.188 E50.75561
G0 F4800 X-6.683 Y-9.229
G1 F600 X-6.925 Y-9.47 E50.76129
G0 F4800 X-6.683 Y-9.512
G1 F600 X-6.925 Y-9.753 E50.76697
G0 F4800 X-6.798 Y-9.91
G1 F600 X-6.611 Y-9.722 E50.77138
G0 F4800 X-4.538 Y-11.326
G1 F600 X-4.493 Y-11.281 E50.77244
G0 F4800 X-4.28 Y-11.351
G1 F600 X-4.443 Y-11.514 E50.77627
G0 F4800 X-4.309 Y-11.663
G1 F600 X-4.067 Y-11.421 E50.78197
G0 F4800 X-3.855 Y-11.491
G1 F600 X-4.026 Y-11.663 E50.786
G0 F4800 X-3.744 Y-11.663
G1 F600 X-3.642 Y-11.561 E50.7884
G0 F4800 X-6.924 Y-2.116
G1 F600 X-6.89 Y-2.081 E50.78921
G0 F4800 X-6.524 Y-.584
G1 F600 X-6.39 Y-.45 E50.79236
G0 F4800 X-6.524 Y-.301
G1 F600 X-6.254 Y-0.031 E50.79871
G0 F4800 X-6.348 Y0.156
G1 F600 X-6.524 Y-0.019 E50.80284
G0 F4800 X-6.524 Y0.263
G1 F600 X-6.443 Y0.345 E50.80476
G0 F4800 X-6.822 Y1.38
G1 F600 X-6.617 Y1.584 E50.80956
G0 F4800 X-6.683 Y1.801
G1 F600 X-6.924 Y1.56 E50.81523
G0 F4800 X-6.924 Y1.843
G1 F600 X-6.683 Y2.084 E50.8209
G0 F4800 X-6.924 Y2.126
G1 F600 X-6.683 Y2.367 E50.82657
G0 F4800 X-6.924 Y2.409
G1 F600 X-6.683 Y2.65 E50.83224
G0 F4800 X-6.924 Y2.691
G1 F600 X-6.683 Y2.933 E50.83792
G0 F4800 X-6.924 Y2.974
G1 F600 X-6.683 Y3.215 E50.84358
G0 F4800 X-6.924 Y3.257
G1 F600 X-6.683 Y3.498 E50.84925
G0 F4800 X-6.924 Y3.54
G1 F600 X-6.683 Y3.781 E50.85492
G0 F4800 X-6.924 Y3.823
G1 F600 X-6.683 Y4.064 E50.86059
G0 F4800 X-6.924 Y4.106
G1 F600 X-6.683 Y4.347 E50.86626
G0 F4800 X-6.924 Y4.389
G1 F600 X-6.683 Y4.63 E50.87192
G0 F4800 X-6.924 Y4.671
G1 F600 X-6.683 Y4.912 E50.87759
G0 F4800 X-6.924 Y4.954
G1 F600 X-6.683 Y5.195 E50.88326
G0 F4800 X-6.924 Y5.237
G1 F600 X-6.683 Y5.478 E50.88893
G0 F4800 X-6.924 Y5.52
G1 F600 X-6.683 Y5.761 E50.8946
G0 F4800 X-6.924 Y5.803
G1 F600 X-6.683 Y6.044 E50.90026
G0 F4800 X-6.924 Y6.086
G1 F600 X-6.683 Y6.327 E50.90593
G0 F4800 X-6.924 Y6.368
G1 F600 X-6.683 Y6.61 E50.91161
G0 F4800 X-6.924 Y6.651
G1 F600 X-6.683 Y6.892 E50.91728
G0 F4800 X-6.924 Y6.934
G1 F600 X-6.683 Y7.175 E50.92295
G0 F4800 X-6.924 Y7.217
G1 F600 X-6.683 Y7.458 E50.92862
G0 F4800 X-6.924 Y7.5
G1 F600 X-6.683 Y7.741 E50.93428
G0 F4800 X-6.924 Y7.783
G1 F600 X-6.683 Y8.024 E50.93995
G0 F4800 X-6.924 Y8.065
G1 F600 X-6.683 Y8.307 E50.94563
G0 F4800 X-6.924 Y8.348
G1 F600 X-6.683 Y8.589 E50.9513
G0 F4800 X-6.924 Y8.631
G1 F600 X-6.683 Y8.872 E50.95697
G0 F4800 X-6.924 Y8.914
G1 F600 X-6.683 Y9.155 E50.96263
G0 F4800 X-6.924 Y9.197
G1 F600 X-6.683 Y9.438 E50.9683
G0 F4800 X-6.924 Y9.48
G1 F600 X-6.683 Y9.721 E50.97397
G0 F4800 X-6.924 Y9.763
G1 F600 X-6.683 Y10.004 E50.97964
G0 F4800 X-6.924 Y10.045
G1 F600 X-6.683 Y10.286 E50.98531
G0 F4800 X-6.788 Y10.464
G1 F600 X-6.924 Y10.328 E50.98851
G0 F4800 X-3.868 Y-.191
