;FLAVOR:Marlin
;TIME:2930
;Filament used: 2.53167m
;Layer height: 0.2
;MINX:-47.018
;MINY:-35.427
;MINZ:0.2
;MAXX:47.457
;MAXY:45.81
;MAXZ:3.8
;POSTPROCESSED
;Generated with Cura_SteamEngine 4.13.1
M82 ;absolute extrusion mode
START_PRINT BED_TEMP=80 EXTRUDER_TEMP=220.0
G92 E0
G92 E0
G1 F1800 E-2
;LAYER_COUNT:19
;LAYER:0
M107
G0 F4800 X-11.339 Y-16.657 Z0.2
;TYPE:SKIRT
G1 F1800 E0
G1 F600 X-10.52 Y-17.186 E0.03243
G1 X-9.941 Y-17.549 E0.05516
G1 X-9.494 Y-17.802 E0.07224
G1 X-9.223 Y-17.943 E0.0824
G1 X-8.116 Y-18.504 E0.12368
G1 X-7.542 Y-18.785 E0.14493
G1 X-7.259 Y-18.909 E0.15521
G1 X-6.447 Y-19.223 E0.18417
G1 X-5.187 Y-19.689 E0.22885
G1 X-5.097 Y-19.732 E0.23217
G1 X-3.813 Y-20.205 E0.27768
G1 X-1.27 Y-21.227 E0.36883
G1 X1.228 Y-22.312 E0.45942
G1 X3.703 Y-23.472 E0.55033
G1 X6.12 Y-24.69 E0.64035
G1 X8.552 Y-26.002 E0.73226
G1 X10.87 Y-27.339 E0.82126
G1 X13.218 Y-28.783 E0.91294
G1 X14.884 Y-29.888 E0.97943
G1 X15.102 Y-30.01 E0.98774
G1 X17.697 Y-31.731 E1.09131
G1 X18.322 Y-32.133 E1.11602
G1 X19.08 Y-32.554 E1.14486
G1 X20.253 Y-33.163 E1.18882
G1 X20.864 Y-33.469 E1.21155
G1 X21.376 Y-33.697 E1.23019
G1 X22.643 Y-34.199 E1.27552
G1 X23.265 Y-34.435 E1.29765
G1 X23.573 Y-34.537 E1.30844
G1 X24.627 Y-34.83 E1.34482
G1 X25.093 Y-34.95 E1.36083
G1 X25.781 Y-35.118 E1.38438
G1 X26.189 Y-35.193 E1.39818
G1 X27.114 Y-35.308 E1.42918
G1 X27.583 Y-35.358 E1.44487
G1 X28.162 Y-35.412 E1.46421
G1 X28.591 Y-35.427 E1.47849
G1 X29.792 Y-35.394 E1.51845
G1 X29.95 Y-35.387 E1.52371
G1 X30.692 Y-35.34 E1.54844
G1 X31.425 Y-35.233 E1.57308
G1 X32.363 Y-35.041 E1.60492
G1 X32.942 Y-34.912 E1.62465
G1 X33.347 Y-34.796 E1.63866
G1 X34.484 Y-34.398 E1.67873
G1 X34.667 Y-34.329 E1.68523
G1 X35.282 Y-34.089 E1.70719
G1 X35.658 Y-33.916 E1.72096
G1 X36.451 Y-33.495 E1.75082
G1 X36.874 Y-33.262 E1.76688
G1 X37.485 Y-32.914 E1.79027
G1 X37.958 Y-32.603 E1.8091
G1 X38.306 Y-32.351 E1.82339
G1 X38.926 Y-31.891 E1.84906
G1 X39.505 Y-31.449 E1.87329
G1 X39.956 Y-31.058 E1.89314
G1 X40.804 Y-30.245 E1.93222
G1 X41.295 Y-29.76 E1.95517
G1 X41.51 Y-29.527 E1.96572
G1 X42.113 Y-28.815 E1.99675
G1 X42.54 Y-28.292 E2.01921
G1 X42.97 Y-27.751 E2.04219
G1 X43.145 Y-27.512 E2.05204
G1 X43.539 Y-26.921 E2.07567
G1 X44.023 Y-26.173 E2.1053
G1 X44.433 Y-25.52 E2.13095
G1 X44.79 Y-24.872 E2.15555
G1 X45.346 Y-23.778 E2.19637
G1 X45.662 Y-23.134 E2.22023
G1 X45.786 Y-22.85 E2.23053
G1 X46.094 Y-22.055 E2.25889
G1 X46.377 Y-21.288 E2.28608
G1 X46.615 Y-20.61 E2.30998
G1 X46.77 Y-20.061 E2.32896
G1 X46.794 Y-19.965 E2.33225
G1 X47.049 Y-18.85 E2.37029
G1 X47.205 Y-18.121 E2.39509
G1 X47.28 Y-17.629 E2.41164
G1 X47.336 Y-17.07 E2.43032
G1 X47.402 Y-16.295 E2.45619
G1 X47.451 Y-15.625 E2.47854
G1 X47.457 Y-15.202 E2.49261
G1 X47.414 Y-14.228 E2.52503
G1 X47.385 Y-13.752 E2.5409
G1 X47.329 Y-13.019 E2.56535
G1 X47.203 Y-12.246 E2.5914
G1 X46.988 Y-11.275 E2.62447
G1 X46.809 Y-10.524 E2.65015
G1 X46.605 Y-9.892 E2.67224
G1 X46.512 Y-9.647 E2.68096
G1 X46.172 Y-8.787 E2.71171
G1 X45.894 Y-8.115 E2.7359
G1 X45.702 Y-7.716 E2.75063
G1 X44.734 Y-5.922 E2.81843
G1 X43.517 Y-3.506 E2.90841
G1 X42.355 Y-1.029 E2.99941
G1 X41.274 Y1.457 E3.08957
G1 X40.237 Y4.034 E3.18196
G1 X39.306 Y6.567 E3.27172
G1 X38.438 Y9.139 E3.362
G1 X37.639 Y11.75 E3.45282
G1 X36.916 Y14.377 E3.54344
G1 X36.269 Y17.014 E3.63375
G1 X35.686 Y19.716 E3.72569
G1 X35.192 Y22.386 E3.816
G1 X34.773 Y25.051 E3.90573
G1 X34.422 Y27.796 E3.99777
G1 X34.333 Y28.669 E4.02696
G1 X34.255 Y29.267 E4.04702
G1 X34.01 Y30.589 E4.09173
G1 X33.984 Y30.716 E4.09605
G1 X33.855 Y31.295 E4.11578
G1 X33.739 Y31.7 E4.12979
G1 X33.369 Y32.758 E4.16707
G1 X33.328 Y32.87 E4.17103
G1 X33.036 Y33.624 E4.19793
G1 X32.86 Y34.009 E4.21201
G1 X32.441 Y34.801 E4.24181
G1 X32.197 Y35.242 E4.25857
G1 X31.855 Y35.841 E4.28151
G1 X31.546 Y36.311 E4.30022
G1 X31.294 Y36.659 E4.31451
G1 X30.834 Y37.279 E4.34019
G1 X30.392 Y37.858 E4.36442
G1 X30.001 Y38.309 E4.38427
G1 X29.188 Y39.157 E4.42334
G1 X28.706 Y39.644 E4.44613
G1 X28.476 Y39.856 E4.45653
G1 X27.709 Y40.506 E4.48997
G1 X27.236 Y40.893 E4.5103
G1 X26.696 Y41.322 E4.53324
G1 X26.407 Y41.531 E4.5451
G1 X25.875 Y41.886 E4.56637
G1 X25.072 Y42.405 E4.59817
G1 X24.473 Y42.78 E4.62168
G1 X24.028 Y43.032 E4.63869
G1 X23.757 Y43.173 E4.64885
G1 X22.65 Y43.734 E4.69013
G1 X22.076 Y44.015 E4.71138
G1 X21.793 Y44.139 E4.72166
G1 X20.98 Y44.453 E4.75065
G1 X20.225 Y44.732 E4.77742
G1 X19.581 Y44.96 E4.80014
G1 X19.009 Y45.122 E4.81991
G1 X18.908 Y45.147 E4.82337
G1 X17.789 Y45.403 E4.86155
G1 X17.041 Y45.562 E4.88699
G1 X16.086 Y45.681 E4.919
G1 X15.259 Y45.754 E4.94661
G1 X14.57 Y45.804 E4.96959
G1 X14.148 Y45.81 E4.98362
G1 X13.161 Y45.766 E5.01648
G1 X12.711 Y45.739 E5.03148
G1 X11.972 Y45.683 E5.05613
G1 X11.162 Y45.55 E5.08343
G1 X11.064 Y45.53 E5.08676
G1 X10.167 Y45.33 E5.11732
G1 X9.459 Y45.16 E5.14154
G1 X8.824 Y44.954 E5.16374
G1 X8.72 Y44.915 E5.16744
G1 X7.653 Y44.494 E5.20559
G1 X7.102 Y44.267 E5.22541
G1 X6.355 Y43.935 E5.2526
G1 X4.899 Y43.262 E5.30595
G1 X2.406 Y42.194 E5.39615
G1 X-.155 Y41.179 E5.48778
G1 X-2.688 Y40.261 E5.57739
G1 X-5.281 Y39.403 E5.66823
G1 X-7.908 Y38.613 E5.75947
G1 X-10.515 Y37.911 E5.84927
G1 X-13.179 Y37.272 E5.94039
G1 X-15.872 Y36.706 E6.03191
G1 X-18.512 Y36.231 E6.12113
G1 X-21.245 Y35.817 E6.21307
G1 X-23.935 Y35.487 E6.30321
G1 X-26.619 Y35.235 E6.39287
G1 X-28.826 Y35.094 E6.46643
G1 X-28.909 Y35.082 E6.46921
G1 X-30.24 Y35 E6.51357
G1 X-30.983 Y34.892 E6.53854
G1 X-31.084 Y34.873 E6.54196
G1 X-31.905 Y34.703 E6.56984
G1 X-32.505 Y34.57 E6.59028
G1 X-32.916 Y34.453 E6.6045
G1 X-33.975 Y34.082 E6.64182
G1 X-34.088 Y34.04 E6.64583
G1 X-34.84 Y33.748 E6.67266
G1 X-35.223 Y33.573 E6.68666
G1 X-36.002 Y33.159 E6.71601
G1 X-36.451 Y32.912 E6.73305
G1 X-37.056 Y32.566 E6.75623
G1 X-37.534 Y32.252 E6.77525
G1 X-37.836 Y32.032 E6.78768
G1 X-38.513 Y31.53 E6.81571
G1 X-39.056 Y31.116 E6.83842
G1 X-39.523 Y30.711 E6.85898
G1 X-40.321 Y29.946 E6.89575
G1 X-40.853 Y29.421 E6.92061
G1 X-41.071 Y29.186 E6.93127
G1 X-41.718 Y28.421 E6.96459
G1 X-42.101 Y27.951 E6.98476
G1 X-42.531 Y27.41 E7.00775
G1 X-42.706 Y27.171 E7.0176
G1 X-43.095 Y26.588 E7.04091
G1 X-43.624 Y25.769 E7.07334
G1 X-43.987 Y25.19 E7.09607
G1 X-44.24 Y24.741 E7.11321
G1 X-44.383 Y24.464 E7.12358
G1 X-44.917 Y23.411 E7.16284
G1 X-45.223 Y22.789 E7.1859
G1 X-45.35 Y22.501 E7.19637
G1 X-45.647 Y21.732 E7.22379
G1 X-45.95 Y20.913 E7.25283
G1 X-46.17 Y20.288 E7.27487
G1 X-46.328 Y19.734 E7.29403
G1 X-46.6 Y18.554 E7.33431
G1 X-46.77 Y17.758 E7.36138
G1 X-46.84 Y17.298 E7.37685
G1 X-46.901 Y16.675 E7.39768
G1 X-46.96 Y15.988 E7.42061
G1 X-47.012 Y15.271 E7.44452
G1 X-47.018 Y14.852 E7.45846
G1 X-46.974 Y13.882 E7.49075
G1 X-46.943 Y13.381 E7.50745
G1 X-46.891 Y12.687 E7.53059
G1 X-46.788 Y12.019 E7.55307
G1 X-46.765 Y11.906 E7.55691
G1 X-46.538 Y10.886 E7.59167
G1 X-46.369 Y10.18 E7.61581
G1 X-46.166 Y9.551 E7.63779
G1 X-46.057 Y9.266 E7.64794
G1 X-45.732 Y8.446 E7.67728
G1 X-45.48 Y7.837 E7.6992
G1 X-45.299 Y7.461 E7.71308
G1 X-44.764 Y6.502 E7.7496
G1 X-44.545 Y6.127 E7.76405
G1 X-44.206 Y5.563 E7.78593
G1 X-43.961 Y5.208 E7.80028
G1 X-43.217 Y4.253 E7.84055
G1 X-42.752 Y3.695 E7.8647
G1 X-42.347 Y3.269 E7.88425
G1 X-42.064 Y2.997 E7.89731
G1 X-41.554 Y2.516 E7.92063
G1 X-41.069 Y2.07 E7.94254
G1 X-40.728 Y1.793 E7.95715
G1 X-39.782 Y1.116 E7.99584
G1 X-37.349 Y-.554 E8.094
G1 X-36.757 Y-.948 E8.11765
G1 X-36.266 Y-1.233 E8.13653
G1 X-36.166 Y-1.286 E8.14029
G1 X-33.149 Y-2.826 E8.25296
G1 X-31.421 Y-3.678 E8.31704
G1 X-31.192 Y-3.787 E8.32547
G1 X-28.792 Y-5.008 E8.41503
G1 X-26.394 Y-6.314 E8.50585
G1 X-24.024 Y-7.695 E8.59708
G1 X-21.699 Y-9.138 E8.6881
G1 X-19.462 Y-10.614 E8.77724
G1 X-17.21 Y-12.196 E8.86877
G1 X-15.02 Y-13.828 E8.95961
G1 X-12.156 Y-16.097 E9.08114
G1 X-11.922 Y-16.268 E9.09078
G1 X-11.339 Y-16.657 E9.11409
G0 F4800 X-11.122 Y-16.321
G1 F600 X-10.308 Y-16.847 E9.14633
G1 X-9.729 Y-17.21 E9.16906
G1 X-9.065 Y-17.574 E9.19424
G1 X-7.94 Y-18.145 E9.2362
G1 X-7.366 Y-18.426 E9.25746
G1 X-7.115 Y-18.536 E9.26657
G1 X-6.309 Y-18.848 E9.29532
G1 X-5.11 Y-19.291 E9.33783
G1 X-4.959 Y-19.357 E9.34332
G1 X-3.632 Y-19.846 E9.39035
G1 X-1.128 Y-20.852 E9.48011
G1 X1.408 Y-21.954 E9.57207
G1 X3.845 Y-23.096 E9.66159
G1 X6.339 Y-24.352 E9.75446
G1 X8.71 Y-25.631 E9.84406
G1 X11.1 Y-27.01 E9.93584
G1 X13.413 Y-28.433 E10.02616
G1 X15.105 Y-29.555 E10.09369
G1 X15.327 Y-29.678 E10.10213
G1 X17.913 Y-31.394 E10.20535
G1 X18.538 Y-31.796 E10.23007
G1 X19.268 Y-32.201 E10.25784
G1 X20.432 Y-32.805 E10.30145
G1 X21.043 Y-33.111 E10.32418
G1 X21.526 Y-33.326 E10.34177
G1 X22.79 Y-33.827 E10.38699
G1 X23.407 Y-34.061 E10.40894
G1 X23.681 Y-34.151 E10.41853
G1 X24.728 Y-34.443 E10.45468
G1 X25.188 Y-34.562 E10.47048
G1 X25.876 Y-34.73 E10.49404
G1 X26.239 Y-34.796 E10.50631
G1 X27.157 Y-34.911 E10.53708
G1 X27.62 Y-34.96 E10.55257
G1 X28.199 Y-35.014 E10.57191
G1 X28.58 Y-35.027 E10.58459
G1 X29.774 Y-34.995 E10.62432
G1 X29.924 Y-34.988 E10.62931
G1 X30.666 Y-34.941 E10.65404
G1 X31.355 Y-34.839 E10.6772
G1 X32.276 Y-34.65 E10.70848
G1 X32.855 Y-34.521 E10.7282
G1 X33.215 Y-34.419 E10.74065
G1 X34.343 Y-34.023 E10.78041
G1 X34.521 Y-33.956 E10.78674
G1 X35.136 Y-33.716 E10.8087
G1 X35.471 Y-33.563 E10.82094
G1 X36.258 Y-33.145 E10.85058
G1 X36.676 Y-32.915 E10.86645
G1 X37.287 Y-32.567 E10.88984
G1 X37.724 Y-32.279 E10.90725
G1 X38.068 Y-32.03 E10.92137
G1 X38.684 Y-31.573 E10.94688
G1 X39.263 Y-31.131 E10.97111
G1 X39.688 Y-30.761 E10.98985
G1 X40.56 Y-29.924 E11.03005
G1 X41.014 Y-29.475 E11.05129
G1 X41.205 Y-29.269 E11.06063
G1 X41.803 Y-28.562 E11.09143
G1 X42.227 Y-28.043 E11.11372
G1 X42.657 Y-27.502 E11.13671
G1 X42.812 Y-27.289 E11.14547
G1 X43.203 Y-26.704 E11.16887
G1 X43.684 Y-25.961 E11.19831
G1 X44.094 Y-25.308 E11.22396
G1 X44.436 Y-24.686 E11.24756
G1 X44.987 Y-23.602 E11.28801
G1 X45.303 Y-22.958 E11.31187
G1 X45.413 Y-22.705 E11.32104
G1 X45.719 Y-21.917 E11.34916
G1 X45.999 Y-21.156 E11.37613
G1 X46.237 Y-20.478 E11.40003
G1 X46.383 Y-19.96 E11.41793
G1 X46.404 Y-19.876 E11.42081
G1 X46.658 Y-18.767 E11.45865
G1 X46.814 Y-18.038 E11.48344
G1 X46.882 Y-17.59 E11.49852
G1 X46.937 Y-17.036 E11.51703
G1 X47.003 Y-16.265 E11.54277
G1 X47.052 Y-15.595 E11.56511
G1 X47.058 Y-15.219 E11.57762
G1 X47.014 Y-14.251 E11.60985
G1 X46.986 Y-13.782 E11.62548
G1 X46.93 Y-13.049 E11.64993
G1 X46.81 Y-12.322 E11.67443
G1 X46.793 Y-12.238 E11.67728
G1 X46.599 Y-11.368 E11.70693
G1 X46.42 Y-10.617 E11.73261
G1 X46.229 Y-10.027 E11.75324
G1 X46.14 Y-9.794 E11.76153
G1 X45.802 Y-8.94 E11.79208
G1 X45.524 Y-8.268 E11.81627
G1 X45.35 Y-7.906 E11.82963
G1 X44.382 Y-6.113 E11.8974
G1 X43.156 Y-3.677 E11.9881
G1 X41.998 Y-1.209 E12.07877
G1 X40.901 Y1.315 E12.17031
G1 X39.855 Y3.913 E12.26346
G1 X38.933 Y6.42 E12.3523
G1 X38.063 Y8.999 E12.44283
G1 X37.257 Y11.632 E12.53442
G1 X36.529 Y14.281 E12.62579
G1 X35.874 Y16.947 E12.7171
G1 X35.297 Y19.624 E12.80818
G1 X34.797 Y22.323 E12.89948
G1 X34.375 Y25.01 E12.98994
G1 X34.03 Y27.706 E13.08034
G1 X33.936 Y28.622 E13.11097
G1 X33.861 Y29.194 E13.13016
G1 X33.616 Y30.516 E13.17487
G1 X33.593 Y30.629 E13.17871
G1 X33.464 Y31.208 E13.19844
G1 X33.362 Y31.568 E13.21088
G1 X32.992 Y32.626 E13.24816
G1 X32.955 Y32.726 E13.25171
G1 X32.663 Y33.48 E13.2786
G1 X32.507 Y33.822 E13.29111
G1 X32.09 Y34.608 E13.3207
G1 X31.85 Y35.044 E13.33725
G1 X31.508 Y35.643 E13.36019
G1 X31.222 Y36.077 E13.37748
G1 X30.973 Y36.421 E13.39161
G1 X30.516 Y37.037 E13.41712
G1 X30.074 Y37.616 E13.44134
G1 X29.704 Y38.041 E13.46009
G1 X28.865 Y38.916 E13.50041
G1 X28.422 Y39.363 E13.52134
G1 X28.218 Y39.551 E13.53056
G1 X27.456 Y40.197 E13.56379
G1 X26.988 Y40.58 E13.5839
G1 X26.448 Y41.009 E13.60684
G1 X26.185 Y41.199 E13.61763
G1 X25.658 Y41.55 E13.63869
G1 X24.86 Y42.066 E13.6703
G1 X24.261 Y42.441 E13.69381
G1 X23.599 Y42.804 E13.71892
G1 X22.474 Y43.375 E13.76088
G1 X21.9 Y43.656 E13.78213
G1 X21.649 Y43.766 E13.79125
G1 X20.842 Y44.078 E13.82003
G1 X20.092 Y44.355 E13.84662
G1 X19.448 Y44.583 E13.86934
G1 X18.908 Y44.735 E13.888
G1 X17.756 Y45.001 E13.92732
G1 X16.957 Y45.171 E13.95449
G1 X16.047 Y45.283 E13.98499
G1 X15.182 Y45.358 E14.01387
G1 X14.541 Y45.405 E14.03524
G1 X14.166 Y45.411 E14.04772
G1 X13.185 Y45.367 E14.08038
G1 X12.741 Y45.34 E14.09517
G1 X12.002 Y45.284 E14.11982
G1 X11.238 Y45.157 E14.14558
G1 X10.261 Y44.941 E14.17886
G1 X9.553 Y44.771 E14.20308
G1 X8.96 Y44.578 E14.22382
G1 X8.867 Y44.543 E14.22713
G1 X7.805 Y44.124 E14.2651
G1 X7.168 Y43.86 E14.28803
G1 X6.523 Y43.571 E14.31154
G1 X5.075 Y42.902 E14.36459
G1 X2.575 Y41.83 E14.45506
G1 X-0.008 Y40.806 E14.54748
G1 X-2.574 Y39.877 E14.63825
G1 X-5.145 Y39.026 E14.72832
G1 X-7.794 Y38.23 E14.82032
G1 X-10.423 Y37.522 E14.91088
G1 X-13.082 Y36.884 E15.00182
G1 X-15.817 Y36.309 E15.09478
G1 X-18.447 Y35.836 E15.18366
G1 X-21.173 Y35.423 E15.27536
G1 X-23.886 Y35.09 E15.36627
G1 X-26.626 Y34.833 E15.4578
G1 X-28.8 Y34.694 E15.53026
G1 X-28.865 Y34.685 E15.53244
G1 X-30.215 Y34.601 E15.57743
G1 X-30.914 Y34.498 E15.60093
G1 X-31.773 Y34.322 E15.63009
G1 X-32.419 Y34.179 E15.6521
G1 X-32.784 Y34.075 E15.66472
G1 X-33.843 Y33.704 E15.70204
G1 X-33.943 Y33.667 E15.70559
G1 X-34.695 Y33.375 E15.73242
G1 X-35.036 Y33.219 E15.74489
G1 X-35.81 Y32.809 E15.77402
G1 X-36.253 Y32.565 E15.79085
G1 X-36.858 Y32.219 E15.81403
G1 X-37.298 Y31.928 E15.83157
G1 X-37.598 Y31.711 E15.84389
G1 X-38.27 Y31.212 E15.87173
G1 X-38.813 Y30.798 E15.89444
G1 X-39.255 Y30.414 E15.91391
G1 X-40.076 Y29.626 E15.95176
G1 X-40.572 Y29.136 E15.97495
G1 X-40.765 Y28.928 E15.98439
G1 X-41.408 Y28.168 E16.0175
G1 X-41.788 Y27.702 E16.0375
G1 X-42.218 Y27.161 E16.06048
G1 X-42.373 Y26.948 E16.06924
G1 X-42.759 Y26.371 E16.09233
G1 X-43.285 Y25.557 E16.12457
G1 X-43.648 Y24.978 E16.1473
G1 X-44.014 Y24.306 E16.17275
G1 X-44.558 Y23.235 E16.2127
G1 X-44.864 Y22.613 E16.23576
G1 X-44.977 Y22.357 E16.24506
G1 X-45.272 Y21.593 E16.2723
G1 X-45.572 Y20.78 E16.30113
G1 X-45.792 Y20.155 E16.32316
G1 X-45.941 Y19.632 E16.34125
G1 X-46.21 Y18.465 E16.38108
G1 X-46.379 Y17.674 E16.40799
G1 X-46.442 Y17.259 E16.42195
G1 X-46.502 Y16.64 E16.44263
G1 X-46.561 Y15.959 E16.46537
G1 X-46.613 Y15.242 E16.48928
G1 X-46.618 Y14.87 E16.50165
G1 X-46.575 Y13.907 E16.53371
G1 X-46.544 Y13.411 E16.55024
G1 X-46.492 Y12.717 E16.57339
G1 X-46.395 Y12.093 E16.59439
G1 X-46.149 Y10.979 E16.63234
G1 X-45.98 Y10.273 E16.65648
G1 X-45.79 Y9.686 E16.677
G1 X-45.685 Y9.413 E16.68673
G1 X-45.363 Y8.598 E16.71588
G1 X-45.111 Y7.989 E16.7378
G1 X-44.95 Y7.656 E16.7501
G1 X-44.419 Y6.704 E16.78636
G1 X-44.202 Y6.333 E16.80065
G1 X-43.863 Y5.769 E16.82254
G1 X-43.646 Y5.453 E16.83529
G1 X-42.977 Y4.593 E16.87153
G1 X-42.444 Y3.951 E16.89928
G1 X-42.07 Y3.557 E16.91735
G1 X-41.79 Y3.288 E16.93026
G1 X-41.283 Y2.811 E16.95342
G1 X-40.798 Y2.365 E16.97533
G1 X-40.495 Y2.118 E16.98833
G1 X-39.555 Y1.446 E17.02677
G1 X-37.127 Y-.221 E17.12472
G1 X-36.535 Y-.615 E17.14837
G1 X-36.073 Y-.882 E17.16612
G1 X-35.984 Y-.93 E17.16949
G1 X-32.973 Y-2.467 E17.28192
G1 X-31.249 Y-3.316 E17.34584
G1 X-31.06 Y-3.405 E17.35279
G1 X-28.57 Y-4.673 E17.44573
G1 X-26.207 Y-5.96 E17.53522
G1 X-23.818 Y-7.352 E17.62718
G1 X-21.515 Y-8.781 E17.71733
G1 X-19.218 Y-10.298 E17.80889
G1 X-16.987 Y-11.864 E17.89955
G1 X-14.757 Y-13.526 E17.99205
G1 X-11.908 Y-15.783 E18.11294
G1 X-11.699 Y-15.935 E18.12153
G1 X-11.122 Y-16.321 E18.14462
G1 F1800 E16.14462
;MESH:G.stl(2)
G0 F4800 X-9.05 Y-13.113
G1 F1800 E18.14462
G0 F4800 X-9.567 Y-12.802
;TYPE:WALL-INNER
G1 F600 X-7.734 Y-13.987 E18.21722
G1 X-5.697 Y-15.022 E18.29321
G1 X-3.677 Y-15.769 E18.36485
G1 X-1.683 Y-16.224 E18.43287
G1 X0.281 Y-16.394 E18.49844
G1 X2.215 Y-16.277 E18.56288
G1 X4.047 Y-15.868 E18.62531
G1 X5.836 Y-15.161 E18.68929
G1 X7.568 Y-14.151 E18.75598
G1 X8.846 Y-13.115 E18.8107
G1 X10.129 Y-11.755 E18.87288
G1 X12.692 Y-8.023 E19.02346
G1 X14.613 Y-4.26 E19.16399
G1 X15.525 Y-1.397 E19.26393
G1 X15.649 Y0.923 E19.3412
G1 X15.185 Y3.135 E19.41637
G1 X14.126 Y5.266 E19.49552
G1 X13.002 Y6.657 E19.555
