;FLAVOR:Marlin
;TIME:2956
;Filament used: 2.58132m
;Layer height: 0.2
;MINX:-48.055
;MINY:-18.4
;MINZ:0.2
;MAXX:48.055
;MAXY:48.655
;MAXZ:3.8
;POSTPROCESSED
;Generated with Cura_SteamEngine 4.13.1
M82 ;absolute extrusion mode
START_PRINT BED_TEMP=80 EXTRUDER_TEMP=220.0
G92 E0
G92 E0
G1 F1800 E-2
;LAYER_COUNT:19
;LAYER:0
M107
G0 F4800 X-1.329 Y-18.265 Z0.2
;TYPE:SKIRT
G1 F1800 E0
G1 F600 X1.365 Y-18.265 E0.0896
G1 X4.117 Y-18.343 E0.18117
G1 X4.934 Y-18.382 E0.20838
G1 X5.574 Y-18.4 E0.22967
G1 X13.642 Y-18.4 E0.49801
G1 X15.576 Y-18.393 E0.56234
G1 X16.484 Y-18.4 E0.59254
G1 X24.359 Y-18.4 E0.85446
G1 X25.171 Y-18.387 E0.88147
G1 X26.191 Y-18.344 E0.91543
G1 X28.971 Y-18.265 E1.00793
G1 X31.665 Y-18.265 E1.09753
G1 X34.417 Y-18.343 E1.1891
G1 X35.234 Y-18.382 E1.21631
G1 X35.874 Y-18.4 E1.2376
G1 X43.8 Y-18.4 E1.50122
G1 X44.498 Y-18.39 E1.52444
G1 X45.032 Y-18.342 E1.54227
G1 X45.553 Y-18.216 E1.5601
G1 X46.05 Y-18.013 E1.57796
G1 X46.511 Y-17.739 E1.59579
G1 X46.926 Y-17.4 E1.61362
G1 X47.286 Y-17.002 E1.63146
G1 X47.583 Y-16.556 E1.64929
G1 X47.811 Y-16.07 E1.66714
G1 X47.963 Y-15.556 E1.68497
G1 X48.045 Y-14.891 E1.70725
G1 X48.055 Y-14.47 E1.72126
G1 X48.055 Y14.124 E2.6723
G1 X48.045 Y14.844 E2.69625
G1 X47.997 Y15.378 E2.71408
G1 X47.871 Y15.899 E2.73191
G1 X47.669 Y16.396 E2.74976
G1 X47.395 Y16.857 E2.76759
G1 X47.056 Y17.273 E2.78544
G1 X46.464 Y17.775 E2.81126
G1 X45.389 Y18.503 E2.85444
G1 X43.143 Y20.069 E2.94551
G1 X40.972 Y21.677 E3.03536
G1 X38.818 Y23.369 E3.12647
G1 X36.714 Y25.119 E3.21749
G1 X34.674 Y26.917 E3.30793
G1 X32.679 Y28.776 E3.39863
G1 X30.74 Y30.689 E3.48922
G1 X28.857 Y32.656 E3.57979
G1 X27.013 Y34.695 E3.67123
G1 X25.264 Y36.742 E3.76078
G1 X23.533 Y38.887 E3.85245
G1 X21.874 Y41.067 E3.94357
G1 X20.307 Y43.25 E4.03295
G1 X18.78 Y45.51 E4.12366
G1 X18.358 Y46.176 E4.14989
G1 X17.808 Y47.016 E4.18328
G1 X17.481 Y47.442 E4.20114
G1 X17.095 Y47.814 E4.21897
G1 X16.658 Y48.125 E4.23681
G1 X16.18 Y48.367 E4.25463
G1 X15.671 Y48.536 E4.27247
G1 X14.917 Y48.642 E4.2978
G1 X14.47 Y48.655 E4.31267
G1 X-14.149 Y48.655 E5.26454
G1 X-14.851 Y48.644 E5.28789
G1 X-15.386 Y48.595 E5.30576
G1 X-15.907 Y48.468 E5.3236
G1 X-16.403 Y48.265 E5.34142
G1 X-16.863 Y47.99 E5.35925
G1 X-17.278 Y47.65 E5.37709
G1 X-17.638 Y47.253 E5.39492
G1 X-18.062 Y46.615 E5.42039
G1 X-19.577 Y44.307 E5.51222
G1 X-21.157 Y42.045 E5.60399
G1 X-22.765 Y39.871 E5.69393
G1 X-24.456 Y37.719 E5.78496
G1 X-26.2 Y35.623 E5.87565
G1 X-27.998 Y33.583 E5.96609
G1 X-29.86 Y31.586 E6.0569
G1 X-31.764 Y29.657 E6.14705
G1 X-33.742 Y27.763 E6.23814
G1 X-35.782 Y25.918 E6.32962
G1 X-37.818 Y24.179 E6.41868
G1 X-39.968 Y22.443 E6.51059
G1 X-42.15 Y20.784 E6.60175
G1 X-44.327 Y19.223 E6.69085
G1 X-46.338 Y17.863 E6.7716
G1 X-46.507 Y17.745 E6.77845
G1 X-46.923 Y17.406 E6.7963
G1 X-47.283 Y17.009 E6.81413
G1 X-47.581 Y16.563 E6.83197
G1 X-47.809 Y16.077 E6.84982
G1 X-47.963 Y15.564 E6.86764
G1 X-48.045 Y14.893 E6.89012
G1 X-48.055 Y14.47 E6.90419
G1 X-48.055 Y-14.175 E7.85693
G1 X-48.046 Y-14.84 E7.87905
G1 X-47.998 Y-15.374 E7.89688
G1 X-47.872 Y-15.895 E7.91471
G1 X-47.67 Y-16.392 E7.93255
G1 X-47.397 Y-16.853 E7.95037
G1 X-47.058 Y-17.269 E7.96822
G1 X-46.661 Y-17.629 E7.98605
G1 X-46.214 Y-17.927 E8.00392
G1 X-45.729 Y-18.155 E8.02174
G1 X-45.215 Y-18.308 E8.03958
G1 X-44.547 Y-18.39 E8.06196
G1 X-44.125 Y-18.4 E8.076
G1 X-36.241 Y-18.4 E8.33822
G1 X-35.429 Y-18.387 E8.36523
G1 X-34.409 Y-18.344 E8.39919
G1 X-31.629 Y-18.265 E8.49169
G1 X-28.935 Y-18.265 E8.58129
G1 X-26.183 Y-18.343 E8.67286
G1 X-25.366 Y-18.382 E8.70007
G1 X-24.726 Y-18.4 E8.72136
G1 X-16.658 Y-18.4 E8.9897
G1 X-14.724 Y-18.393 E9.05403
G1 X-13.816 Y-18.4 E9.08423
G1 X-5.941 Y-18.4 E9.34615
G1 X-5.129 Y-18.387 E9.37317
G1 X-4.109 Y-18.344 E9.40712
G1 X-1.329 Y-18.265 E9.49962
G0 F4800 X-1.34 Y-17.865
G1 F600 X1.376 Y-17.865 E9.58996
G1 X4.149 Y-17.943 E9.68222
G1 X4.946 Y-17.983 E9.70876
G1 X5.478 Y-17.999 E9.72647
G1 X13.64 Y-18 E9.99794
G1 X15.577 Y-17.993 E10.06236
G1 X16.487 Y-18 E10.09263
G1 X24.353 Y-18 E10.35425
G1 X25.063 Y-17.99 E10.37787
G1 X26.168 Y-17.944 E10.41465
G1 X28.96 Y-17.865 E10.50755
G1 X31.676 Y-17.865 E10.59789
G1 X34.449 Y-17.943 E10.69016
G1 X35.246 Y-17.983 E10.7167
G1 X35.778 Y-17.999 E10.7344
G1 X43.794 Y-18 E11.00101
G1 X44.492 Y-17.99 E11.02423
G1 X44.995 Y-17.943 E11.04103
G1 X45.485 Y-17.817 E11.05786
G1 X45.949 Y-17.615 E11.07469
G1 X46.375 Y-17.343 E11.0915
G1 X46.753 Y-17.008 E11.1083
G1 X47.073 Y-16.617 E11.12511
G1 X47.328 Y-16.18 E11.14194
G1 X47.511 Y-15.709 E11.15874
G1 X47.618 Y-15.215 E11.17555
G1 X47.654 Y-14.56 E11.19737
G1 X47.655 Y14.118 E12.15121
G1 X47.645 Y14.838 E12.17516
G1 X47.598 Y15.342 E12.19199
G1 X47.472 Y15.832 E12.20882
G1 X47.271 Y16.295 E12.22561
G1 X46.999 Y16.722 E12.24245
G1 X46.664 Y17.1 E12.25924
G1 X46.239 Y17.444 E12.27743
G1 X45.201 Y18.147 E12.31913
G1 X42.906 Y19.748 E12.4122
G1 X40.732 Y21.357 E12.50215
G1 X38.53 Y23.087 E12.59529
G1 X36.477 Y24.795 E12.68412
G1 X34.402 Y26.624 E12.77612
G1 X32.39 Y28.5 E12.86761
G1 X30.453 Y30.411 E12.95811
G1 X28.571 Y32.377 E13.04863
G1 X26.713 Y34.43 E13.14073
G1 X24.946 Y36.498 E13.2312
G1 X23.218 Y38.64 E13.32273
G1 X21.581 Y40.791 E13.41264
G1 X19.968 Y43.038 E13.50464
G1 X18.438 Y45.302 E13.59552
G1 X18.023 Y45.957 E13.62131
G1 X17.473 Y46.797 E13.65471
G1 X17.164 Y47.197 E13.67152
G1 X16.795 Y47.543 E13.68834
G1 X16.377 Y47.826 E13.70513
G1 X15.919 Y48.041 E13.72196
G1 X15.433 Y48.18 E13.73877
G1 X14.904 Y48.242 E13.75649
G1 X14.47 Y48.255 E13.77093
G1 X-14.143 Y48.255 E14.7226
G1 X-14.845 Y48.244 E14.74595
G1 X-15.348 Y48.196 E14.76276
G1 X-15.838 Y48.069 E14.77959
G1 X-16.301 Y47.867 E14.79639
G1 X-16.727 Y47.595 E14.8132
G1 X-17.105 Y47.259 E14.83003
G1 X-17.494 Y46.763 E14.85099
G1 X-17.752 Y46.358 E14.86696
G1 X-19.247 Y44.081 E14.95756
G1 X-20.84 Y41.8 E15.0501
G1 X-22.444 Y39.632 E15.13979
G1 X-24.132 Y37.483 E15.23068
G1 X-25.909 Y35.348 E15.32307
G1 X-27.689 Y33.329 E15.4126
G1 X-29.584 Y31.297 E15.50501
G1 X-31.468 Y29.387 E15.59424
G1 X-33.48 Y27.461 E15.68688
G1 X-35.5 Y25.633 E15.77749
G1 X-37.591 Y23.847 E15.86895
G1 X-39.72 Y22.129 E15.95994
G1 X-41.898 Y20.473 E16.05094
G1 X-44.116 Y18.882 E16.14173
G1 X-46.109 Y17.535 E16.22174
G1 X-46.278 Y17.417 E16.2286
G1 X-46.668 Y17.095 E16.24542
G1 X-47.003 Y16.717 E16.26222
G1 X-47.274 Y16.29 E16.27904
G1 X-47.475 Y15.826 E16.29586
G1 X-47.6 Y15.336 E16.31267
G1 X-47.654 Y14.559 E16.33858
G1 X-47.655 Y-14.169 E17.29408
G1 X-47.646 Y-14.834 E17.3162
G1 X-47.599 Y-15.338 E17.33303
G1 X-47.473 Y-15.827 E17.34983
G1 X-47.272 Y-16.291 E17.36665
G1 X-47.001 Y-16.718 E17.38347
G1 X-46.666 Y-17.096 E17.40027
G1 X-46.275 Y-17.417 E17.41709
G1 X-45.838 Y-17.672 E17.43392
G1 X-45.367 Y-17.856 E17.45074
G1 X-44.873 Y-17.962 E17.46754
G1 X-44.215 Y-17.999 E17.48946
G1 X-36.247 Y-18 E17.75448
G1 X-35.537 Y-17.99 E17.7781
G1 X-34.432 Y-17.944 E17.81488
G1 X-31.64 Y-17.865 E17.90778
G1 X-28.924 Y-17.865 E17.99812
G1 X-26.151 Y-17.943 E18.09038
G1 X-25.354 Y-17.983 E18.11692
G1 X-24.822 Y-17.999 E18.13463
G1 X-16.66 Y-18 E18.4061
G1 X-14.723 Y-17.993 E18.47052
G1 X-13.813 Y-18 E18.50079
G1 X-5.947 Y-18 E18.76241
G1 X-5.237 Y-17.99 E18.78603
G1 X-4.132 Y-17.944 E18.82281
G1 X-1.34 Y-17.865 E18.91571
G1 F1800 E16.91571
;MESH:H.stl
G0 F4800 X-5.899 Y-14.186
G1 F1800 E18.91571
G0 F4800 X-5.885 Y-14.2
;TYPE:WALL-INNER
G1 F600 X-5.885 Y-2.769 E19.29591
G1 X-5.738 Y-2.322 E19.31156
G1 X-5.227 Y-2.065 E19.33059
G1 X5.14 Y-2.065 E19.67539
G1 X5.587 Y-2.212 E19.69104
G1 X5.844 Y-2.723 E19.71007
G1 X5.844 Y-14.2 E20.09179
G1 X13.555 Y-14.2 E20.34826
G1 X13.555 Y14.2 E21.29285
G1 X5.844 Y14.2 E21.54932
G1 X5.844 Y4.406 E21.87507
G1 X5.697 Y3.959 E21.89072
G1 X5.186 Y3.702 E21.90975
G1 X-5.181 Y3.702 E22.25455
G1 X-5.628 Y3.849 E22.2702
G1 X-5.885 Y4.36 E22.28923
G1 X-5.885 Y14.2 E22.61651
G1 X-13.555 Y14.2 E22.87161
G1 X-13.555 Y-14.2 E23.8162
G1 X-5.885 Y-14.2 E24.07131
G0 F4800 X-5.485 Y-14.6
;TYPE:WALL-OUTER
G1 F600 X-5.485 Y-2.833 E24.46268
G1 X-5.41 Y-2.605 E24.47066
G1 X-5.132 Y-2.465 E24.48101
G1 X5.076 Y-2.465 E24.82053
G1 X5.304 Y-2.54 E24.82852
G1 X5.444 Y-2.818 E24.83887
G1 X5.444 Y-14.6 E25.23074
G1 X13.955 Y-14.6 E25.51382
G1 X13.955 Y14.6 E26.48501
G1 X5.444 Y14.6 E26.76809
G1 X5.444 Y4.47 E27.10501
G1 X5.369 Y4.242 E27.113
G1 X5.091 Y4.102 E27.12335
G1 X-5.117 Y4.102 E27.46287
G1 X-5.345 Y4.177 E27.47085
G1 X-5.485 Y4.455 E27.48121
G1 X-5.485 Y14.6 E27.81863
G1 X-13.955 Y14.6 E28.10034
G1 X-13.955 Y-14.6 E29.07154
G1 X-5.485 Y-14.6 E29.35325
G0 F4800 X-5.485 Y-14.4
G0 X-5.955 Y-14.13
G0 X-5.924 Y-2.763
G0 X-5.338 Y-2.079
G0 X9.195 Y0.836
;TYPE:SKIN
G1 F600 X8.988 Y0.732 E29.36096
G1 X9.195 Y0.32 E29.37629
G1 X9.195 Y0.836 E29.39346
G0 F4800 X8.944 Y1.158
G1 F600 X8.451 Y0.91 E29.41181
G1 X9.595 Y-1.367 E29.49656
G1 X9.595 Y3.137 E29.64637
G1 X8.944 Y1.158 E29.71566
G0 F4800 X8.616 Y1.441
G1 F600 X7.531 Y0.896 E29.75604
G1 X8.105 Y0.707 E29.77614
G1 X9.404 Y-1.878 E29.87237
G1 X9.404 Y-10.64 E30.16379
G1 X9.995 Y-10.64 E30.18345
G1 X9.995 Y10.64 E30.89122
G1 X9.404 Y10.64 E30.91088
G1 X9.404 Y3.836 E31.13718
G1 X8.616 Y1.441 E31.22104
G0 F4800 X8.288 Y1.724
G1 F600 X6.486 Y0.819 E31.28811
G1 X7.822 Y0.379 E31.33489
G1 X9.004 Y-1.973 E31.42244
G1 X9.004 Y-11.04 E31.72401
G1 X10.395 Y-11.04 E31.77028
G1 X10.395 Y11.04 E32.50466
G1 X9.004 Y11.04 E32.55093
G1 X9.004 Y3.9 E32.7884
G1 X8.288 Y1.724 E32.8646
G0 F4800 X7.96 Y2.007
G1 F600 X5.841 Y0.942 E32.94348
G1 X-5.623 Y0.942 E33.32477
G1 X-7.58 Y1.586 E33.39329
G1 X-8.645 Y3.705 E33.47217
G1 X-8.645 Y11.44 E33.72944
G1 X-10.795 Y11.44 E33.80095
G1 X-10.795 Y-11.44 E34.56194
G1 X-8.645 Y-11.44 E34.63345
G1 X-8.645 Y-2.327 E34.93655
G1 X-8.001 Y-.37 E35.00507
G1 X-5.882 Y0.695 E35.08395
G1 X5.582 Y0.695 E35.46525
G1 X7.539 Y0.051 E35.53377
G1 X8.604 Y-2.068 E35.61265
G1 X8.604 Y-11.44 E35.92436
G1 X10.795 Y-11.44 E35.99724
G1 X10.795 Y11.44 E36.75823
G1 X8.604 Y11.44 E36.8311
G1 X8.604 Y3.964 E37.07975
G1 X7.96 Y2.007 E37.14828
G0 F4800 X7.632 Y2.29
G1 F600 X5.746 Y1.342 E37.21848
G1 X-5.559 Y1.342 E37.59449
G1 X-7.297 Y1.914 E37.65535
G1 X-8.245 Y3.8 E37.72555
G1 X-8.245 Y11.84 E37.99297
G1 X-11.195 Y11.84 E38.09108
G1 X-11.195 Y-11.84 E38.87868
G1 X-8.245 Y-11.84 E38.9768
G1 X-8.245 Y-2.391 E39.29108
G1 X-7.673 Y-.653 E39.35193
G1 X-5.787 Y0.295 E39.42214
G1 X5.518 Y0.295 E39.79815
G1 X7.256 Y-.277 E39.859
G1 X8.204 Y-2.163 E39.92921
G1 X8.204 Y-11.84 E40.25107
G1 X11.195 Y-11.84 E40.35055
G1 X11.195 Y11.84 E41.13815
G1 X8.204 Y11.84 E41.23763
G1 X8.204 Y4.028 E41.49746
G1 X7.632 Y2.29 E41.55831
G0 F4800 X7.304 Y2.573
G1 F600 X5.651 Y1.742 E41.61985
G1 X-5.495 Y1.742 E41.99057
G1 X-7.014 Y2.242 E42.04376
G1 X-7.845 Y3.895 E42.10529
G1 X-7.845 Y12.24 E42.38285
G1 X-11.595 Y12.24 E42.50757
G1 X-11.595 Y-12.24 E43.32178
G1 X-7.845 Y-12.24 E43.44651
G1 X-7.845 Y-2.455 E43.77196
G1 X-7.345 Y-.936 E43.82514
G1 X-5.692 Y-.105 E43.88668
G1 X5.454 Y-.105 E44.2574
G1 X6.973 Y-.605 E44.31059
G1 X7.804 Y-2.258 E44.37212
G1 X7.804 Y-12.24 E44.70412
G1 X11.595 Y-12.24 E44.83021
G1 X11.595 Y12.24 E45.64442
G1 X7.804 Y12.24 E45.77051
G1 X7.804 Y4.092 E46.04151
G1 X7.304 Y2.573 E46.0947
G0 F4800 X6.976 Y2.856
G1 F600 X5.556 Y2.142 E46.14757
G1 X-5.431 Y2.142 E46.513
G1 X-6.731 Y2.57 E46.55852
G1 X-7.445 Y3.99 E46.61138
G1 X-7.445 Y12.64 E46.89908
G1 X-11.995 Y12.64 E47.05042
G1 X-11.995 Y-12.64 E47.89123
G1 X-7.445 Y-12.64 E48.04256
G1 X-7.445 Y-2.519 E48.37919
G1 X-7.017 Y-1.219 E48.42471
G1 X-5.597 Y-.505 E48.47758
G1 X5.39 Y-.505 E48.843
G1 X6.69 Y-.933 E48.88853
G1 X7.404 Y-2.353 E48.94139
G1 X7.404 Y-12.64 E49.28354
G1 X11.995 Y-12.64 E49.43623
G1 X11.995 Y12.64 E50.27705
G1 X7.404 Y12.64 E50.42975
G1 X7.404 Y4.156 E50.71193
G1 X6.976 Y2.856 E50.75745
G0 F4800 X6.648 Y3.139
G1 F600 X5.461 Y2.542 E50.80164
G1 X-5.367 Y2.542 E51.16178
G1 X-6.448 Y2.898 E51.19963
G1 X-7.045 Y4.085 E51.24383
G1 X-7.045 Y13.04 E51.54167
G1 X-12.395 Y13.04 E51.71961
G1 X-12.395 Y-13.04 E52.58704
G1 X-7.045 Y-13.04 E52.76498
G1 X-7.045 Y-2.583 E53.11278
G1 X-6.689 Y-1.502 E53.15063
G1 X-5.502 Y-.905 E53.19483
G1 X5.326 Y-.905 E53.55497
G1 X6.407 Y-1.261 E53.59282
G1 X7.004 Y-2.448 E53.63701
G1 X7.004 Y-13.04 E53.9893
G1 X12.395 Y-13.04 E54.16861
G1 X12.395 Y13.04 E55.03603
G1 X7.004 Y13.04 E55.21534
G1 X7.004 Y4.22 E55.50869
G1 X6.648 Y3.139 E55.54655
G0 F4800 X6.32 Y3.422
G1 F600 X5.366 Y2.942 E55.58207
G1 X-5.303 Y2.942 E55.93692
G1 X-6.165 Y3.226 E55.9671
G1 X-6.645 Y4.18 E56.00263
G1 X-6.645 Y13.44 E56.31061
G1 X-12.795 Y13.44 E56.51516
G1 X-12.795 Y-13.44 E57.4092
G1 X-6.645 Y-13.44 E57.61375
G1 X-6.645 Y-2.647 E57.97272
G1 X-6.361 Y-1.785 E58.00291
G1 X-5.407 Y-1.305 E58.03843
G1 X5.262 Y-1.305 E58.39328
G1 X6.124 Y-1.589 E58.42347
G1 X6.604 Y-2.543 E58.45899
G1 X6.604 Y-13.44 E58.82142
G1 X12.795 Y-13.44 E59.02734
G1 X12.795 Y13.44 E59.92137
G1 X6.604 Y13.44 E60.12728
G1 X6.604 Y4.284 E60.43181
G1 X6.32 Y3.422 E60.462
G0 F4800 X5.992 Y3.705
G1 F600 X5.271 Y3.342 E60.48885
G1 X-5.239 Y3.342 E60.83841
G1 X-5.882 Y3.554 E60.86093
G1 X-6.245 Y4.275 E60.88778
G1 X-6.245 Y13.84 E61.20591
G1 X-13.195 Y13.84 E61.43707
G1 X-13.195 Y-13.84 E62.35771
G1 X-6.245 Y-13.84 E62.58887
G1 X-6.245 Y-2.711 E62.95902
G1 X-6.033 Y-2.068 E62.98154
G1 X-5.312 Y-1.705 E63.00839
G1 X5.198 Y-1.705 E63.35795
G1 X5.841 Y-1.917 E63.38047
G1 X6.204 Y-2.638 E63.40732
G1 X6.204 Y-13.84 E63.7799
G1 X13.195 Y-13.84 E64.01242
G1 X13.195 Y13.84 E64.93306
G1 X6.204 Y13.84 E65.16558
G1 X6.204 Y4.348 E65.48129
G1 X5.992 Y3.705 E65.50381
G0 F4800 X-6.527 Y0.818
G1 F600 X-7.863 Y1.258 E65.55059
G1 X-9.045 Y3.61 E65.63814
G1 X-9.045 Y11.04 E65.88526
G1 X-10.395 Y11.04 E65.93016
G1 X-10.395 Y-11.04 E66.66455
G1 X-9.045 Y-11.04 E66.70945
G1 X-9.045 Y-2.263 E67.00137
G1 X-8.329 Y-0.087 E67.07756
G1 X-6.527 Y0.818 E67.14463
G0 F4800 X-7.572 Y0.741
G1 F600 X-8.146 Y0.93 E67.16473
G1 X-9.445 Y3.515 E67.26096
G1 X-9.445 Y10.64 E67.49793
G1 X-9.995 Y10.64 E67.51623
G1 X-9.995 Y-10.64 E68.224
G1 X-9.445 Y-10.64 E68.2423
G1 X-9.445 Y-2.199 E68.52304
G1 X-8.657 Y0.196 E68.6069
G1 X-7.572 Y0.741 E68.64729
G0 F4800 X-8.492 Y0.727
G1 F600 X-9.595 Y2.922 E68.72899
G1 X-9.595 Y-1.375 E68.87191
G1 X-8.985 Y0.479 E68.93683
G1 X-8.492 Y0.727 E68.95518
G0 F4800 X-9.029 Y0.905
G1 F600 X-9.195 Y1.236 E68.9675
G1 X-9.195 Y0.821 E68.9813
G1 X-9.029 Y0.905 E68.98749
G0 F4800 X-9.32 Y0.579
;TYPE:SKIN
G1 F600 X-9.419 Y0.48 E68.98982
G0 F4800 X-9.183 Y0.432
G1 F600 X-9.419 Y0.197 E68.99536
G0 F4800 X-9.322 Y0.011
G1 F600 X-9.404 Y-0.07 E68.99727
G0 F4800 X-8.316 Y0.733
G1 F600 X-8.265 Y0.785 E68.99848
G0 F4800 X-7.414 Y0.787
G1 F600 X-7.31 Y0.892 E69.00094
G0 F4800 X-7.097 Y0.822
G1 F600 X-7.288 Y0.63 E69.00545
G0 F4800 X-6.359 Y0.712
G1 F600 X-6.142 Y0.928 E69.01054
G0 F4800 X-9.133 Y1.614
G1 F600 X-9.393 Y1.354 E69.01665
G0 F4800 X-9.419 Y1.611
G1 F600 X-9.227 Y1.803 E69.02117
G0 F4800 X-9.321 Y1.991
G1 F600 X-9.419 Y1.894 E69.02346
G0 F4800 X-9.654 Y3.073
G1 F600 X-9.497 Y3.23 E69.02715
G0 F4800 X-9.591 Y3.419
G1 F600 X-9.819 Y3.191 E69.03252
G0 F4800 X-9.819 Y3.474
G1 F600 X-9.618 Y3.674 E69.03723
G0 F4800 X-9.819 Y3.756
G1 F600 X-9.618 Y3.957 E69.04196
G0 F4800 X-9.819 Y4.039
G1 F600 X-9.618 Y4.24 E69.04669
G0 F4800 X-9.819 Y4.322
G1 F600 X-9.618 Y4.523 E69.05141
G0 F4800 X-9.819 Y4.605
G1 F600 X-9.618 Y4.806 E69.05614
G0 F4800 X-9.819 Y4.888
G1 F600 X-9.618 Y5.089 E69.06087
G0 F4800 X-9.819 Y5.171
G1 F600 X-9.618 Y5.371 E69.06558
G0 F4800 X-9.819 Y5.453
G1 F600 X-9.618 Y5.654 E69.07031
G0 F4800 X-9.819 Y5.736
G1 F600 X-9.618 Y5.937 E69.07504
G0 F4800 X-9.819 Y6.019
G1 F600 X-9.618 Y6.22 E69.07976
G0 F4800 X-9.819 Y6.302
G1 F600 X-9.618 Y6.503 E69.08449
G0 F4800 X-9.819 Y6.585
G1 F600 X-9.618 Y6.786 E69.08922
G0 F4800 X-9.819 Y6.868
G1 F600 X-9.619 Y7.068 E69.09392
G0 F4800 X-9.819 Y7.15
G1 F600 X-9.619 Y7.351 E69.09864
G0 F4800 X-9.819 Y7.433
G1 F600 X-9.619 Y7.633 E69.10334
G0 F4800 X-9.819 Y7.716
G1 F600 X-9.619 Y7.916 E69.10805
G0 F4800 X-9.819 Y7.999
G1 F600 X-9.619 Y8.199 E69.11275
G0 F4800 X-9.819 Y8.282
