;FLAVOR:Marlin
;TIME:2287
;Filament used: 1.9989m
;Layer height: 0.2
;MINX:-38.845
;MINY:-18.4
;MINZ:0.2
;MAXX:38.845
;MAXY:42.545
;MAXZ:3.8
;POSTPROCESSED
;Generated with Cura_SteamEngine 4.13.1
M82 ;absolute extrusion mode
START_PRINT BED_TEMP=80 EXTRUDER_TEMP=220.0
G92 E0
G92 E0
G1 F1800 E-2
;LAYER_COUNT:19
;LAYER:0
M107
G0 F4800 X-10.819 Y-18.4 Z0.2
;TYPE:SKIRT
G1 F1800 E0
G1 F600 X10.86 Y-18.4 E0.72105
G1 X12.497 Y-18.394 E0.77549
G1 X13.281 Y-18.4 E0.80157
G1 X34.59 Y-18.4 E1.51031
G1 X35.288 Y-18.39 E1.53353
G1 X35.822 Y-18.342 E1.55136
G1 X36.343 Y-18.216 E1.56919
G1 X36.84 Y-18.013 E1.58705
G1 X37.301 Y-17.739 E1.60488
G1 X37.716 Y-17.4 E1.6227
G1 X38.076 Y-17.002 E1.64055
G1 X38.373 Y-16.556 E1.65838
G1 X38.601 Y-16.07 E1.67623
G1 X38.753 Y-15.556 E1.69406
G1 X38.835 Y-14.891 E1.71634
G1 X38.845 Y-14.47 E1.73035
G1 X38.845 Y-8.293 E1.9358
G1 X38.835 Y-7.556 E1.96031
G1 X38.791 Y-6.857 E1.98361
G1 X38.637 Y-4.155 E2.07362
G1 X38.558 Y-1.392 E2.16556
G1 X38.558 Y1.304 E2.25523
G1 X38.635 Y4.072 E2.34733
G1 X38.787 Y6.764 E2.43701
G1 X38.829 Y7.39 E2.45787
G1 X38.845 Y7.946 E2.47637
G1 X38.845 Y14.124 E2.68186
G1 X38.835 Y14.847 E2.7059
G1 X38.787 Y15.381 E2.72374
G1 X38.661 Y15.902 E2.74157
G1 X38.459 Y16.399 E2.75941
G1 X38.185 Y16.86 E2.77725
G1 X37.846 Y17.275 E2.79507
G1 X37.617 Y17.496 E2.80565
G1 X35.588 Y19.287 E2.89567
G1 X33.592 Y21.15 E2.98648
G1 X31.656 Y23.064 E3.07703
G1 X29.757 Y25.05 E3.16842
G1 X27.948 Y27.053 E3.25819
G1 X26.17 Y29.136 E3.34928
G1 X24.46 Y31.257 E3.43989
G1 X22.829 Y33.405 E3.5296
G1 X21.206 Y35.671 E3.6223
G1 X19.704 Y37.898 E3.71164
G1 X18.283 Y40.136 E3.79982
G1 X17.859 Y40.824 E3.8267
G1 X17.544 Y41.258 E3.84453
G1 X17.169 Y41.641 E3.86236
G1 X16.74 Y41.964 E3.88022
G1 X16.269 Y42.219 E3.89804
G1 X15.765 Y42.402 E3.91587
G1 X15.239 Y42.507 E3.93371
G1 X14.581 Y42.543 E3.95563
G1 X14.47 Y42.545 E3.95932
G1 X8.255 Y42.545 E4.16603
G1 X7.564 Y42.535 E4.18902
G1 X6.886 Y42.492 E4.21161
G1 X4.164 Y42.337 E4.30229
G1 X1.401 Y42.258 E4.39423
G1 X-1.294 Y42.258 E4.48386
G1 X-4.062 Y42.335 E4.57596
G1 X-6.771 Y42.488 E4.66621
G1 X-7.413 Y42.529 E4.68761
G1 X-7.946 Y42.545 E4.70534
G1 X-14.144 Y42.545 E4.91149
G1 X-14.845 Y42.535 E4.93481
G1 X-15.38 Y42.487 E4.95267
G1 X-15.901 Y42.361 E4.9705
G1 X-16.397 Y42.158 E4.98832
G1 X-16.858 Y41.884 E5.00616
G1 X-17.274 Y41.545 E5.02401
G1 X-17.634 Y41.148 E5.04183
G1 X-17.831 Y40.869 E5.05319
G1 X-18.176 Y40.325 E5.07462
G1 X-19.041 Y38.924 E5.12938
G1 X-20.557 Y36.616 E5.22123
G1 X-22.108 Y34.396 E5.3113
G1 X-23.742 Y32.19 E5.40261
G1 X-25.421 Y30.054 E5.49297
G1 X-27.165 Y27.961 E5.58358
G1 X-28.967 Y25.917 E5.67421
G1 X-30.827 Y23.923 E5.76491
G1 X-32.733 Y21.993 E5.85513
G1 X-34.709 Y20.102 E5.9461
G1 X-36.724 Y18.281 E6.03643
G1 X-37.616 Y17.495 E6.07597
G1 X-37.991 Y17.111 E6.09382
G1 X-38.305 Y16.676 E6.11167
G1 X-38.55 Y16.2 E6.12947
G1 X-38.722 Y15.692 E6.14731
G1 X-38.817 Y15.164 E6.16515
G1 X-38.844 Y14.57 E6.18493
G1 X-38.845 Y8.256 E6.39494
G1 X-38.835 Y7.55 E6.41842
G1 X-38.791 Y6.855 E6.44158
G1 X-38.637 Y4.155 E6.53153
G1 X-38.558 Y1.392 E6.62346
G1 X-38.558 Y-1.304 E6.71313
G1 X-38.636 Y-4.082 E6.80557
G1 X-38.787 Y-6.764 E6.89491
G1 X-38.829 Y-7.403 E6.91621
G1 X-38.845 Y-7.946 E6.93428
G1 X-38.845 Y-14.18 E7.14162
G1 X-38.835 Y-14.845 E7.16374
G1 X-38.787 Y-15.379 E7.18158
G1 X-38.66 Y-15.9 E7.19941
G1 X-38.457 Y-16.397 E7.21727
G1 X-38.183 Y-16.858 E7.2351
G1 X-37.843 Y-17.273 E7.25295
G1 X-37.445 Y-17.632 E7.27078
G1 X-36.999 Y-17.929 E7.2886
G1 X-36.513 Y-18.157 E7.30645
G1 X-35.999 Y-18.309 E7.32428
G1 X-35.336 Y-18.39 E7.3465
G1 X-34.915 Y-18.4 E7.3605
G1 X-13.24 Y-18.4 E8.08142
G1 X-11.603 Y-18.394 E8.13586
G1 X-10.819 Y-18.4 E8.16194
G0 F4800 X-10.816 Y-18
G1 F600 X10.859 Y-18 E8.88285
G1 X12.499 Y-17.994 E8.9374
G1 X13.284 Y-18 E8.96351
G1 X34.584 Y-18 E9.67195
G1 X35.282 Y-17.99 E9.69517
G1 X35.785 Y-17.943 E9.71197
G1 X36.275 Y-17.817 E9.7288
G1 X36.739 Y-17.615 E9.74563
G1 X37.165 Y-17.343 E9.76244
G1 X37.543 Y-17.008 E9.77924
G1 X37.863 Y-16.617 E9.79605
G1 X38.118 Y-16.18 E9.81287
G1 X38.301 Y-15.709 E9.82968
G1 X38.408 Y-15.215 E9.84649
G1 X38.444 Y-14.56 E9.86831
G1 X38.445 Y-8.299 E10.07655
G1 X38.435 Y-7.562 E10.10107
G1 X38.392 Y-6.885 E10.12363
G1 X38.237 Y-4.155 E10.21458
G1 X38.158 Y-1.403 E10.30615
G1 X38.158 Y1.316 E10.39658
G1 X38.235 Y4.068 E10.48815
G1 X38.39 Y6.818 E10.57976
G1 X38.43 Y7.413 E10.59959
G1 X38.445 Y7.946 E10.61733
G1 X38.445 Y14.118 E10.82261
G1 X38.435 Y14.841 E10.84666
G1 X38.388 Y15.345 E10.86349
G1 X38.262 Y15.834 E10.88029
G1 X38.061 Y16.298 E10.89711
G1 X37.789 Y16.725 E10.91395
G1 X37.353 Y17.196 E10.93529
G1 X35.296 Y19.011 E11.02653
G1 X33.338 Y20.838 E11.11561
G1 X31.351 Y22.803 E11.20855
G1 X29.488 Y24.752 E11.29823
G1 X27.628 Y26.811 E11.39051
G1 X25.873 Y28.868 E11.48045
G1 X24.146 Y31.01 E11.57196
G1 X22.483 Y33.2 E11.66342
G1 X20.892 Y35.42 E11.75426
G1 X19.356 Y37.698 E11.84565
G1 X17.942 Y39.926 E11.93341
G1 X17.518 Y40.614 E11.96029
G1 X17.22 Y41.022 E11.9771
G1 X16.861 Y41.378 E11.99391
G1 X16.45 Y41.673 E12.01074
G1 X15.998 Y41.9 E12.02756
G1 X15.516 Y42.052 E12.04437
G1 X14.893 Y42.133 E12.06527
G1 X14.47 Y42.145 E12.07934
G1 X8.261 Y42.145 E12.28585
G1 X7.57 Y42.135 E12.30884
G1 X6.938 Y42.095 E12.3299
G1 X4.164 Y41.937 E12.42232
G1 X1.412 Y41.858 E12.51388
G1 X-1.306 Y41.858 E12.60429
G1 X-4.058 Y41.935 E12.69585
G1 X-6.785 Y42.088 E12.7867
G1 X-7.435 Y42.13 E12.80836
G1 X-7.946 Y42.145 E12.82536
G1 X-14.139 Y42.145 E13.03134
G1 X-14.84 Y42.135 E13.05466
G1 X-15.343 Y42.088 E13.07146
G1 X-15.833 Y41.962 E13.08829
G1 X-16.296 Y41.76 E13.10509
G1 X-16.723 Y41.488 E13.12193
G1 X-17.101 Y41.153 E13.13873
G1 X-17.493 Y40.654 E13.15984
G1 X-17.836 Y40.115 E13.18109
G1 X-18.71 Y38.7 E13.2364
G1 X-20.228 Y36.389 E13.32837
G1 X-21.791 Y34.152 E13.41913
G1 X-23.418 Y31.955 E13.51006
G1 X-25.101 Y29.814 E13.60064
G1 X-26.874 Y27.686 E13.69276
G1 X-28.675 Y25.643 E13.78335
G1 X-30.533 Y23.652 E13.87392
G1 X-32.454 Y21.706 E13.96487
G1 X-34.43 Y19.816 E14.05581
G1 X-36.426 Y18.011 E14.14532
G1 X-37.352 Y17.195 E14.18637
G1 X-37.703 Y16.832 E14.20317
G1 X-37.993 Y16.418 E14.21998
G1 X-38.215 Y15.963 E14.23682
G1 X-38.362 Y15.479 E14.25364
G1 X-38.435 Y14.883 E14.27361
G1 X-38.445 Y14.47 E14.28735
G1 X-38.445 Y8.262 E14.49383
G1 X-38.435 Y7.556 E14.51732
G1 X-38.392 Y6.883 E14.53975
G1 X-38.237 Y4.155 E14.63063
G1 X-38.158 Y1.403 E14.72219
G1 X-38.158 Y-1.316 E14.81263
G1 X-38.235 Y-4.068 E14.9042
G1 X-38.391 Y-6.84 E14.99654
G1 X-38.43 Y-7.426 E15.01607
G1 X-38.445 Y-7.946 E15.03338
G1 X-38.445 Y-14.174 E15.24052
G1 X-38.435 Y-14.839 E15.26264
G1 X-38.387 Y-15.342 E15.27945
G1 X-38.261 Y-15.832 E15.29627
G1 X-38.059 Y-16.296 E15.31311
G1 X-37.787 Y-16.722 E15.32992
G1 X-37.451 Y-17.099 E15.34671
G1 X-37.06 Y-17.42 E15.36354
G1 X-36.623 Y-17.674 E15.38035
G1 X-36.152 Y-17.857 E15.39716
G1 X-35.657 Y-17.963 E15.41399
G1 X-35.005 Y-17.999 E15.43571
G1 X-13.241 Y-18 E16.15959
G1 X-11.601 Y-17.994 E16.21413
G1 X-10.816 Y-18 E16.24024
G1 F1800 E14.24024
;MESH:I.stl
G0 F4800 X-10.531 Y-14.186
G1 F1800 E16.24024
G0 F4800 X-10.545 Y-14.2
;TYPE:WALL-INNER
G1 F600 X10.545 Y-14.2 E16.9417
G1 X10.545 Y-8.2 E17.14126
G1 X4.55 Y-8.199 E17.34065
G1 X4.103 Y-8.052 E17.35631
G1 X3.846 Y-7.541 E17.37533
G1 X3.846 Y7.499 E17.87556
G1 X3.997 Y7.945 E17.89122
G1 X4.505 Y8.199 E17.91011
G1 X10.545 Y8.201 E18.111
G1 X10.545 Y14.2 E18.31053
G1 X-10.545 Y14.2 E19.01199
G1 X-10.545 Y8.2 E19.21155
G1 X-4.55 Y8.199 E19.41094
G1 X-4.103 Y8.052 E19.42659
G1 X-3.846 Y7.541 E19.44562
G1 X-3.845 Y-7.431 E19.94359
G1 X-3.994 Y-7.948 E19.96148
G1 X-4.507 Y-8.2 E19.98049
G1 X-10.545 Y-8.201 E20.18132
G1 X-10.545 Y-14.2 E20.38085
G0 F4800 X-10.945 Y-14.6
;TYPE:WALL-OUTER
G1 F600 X10.945 Y-14.6 E21.10891
G1 X10.945 Y-7.8 E21.33508
G1 X4.614 Y-7.799 E21.54565
G1 X4.386 Y-7.724 E21.55363
G1 X4.246 Y-7.446 E21.56399
G1 X4.246 Y7.433 E22.05886
G1 X4.323 Y7.661 E22.06687
G1 X4.599 Y7.799 E22.07713
G1 X10.945 Y7.801 E22.2882
G1 X10.945 Y14.6 E22.51434
G1 X-10.945 Y14.6 E23.2424
G1 X-10.945 Y7.8 E23.46857
G1 X-4.614 Y7.799 E23.67914
G1 X-4.386 Y7.724 E23.68712
G1 X-4.246 Y7.446 E23.69747
G1 X-4.245 Y-7.375 E24.19042
G1 X-4.329 Y-7.667 E24.20053
G1 X-4.6 Y-7.8 E24.21057
G1 X-10.945 Y-7.801 E24.4216
G1 X-10.945 Y-14.6 E24.64774
G0 F4800 X-10.745 Y-14.6
G0 X-10.475 Y-14.13
G0 X0.042 Y-9.683
;TYPE:SKIN
G1 F600 X-0.003 Y-9.84 E24.65317
G1 X0.122 Y-9.84 E24.65733
G1 X0.042 Y-9.683 E24.66319
G0 F4800 X-.535 Y-10.24
G1 F600 X0.77 Y-10.24 E24.7066
G1 X-0.058 Y-8.592 E24.76794
G1 X-.535 Y-10.24 E24.825
G0 F4800 X-1.012 Y-10.448
G1 F600 X-1.402 Y-10.64 E24.83946
G1 X1.419 Y-10.64 E24.93328
G1 X0.286 Y-8.386 E25.01719
G1 X0.286 Y8.086 E25.56505
G1 X1.096 Y10.473 E25.64889
G1 X1.429 Y10.64 E25.66128
G1 X-1.419 Y10.64 E25.75601
G1 X-.286 Y8.386 E25.83991
G1 X-.285 Y-7.937 E26.38282
G1 X-1.012 Y-10.448 E26.46976
G0 F4800 X-1.347 Y-10.167
G1 F600 X-3.122 Y-11.04 E26.53555
G1 X3.075 Y-11.04 E26.74167
G1 X1.868 Y-10.643 E26.78393
G1 X0.686 Y-8.291 E26.87148
G1 X0.686 Y8.02 E27.41399
G1 X1.422 Y10.189 E27.49017
G1 X3.12 Y11.04 E27.55334
G1 X-3.075 Y11.04 E27.75938
G1 X-1.868 Y10.643 E27.80165
G1 X-.686 Y8.291 E27.8892
G1 X-.685 Y-7.88 E28.42705
G1 X-1.347 Y-10.167 E28.50623
G0 F4800 X-1.682 Y-9.886
G1 F600 X-3.866 Y-10.96 E28.58718
G1 X-7.785 Y-10.961 E28.71753
G1 X-7.785 Y-11.44 E28.73346
G1 X7.785 Y-11.44 E29.25132
G1 X7.785 Y-10.96 E29.26729
G1 X4.108 Y-10.959 E29.38958
G1 X2.151 Y-10.315 E29.45811
G1 X1.086 Y-8.196 E29.53699
G1 X1.086 Y7.954 E30.07414
G1 X1.748 Y9.905 E30.14266
G1 X3.852 Y10.959 E30.22093
G1 X7.785 Y10.961 E30.35174
G1 X7.785 Y11.44 E30.36767
G1 X-7.785 Y11.44 E30.88553
G1 X-7.785 Y10.96 E30.9015
G1 X-4.108 Y10.959 E31.0238
G1 X-2.151 Y10.315 E31.09232
G1 X-1.086 Y8.196 E31.1712
G1 X-1.085 Y-7.823 E31.70399
G1 X-1.682 Y-9.886 E31.77543
G0 F4800 X-2.017 Y-9.605
G1 F600 X-3.959 Y-10.56 E31.8474
G1 X-8.185 Y-10.561 E31.98796
G1 X-8.185 Y-11.84 E32.0305
G1 X8.185 Y-11.84 E32.57497
G1 X8.185 Y-10.56 E32.61754
G1 X4.172 Y-10.559 E32.75102
G1 X2.434 Y-9.987 E32.81187
G1 X1.486 Y-8.101 E32.88208
G1 X1.486 Y7.888 E33.41388
G1 X2.074 Y9.621 E33.47474
G1 X3.947 Y10.559 E33.54441
G1 X8.185 Y10.561 E33.68537
G1 X8.185 Y11.84 E33.72791
G1 X-8.185 Y11.84 E34.27238
G1 X-8.185 Y10.56 E34.31495
G1 X-4.172 Y10.559 E34.44842
G1 X-2.434 Y9.987 E34.50928
G1 X-1.486 Y8.101 E34.57949
G1 X-1.485 Y-7.766 E35.10723
G1 X-2.017 Y-9.605 E35.1709
G0 F4800 X-2.352 Y-9.324
G1 F600 X-4.052 Y-10.16 E35.23391
G1 X-8.585 Y-10.161 E35.38468
G1 X-8.585 Y-12.24 E35.45383
G1 X8.585 Y-12.24 E36.0249
G1 X8.585 Y-10.16 E36.09408
G1 X4.236 Y-10.159 E36.23873
G1 X2.717 Y-9.659 E36.29192
G1 X1.886 Y-8.006 E36.35346
G1 X1.886 Y7.822 E36.8799
G1 X2.4 Y9.337 E36.93311
G1 X4.042 Y10.159 E36.99418
G1 X8.585 Y10.161 E37.14528
G1 X8.585 Y12.24 E37.21443
G1 X-8.585 Y12.24 E37.78551
G1 X-8.585 Y10.16 E37.85469
G1 X-4.236 Y10.159 E37.99934
G1 X-2.717 Y9.659 E38.05252
G1 X-1.886 Y8.006 E38.11406
G1 X-1.885 Y-7.709 E38.63674
G1 X-2.352 Y-9.324 E38.69266
G0 F4800 X-2.687 Y-9.043
G1 F600 X-4.145 Y-9.76 E38.7467
G1 X-8.985 Y-9.761 E38.90768
G1 X-8.985 Y-12.64 E39.00343
G1 X8.985 Y-12.64 E39.60112
G1 X8.985 Y-9.76 E39.69691
G1 X4.3 Y-9.759 E39.85273
G1 X3 Y-9.331 E39.89825
G1 X2.286 Y-7.911 E39.95112
G1 X2.286 Y7.756 E40.4722
G1 X2.726 Y9.053 E40.51776
G1 X4.137 Y9.759 E40.57023
G1 X8.985 Y9.761 E40.73148
G1 X8.985 Y12.64 E40.82723
G1 X-8.985 Y12.64 E41.42492
G1 X-8.985 Y9.76 E41.52071
G1 X-4.3 Y9.759 E41.67653
G1 X-3 Y9.331 E41.72205
G1 X-2.286 Y7.911 E41.77492
G1 X-2.285 Y-7.652 E42.29254
G1 X-2.687 Y-9.043 E42.3407
G0 F4800 X-3.022 Y-8.762
G1 F600 X-4.238 Y-9.36 E42.38577
G1 X-9.385 Y-9.361 E42.55696
G1 X-9.385 Y-13.04 E42.67933
G1 X9.385 Y-13.04 E43.30362
G1 X9.385 Y-9.36 E43.42602
G1 X4.364 Y-9.359 E43.59302
G1 X3.283 Y-9.003 E43.63087
G1 X2.686 Y-7.816 E43.67506
G1 X2.686 Y7.69 E44.19079
G1 X3.052 Y8.769 E44.22869
G1 X4.232 Y9.359 E44.27257
G1 X9.385 Y9.361 E44.44396
G1 X9.385 Y13.04 E44.56632
G1 X-9.385 Y13.04 E45.19061
G1 X-9.385 Y9.36 E45.31301
G1 X-4.364 Y9.359 E45.48001
G1 X-3.283 Y9.003 E45.51786
G1 X-2.686 Y7.816 E45.56206
G1 X-2.685 Y-7.595 E46.07463
G1 X-3.022 Y-8.762 E46.11503
G0 F4800 X-3.357 Y-8.481
G1 F600 X-4.331 Y-8.96 E46.15113
G1 X-9.785 Y-8.961 E46.33253
G1 X-9.785 Y-13.44 E46.4815
G1 X9.785 Y-13.44 E47.1324
G1 X9.785 Y-8.96 E47.28141
G1 X4.428 Y-8.959 E47.45958
G1 X3.566 Y-8.675 E47.48977
G1 X3.086 Y-7.721 E47.52529
G1 X3.086 Y7.624 E48.03567
G1 X3.378 Y8.485 E48.06591
G1 X4.326 Y8.959 E48.10116
G1 X9.785 Y8.961 E48.28273
G1 X9.785 Y13.44 E48.4317
G1 X-9.785 Y13.44 E49.0826
G1 X-9.785 Y8.96 E49.2316
G1 X-4.428 Y8.959 E49.40978
G1 X-3.566 Y8.675 E49.43996
G1 X-3.086 Y7.721 E49.47548
G1 X-3.085 Y-7.538 E49.983
G1 X-3.357 Y-8.481 E50.01564
G0 F4800 X3.486 Y-7.626
G1 F600 X3.486 Y7.558 E50.52067
G1 X3.704 Y8.201 E50.54325
G1 X4.42 Y8.559 E50.56987
G1 X10.185 Y8.561 E50.76162
G1 X10.185 Y13.84 E50.9372
G1 X-10.185 Y13.84 E51.61471
G1 X-10.185 Y8.56 E51.79032
G1 X-4.492 Y8.559 E51.97967
G1 X-3.849 Y8.347 E52.00219
G1 X-3.486 Y7.626 E52.02904
G1 X-3.485 Y-7.482 E52.53153
G1 X-3.692 Y-8.2 E52.55638
G1 X-4.424 Y-8.56 E52.58352
G1 X-10.185 Y-8.561 E52.77513
G1 X-10.185 Y-13.84 E52.95071
G1 X10.185 Y-13.84 E53.62822
G1 X10.185 Y-8.56 E53.80383
G1 X4.492 Y-8.559 E53.99318
G1 X3.849 Y-8.347 E54.0157
G1 X3.486 Y-7.626 E54.04255
G0 F4800 X0.045 Y8.619
G1 F600 X0.595 Y10.24 E54.09948
G1 X-.77 Y10.24 E54.14488
G1 X0.045 Y8.619 E54.20523
G0 F4800 X-0.027 Y9.652
G1 F600 X0.037 Y9.84 E54.21183
G1 X-.121 Y9.84 E54.21709
G1 X-0.027 Y9.652 E54.22408
G0 F4800 X-.133 Y9.483
;TYPE:SKIN
G1 F600 X-.173 Y9.442 E54.22503
G0 F4800 X-0.079 Y9.253
G1 F600 X0.154 Y9.488 E54.23053
G0 F4800 X-0.033 Y8.451
G1 F600 X-.111 Y8.374 E54.23236
G0 F4800 X-.111 Y8.091
G1 F600 X0.213 Y8.415 E54.23998
G0 F4800 X0.111 Y8.03
G1 F600 X-.111 Y7.808 E54.2452
G0 F4800 X0.111 Y7.747
G1 F600 X-.111 Y7.525 E54.25042
G0 F4800 X0.111 Y7.464
G1 F600 X-.111 Y7.242 E54.25564
G0 F4800 X0.111 Y7.182
G1 F600 X-.111 Y6.96 E54.26086
G0 F4800 X0.111 Y6.899
G1 F600 X-.111 Y6.677 E54.26608
G0 F4800 X0.111 Y6.616
G1 F600 X-.111 Y6.394 E54.2713
G0 F4800 X0.111 Y6.333
G1 F600 X-.111 Y6.111 E54.27652
G0 F4800 X0.111 Y6.05
G1 F600 X-.111 Y5.828 E54.28175
G0 F4800 X0.111 Y5.767
G1 F600 X-.111 Y5.545 E54.28697
G0 F4800 X0.111 Y5.485
G1 F600 X-.111 Y5.262 E54.2922
G0 F4800 X0.111 Y5.202
G1 F600 X-.111 Y4.98 E54.29742
G0 F4800 X0.111 Y4.919
G1 F600 X-.111 Y4.697 E54.30264
G0 F4800 X0.111 Y4.636
G1 F600 X-.111 Y4.414 E54.30786
G0 F4800 X0.111 Y4.353
G1 F600 X-.111 Y4.131 E54.31308
G0 F4800 X0.111 Y4.07
G1 F600 X-.111 Y3.848 E54.31831
G0 F4800 X0.111 Y3.787
G1 F600 X-.111 Y3.565 E54.32353
G0 F4800 X0.111 Y3.505
G1 F600 X-.111 Y3.283 E54.32875
G0 F4800 X0.111 Y3.222
G1 F600 X-.111 Y3 E54.33397
G0 F4800 X0.111 Y2.939
G1 F600 X-.111 Y2.717 E54.33919
G0 F4800 X0.111 Y2.656
G1 F600 X-.111 Y2.434 E54.34441
G0 F4800 X0.111 Y2.373
G1 F600 X-.111 Y2.151 E54.34963
G0 F4800 X0.111 Y2.09
G1 F600 X-.111 Y1.868 E54.35485
G0 F4800 X0.111 Y1.808
G1 F600 X-.111 Y1.586 E54.36007
G0 F4800 X0.111 Y1.525
G1 F600 X-.111 Y1.303 E54.3653
G0 F4800 X0.111 Y1.242
G1 F600 X-.111 Y1.02 E54.37052
G0 F4800 X0.111 Y0.959
G1 F600 X-.111 Y0.737 E54.37574
G0 F4800 X0.111 Y0.676
G1 F600 X-.111 Y0.454 E54.38096
G0 F4800 X0.111 Y0.393
G1 F600 X-.111 Y0.171 E54.38618
G0 F4800 X0.111 Y0.111
G1 F600 X-.111 Y-.111 E54.3914
G0 F4800 X0.111 Y-.171
G1 F600 X-.111 Y-.393 E54.39662
G0 F4800 X0.111 Y-.454
G1 F600 X-.111 Y-.676 E54.40184
G0 F4800 X0.111 Y-.737
G1 F600 X-.111 Y-.959 E54.40706
G0 F4800 X0.111 Y-1.02
G1 F600 X-.111 Y-1.242 E54.41228
G0 F4800 X0.111 Y-1.303
G1 F600 X-.111 Y-1.525 E54.41751
G0 F4800 X0.111 Y-1.586
G1 F600 X-.111 Y-1.808 E54.42273
G0 F4800 X0.111 Y-1.868
G1 F600 X-.111 Y-2.09 E54.42795
G0 F4800 X0.111 Y-2.151
G1 F600 X-.111 Y-2.373 E54.43317
G0 F4800 X0.111 Y-2.434
G1 F600 X-.111 Y-2.656 E54.43839
G0 F4800 X0.111 Y-2.717
G1 F600 X-.111 Y-2.939 E54.44361
G0 F4800 X0.111 Y-3
G1 F600 X-.111 Y-3.222 E54.44883
