;FLAVOR:Marlin
;TIME:1830
;Filament used: 1.58865m
;Layer height: 0.2
;MINX:-33.941
;MINY:-35.164
;MINZ:0.2
;MAXX:31.851
;MAXY:27.829
;MAXZ:3.8
;POSTPROCESSED
;Generated with Cura_SteamEngine 4.13.1
M82 ;absolute extrusion mode
START_PRINT BED_TEMP=80 EXTRUDER_TEMP=220.0
G92 E0
G92 E0
G1 F1800 E-2
;LAYER_COUNT:19
;LAYER:0
M107
G0 F4800 X-9.339 Y19.79 Z0.2
;TYPE:SKIRT
G1 F1800 E0
G1 F600 X-11.909 Y18.84 E0.09113
G1 X-12.979 Y18.471 E0.12878
G1 X-13.183 Y18.394 E0.13603
G1 X-13.666 Y18.16 E0.15388
G1 X-14.308 Y17.684 E0.18046
G1 X-14.677 Y17.341 E0.19722
G1 X-16.693 Y15.518 E0.28762
G1 X-18.777 Y13.738 E0.37878
G1 X-20.902 Y12.023 E0.4696
G1 X-23.063 Y10.379 E0.55991
G1 X-25.269 Y8.797 E0.6502
G1 X-27.558 Y7.252 E0.74205
G1 X-29.827 Y5.812 E0.83143
G1 X-32.176 Y4.411 E0.9224
G1 X-32.615 Y4.103 E0.94024
G1 X-33.003 Y3.733 E0.95807
G1 X-33.332 Y3.309 E0.97592
G1 X-33.594 Y2.841 E0.99376
G1 X-33.784 Y2.34 E1.01158
G1 X-33.898 Y1.815 E1.02945
G1 X-33.94 Y1.096 E1.0534
G1 X-33.941 Y-14.105 E1.55899
G1 X-33.929 Y-14.967 E1.58766
G1 X-33.908 Y-15.498 E1.60534
G1 X-33.743 Y-18.763 E1.71407
G1 X-33.701 Y-19.408 E1.73557
G1 X-33.649 Y-19.829 E1.74968
G1 X-33.43 Y-21.009 E1.7896
G1 X-33.091 Y-22.637 E1.8449
G1 X-32.958 Y-23.233 E1.86522
G1 X-32.766 Y-23.835 E1.88623
G1 X-32.39 Y-24.736 E1.9187
G1 X-32.162 Y-25.238 E1.93704
G1 X-31.912 Y-25.691 E1.95425
G1 X-31.395 Y-26.486 E1.98579
G1 X-31.049 Y-26.983 E2.00593
G1 X-30.711 Y-27.401 E2.02381
G1 X-30.643 Y-27.477 E2.0272
G1 X-30.178 Y-27.975 E2.04987
G1 X-29.695 Y-28.467 E2.0728
G1 X-29.391 Y-28.743 E2.08645
G1 X-28.646 Y-29.346 E2.11833
G1 X-28.546 Y-29.424 E2.12255
G1 X-28.016 Y-29.823 E2.14462
G1 X-27.337 Y-30.25 E2.17129
G1 X-26.74 Y-30.581 E2.194
G1 X-26.116 Y-30.915 E2.21754
G1 X-25.615 Y-31.138 E2.23578
G1 X-24.95 Y-31.38 E2.25931
G1 X-24.578 Y-31.509 E2.27241
G1 X-23.973 Y-31.711 E2.29362
G1 X-23.565 Y-31.821 E2.30768
G1 X-22.553 Y-32.03 E2.34205
G1 X-22.235 Y-32.09 E2.35281
G1 X-21.54 Y-32.209 E2.37626
G1 X-20.972 Y-32.271 E2.39527
G1 X-18.153 Y-32.472 E2.48927
G1 X-15.411 Y-32.743 E2.58091
G1 X-12.736 Y-33.084 E2.6706
G1 X-10.042 Y-33.506 E2.7613
G1 X-7.326 Y-34.009 E2.85317
G1 X-4.72 Y-34.57 E2.94183
G1 X-3.596 Y-34.845 E2.98032
G1 X-2.677 Y-35.058 E3.01169
G1 X-1.939 Y-35.154 E3.03644
G1 X-1.518 Y-35.164 E3.05045
G1 X13.583 Y-35.164 E3.55271
G1 X14.462 Y-35.152 E3.58195
G1 X14.945 Y-35.133 E3.59803
G1 X18.266 Y-34.966 E3.70862
G1 X18.882 Y-34.926 E3.72916
G1 X19.307 Y-34.873 E3.7434
G1 X20.479 Y-34.655 E3.78305
G1 X22.099 Y-34.318 E3.83809
G1 X22.787 Y-34.164 E3.86153
G1 X23.357 Y-33.986 E3.8814
G1 X24.075 Y-33.681 E3.90734
G1 X24.728 Y-33.38 E3.93126
G1 X25.175 Y-33.133 E3.94824
G1 X25.854 Y-32.693 E3.97515
G1 X25.951 Y-32.628 E3.97904
G1 X26.466 Y-32.27 E3.9999
G1 X26.852 Y-31.96 E4.01636
G1 X27.384 Y-31.468 E4.04047
G1 X27.938 Y-30.93 E4.06615
G1 X28.232 Y-30.607 E4.08068
G1 X28.807 Y-29.894 E4.11114
G1 X28.879 Y-29.802 E4.11503
G1 X29.293 Y-29.253 E4.1379
G1 X29.709 Y-28.598 E4.16371
G1 X29.761 Y-28.508 E4.16716
G1 X30.063 Y-27.96 E4.18797
G1 X30.396 Y-27.336 E4.2115
G1 X30.6 Y-26.88 E4.22811
G1 X30.858 Y-26.176 E4.25305
G1 X30.992 Y-25.789 E4.26667
G1 X31.19 Y-25.192 E4.28759
G1 X31.297 Y-24.793 E4.30133
G1 X31.515 Y-23.746 E4.3369
G1 X31.567 Y-23.464 E4.34644
G1 X31.685 Y-22.781 E4.36949
G1 X31.751 Y-22.182 E4.38954
G1 X31.759 Y-22.071 E4.39324
G1 X31.82 Y-21.013 E4.42849
G1 X31.851 Y-20.294 E4.45242
G1 X31.842 Y-19.773 E4.46975
G1 X31.817 Y-19.376 E4.48298
G1 X31.599 Y-16.526 E4.57805
G1 X31.536 Y-15.825 E4.60146
G1 X31.429 Y-15.221 E4.62186
G1 X31.058 Y-13.828 E4.66981
G1 X30.916 Y-13.316 E4.68748
G1 X30.268 Y-10.698 E4.77718
G1 X29.681 Y-8.009 E4.86873
G1 X29.181 Y-5.345 E4.95888
G1 X28.758 Y-2.679 E5.04866
G1 X28.402 Y0.042 E5.13993
G1 X28.123 Y2.792 E5.23187
G1 X27.927 Y5.478 E5.32144
G1 X27.805 Y8.198 E5.412
G1 X27.77 Y9.776 E5.4645
G1 X27.761 Y10.432 E5.48632
G1 X27.741 Y10.94 E5.50323
G1 X27.576 Y14.214 E5.61226
G1 X27.535 Y14.858 E5.63372
G1 X27.481 Y15.287 E5.6481
G1 X27.263 Y16.458 E5.68772
G1 X26.927 Y18.075 E5.74265
G1 X26.775 Y18.757 E5.76589
G1 X26.591 Y19.342 E5.78629
G1 X26.399 Y19.807 E5.80302
G1 X26.275 Y20.084 E5.81311
G1 X25.992 Y20.698 E5.8356
G1 X25.742 Y21.152 E5.85284
G1 X25.288 Y21.851 E5.88056
G1 X25.224 Y21.946 E5.88437
G1 X24.881 Y22.439 E5.90435
G1 X24.56 Y22.84 E5.92143
G1 X24.48 Y22.929 E5.92541
G1 X24.01 Y23.432 E5.94831
G1 X23.528 Y23.923 E5.97119
G1 X23.224 Y24.199 E5.98485
G1 X22.478 Y24.803 E6.01677
G1 X22.378 Y24.881 E6.02099
G1 X21.848 Y25.28 E6.04306
G1 X21.214 Y25.682 E6.06803
G1 X20.574 Y26.038 E6.09238
G1 X19.946 Y26.374 E6.11607
G1 X19.484 Y26.581 E6.13291
G1 X18.73 Y26.855 E6.15959
G1 X18.397 Y26.971 E6.17132
G1 X17.8 Y27.169 E6.19224
G1 X17.401 Y27.276 E6.20598
G1 X16.354 Y27.494 E6.24155
G1 X16.067 Y27.547 E6.25126
G1 X15.372 Y27.666 E6.27471
G1 X14.804 Y27.728 E6.29371
G1 X14.546 Y27.746 E6.30232
G1 X13.608 Y27.799 E6.33356
G1 X12.896 Y27.829 E6.35727
G1 X12.36 Y27.818 E6.3751
G1 X11.997 Y27.796 E6.38719
G1 X9.161 Y27.579 E6.48179
G1 X8.438 Y27.515 E6.50594
G1 X7.794 Y27.398 E6.52771
G1 X7.228 Y27.235 E6.5473
G1 X5.407 Y26.678 E6.61063
G1 X4.703 Y26.452 E6.63523
G1 X4.046 Y26.166 E6.65906
G1 X3.027 Y25.596 E6.69789
G1 X0.583 Y24.276 E6.79028
G1 X-1.846 Y23.05 E6.88077
G1 X-4.324 Y21.889 E6.97179
G1 X-6.842 Y20.793 E7.06313
G1 X-9.339 Y19.79 E7.15263
G0 F4800 X-9.188 Y19.419
G1 F600 X-11.795 Y18.457 E7.24505
G1 X-12.848 Y18.093 E7.28211
G1 X-13.036 Y18.022 E7.28879
G1 X-13.49 Y17.799 E7.30562
G1 X-14.036 Y17.391 E7.32829
G1 X-14.405 Y17.048 E7.34504
G1 X-16.434 Y15.214 E7.43601
G1 X-18.53 Y13.424 E7.52769
G1 X-20.654 Y11.709 E7.61849
G1 X-22.834 Y10.052 E7.70956
G1 X-25.058 Y8.456 E7.80061
G1 X-27.3 Y6.943 E7.89057
G1 X-29.656 Y5.448 E7.98337
G1 X-31.971 Y4.067 E8.07303
G1 X-32.384 Y3.775 E8.08985
G1 X-32.745 Y3.421 E8.10667
G1 X-33.046 Y3.015 E8.12348
G1 X-33.279 Y2.566 E8.1403
G1 X-33.439 Y2.087 E8.1571
G1 X-33.531 Y1.408 E8.17989
G1 X-33.541 Y0.996 E8.1936
G1 X-33.541 Y-14.1 E8.69569
G1 X-33.529 Y-14.962 E8.72437
G1 X-33.509 Y-15.478 E8.74154
G1 X-33.344 Y-18.737 E8.85007
G1 X-33.302 Y-19.382 E8.87157
G1 X-33.256 Y-19.756 E8.88411
G1 X-33.038 Y-20.928 E8.92376
G1 X-32.7 Y-22.55 E8.97886
G1 X-32.567 Y-23.146 E8.99917
G1 X-32.397 Y-23.681 E9.01784
G1 X-32.021 Y-24.582 E9.05032
G1 X-31.798 Y-25.071 E9.06819
G1 X-31.577 Y-25.473 E9.08345
G1 X-31.125 Y-26.17 E9.11108
G1 X-30.72 Y-26.754 E9.13472
G1 X-30.35 Y-27.204 E9.15409
G1 X-29.893 Y-27.695 E9.1764
G1 X-29.41 Y-28.187 E9.19934
G1 X-29.139 Y-28.432 E9.21149
G1 X-28.306 Y-29.105 E9.2471
G1 X-27.776 Y-29.504 E9.26917
G1 X-27.133 Y-29.906 E9.29439
G1 X-26.551 Y-30.228 E9.31651
G1 X-25.927 Y-30.562 E9.34005
G1 X-25.479 Y-30.762 E9.35637
G1 X-24.819 Y-31.002 E9.37973
G1 X-24.451 Y-31.129 E9.39268
G1 X-23.846 Y-31.331 E9.41389
G1 X-23.483 Y-31.429 E9.4264
G1 X-22.478 Y-31.637 E9.46053
G1 X-22.167 Y-31.696 E9.47106
G1 X-21.472 Y-31.815 E9.49451
G1 X-20.937 Y-31.873 E9.51241
G1 X-20.363 Y-31.912 E9.53155
G1 X-18.085 Y-32.076 E9.60751
G1 X-15.392 Y-32.342 E9.69752
G1 X-12.696 Y-32.686 E9.78791
G1 X-9.938 Y-33.117 E9.88076
G1 X-7.267 Y-33.613 E9.97111
G1 X-4.62 Y-34.183 E10.06117
G1 X-3.506 Y-34.455 E10.09931
G1 X-2.587 Y-34.668 E10.13069
G1 X-1.927 Y-34.754 E10.15282
G1 X-1.518 Y-34.764 E10.16643
G1 X13.578 Y-34.764 E10.66853
G1 X14.457 Y-34.752 E10.69777
G1 X14.925 Y-34.734 E10.71334
G1 X18.24 Y-34.567 E10.82374
G1 X18.856 Y-34.527 E10.84427
G1 X19.234 Y-34.48 E10.85694
G1 X20.397 Y-34.263 E10.89629
G1 X22.012 Y-33.928 E10.95115
G1 X22.7 Y-33.774 E10.9746
G1 X23.206 Y-33.615 E10.99224
G1 X23.914 Y-33.315 E11.01781
G1 X24.56 Y-33.017 E11.04148
G1 X24.957 Y-32.797 E11.05657
G1 X25.723 Y-32.3 E11.08694
G1 X26.238 Y-31.942 E11.1078
G1 X26.581 Y-31.666 E11.12245
G1 X27.105 Y-31.181 E11.14619
G1 X27.659 Y-30.643 E11.17188
G1 X27.921 Y-30.356 E11.1848
G1 X28.496 Y-29.643 E11.21527
G1 X28.56 Y-29.561 E11.21873
G1 X28.974 Y-29.012 E11.2416
G1 X29.365 Y-28.394 E11.26592
G1 X29.71 Y-27.772 E11.28958
G1 X30.043 Y-27.148 E11.3131
G1 X30.224 Y-26.743 E11.32786
G1 X30.48 Y-26.044 E11.35262
G1 X30.612 Y-25.663 E11.36603
G1 X30.81 Y-25.066 E11.38695
G1 X30.906 Y-24.711 E11.39918
G1 X31.122 Y-23.672 E11.43447
G1 X31.173 Y-23.396 E11.44381
G1 X31.291 Y-22.713 E11.46686
G1 X31.352 Y-22.147 E11.4858
G1 X31.36 Y-22.048 E11.4891
G1 X31.42 Y-20.996 E11.52415
G1 X31.451 Y-20.277 E11.54808
G1 X31.438 Y-19.712 E11.56688
G1 X31.418 Y-19.406 E11.57708
G1 X31.2 Y-16.562 E11.67195
G1 X31.137 Y-15.861 E11.69536
G1 X31.042 Y-15.324 E11.7135
G1 X30.673 Y-13.935 E11.7613
G1 X30.524 Y-13.398 E11.77983
G1 X29.875 Y-10.774 E11.86974
G1 X29.29 Y-8.096 E11.96091
G1 X28.787 Y-5.41 E12.0518
G1 X28.359 Y-2.722 E12.14233
G1 X28.006 Y-0.017 E12.23306
G1 X27.723 Y2.771 E12.32626
G1 X27.529 Y5.43 E12.41494
G1 X27.404 Y8.236 E12.50836
G1 X27.37 Y9.771 E12.55943
G1 X27.361 Y10.427 E12.58125
G1 X27.342 Y10.919 E12.59762
G1 X27.177 Y14.188 E12.70649
G1 X27.136 Y14.832 E12.72795
G1 X27.088 Y15.214 E12.74076
G1 X26.871 Y16.376 E12.78007
G1 X26.536 Y17.988 E12.83483
G1 X26.384 Y18.67 E12.85807
G1 X26.221 Y19.19 E12.8762
G1 X25.932 Y19.873 E12.90087
G1 X25.629 Y20.53 E12.92493
G1 X25.407 Y20.934 E12.94026
G1 X24.896 Y21.718 E12.97139
G1 X24.553 Y22.211 E12.99136
G1 X24.187 Y22.656 E13.01053
G1 X23.725 Y23.152 E13.03307
G1 X23.243 Y23.643 E13.05596
G1 X22.973 Y23.888 E13.06808
G1 X22.227 Y24.492 E13.10001
G1 X22.138 Y24.562 E13.10377
G1 X21.608 Y24.961 E13.12584
G1 X21.01 Y25.338 E13.14935
G1 X20.38 Y25.688 E13.17332
G1 X19.757 Y26.021 E13.19682
G1 X19.346 Y26.205 E13.21179
G1 X18.599 Y26.478 E13.23825
G1 X18.271 Y26.591 E13.24978
G1 X17.674 Y26.789 E13.2707
G1 X17.319 Y26.885 E13.28294
G1 X16.28 Y27.101 E13.31823
G1 X15.999 Y27.153 E13.32774
G1 X15.304 Y27.272 E13.35119
G1 X14.769 Y27.33 E13.36909
G1 X14.523 Y27.347 E13.37729
G1 X13.591 Y27.399 E13.40834
G1 X12.879 Y27.429 E13.43204
G1 X12.378 Y27.419 E13.4487
G1 X12.028 Y27.397 E13.46037
G1 X9.196 Y27.181 E13.55483
G1 X8.473 Y27.117 E13.57898
G1 X7.901 Y27.013 E13.59831
G1 X7.34 Y26.851 E13.61773
G1 X5.529 Y26.297 E13.68072
G1 X4.825 Y26.071 E13.70532
G1 X4.241 Y25.817 E13.7265
G1 X3.192 Y25.23 E13.76648
G1 X0.774 Y23.925 E13.85787
G1 X-1.703 Y22.675 E13.95015
G1 X-4.144 Y21.53 E14.03982
G1 X-6.67 Y20.431 E14.13145
G1 X-9.188 Y19.419 E14.22171
G1 F1800 E12.22171
;MESH:J.stl
G0 F4800 X-9.188 Y14.436
G0 X-11.193 Y14.386
G1 F1800 E14.22171
G0 F4800 X-11.263 Y14.456
;TYPE:WALL-INNER
G1 F600 X-11.263 Y-1.023 E14.73654
G1 X-11.041 Y-5.456 E14.88417
G1 X-10.386 Y-8.61 E14.99131
G1 X-9.878 Y-9.754 E15.03294
G1 X-9.156 Y-10.826 E15.07593
G1 X-8.214 Y-11.817 E15.1214
G1 X-7.043 Y-12.729 E15.17077
G1 X-5.695 Y-13.473 E15.22198
G1 X-4.144 Y-14.014 E15.27661
G1 X-2.392 Y-14.344 E15.33591
G1 X-.439 Y-14.455 E15.40097
G1 X3.441 Y-14.159 E15.5304
G1 X6.247 Y-13.3 E15.628
G1 X8.26 Y-11.924 E15.7091
G1 X9.76 Y-10.029 E15.78948
G1 X10.765 Y-7.574 E15.87771
G1 X11.142 Y-5.275 E15.9552
G1 X3.902 Y-4.29 E16.19822
G1 X3.643 Y-6.482 E16.27164
G1 X3.591 Y-6.65 E16.27748
G1 X3.109 Y-7.602 E16.31298
G1 X3.024 Y-7.724 E16.31792
G1 X2.285 Y-8.487 E16.35325
G1 X2.129 Y-8.595 E16.35956
G1 X1.394 Y-8.926 E16.38637
G1 X1.245 Y-8.97 E16.39154
G1 X0.276 Y-9.079 E16.42397
G1 X0.114 Y-9.071 E16.42937
G1 X-1.36 Y-8.755 E16.4795
G1 X-1.598 Y-8.631 E16.48843
G1 X-2.644 Y-7.659 E16.53592
G1 X-2.777 Y-7.456 E16.54399
G1 X-3.36 Y-5.795 E16.60254
G1 X-3.385 Y-5.667 E16.60688
G1 X-3.573 Y-3.251 E16.68748
G1 X-3.573 Y14.456 E17.27642
G1 X-11.263 Y14.456 E17.53219
G0 F4800 X-11.663 Y14.856
;TYPE:WALL-OUTER
G1 F600 X-11.663 Y-1.023 E18.06033
G1 X-11.438 Y-5.512 E18.20982
G1 X-10.769 Y-8.733 E18.31924
G1 X-10.23 Y-9.947 E18.36341
G1 X-9.468 Y-11.079 E18.4088
G1 X-8.483 Y-12.115 E18.45635
G1 X-7.268 Y-13.061 E18.50756
G1 X-5.855 Y-13.841 E18.56124
G1 X-4.251 Y-14.401 E18.61775
G1 X-2.442 Y-14.741 E18.67897
G1 X-.432 Y-14.856 E18.74593
G1 X3.513 Y-14.555 E18.87753
G1 X6.424 Y-13.664 E18.97878
G1 X8.536 Y-12.22 E19.06388
G1 X10.109 Y-10.233 E19.14817
G1 X11.153 Y-7.682 E19.23984
G1 X11.603 Y-4.934 E19.33246
G1 X3.553 Y-3.839 E19.60267
G1 X3.25 Y-6.399 E19.68841
G1 X3.219 Y-6.5 E19.69192
G1 X2.765 Y-7.396 E19.72533
G1 X2.714 Y-7.469 E19.72829
G1 X2.024 Y-8.181 E19.76127
G1 X1.931 Y-8.246 E19.76504
G1 X1.256 Y-8.55 E19.78967
G1 X1.166 Y-8.576 E19.79278
G1 X0.264 Y-8.678 E19.82297
G1 X0.167 Y-8.673 E19.8262
G1 X-1.223 Y-8.375 E19.87349
G1 X-1.365 Y-8.301 E19.87881
G1 X-2.336 Y-7.399 E19.92289
G1 X-2.416 Y-7.277 E19.92774
G1 X-2.973 Y-5.69 E19.98368
G1 X-2.988 Y-5.613 E19.98629
G1 X-3.173 Y-3.235 E20.06563
G1 X-3.173 Y14.856 E20.66733
G1 X-11.663 Y14.856 E20.94971
G0 F4800 X-11.663 Y14.656
G0 X-11.193 Y14.386
G0 X-6.805 Y-6.731
;TYPE:SKIN
G1 F600 X-6.919 Y-6.148 E20.96947
G1 X-7.133 Y-3.385 E21.06164
G1 X-7.133 Y10.896 E21.53663
G1 X-7.703 Y10.896 E21.55559
G1 X-7.703 Y-.945 E21.94942
G1 X-7.501 Y-4.979 E22.08376
G1 X-6.973 Y-7.524 E22.17021
G1 X-6.759 Y-8.006 E22.18775
G1 X-6.365 Y-8.589 E22.21116
G1 X-6.022 Y-8.95 E22.22772
G1 X-6.805 Y-6.731 E22.30598
G0 F4800 X-6.418 Y-6.625
G1 F600 X-6.522 Y-6.094 E22.32398
G1 X-6.733 Y-3.37 E22.41485
G1 X-6.733 Y11.296 E22.90265
G1 X-8.103 Y11.296 E22.94821
G1 X-8.103 Y-.945 E23.35535
G1 X-7.898 Y-5.035 E23.49155
G1 X-7.357 Y-7.645 E23.58021
G1 X-7.11 Y-8.2 E23.60041
G1 X-6.675 Y-8.844 E23.62626
G1 X-6.059 Y-9.492 E23.656
G1 X-5.307 Y-10.079 E23.68773
G1 X-4.411 Y-10.576 E23.72181
G1 X-3.992 Y-10.721 E23.73655
G1 X-5.077 Y-9.708 E23.78592
G1 X-5.629 Y-8.862 E23.81952
G1 X-6.418 Y-6.625 E23.89842
G0 F4800 X-6.031 Y-6.52
G1 F600 X-6.125 Y-6.04 E23.91468
G1 X-6.333 Y-3.355 E24.00426
G1 X-6.333 Y11.696 E24.50485
G1 X-8.503 Y11.696 E24.57703
G1 X-8.503 Y-.965 E24.99813
G1 X-8.297 Y-5.085 E25.13534
G1 X-7.74 Y-7.768 E25.22648
G1 X-7.461 Y-8.396 E25.24933
G1 X-6.989 Y-9.095 E25.27739
G1 X-6.332 Y-9.786 E25.3091
G1 X-5.526 Y-10.415 E25.3431
G1 X-4.575 Y-10.942 E25.37927
G1 X-3.424 Y-11.342 E25.41979
G1 X-2.045 Y-11.603 E25.46647
G1 X-.973 Y-11.661 E25.50218
G1 X-2.305 Y-11.377 E25.54748
G1 X-3.205 Y-10.908 E25.58123
G1 X-4.769 Y-9.449 E25.65237
G1 X-5.268 Y-8.684 E25.68275
G1 X-6.031 Y-6.52 E25.75907
G0 F4800 X-5.644 Y-6.415
G1 F600 X-5.728 Y-5.986 E25.77361
G1 X-5.933 Y-3.34 E25.86188
G1 X-5.933 Y12.096 E26.37528
G1 X-8.903 Y12.096 E26.47407
G1 X-8.903 Y-.965 E26.90848
G1 X-8.694 Y-5.141 E27.04754
G1 X-8.124 Y-7.889 E27.14089
G1 X-7.81 Y-8.595 E27.16659
G1 X-7.303 Y-9.346 E27.19673
G1 X-6.605 Y-10.08 E27.23042
G1 X-5.745 Y-10.751 E27.2667
G1 X-4.739 Y-11.308 E27.30494
G1 X-3.528 Y-11.729 E27.34758
G1 X-2.096 Y-12 E27.39606
G1 X-.476 Y-12.089 E27.45002
G1 X3.014 Y-11.823 E27.56643
G1 X5.205 Y-11.152 E27.64265
G1 X6.633 Y-10.177 E27.70016
G1 X7.706 Y-8.822 E27.75765
G1 X8.339 Y-7.275 E27.81324
G1 X5.963 Y-6.951 E27.893
G1 X5.961 Y-6.972 E27.8937
G1 X5.786 Y-7.535 E27.91331
G1 X5.143 Y-8.812 E27.96086
G1 X4.853 Y-9.229 E27.97776
G1 X3.82 Y-10.293 E28.02708
G1 X3.297 Y-10.657 E28.04827
G1 X2.219 Y-11.144 E28.08762
G1 X1.717 Y-11.294 E28.10504
G1 X0.347 Y-11.445 E28.15088
G1 X-.193 Y-11.419 E28.16887
G1 X-2.168 Y-10.997 E28.23604
G1 X-2.972 Y-10.578 E28.26619
G1 X-4.461 Y-9.19 E28.3339
G1 X-4.907 Y-8.506 E28.36105
G1 X-5.644 Y-6.415 E28.4348
G0 F4800 X-5.257 Y-6.31
G1 F600 X-5.331 Y-5.932 E28.44761
G1 X-5.533 Y-3.325 E28.53458
G1 X-5.533 Y12.496 E29.06078
G1 X-9.303 Y12.496 E29.18617
G1 X-9.303 Y-.965 E29.63389
G1 X-9.091 Y-5.197 E29.77482
G1 X-8.507 Y-8.012 E29.87044
G1 X-8.161 Y-8.791 E29.89879
G1 X-7.617 Y-9.597 E29.93114
G1 X-6.878 Y-10.374 E29.9668
G1 X-5.964 Y-11.087 E30.00536
G1 X-4.903 Y-11.674 E30.04569
G1 X-3.632 Y-12.116 E30.09044
G1 X-2.147 Y-12.397 E30.14071
G1 X-.468 Y-12.49 E30.19664
G1 X3.086 Y-12.219 E30.31519
G1 X5.382 Y-11.516 E30.39506
G1 X6.909 Y-10.473 E30.45656
G1 X8.054 Y-9.027 E30.51791
G1 X8.865 Y-7.045 E30.58913
G1 X8.881 Y-6.945 E30.5925
G1 X5.614 Y-6.5 E30.70217
G1 X5.568 Y-6.889 E30.71519
G1 X5.414 Y-7.385 E30.73247
G1 X4.798 Y-8.607 E30.77798
G1 X4.543 Y-8.974 E30.79285
G1 X3.56 Y-9.987 E30.8398
G1 X3.099 Y-10.308 E30.85848
