;FLAVOR:Marlin
;TIME:2982
;Filament used: 2.59627m
;Layer height: 0.2
;MINX:-19.133
;MINY:-49.9
;MINZ:0.2
;MAXX:51.7
;MAXY:49.9
;MAXZ:3.8
;POSTPROCESSED
;Generated with Cura_SteamEngine 4.13.1
M82 ;absolute extrusion mode
START_PRINT BED_TEMP=80 EXTRUDER_TEMP=220.0
G92 E0
G92 E0
G1 F1800 E-2
;LAYER_COUNT:19
;LAYER:0
M107
G0 F4800 X-17.893 Y0.943 Z0.2
;TYPE:SKIRT
G1 F1800 E0
G1 F600 X-17.931 Y-1.786 E0.09078
G1 X-18.047 Y-4.52 E0.18179
G1 X-18.239 Y-7.235 E0.27232
G1 X-18.507 Y-9.928 E0.36233
G1 X-18.854 Y-12.65 E0.4536
G1 X-18.989 Y-13.515 E0.48271
G1 X-19.099 Y-14.306 E0.50928
G1 X-19.133 Y-14.841 E0.52711
G1 X-19.096 Y-15.317 E0.54299
G1 X-18.888 Y-16.753 E0.59125
G1 X-18.859 Y-16.944 E0.59767
G1 X-18.507 Y-19.69 E0.68975
G1 X-18.24 Y-22.375 E0.7795
G1 X-18.047 Y-25.097 E0.87026
G1 X-17.931 Y-27.826 E0.96111
G1 X-17.893 Y-30.557 E1.05195
G1 X-17.931 Y-33.286 E1.14272
G1 X-18.047 Y-36.02 E1.23374
G1 X-18.239 Y-38.735 E1.32427
G1 X-18.507 Y-41.428 E1.41428
G1 X-18.854 Y-44.15 E1.50554
G1 X-18.988 Y-45.013 E1.53459
G1 X-19.097 Y-45.793 E1.56079
G1 X-19.132 Y-46.328 E1.57862
G1 X-19.086 Y-46.862 E1.59645
G1 X-18.962 Y-47.384 E1.61429
G1 X-18.762 Y-47.881 E1.63211
G1 X-18.49 Y-48.344 E1.64997
G1 X-18.152 Y-48.76 E1.6678
G1 X-17.756 Y-49.122 E1.68564
G1 X-17.311 Y-49.421 E1.70347
G1 X-16.826 Y-49.65 E1.72131
G1 X-16.313 Y-49.805 E1.73914
G1 X-15.579 Y-49.891 E1.76372
G1 X-14.896 Y-49.9 E1.78643
G1 X-5.262 Y-49.9 E2.10686
G1 X-4.556 Y-49.89 E2.13035
G1 X-3.001 Y-49.827 E2.18211
G1 X-2.603 Y-49.806 E2.19536
G1 X0.124 Y-49.737 E2.28609
G1 X2.823 Y-49.746 E2.37586
G1 X6.508 Y-49.882 E2.49851
G1 X7.16 Y-49.9 E2.5202
G1 X15.044 Y-49.9 E2.78243
G1 X15.746 Y-49.89 E2.80578
G1 X16.28 Y-49.842 E2.82361
G1 X16.802 Y-49.716 E2.84147
G1 X17.298 Y-49.513 E2.8593
G1 X17.759 Y-49.239 E2.87713
G1 X18.175 Y-48.9 E2.89498
G1 X18.677 Y-48.307 E2.92082
G1 X18.963 Y-47.884 E2.93781
G1 X20.004 Y-46.299 E3.00088
G1 X21.54 Y-44.099 E3.09012
G1 X23.181 Y-41.883 E3.18183
G1 X24.858 Y-39.75 E3.27208
G1 X26.591 Y-37.667 E3.3622
G1 X28.421 Y-35.592 E3.45422
G1 X30.266 Y-33.614 E3.54419
G1 X32.18 Y-31.677 E3.63476
G1 X34.148 Y-29.793 E3.72537
G1 X36.168 Y-27.966 E3.81596
G1 X38.274 Y-26.169 E3.90804
G1 X40.374 Y-24.475 E3.99778
G1 X42.526 Y-22.84 E4.08767
G1 X44.761 Y-21.236 E4.17917
G1 X47.008 Y-19.719 E4.26934
G1 X49.294 Y-18.269 E4.35938
G1 X49.981 Y-17.845 E4.38623
G1 X50.415 Y-17.53 E4.40407
G1 X50.797 Y-17.154 E4.4219
G1 X51.12 Y-16.725 E4.43976
G1 X51.375 Y-16.254 E4.45757
G1 X51.557 Y-15.749 E4.47542
G1 X51.663 Y-15.223 E4.49327
G1 X51.698 Y-14.568 E4.51509
G1 X51.7 Y-14.457 E4.51878
G1 X51.7 Y14.127 E5.46949
G1 X51.69 Y14.857 E5.49377
G1 X51.642 Y15.392 E5.51163
G1 X51.516 Y15.913 E5.52946
G1 X51.314 Y16.409 E5.54728
G1 X51.04 Y16.871 E5.56514
G1 X50.701 Y17.286 E5.58296
G1 X50.304 Y17.647 E5.60081
G1 X49.611 Y18.106 E5.62846
G1 X48.033 Y19.08 E5.69013
G1 X45.757 Y20.574 E5.78069
G1 X43.528 Y22.13 E5.8711
G1 X41.321 Y23.763 E5.96241
G1 X39.202 Y25.427 E6.05203
G1 X37.091 Y27.184 E6.14338
G1 X35.047 Y28.985 E6.23398
G1 X33.052 Y30.845 E6.3247
G1 X31.122 Y32.748 E6.41485
G1 X29.228 Y34.726 E6.50594
G1 X27.399 Y36.748 E6.59662
G1 X25.611 Y38.841 E6.68818
G1 X23.907 Y40.951 E6.77838
G1 X22.264 Y43.111 E6.86865
G1 X20.688 Y45.309 E6.9586
G1 X19.119 Y47.631 E7.05181
G1 X18.701 Y48.267 E7.07712
G1 X18.374 Y48.692 E7.09496
G1 X17.988 Y49.064 E7.11279
G1 X17.55 Y49.374 E7.13064
G1 X17.071 Y49.616 E7.14849
G1 X16.562 Y49.784 E7.16631
G1 X15.793 Y49.89 E7.19213
G1 X15.37 Y49.9 E7.20621
G1 X7.487 Y49.9 E7.4684
G1 X6.672 Y49.887 E7.49551
G1 X5.932 Y49.856 E7.52014
G1 X3.152 Y49.778 E7.61264
G1 X0.459 Y49.778 E7.70221
G1 X-1.271 Y49.838 E7.75978
G1 X-4.231 Y49.9 E7.85826
G1 X-14.282 Y49.9 E8.19255
G1 X-14.978 Y49.89 E8.2157
G1 X-15.512 Y49.842 E8.23354
G1 X-16.033 Y49.716 E8.25137
G1 X-16.53 Y49.513 E8.26922
G1 X-16.991 Y49.239 E8.28706
G1 X-17.406 Y48.9 E8.30488
G1 X-17.766 Y48.502 E8.32273
G1 X-18.063 Y48.056 E8.34055
G1 X-18.291 Y47.57 E8.35841
G1 X-18.444 Y47.056 E8.37624
G1 X-18.518 Y46.525 E8.39408
G1 X-18.503 Y45.888 E8.41527
G1 X-18.356 Y44.577 E8.45915
G1 X-18.302 Y44.152 E8.4734
G1 X-18.043 Y41.478 E8.56275
G1 X-17.854 Y38.716 E8.65483
G1 X-17.746 Y36.022 E8.7445
G1 X-17.713 Y33.275 E8.83588
G1 X-17.759 Y30.508 E8.92792
G1 X-17.879 Y27.832 E9.01701
G1 X-18.075 Y25.146 E9.10659
G1 X-18.355 Y22.391 E9.19869
G1 X-18.707 Y19.683 E9.28952
G1 X-19.089 Y17.258 E9.37117
G1 X-19.133 Y16.723 E9.38902
G1 X-19.096 Y16.183 E9.40702
G1 X-18.888 Y14.747 E9.45528
G1 X-18.859 Y14.556 E9.46171
G1 X-18.507 Y11.81 E9.55379
G1 X-18.24 Y9.125 E9.64353
G1 X-18.047 Y6.403 E9.73429
G1 X-17.931 Y3.674 E9.82514
G1 X-17.893 Y0.943 E9.91599
G0 F4800 X-17.493 Y0.943
G1 F600 X-17.532 Y-1.809 E10.00753
G1 X-17.647 Y-4.529 E10.09807
G1 X-17.84 Y-7.266 E10.18933
G1 X-18.111 Y-9.986 E10.28025
G1 X-18.455 Y-12.685 E10.37074
G1 X-18.592 Y-13.57 E10.40053
G1 X-18.702 Y-14.361 E10.42709
G1 X-18.732 Y-14.866 E10.44392
G1 X-18.7 Y-15.26 E10.45707
G1 X-18.459 Y-16.917 E10.51276
G1 X-18.111 Y-19.632 E10.6038
G1 X-17.841 Y-22.344 E10.69445
G1 X-17.647 Y-25.088 E10.78594
G1 X-17.532 Y-27.804 E10.87635
G1 X-17.493 Y-30.557 E10.96793
G1 X-17.532 Y-33.309 E11.05947
G1 X-17.647 Y-36.029 E11.15002
G1 X-17.84 Y-38.766 E11.24128
G1 X-18.111 Y-41.486 E11.33219
G1 X-18.455 Y-44.185 E11.42269
G1 X-18.592 Y-45.068 E11.45241
G1 X-18.701 Y-45.848 E11.4786
G1 X-18.731 Y-46.353 E11.49543
G1 X-18.682 Y-46.856 E11.51224
G1 X-18.553 Y-47.345 E11.52906
G1 X-18.35 Y-47.808 E11.54587
G1 X-18.076 Y-48.233 E11.56269
G1 X-17.738 Y-48.609 E11.57951
G1 X-17.346 Y-48.927 E11.5963
G1 X-16.908 Y-49.18 E11.61312
G1 X-16.436 Y-49.361 E11.62993
G1 X-15.941 Y-49.465 E11.64676
G1 X-15.574 Y-49.491 E11.65899
G1 X-14.891 Y-49.5 E11.68171
G1 X-5.268 Y-49.5 E12.00177
G1 X-4.562 Y-49.49 E12.02526
G1 X-3.023 Y-49.427 E12.07649
G1 X-2.635 Y-49.406 E12.08941
G1 X0.116 Y-49.337 E12.18094
G1 X2.84 Y-49.346 E12.27154
G1 X6.519 Y-49.483 E12.39399
G1 X7.066 Y-49.499 E12.41219
G1 X15.039 Y-49.5 E12.67737
G1 X15.741 Y-49.49 E12.70073
G1 X16.244 Y-49.443 E12.71753
G1 X16.734 Y-49.317 E12.73436
G1 X17.197 Y-49.115 E12.75116
G1 X17.624 Y-48.844 E12.76798
G1 X18.002 Y-48.508 E12.7848
G1 X18.346 Y-48.083 E12.80298
G1 X18.628 Y-47.664 E12.81978
G1 X19.658 Y-46.097 E12.88215
G1 X21.223 Y-43.854 E12.97312
G1 X22.857 Y-41.648 E13.06443
G1 X24.538 Y-39.51 E13.15488
G1 X26.3 Y-37.392 E13.24652
G1 X28.112 Y-35.338 E13.33762
G1 X29.975 Y-33.339 E13.4285
G1 X31.901 Y-31.389 E13.51966
G1 X33.867 Y-29.508 E13.61016
G1 X35.905 Y-27.665 E13.70155
G1 X38.008 Y-25.869 E13.79353
G1 X40.126 Y-24.161 E13.88403
G1 X42.314 Y-22.499 E13.97542
G1 X44.533 Y-20.907 E14.06625
G1 X46.791 Y-19.383 E14.15686
G1 X49.084 Y-17.928 E14.24718
G1 X49.771 Y-17.504 E14.27403
G1 X50.179 Y-17.205 E14.29086
G1 X50.534 Y-16.846 E14.30765
G1 X50.829 Y-16.435 E14.32448
G1 X51.055 Y-15.983 E14.34128
G1 X51.208 Y-15.501 E14.3581
G1 X51.288 Y-14.88 E14.37893
G1 X51.3 Y-14.457 E14.393
G1 X51.3 Y14.122 E15.34355
G1 X51.29 Y14.852 E15.36783
G1 X51.243 Y15.355 E15.38463
G1 X51.117 Y15.845 E15.40146
G1 X50.916 Y16.309 E15.41828
G1 X50.645 Y16.735 E15.43507
G1 X50.309 Y17.113 E15.45189
G1 X49.805 Y17.51 E15.47323
G1 X49.362 Y17.791 E15.49068
G1 X47.809 Y18.749 E15.55137
G1 X45.53 Y20.245 E15.64204
G1 X43.283 Y21.813 E15.73317
G1 X41.103 Y23.426 E15.82337
G1 X38.944 Y25.121 E15.91466
G1 X36.834 Y26.877 E16.00597
G1 X34.775 Y28.692 E16.09726
G1 X32.781 Y30.551 E16.18793
G1 X30.835 Y32.47 E16.27883
G1 X28.926 Y34.464 E16.37065
G1 X27.099 Y36.483 E16.46121
G1 X25.311 Y38.576 E16.55277
G1 X23.594 Y40.703 E16.64368
G1 X21.937 Y42.882 E16.73473
G1 X20.347 Y45.099 E16.82547
G1 X18.811 Y47.372 E16.91672
G1 X18.367 Y48.048 E16.94362
G1 X18.057 Y48.447 E16.96042
G1 X17.688 Y48.793 E16.97725
G1 X17.269 Y49.076 E16.99406
G1 X16.81 Y49.289 E17.01089
G1 X16.324 Y49.428 E17.02771
G1 X15.781 Y49.49 E17.04588
G1 X15.37 Y49.5 E17.05956
G1 X7.492 Y49.5 E17.32158
G1 X6.779 Y49.49 E17.3453
G1 X5.955 Y49.456 E17.37273
G1 X3.164 Y49.378 E17.46559
G1 X0.445 Y49.378 E17.55603
G1 X-1.279 Y49.438 E17.6134
G1 X-4.231 Y49.5 E17.71161
G1 X-14.276 Y49.5 E18.04571
G1 X-14.972 Y49.49 E18.06886
G1 X-15.475 Y49.442 E18.08566
G1 X-15.965 Y49.317 E18.10248
G1 X-16.429 Y49.115 E18.11931
G1 X-16.855 Y48.843 E18.13613
G1 X-17.233 Y48.508 E18.15292
G1 X-17.553 Y48.117 E18.16973
G1 X-17.808 Y47.68 E18.18656
G1 X-17.991 Y47.209 E18.20336
G1 X-18.098 Y46.714 E18.22021
G1 X-18.125 Y46.21 E18.237
G1 X-18.106 Y45.932 E18.24626
G1 X-17.959 Y44.627 E18.28994
G1 X-17.906 Y44.207 E18.30402
G1 X-17.644 Y41.505 E18.39431
G1 X-17.453 Y38.711 E18.48746
G1 X-17.346 Y36.042 E18.5763
G1 X-17.313 Y33.29 E18.66784
G1 X-17.359 Y30.525 E18.75982
G1 X-17.481 Y27.786 E18.85101
G1 X-17.675 Y25.125 E18.93975
G1 X-17.959 Y22.332 E19.03312
G1 X-18.309 Y19.641 E19.12338
G1 X-18.694 Y17.195 E19.20573
G1 X-18.733 Y16.691 E19.22255
G1 X-18.7 Y16.24 E19.23759
G1 X-18.459 Y14.583 E19.29328
G1 X-18.111 Y11.868 E19.38432
G1 X-17.841 Y9.156 E19.47497
G1 X-17.647 Y6.412 E19.56646
G1 X-17.532 Y3.696 E19.65688
G1 X-17.493 Y0.943 E19.74845
G1 F1800 E17.74845
;MESH:K.stl
G0 F4800 X-8.96 Y9.193
G0 X-13.522 Y14.2
;TYPE:WALL-INNER
G1 F1800 E19.74845
G1 F600 X-13.195 Y13.862 E19.76409
G1 X-3.82 Y4.163 E20.21275
G1 X-3.635 Y3.781 E20.22686
G1 X-3.724 Y3.348 E20.24157
G1 X-14.472 Y-14.2 E20.92599
G1 X-4.972 Y-14.2 E21.24196
G1 X1.173 Y-2.212 E21.69002
G1 X1.47 Y-1.919 E21.70389
G1 X1.983 Y-1.844 E21.72114
G1 X2.353 Y-2.041 E21.73508
G1 X7.289 Y-7.211 E21.97282
G1 X7.43 Y-7.564 E21.98546
G1 X7.43 Y-14.2 E22.20618
G1 X15.1 Y-14.2 E22.46128
G1 X15.1 Y14.2 E23.40587
G1 X7.43 Y14.2 E23.66098
G1 X7.43 Y3.567 E24.01463
G1 X7.299 Y3.169 E24.02857
G1 X6.875 Y2.869 E24.04584
G1 X6.374 Y2.877 E24.06251
G1 X6.074 Y3.083 E24.07461
G1 X-3.448 Y14.2 E24.56146
G1 X-13.051 Y14.2 E24.88085
G1 X-13.522 Y14.2 E24.88932
G0 F4800 X-14.373 Y14.561
G0 X-14.465 Y14.6
;TYPE:WALL-OUTER
G1 F600 X-14.138 Y14.262 E24.90496
G1 X-4.152 Y3.931 E25.38285
G1 X-4.054 Y3.729 E25.39032
G1 X-4.102 Y3.497 E25.3982
G1 X-15.186 Y-14.6 E26.10404
G1 X-4.728 Y-14.6 E26.45187
G1 X1.5 Y-2.452 E26.90592
G1 X1.658 Y-2.296 E26.9133
G1 X1.911 Y-2.259 E26.92181
G1 X2.108 Y-2.364 E26.92923
G1 X6.946 Y-7.431 E27.16225
G1 X7.03 Y-7.641 E27.16977
G1 X7.03 Y-14.6 E27.40123
G1 X15.5 Y-14.6 E27.68294
G1 X15.5 Y14.6 E28.65413
G1 X7.03 Y14.6 E28.93585
G1 X7.03 Y3.631 E29.30068
G1 X6.96 Y3.419 E29.3081
G1 X6.751 Y3.271 E29.31662
G1 X6.501 Y3.275 E29.32494
G1 X6.343 Y3.383 E29.3313
G1 X-3.264 Y14.6 E29.82251
G1 X-13.994 Y14.6 E30.17939
G1 X-14.465 Y14.6 E30.18786
G0 F4800 X-14.326 Y14.457
G0 X-14.256 Y14.526
G0 X9.94 Y-1.281
;TYPE:SKIN
G1 F600 X9.238 Y-1.781 E30.21653
G1 X9.94 Y-2.516 E30.25033
G1 X9.94 Y-1.281 E30.29141
G0 F4800 X10.34 Y-.505
G1 F600 X8.63 Y-1.723 E30.36123
G1 X10.34 Y-3.514 E30.44359
G1 X10.34 Y-.505 E30.54367
G0 F4800 X8.111 Y-1.111
G1 F600 X6.922 Y-1.092 E30.58323
G1 X10.684 Y-5.033 E30.76444
G1 X11.14 Y-6.176 E30.80537
G1 X11.14 Y2.176 E31.08316
G1 X10.645 Y0.694 E31.13512
G1 X8.111 Y-1.111 E31.2386
G0 F4800 X8.236 Y-1.513
G1 F600 X7.871 Y-1.507 E31.25074
G1 X10.74 Y-4.512 E31.38893
G1 X10.74 Y0.271 E31.54801
G1 X8.236 Y-1.513 E31.65027
G0 F4800 X7.986 Y-.709
G1 F600 X5.973 Y-.677 E31.71723
G1 X10.341 Y-5.253 E31.92764
G1 X10.99 Y-6.879 E31.98587
G1 X10.99 Y-10.64 E32.11096
G1 X11.54 Y-10.64 E32.12925
G1 X11.54 Y10.64 E32.83703
G1 X10.99 Y10.64 E32.85532
G1 X10.99 Y2.99 E33.10976
G1 X10.307 Y0.944 E33.1815
G1 X7.986 Y-.709 E33.27627
G0 F4800 X7.861 Y-.307
G1 F600 X5.371 Y-.267 E33.3591
G1 X4.384 Y0.409 E33.39889
G1 X9.998 Y-5.473 E33.66933
G1 X10.59 Y-6.956 E33.72244
G1 X10.59 Y-11.04 E33.85828
G1 X11.94 Y-11.04 E33.90318
G1 X11.94 Y11.04 E34.63756
G1 X10.59 Y11.04 E34.68246
G1 X10.59 Y3.055 E34.94805
G1 X9.969 Y1.194 E35.0133
G1 X7.861 Y-.307 E35.09937
G0 F4800 X7.736 Y0.095
G1 F600 X5.498 Y0.131 E35.17381
G1 X4.211 Y1.013 E35.22571
G1 X-4.718 Y11.44 E35.68229
G1 X-7.015 Y11.44 E35.75869
G1 X-1.529 Y5.764 E36.02124
G1 X-.743 Y4.14 E36.08125
G1 X-1.116 Y2.319 E36.14307
G1 X-9.546 Y-11.44 E36.67976
G1 X-6.655 Y-11.44 E36.77592
G1 X-1.081 Y-.556 E37.18263
G1 X0.179 Y0.682 E37.24139
G1 X2.48 Y1.019 E37.31873
G1 X4.043 Y0.187 E37.37763
G1 X9.655 Y-5.693 E37.64797
G1 X10.19 Y-7.033 E37.69596
G1 X10.19 Y-11.44 E37.84254
G1 X12.34 Y-11.44 E37.91405
G1 X12.34 Y11.44 E38.67504
G1 X10.19 Y11.44 E38.74655
G1 X10.19 Y3.12 E39.02327
G1 X9.631 Y1.444 E39.08204
G1 X7.736 Y0.095 E39.1594
G0 F4800 X7.611 Y0.497
G1 F600 X5.625 Y0.529 E39.22547
G1 X4.481 Y1.313 E39.2716
G1 X-4.534 Y11.84 E39.73257
G1 X-7.958 Y11.84 E39.84645
G1 X-1.861 Y5.532 E40.13824
G1 X-1.162 Y4.088 E40.1916
G1 X-1.494 Y2.468 E40.2466
G1 X-10.26 Y-11.84 E40.8047
G1 X-6.411 Y-11.84 E40.93272
G1 X-.755 Y-.796 E41.34541
G1 X0.366 Y0.305 E41.39767
G1 X2.408 Y0.604 E41.46631
G1 X3.798 Y-.136 E41.51869
G1 X9.312 Y-5.913 E41.7843
G1 X9.79 Y-7.11 E41.82717
G1 X9.79 Y-11.84 E41.98449
G1 X12.74 Y-11.84 E42.08261
G1 X12.74 Y11.84 E42.87021
G1 X9.79 Y11.84 E42.96833
G1 X9.79 Y3.185 E43.2562
G1 X9.293 Y1.694 E43.30847
G1 X7.611 Y0.497 E43.37713
G0 F4800 X7.486 Y0.899
G1 F600 X5.752 Y0.927 E43.43481
G1 X4.751 Y1.613 E43.47517
G1 X-4.35 Y12.24 E43.94053
G1 X-8.901 Y12.24 E44.0919
G1 X-2.193 Y5.3 E44.41293
G1 X-1.581 Y4.036 E44.45964
G1 X-1.872 Y2.617 E44.50781
G1 X-10.974 Y-12.24 E45.08732
G1 X-6.167 Y-12.24 E45.2472
G1 X-.428 Y-1.036 E45.66589
G1 X0.553 Y-0.072 E45.71164
G1 X2.336 Y0.189 E45.77157
G1 X3.553 Y-.459 E45.81743
G1 X8.969 Y-6.133 E46.07832
G1 X9.39 Y-7.187 E46.11607
G1 X9.39 Y-12.24 E46.28413
G1 X13.14 Y-12.24 E46.40886
G1 X13.14 Y12.24 E47.22307
G1 X9.39 Y12.24 E47.34779
G1 X9.39 Y3.25 E47.6468
G1 X8.955 Y1.944 E47.69258
G1 X7.486 Y0.899 E47.75254
G0 F4800 X7.361 Y1.301
G1 F600 X5.879 Y1.325 E47.80184
G1 X5.021 Y1.913 E47.83644
G1 X-4.166 Y12.64 E48.30618
G1 X-9.844 Y12.64 E48.49503
G1 X-2.525 Y5.068 E48.8453
G1 X-2 Y3.984 E48.88536
G1 X-2.25 Y2.766 E48.92671
G1 X-11.688 Y-12.64 E49.52763
G1 X-5.923 Y-12.64 E49.71937
G1 X-.102 Y-1.276 E50.14404
G1 X0.74 Y-.449 E50.1833
G1 X2.264 Y-.226 E50.23452
G1 X3.308 Y-.782 E50.27386
G1 X8.626 Y-6.353 E50.53003
G1 X8.99 Y-7.264 E50.56266
G1 X8.99 Y-12.64 E50.74146
G1 X13.54 Y-12.64 E50.8928
G1 X13.54 Y12.64 E51.73361
G1 X8.99 Y12.64 E51.88495
G1 X8.99 Y3.315 E52.1951
G1 X8.617 Y2.194 E52.23439
G1 X7.361 Y1.301 E52.28565
G0 F4800 X7.236 Y1.703
G1 F600 X6.006 Y1.723 E52.32656
G1 X5.291 Y2.213 E52.35539
G1 X-3.982 Y13.04 E52.82952
G1 X-10.787 Y13.04 E53.05586
G1 X-2.857 Y4.836 E53.43536
G1 X-2.419 Y3.932 E53.46877
G1 X-2.628 Y2.915 E53.5033
G1 X-12.402 Y-13.04 E54.12563
G1 X-5.679 Y-13.04 E54.34924
G1 X0.225 Y-1.516 E54.7799
G1 X0.927 Y-.826 E54.81264
G1 X2.192 Y-.641 E54.85516
G1 X3.063 Y-1.105 E54.88798
G1 X8.283 Y-6.573 E55.13942
G1 X8.59 Y-7.341 E55.16693
G1 X8.59 Y-13.04 E55.35647
G1 X13.94 Y-13.04 E55.53442
G1 X13.94 Y13.04 E56.40184
G1 X8.59 Y13.04 E56.57978
G1 X8.59 Y3.38 E56.90108
G1 X8.279 Y2.444 E56.93388
G1 X7.236 Y1.703 E56.97643
G0 F4800 X7.111 Y2.105
G1 F600 X6.133 Y2.121 E57.00897
G1 X5.561 Y2.513 E57.03203
G1 X-3.798 Y13.44 E57.51055
G1 X-11.73 Y13.44 E57.77437
G1 X-3.189 Y4.604 E58.18311
G1 X-2.838 Y3.88 E58.20987
G1 X-3.006 Y3.064 E58.23758
G1 X-13.116 Y-13.44 E58.88131
G1 X-5.435 Y-13.44 E59.13678
G1 X0.552 Y-1.756 E59.57344
G1 X1.114 Y-1.203 E59.59966
G1 X2.12 Y-1.056 E59.63348
G1 X2.818 Y-1.428 E59.65979
G1 X7.94 Y-6.793 E59.90649
G1 X8.19 Y-7.418 E59.92888
G1 X8.19 Y-13.44 E60.12917
G1 X14.34 Y-13.44 E60.33372
G1 X14.34 Y13.44 E61.22775
G1 X8.19 Y13.44 E61.4323
G1 X8.19 Y3.445 E61.76474
G1 X7.941 Y2.694 E61.79105
G1 X7.111 Y2.105 E61.8249
G0 F4800 X6.987 Y2.507
G1 F600 X6.26 Y2.519 E61.84909
G1 X5.831 Y2.813 E61.86639
G1 X-3.614 Y13.84 E62.34929
G1 X-12.673 Y13.84 E62.65059
G1 X-3.521 Y4.372 E63.08857
G1 X-3.257 Y3.828 E63.10868
G1 X-3.384 Y3.213 E63.12957
G1 X-13.83 Y-13.84 E63.79471
G1 X-5.191 Y-13.84 E64.08204
G1 X0.879 Y-1.996 E64.5247
G1 X1.301 Y-1.58 E64.54441
G1 X2.048 Y-1.471 E64.56951
G1 X2.573 Y-1.751 E64.5893
G1 X7.597 Y-7.013 E64.83128
G1 X7.79 Y-7.495 E64.84855
