;FLAVOR:Marlin
;TIME:1842
;Filament used: 1.6138m
;Layer height: 0.2
;MINX:-28.948
;MINY:-35.501
;MINZ:0.2
;MAXX:28.322
;MAXY:34.787
;MAXZ:3.8
;POSTPROCESSED
;Generated with Cura_SteamEngine 4.13.1
M82 ;absolute extrusion mode
START_PRINT BED_TEMP=80 EXTRUDER_TEMP=220.0
G92 E0
G92 E0
G1 F1800 E-2
;LAYER_COUNT:19
;LAYER:0
M107
G0 F4800 X27.995 Y-2.736 Z0.2
;TYPE:SKIRT
G1 F1800 E0
G1 F600 X28.197 Y0.094 E0.09437
G1 X28.299 Y1.278 E0.13389
G1 X28.32 Y1.808 E0.15153
G1 X28.322 Y1.917 E0.15516
G1 X28.322 Y30.496 E1.1057
G1 X28.313 Y31.223 E1.12988
G1 X28.266 Y31.757 E1.14771
G1 X28.141 Y32.278 E1.16553
G1 X27.939 Y32.775 E1.18338
G1 X27.666 Y33.237 E1.20122
G1 X27.328 Y33.653 E1.21905
G1 X26.931 Y34.014 E1.2369
G1 X26.485 Y34.312 E1.25474
G1 X26 Y34.54 E1.27256
G1 X25.486 Y34.694 E1.29041
G1 X24.814 Y34.777 E1.31293
G1 X24.392 Y34.787 E1.32697
G1 X16.506 Y34.787 E1.58926
G1 X15.809 Y34.777 E1.61245
G1 X15.456 Y34.756 E1.62421
G1 X14.893 Y34.7 E1.64302
G1 X12.131 Y34.466 E1.73522
G1 X9.442 Y34.314 E1.8248
G1 X6.674 Y34.237 E1.9169
G1 X3.979 Y34.237 E2.00653
G1 X1.247 Y34.315 E2.09744
G1 X-.375 Y34.419 E2.1515
G1 X-.611 Y34.416 E2.15935
G1 X-1.919 Y34.491 E2.20292
G1 X-2.34 Y34.501 E2.21693
G1 X-10.224 Y34.501 E2.47915
G1 X-10.923 Y34.491 E2.5024
G1 X-11.458 Y34.443 E2.52027
G1 X-11.979 Y34.317 E2.5381
G1 X-12.475 Y34.114 E2.55592
G1 X-12.936 Y33.84 E2.57376
G1 X-13.352 Y33.501 E2.59161
G1 X-13.712 Y33.103 E2.60946
G1 X-14.106 Y32.472 E2.6342
G1 X-14.542 Y31.58 E2.66722
G1 X-14.922 Y30.77 E2.69698
G1 X-16.153 Y28.331 E2.78785
G1 X-17.441 Y25.95 E2.87788
G1 X-18.81 Y23.581 E2.96889
G1 X-20.233 Y21.271 E3.05913
G1 X-21.737 Y18.978 E3.15033
G1 X-23.295 Y16.743 E3.24095
G1 X-24.92 Y14.548 E3.33178
G1 X-26.588 Y12.423 E3.42163
G1 X-27.813 Y10.949 E3.48538
G1 X-28.136 Y10.55 E3.50245
G1 X-28.442 Y10.109 E3.52031
G1 X-28.678 Y9.628 E3.53813
G1 X-28.841 Y9.117 E3.55597
G1 X-28.936 Y8.393 E3.58025
G1 X-28.948 Y7.953 E3.59489
G1 X-28.948 Y1.953 E3.79445
G1 X-28.937 Y1.235 E3.81834
G1 X-28.908 Y0.834 E3.83171
G1 X-28.837 Y0.28 E3.85029
G1 X-28.588 Y-1.462 E3.90882
G1 X-28.282 Y-4.166 E3.99932
G1 X-28.05 Y-6.888 E4.09019
G1 X-27.897 Y-9.581 E4.1799
G1 X-27.819 Y-12.345 E4.27187
G1 X-27.819 Y-15.039 E4.36147
G1 X-27.897 Y-17.805 E4.45351
G1 X-28.05 Y-20.497 E4.54319
G1 X-28.279 Y-23.193 E4.63318
G1 X-28.414 Y-24.455 E4.67539
G1 X-28.447 Y-25.119 E4.6975
G1 X-28.448 Y-31.233 E4.90086
G1 X-28.438 Y-31.922 E4.92378
G1 X-28.39 Y-32.456 E4.94161
G1 X-28.263 Y-32.978 E4.95948
G1 X-28.061 Y-33.474 E4.97729
G1 X-27.787 Y-33.935 E4.99513
G1 X-27.447 Y-34.35 E5.01297
G1 X-27.05 Y-34.71 E5.03079
G1 X-26.603 Y-35.007 E5.04864
G1 X-26.118 Y-35.235 E5.06647
G1 X-25.604 Y-35.388 E5.08431
G1 X-24.939 Y-35.469 E5.10659
G1 X-24.518 Y-35.479 E5.12059
G1 X-1.613 Y-35.48 E5.88242
G1 X-1.537 Y-35.489 E5.88496
G1 X0.086 Y-35.501 E5.93895
G1 X0.247 Y-35.49 E5.94431
G1 X1.189 Y-35.497 E5.97564
G1 X23.585 Y-35.497 E6.72054
G1 X24.283 Y-35.487 E6.74376
G1 X24.817 Y-35.439 E6.76159
G1 X25.338 Y-35.313 E6.77942
G1 X25.835 Y-35.11 E6.79727
G1 X26.296 Y-34.836 E6.81511
G1 X26.711 Y-34.497 E6.83293
G1 X27.071 Y-34.099 E6.85078
G1 X27.368 Y-33.653 E6.8686
G1 X27.596 Y-33.167 E6.88646
G1 X27.748 Y-32.653 E6.90429
G1 X27.83 Y-31.988 E6.92657
G1 X27.84 Y-31.567 E6.94058
G1 X27.84 Y-8.239 E7.71647
G1 X27.879 Y-5.458 E7.80898
G1 X27.995 Y-2.736 E7.89959
G0 F4800 X27.595 Y-2.724
G1 F600 X27.802 Y0.172 E7.99616
G1 X27.9 Y1.312 E8.03422
G1 X27.921 Y1.82 E8.05113
G1 X27.922 Y30.491 E9.00473
G1 X27.913 Y31.218 E9.02891
G1 X27.867 Y31.721 E9.04571
G1 X27.742 Y32.211 E9.06253
G1 X27.541 Y32.675 E9.07935
G1 X27.27 Y33.102 E9.09617
G1 X26.935 Y33.481 E9.11299
G1 X26.545 Y33.802 E9.12979
G1 X26.109 Y34.058 E9.14661
G1 X25.638 Y34.241 E9.16342
G1 X25.144 Y34.349 E9.18023
G1 X24.482 Y34.386 E9.20229
G1 X16.512 Y34.387 E9.46737
G1 X15.815 Y34.377 E9.49055
G1 X15.495 Y34.358 E9.50122
G1 X14.939 Y34.303 E9.5198
G1 X12.154 Y34.067 E9.61276
G1 X9.438 Y33.914 E9.70324
G1 X6.686 Y33.837 E9.79481
G1 X3.968 Y33.837 E9.88521
G1 X1.209 Y33.916 E9.97701
G1 X-.401 Y34.019 E10.03067
G1 X-.612 Y34.016 E10.03769
G1 X-1.93 Y34.091 E10.08159
G1 X-2.34 Y34.101 E10.09524
G1 X-10.219 Y34.101 E10.35729
G1 X-10.918 Y34.091 E10.38054
G1 X-11.421 Y34.044 E10.39735
G1 X-11.911 Y33.918 E10.41417
G1 X-12.375 Y33.716 E10.431
G1 X-12.801 Y33.444 E10.44782
G1 X-13.179 Y33.109 E10.46461
G1 X-13.499 Y32.718 E10.48142
G1 X-13.747 Y32.296 E10.4977
G1 X-14.18 Y31.41 E10.5305
G1 X-14.567 Y30.585 E10.56081
G1 X-15.78 Y28.181 E10.65037
G1 X-17.101 Y25.739 E10.74271
G1 X-18.472 Y23.367 E10.83383
G1 X-19.895 Y21.057 E10.92407
G1 X-21.396 Y18.768 E11.01511
G1 X-22.995 Y16.476 E11.10806
G1 X-24.599 Y14.309 E11.19774
G1 X-26.281 Y12.166 E11.28834
G1 X-27.502 Y10.697 E11.35188
G1 X-27.825 Y10.298 E11.36895
G1 X-28.111 Y9.882 E11.38574
G1 X-28.328 Y9.425 E11.40257
G1 X-28.47 Y8.94 E11.41938
G1 X-28.537 Y8.381 E11.4381
G1 X-28.548 Y7.953 E11.45234
G1 X-28.548 Y1.959 E11.6517
G1 X-28.537 Y1.241 E11.67559
G1 X-28.511 Y0.885 E11.68746
G1 X-28.441 Y0.337 E11.70583
G1 X-28.194 Y-1.393 E11.76396
G1 X-27.879 Y-4.17 E11.85691
G1 X-27.653 Y-6.832 E11.94577
G1 X-27.497 Y-9.581 E12.03735
G1 X-27.419 Y-12.334 E12.12895
G1 X-27.419 Y-15.051 E12.21932
G1 X-27.497 Y-17.804 E12.31092
G1 X-27.653 Y-20.553 E12.4025
G1 X-27.881 Y-23.236 E12.49206
G1 X-28.016 Y-24.498 E12.53427
G1 X-28.047 Y-25.131 E12.55535
G1 X-28.048 Y-31.227 E12.75811
G1 X-28.038 Y-31.916 E12.78102
G1 X-27.99 Y-32.42 E12.79786
G1 X-27.864 Y-32.909 E12.81466
G1 X-27.663 Y-33.373 E12.83148
G1 X-27.391 Y-33.799 E12.84829
G1 X-27.055 Y-34.177 E12.86511
G1 X-26.664 Y-34.498 E12.88193
G1 X-26.228 Y-34.753 E12.89873
G1 X-25.756 Y-34.935 E12.91556
G1 X-25.262 Y-35.042 E12.93237
G1 X-24.608 Y-35.078 E12.95416
G1 X-1.649 Y-35.08 E13.71778
G1 X-1.534 Y-35.089 E13.72161
G1 X0.089 Y-35.101 E13.77559
G1 X0.242 Y-35.09 E13.7807
G1 X1.192 Y-35.097 E13.81229
G1 X23.579 Y-35.097 E14.55689
G1 X24.277 Y-35.087 E14.58011
G1 X24.78 Y-35.04 E14.59691
G1 X25.27 Y-34.914 E14.61374
G1 X25.734 Y-34.712 E14.63057
G1 X26.16 Y-34.44 E14.64738
G1 X26.538 Y-34.105 E14.66418
G1 X26.858 Y-33.714 E14.68098
G1 X27.113 Y-33.277 E14.69781
G1 X27.296 Y-32.806 E14.71462
G1 X27.403 Y-32.312 E14.73143
G1 X27.439 Y-31.657 E14.75325
G1 X27.44 Y-8.233 E15.53233
G1 X27.48 Y-5.436 E15.62537
G1 X27.595 Y-2.724 E15.71565
G1 F1800 E13.71565
;MESH:L.stl
G0 F4800 X24.108 Y2.201
G1 F1800 E15.71565
G0 F4800 X24.122 Y2.187
;TYPE:WALL-INNER
G1 F600 X24.122 Y30.587 E16.66024
G1 X16.451 Y30.587 E16.91538
G1 X16.451 Y8.679 E17.64404
G1 X16.304 Y8.232 E17.65969
G1 X15.793 Y7.975 E17.67872
G1 X1.983 Y7.975 E18.13804
G1 X1.983 Y2.187 E18.33055
G1 X24.122 Y2.187 E19.0669
G0 F4800 X24.522 Y1.787
;TYPE:WALL-OUTER
G1 F600 X24.522 Y30.987 E20.03809
G1 X16.051 Y30.987 E20.31984
G1 X16.051 Y8.743 E21.05968
G1 X15.976 Y8.515 E21.06766
G1 X15.698 Y8.375 E21.07801
G1 X1.583 Y8.375 E21.54748
G1 X1.583 Y1.787 E21.7666
G1 X24.522 Y1.787 E22.52955
G0 F4800 X24.522 Y1.987
G0 X24.052 Y2.257
G0 X20.162 Y7.288
;TYPE:SKIN
G1 F600 X19.787 Y6.147 E22.5695
G1 X20.162 Y6.147 E22.58197
G1 X20.162 Y7.288 E22.61992
G0 F4800 X20.011 Y8.109
G1 F600 X19.234 Y5.747 E22.70262
G1 X20.562 Y5.747 E22.74679
G1 X20.562 Y27.027 E23.45457
G1 X20.011 Y27.027 E23.4729
G1 X20.011 Y8.109 E24.10211
G0 F4800 X19.611 Y8.173
G1 F600 X18.895 Y5.997 E24.1783
G1 X17.602 Y5.347 E24.22644
G1 X20.962 Y5.347 E24.33819
G1 X20.962 Y27.427 E25.07257
G1 X19.611 Y27.427 E25.11751
G1 X19.611 Y8.173 E25.7579
G0 F4800 X19.211 Y8.237
G1 F600 X18.567 Y6.28 E25.82642
G1 X16.448 Y5.215 E25.9053
G1 X4.743 Y5.215 E26.29461
G1 X4.743 Y4.947 E26.30352
G1 X21.362 Y4.947 E26.85628
G1 X21.362 Y27.827 E27.61727
G1 X19.211 Y27.827 E27.68881
G1 X19.211 Y8.237 E28.34038
G0 F4800 X18.811 Y8.301
G1 F600 X18.239 Y6.563 E28.40123
G1 X16.353 Y5.615 E28.47144
G1 X4.343 Y5.615 E28.87089
G1 X4.343 Y4.547 E28.90642
G1 X21.762 Y4.547 E29.48577
G1 X21.762 Y28.227 E30.27337
G1 X18.811 Y28.227 E30.37152
G1 X18.811 Y8.301 E31.03427
G0 F4800 X18.411 Y8.365
G1 F600 X17.911 Y6.846 E31.08745
G1 X16.258 Y6.015 E31.14899
G1 X3.943 Y6.015 E31.55859
G1 X3.943 Y4.147 E31.62072
G1 X22.162 Y4.147 E32.22668
G1 X22.162 Y28.627 E33.04089
G1 X18.411 Y28.627 E33.16565
G1 X18.411 Y8.365 E33.83957
G0 F4800 X18.011 Y8.429
G1 F600 X17.583 Y7.129 E33.88509
G1 X16.163 Y6.415 E33.93795
G1 X3.543 Y6.415 E34.3577
G1 X3.543 Y3.747 E34.44643
G1 X22.562 Y3.747 E35.07901
G1 X22.562 Y29.027 E35.91983
G1 X18.011 Y29.027 E36.07119
G1 X18.011 Y8.429 E36.75628
G0 F4800 X17.611 Y8.493
G1 F600 X17.255 Y7.412 E36.79414
G1 X16.068 Y6.815 E36.83833
G1 X3.143 Y6.815 E37.26822
G1 X3.143 Y3.347 E37.38356
G1 X22.962 Y3.347 E38.04275
G1 X22.962 Y29.427 E38.91017
G1 X17.611 Y29.427 E39.08815
G1 X17.611 Y8.493 E39.78441
G0 F4800 X17.211 Y8.557
G1 F600 X16.927 Y7.695 E39.8146
G1 X15.973 Y7.215 E39.85012
G1 X2.743 Y7.215 E40.29015
G1 X2.743 Y2.947 E40.4321
G1 X23.362 Y2.947 E41.1179
G1 X23.362 Y29.827 E42.01193
G1 X17.211 Y29.827 E42.21651
G1 X17.211 Y8.557 E42.92395
G0 F4800 X16.811 Y8.621
G1 F600 X16.599 Y7.978 E42.94647
G1 X15.878 Y7.615 E42.97332
G1 X2.343 Y7.615 E43.4235
G1 X2.343 Y2.547 E43.59206
G1 X23.762 Y2.547 E44.30446
G1 X23.762 Y30.227 E45.2251
G1 X16.811 Y30.227 E45.45629
G1 X16.811 Y8.621 E46.17491
G0 F4800 X17.355 Y5.475
;TYPE:SKIN
G1 F600 X17.001 Y5.122 E46.18322
G0 F4800 X17.284 Y5.122
G1 F600 X17.45 Y5.288 E46.18713
G0 F4800 X18.533 Y5.522
G1 F600 X18.728 Y5.717 E46.19171
G0 F4800 X18.816 Y5.522
G1 F600 X19.077 Y5.783 E46.19785
G0 F4800 X20.175 Y7.447
G1 F600 X20.387 Y7.659 E46.20284
G0 F4800 X20.387 Y7.942
G1 F600 X20.017 Y7.572 E46.21154
G0 F4800 X20.155 Y7.993
G1 F600 X20.387 Y8.225 E46.21699
G0 F4800 X20.185 Y8.305
G1 F600 X20.387 Y8.507 E46.22175
G0 F4800 X20.185 Y8.588
G1 F600 X20.387 Y8.79 E46.2265
G0 F4800 X20.185 Y8.871
G1 F600 X20.387 Y9.073 E46.23125
G0 F4800 X20.185 Y9.154
G1 F600 X20.387 Y9.356 E46.236
G0 F4800 X20.185 Y9.437
G1 F600 X20.387 Y9.639 E46.24075
G0 F4800 X20.185 Y9.719
G1 F600 X20.387 Y9.922 E46.24551
G0 F4800 X20.185 Y10.002
G1 F600 X20.387 Y10.204 E46.25026
G0 F4800 X20.185 Y10.285
G1 F600 X20.387 Y10.487 E46.25501
G0 F4800 X20.185 Y10.568
G1 F600 X20.387 Y10.77 E46.25976
G0 F4800 X20.185 Y10.851
G1 F600 X20.387 Y11.053 E46.26451
G0 F4800 X20.185 Y11.134
G1 F600 X20.387 Y11.336 E46.26926
G0 F4800 X20.185 Y11.416
G1 F600 X20.387 Y11.619 E46.27403
G0 F4800 X20.185 Y11.699
G1 F600 X20.387 Y11.902 E46.27879
G0 F4800 X20.185 Y11.982
G1 F600 X20.387 Y12.184 E46.28354
G0 F4800 X20.185 Y12.265
G1 F600 X20.387 Y12.467 E46.28829
G0 F4800 X20.185 Y12.548
G1 F600 X20.387 Y12.75 E46.29304
G0 F4800 X20.185 Y12.831
G1 F600 X20.387 Y13.033 E46.29779
G0 F4800 X20.185 Y13.114
G1 F600 X20.387 Y13.316 E46.30254
G0 F4800 X20.185 Y13.396
G1 F600 X20.387 Y13.599 E46.30731
G0 F4800 X20.185 Y13.679
G1 F600 X20.387 Y13.881 E46.31206
G0 F4800 X20.185 Y13.962
G1 F600 X20.387 Y14.164 E46.31681
G0 F4800 X20.185 Y14.245
G1 F600 X20.387 Y14.447 E46.32156
G0 F4800 X20.185 Y14.528
G1 F600 X20.387 Y14.73 E46.32631
G0 F4800 X20.185 Y14.811
G1 F600 X20.387 Y15.013 E46.33106
G0 F4800 X20.185 Y15.093
G1 F600 X20.387 Y15.296 E46.33582
G0 F4800 X20.185 Y15.376
G1 F600 X20.387 Y15.578 E46.34057
G0 F4800 X20.185 Y15.659
G1 F600 X20.387 Y15.861 E46.34532
G0 F4800 X20.185 Y15.942
G1 F600 X20.387 Y16.144 E46.35007
G0 F4800 X20.185 Y16.225
G1 F600 X20.387 Y16.427 E46.35483
G0 F4800 X20.185 Y16.508
G1 F600 X20.387 Y16.71 E46.35958
G0 F4800 X20.185 Y16.79
G1 F600 X20.387 Y16.993 E46.36434
G0 F4800 X20.185 Y17.073
G1 F600 X20.387 Y17.276 E46.3691
G0 F4800 X20.185 Y17.356
G1 F600 X20.387 Y17.558 E46.37385
G0 F4800 X20.185 Y17.639
G1 F600 X20.387 Y17.841 E46.3786
G0 F4800 X20.185 Y17.922
G1 F600 X20.387 Y18.124 E46.38335
G0 F4800 X20.185 Y18.205
G1 F600 X20.387 Y18.407 E46.3881
G0 F4800 X20.185 Y18.488
G1 F600 X20.387 Y18.69 E46.39285
G0 F4800 X20.185 Y18.77
G1 F600 X20.387 Y18.973 E46.39762
G0 F4800 X20.185 Y19.053
G1 F600 X20.387 Y19.255 E46.40237
G0 F4800 X20.185 Y19.336
G1 F600 X20.387 Y19.538 E46.40712
G0 F4800 X20.185 Y19.619
G1 F600 X20.387 Y19.821 E46.41187
G0 F4800 X20.185 Y19.902
G1 F600 X20.387 Y20.104 E46.41662
G0 F4800 X20.185 Y20.185
G1 F600 X20.387 Y20.387 E46.42137
G0 F4800 X20.185 Y20.467
G1 F600 X20.387 Y20.67 E46.42613
G0 F4800 X20.185 Y20.75
G1 F600 X20.387 Y20.952 E46.43088
G0 F4800 X20.185 Y21.033
G1 F600 X20.387 Y21.235 E46.43563
G0 F4800 X20.185 Y21.316
G1 F600 X20.387 Y21.518 E46.44039
G0 F4800 X20.185 Y21.599
G1 F600 X20.387 Y21.801 E46.44514
G0 F4800 X20.185 Y21.882
G1 F600 X20.387 Y22.084 E46.44989
G0 F4800 X20.185 Y22.164
G1 F600 X20.387 Y22.367 E46.45465
G0 F4800 X20.185 Y22.447
G1 F600 X20.387 Y22.65 E46.45941
G0 F4800 X20.185 Y22.73
G1 F600 X20.387 Y22.932 E46.46416
G0 F4800 X20.185 Y23.013
G1 F600 X20.387 Y23.215 E46.46891
G0 F4800 X20.185 Y23.296
G1 F600 X20.387 Y23.498 E46.47366
G0 F4800 X20.185 Y23.579
G1 F600 X20.387 Y23.781 E46.47841
G0 F4800 X20.185 Y23.862
G1 F600 X20.387 Y24.064 E46.48317
G0 F4800 X20.185 Y24.144
G1 F600 X20.387 Y24.347 E46.48793
G0 F4800 X20.185 Y24.427
G1 F600 X20.387 Y24.629 E46.49268
G0 F4800 X20.185 Y24.71
G1 F600 X20.387 Y24.912 E46.49743
G0 F4800 X20.185 Y24.993
G1 F600 X20.387 Y25.195 E46.50218
G0 F4800 X20.185 Y25.276
G1 F600 X20.387 Y25.478 E46.50693
G0 F4800 X20.185 Y25.559
G1 F600 X20.387 Y25.761 E46.51168
G0 F4800 X20.185 Y25.841
G1 F600 X20.387 Y26.044 E46.51644
G0 F4800 X20.185 Y26.124
G1 F600 X20.387 Y26.326 E46.52119
G0 F4800 X20.185 Y26.407
G1 F600 X20.387 Y26.609 E46.52595
G0 F4800 X20.185 Y26.69
G1 F600 X20.345 Y26.85 E46.52971
G1 F1800 E44.52971
;MESH:L.stl(1)
G0 F4800 X16.471 Y30.231
G0 X-2.63 Y30.231
G1 F1800 E46.52971
G0 F4800 X-2.61 Y30.301
;TYPE:WALL-INNER
G1 F600 X-10.28 Y30.301 E46.78481
G1 X-10.28 Y8.393 E47.51348
G1 X-10.427 Y7.946 E47.52913
G1 X-10.938 Y7.689 E47.54815
G1 X-24.748 Y7.689 E48.00747
G1 X-24.748 Y1.901 E48.19998
G1 X-2.61 Y1.901 E48.9363
G1 X-2.61 Y30.301 E49.88088
G0 F4800 X-2.21 Y30.701
;TYPE:WALL-OUTER
G1 F600 X-10.68 Y30.701 E50.1626
G1 X-10.68 Y8.457 E50.90244
G1 X-10.755 Y8.229 E50.91042
G1 X-11.033 Y8.089 E50.92077
G1 X-25.148 Y8.089 E51.39024
G1 X-25.148 Y1.501 E51.60936
G1 X-2.21 Y1.501 E52.37228
G1 X-2.21 Y30.701 E53.34347
G0 F4800 X-2.41 Y30.701
G0 X-2.68 Y30.231
G0 X-6.57 Y6.999
;TYPE:SKIN
G1 F600 X-6.944 Y5.861 E53.38332
G1 X-6.57 Y5.861 E53.39575
G1 X-6.57 Y6.999 E53.4336
G0 F4800 X-6.72 Y7.823
G1 F600 X-7.497 Y5.461 E53.51631
G1 X-6.17 Y5.461 E53.56044
G1 X-6.17 Y26.741 E54.26822
G1 X-6.72 Y26.741 E54.28651
G1 X-6.72 Y7.823 E54.91573
G0 F4800 X-7.12 Y7.887
G1 F600 X-7.836 Y5.711 E54.99192
G1 X-9.129 Y5.061 E55.04005
G1 X-5.77 Y5.061 E55.15177
G1 X-5.77 Y27.141 E55.88616
G1 X-7.12 Y27.141 E55.93106
G1 X-7.12 Y7.887 E56.57145
G0 F4800 X-7.52 Y7.951
G1 F600 X-8.164 Y5.994 E56.63997
G1 X-10.283 Y4.929 E56.71885
G1 X-21.988 Y4.929 E57.10816
G1 X-21.988 Y4.661 E57.11707
G1 X-5.37 Y4.661 E57.66979
G1 X-5.37 Y27.541 E58.43078
G1 X-7.52 Y27.541 E58.50229
G1 X-7.52 Y7.951 E59.15386
G0 F4800 X-7.92 Y8.015
G1 F600 X-8.492 Y6.277 E59.21471
G1 X-10.378 Y5.329 E59.28492
G1 X-22.388 Y5.329 E59.68438
G1 X-22.388 Y4.261 E59.7199
G1 X-4.97 Y4.261 E60.29922
G1 X-4.97 Y27.941 E61.08682
G1 X-7.92 Y27.941 E61.18494
G1 X-7.92 Y8.015 E61.84768
G0 F4800 X-8.32 Y8.079
G1 F600 X-8.82 Y6.56 E61.90087
G1 X-10.473 Y5.729 E61.96241
G1 X-22.788 Y5.729 E62.372
G1 X-22.788 Y3.861 E62.43413
G1 X-4.57 Y3.861 E63.04007
G1 X-4.57 Y28.341 E63.85428
G1 X-8.32 Y28.341 E63.979
G1 X-8.32 Y8.079 E64.65292
G0 F4800 X-8.72 Y8.143
G1 F600 X-9.148 Y6.843 E64.69844
G1 X-10.568 Y6.129 E64.7513
G1 X-23.188 Y6.129 E65.17105
G1 X-23.188 Y3.461 E65.25978
G1 X-4.17 Y3.461 E65.89233
G1 X-4.17 Y28.741 E66.73314
G1 X-8.72 Y28.741 E66.88448
G1 X-8.72 Y8.143 E67.56957
G0 F4800 X-9.12 Y8.207
G1 F600 X-9.476 Y7.126 E67.60742
G1 X-10.663 Y6.529 E67.65161
G1 X-23.588 Y6.529 E68.0815
G1 X-23.588 Y3.061 E68.19685
G1 X-3.77 Y3.061 E68.856
G1 X-3.77 Y29.141 E69.72342
G1 X-9.12 Y29.141 E69.90136
G1 X-9.12 Y8.207 E70.59763
G0 F4800 X-9.52 Y8.271
G1 F600 X-9.804 Y7.409 E70.62782
G1 X-10.758 Y6.929 E70.66334
