;FLAVOR:Marlin
;TIME:3843
;Filament used: 3.33407m
;Layer height: 0.2
;MINX:-51.8
;MINY:-49.9
;MINZ:0.2
;MAXX:20.272
;MAXY:49.9
;MAXZ:3.8
;POSTPROCESSED
;Generated with Cura_SteamEngine 4.13.1
M82 ;absolute extrusion mode
START_PRINT BED_TEMP=80 EXTRUDER_TEMP=220.0
G92 E0
G92 E0
G1 F1800 E-2
;LAYER_COUNT:19
;LAYER:0
M107
G0 F4800 X20.272 Y14.361 Z0.2
;TYPE:SKIRT
G1 F1800 E0
G1 F600 X20.266 Y16.173 E0.06027
G1 X20.272 Y16.972 E0.08684
G1 X20.272 Y45.614 E1.03948
G1 X20.262 Y46.341 E1.06366
G1 X20.214 Y46.875 E1.0815
G1 X20.088 Y47.396 E1.09932
G1 X19.886 Y47.893 E1.11717
G1 X19.612 Y48.354 E1.135
G1 X19.273 Y48.769 E1.15283
G1 X18.876 Y49.13 E1.17067
G1 X18.43 Y49.427 E1.1885
G1 X17.944 Y49.655 E1.20635
G1 X17.43 Y49.808 E1.22419
G1 X16.763 Y49.89 E1.24654
G1 X16.342 Y49.9 E1.26055
G1 X10.135 Y49.9 E1.46699
G1 X8.286 Y49.873 E1.5285
G1 X7.582 Y49.854 E1.55192
G1 X4.859 Y49.856 E1.64249
G1 X3.159 Y49.897 E1.69905
G1 X2.841 Y49.9 E1.70962
G1 X-2.63 Y49.9 E1.89159
G1 X-4.438 Y49.874 E1.95173
G1 X-5.114 Y49.855 E1.97422
G1 X-7.845 Y49.855 E2.06506
G1 X-9.324 Y49.887 E2.11426
G1 X-9.812 Y49.9 E2.1305
G1 X-16.016 Y49.9 E2.33684
G1 X-16.718 Y49.89 E2.36019
G1 X-17.252 Y49.842 E2.37802
G1 X-17.774 Y49.716 E2.39588
G1 X-18.27 Y49.513 E2.41371
G1 X-18.731 Y49.239 E2.43155
G1 X-19.147 Y48.9 E2.4494
G1 X-19.592 Y48.389 E2.47193
G1 X-19.835 Y48.049 E2.48583
G1 X-21.019 Y46.353 E2.55463
G1 X-22.651 Y44.15 E2.64582
G1 X-24.335 Y42.008 E2.73644
G1 X-26.063 Y39.933 E2.82625
G1 X-27.881 Y37.873 E2.91763
G1 X-29.76 Y35.858 E3.00927
G1 X-31.646 Y33.948 E3.09855
G1 X-33.627 Y32.054 E3.18971
G1 X-35.663 Y30.212 E3.28102
G1 X-37.723 Y28.454 E3.3711
G1 X-39.852 Y26.737 E3.46207
G1 X-42.012 Y25.095 E3.55231
G1 X-44.228 Y23.507 E3.64299
G1 X-46.5 Y21.973 E3.73416
G1 X-48.804 Y20.512 E3.8249
G1 X-48.998 Y20.397 E3.8324
G1 X-50.08 Y19.73 E3.87468
G1 X-50.514 Y19.415 E3.89252
G1 X-50.897 Y19.039 E3.91037
G1 X-51.22 Y18.611 E3.9282
G1 X-51.475 Y18.139 E3.94605
G1 X-51.658 Y17.635 E3.96388
G1 X-51.763 Y17.109 E3.98172
G1 X-51.799 Y16.442 E4.00394
G1 X-51.8 Y10.135 E4.21371
G1 X-51.773 Y8.286 E4.27521
G1 X-51.754 Y7.582 E4.29864
G1 X-51.756 Y4.859 E4.3892
G1 X-51.797 Y3.159 E4.44576
G1 X-51.8 Y2.841 E4.45634
G1 X-51.8 Y-2.63 E4.63831
G1 X-51.774 Y-4.438 E4.69845
G1 X-51.755 Y-5.114 E4.72094
G1 X-51.755 Y-7.845 E4.81177
G1 X-51.787 Y-9.326 E4.86104
G1 X-51.8 Y-9.812 E4.87721
G1 X-51.8 Y-16.016 E5.08356
G1 X-51.79 Y-16.717 E5.10688
G1 X-51.742 Y-17.252 E5.12474
G1 X-51.616 Y-17.773 E5.14257
G1 X-51.413 Y-18.269 E5.1604
G1 X-51.139 Y-18.73 E5.17823
G1 X-50.8 Y-19.146 E5.19608
G1 X-50.403 Y-19.506 E5.21391
G1 X-49.934 Y-19.818 E5.23264
G1 X-47.573 Y-21.273 E5.32488
G1 X-45.261 Y-22.788 E5.41682
G1 X-43.063 Y-24.321 E5.50595
G1 X-40.863 Y-25.949 E5.59698
G1 X-38.714 Y-27.636 E5.68785
G1 X-36.635 Y-29.364 E5.77776
G1 X-34.574 Y-31.179 E5.8691
G1 X-32.579 Y-33.038 E5.9598
G1 X-30.641 Y-34.95 E6.05035
G1 X-28.756 Y-36.917 E6.14096
G1 X-26.926 Y-38.939 E6.23166
G1 X-25.147 Y-41.02 E6.32272
G1 X-23.43 Y-43.146 E6.41362
G1 X-21.793 Y-45.296 E6.50349
G1 X-20.144 Y-47.594 E6.59757
G1 X-19.616 Y-48.351 E6.62826
G1 X-19.277 Y-48.766 E6.64609
G1 X-18.88 Y-49.127 E6.66393
G1 X-18.434 Y-49.425 E6.68178
G1 X-17.949 Y-49.653 E6.6996
G1 X-17.435 Y-49.806 E6.71744
G1 X-16.776 Y-49.888 E6.73952
G1 X-16.342 Y-49.9 E6.75396
G1 X-5.492 Y-49.9 E7.11484
G1 X-4.683 Y-49.887 E7.14175
G1 X-4.179 Y-49.866 E7.15853
G1 X-1.399 Y-49.788 E7.25103
G1 X1.298 Y-49.788 E7.34073
G1 X3.305 Y-49.844 E7.40751
G1 X5.051 Y-49.898 E7.46561
G1 X5.288 Y-49.9 E7.47349
G1 X16.011 Y-49.9 E7.83014
G1 X16.709 Y-49.891 E7.85336
G1 X17.244 Y-49.844 E7.87122
G1 X17.765 Y-49.718 E7.88905
G1 X18.262 Y-49.516 E7.90689
G1 X18.723 Y-49.243 E7.92471
G1 X19.139 Y-48.904 E7.94256
G1 X19.5 Y-48.508 E7.96038
G1 X19.798 Y-48.062 E7.97822
G1 X20.026 Y-47.576 E7.99608
G1 X20.179 Y-47.062 E8.01391
G1 X20.262 Y-46.392 E8.03637
G1 X20.272 Y-45.97 E8.05041
G1 X20.272 Y-17.139 E9.00933
G1 X20.266 Y-15.327 E9.0696
G1 X20.272 Y-14.528 E9.09617
G1 X20.272 Y14.361 E10.05703
G0 F4800 X19.872 Y14.36
G1 F600 X19.866 Y16.172 E10.11729
G1 X19.872 Y16.975 E10.144
G1 X19.872 Y45.608 E11.09634
G1 X19.862 Y46.335 E11.12052
G1 X19.815 Y46.838 E11.13732
G1 X19.689 Y47.328 E11.15415
G1 X19.488 Y47.792 E11.17097
G1 X19.216 Y48.218 E11.18778
G1 X18.881 Y48.597 E11.20461
G1 X18.49 Y48.917 E11.22141
G1 X18.054 Y49.172 E11.23821
G1 X17.583 Y49.356 E11.25503
G1 X17.088 Y49.462 E11.27187
G1 X16.432 Y49.499 E11.29372
G1 X10.141 Y49.5 E11.50296
G1 X8.297 Y49.473 E11.5643
G1 X7.592 Y49.454 E11.58775
G1 X4.85 Y49.456 E11.67895
G1 X3.155 Y49.497 E11.73535
G1 X2.837 Y49.5 E11.74592
G1 X-2.625 Y49.5 E11.92759
G1 X-4.427 Y49.474 E11.98753
G1 X-5.103 Y49.455 E12.01002
G1 X-7.854 Y49.455 E12.10152
G1 X-9.308 Y49.487 E12.14989
G1 X-9.812 Y49.5 E12.16666
G1 X-16.011 Y49.5 E12.37284
G1 X-16.713 Y49.49 E12.39619
G1 X-17.216 Y49.443 E12.413
G1 X-17.706 Y49.317 E12.42982
G1 X-18.169 Y49.115 E12.44662
G1 X-18.596 Y48.844 E12.46345
G1 X-18.974 Y48.508 E12.48027
G1 X-19.483 Y47.855 E12.5078
G1 X-20.697 Y46.115 E12.57837
G1 X-22.332 Y43.91 E12.66967
G1 X-24.015 Y41.768 E12.76027
G1 X-25.772 Y39.658 E12.8516
G1 X-27.589 Y37.599 E12.94293
G1 X-29.465 Y35.587 E13.03443
G1 X-31.35 Y33.678 E13.12366
G1 X-33.364 Y31.752 E13.21635
G1 X-35.4 Y29.911 E13.30764
G1 X-37.457 Y28.155 E13.3976
G1 X-39.604 Y26.423 E13.48935
G1 X-41.783 Y24.767 E13.58037
G1 X-44.017 Y23.166 E13.67179
G1 X-46.268 Y21.647 E13.76211
G1 X-48.58 Y20.18 E13.85318
G1 X-48.788 Y20.056 E13.86123
G1 X-49.87 Y19.389 E13.90351
G1 X-50.278 Y19.091 E13.92031
G1 X-50.634 Y18.732 E13.93713
G1 X-50.929 Y18.321 E13.95396
G1 X-51.156 Y17.869 E13.97078
G1 X-51.308 Y17.387 E13.98759
G1 X-51.39 Y16.754 E14.00882
G1 X-51.4 Y16.342 E14.02253
G1 X-51.4 Y10.141 E14.22877
G1 X-51.373 Y8.297 E14.29011
G1 X-51.354 Y7.592 E14.31357
G1 X-51.356 Y4.849 E14.4048
G1 X-51.397 Y3.155 E14.46116
G1 X-51.4 Y2.837 E14.47174
G1 X-51.4 Y-2.625 E14.6534
G1 X-51.374 Y-4.427 E14.71334
G1 X-51.355 Y-5.103 E14.73584
G1 X-51.355 Y-7.877 E14.8281
G1 X-51.387 Y-9.31 E14.87577
G1 X-51.4 Y-9.812 E14.89248
G1 X-51.4 Y-16.011 E15.09866
G1 X-51.39 Y-16.712 E15.12197
G1 X-51.343 Y-17.215 E15.13878
G1 X-51.217 Y-17.705 E15.1556
G1 X-51.015 Y-18.168 E15.1724
G1 X-50.743 Y-18.595 E15.18924
G1 X-50.408 Y-18.973 E15.20604
G1 X-49.834 Y-19.412 E15.23008
G1 X-49.692 Y-19.497 E15.23558
G1 X-47.349 Y-20.941 E15.32712
G1 X-45.076 Y-22.431 E15.41752
G1 X-42.825 Y-23.999 E15.50876
G1 X-40.601 Y-25.646 E15.60081
G1 X-38.496 Y-27.298 E15.6898
G1 X-36.344 Y-29.087 E15.78288
G1 X-34.318 Y-30.871 E15.87267
G1 X-32.291 Y-32.76 E15.96482
G1 X-30.354 Y-34.671 E16.05533
G1 X-28.471 Y-36.636 E16.14584
G1 X-26.625 Y-38.676 E16.23735
G1 X-24.834 Y-40.771 E16.32902
G1 X-23.13 Y-42.881 E16.41923
G1 X-21.466 Y-45.066 E16.51058
G1 X-19.819 Y-47.361 E16.60453
G1 X-19.288 Y-48.122 E16.6354
G1 X-18.967 Y-48.512 E16.6522
G1 X-18.588 Y-48.847 E16.66902
G1 X-18.161 Y-49.118 E16.68584
G1 X-17.697 Y-49.319 E16.70266
G1 X-17.207 Y-49.444 E16.71948
G1 X-16.441 Y-49.498 E16.74502
G1 X-16.342 Y-49.5 E16.74831
G1 X-5.498 Y-49.5 E17.10899
G1 X-4.79 Y-49.49 E17.13254
G1 X-4.202 Y-49.466 E17.15211
G1 X-1.411 Y-49.388 E17.24497
G1 X1.309 Y-49.388 E17.33544
G1 X3.316 Y-49.444 E17.40222
G1 X5.054 Y-49.498 E17.46005
G1 X5.291 Y-49.5 E17.46794
G1 X16.006 Y-49.5 E17.82432
G1 X16.704 Y-49.491 E17.84754
G1 X17.208 Y-49.444 E17.86437
G1 X17.698 Y-49.319 E17.88119
G1 X18.162 Y-49.118 E17.89801
G1 X18.588 Y-48.847 E17.9148
G1 X18.967 Y-48.512 E17.93163
G1 X19.288 Y-48.121 E17.94845
G1 X19.543 Y-47.685 E17.96525
G1 X19.727 Y-47.214 E17.98207
G1 X19.834 Y-46.72 E17.99888
G1 X19.871 Y-46.06 E18.02087
G1 X19.872 Y-17.14 E18.98275
G1 X19.866 Y-15.328 E19.04302
G1 X19.872 Y-14.525 E19.06973
G1 X19.872 Y14.36 E20.03045
G1 F1800 E18.03045
;MESH:M.stl
G0 F4800 X16.058 Y14.186
G1 F1800 E20.03045
G0 F4800 X16.072 Y14.2
;TYPE:WALL-INNER
G1 F600 X10.08 Y14.2 E20.22974
G1 X10.08 Y-7.975 E20.96729
G1 X9.949 Y-8.373 E20.98122
G1 X9.525 Y-8.673 E20.9985
G1 X9.007 Y-8.665 E21.01573
G1 X8.632 Y-8.378 E21.03143
G1 X8.518 Y-8.13 E21.04051
G1 X2.808 Y14.2 E21.80711
G1 X-2.82 Y14.2 E21.9943
G1 X-8.528 Y-8.168 E22.7621
G1 X-8.752 Y-8.523 E22.77606
G1 X-9.239 Y-8.709 E22.7934
G1 X-9.738 Y-8.573 E22.8106
G1 X-10.032 Y-8.202 E22.82635
G1 X-10.08 Y-7.931 E22.8355
G1 X-10.08 Y14.2 E23.57158
G1 X-16.072 Y14.2 E23.77088
G1 X-16.072 Y-14.2 E24.71546
G1 X-5.301 Y-14.2 E25.07371
G1 X-.731 Y3.548 E25.68327
G1 X-.504 Y3.898 E25.69714
G1 X-0.023 Y4.084 E25.71429
G1 X0.496 Y3.943 E25.73218
G1 X0.768 Y3.56 E25.7478
G1 X5.311 Y-14.2 E26.35752
G1 X16.072 Y-14.2 E26.71544
G1 X16.072 Y14.2 E27.66002
G0 F4800 X16.472 Y14.6
;TYPE:WALL-OUTER
G1 F600 X9.68 Y14.6 E27.88593
G1 X9.68 Y-7.911 E28.63465
G1 X9.61 Y-8.123 E28.64207
G1 X9.401 Y-8.271 E28.65059
G1 X9.145 Y-8.267 E28.65911
G1 X8.954 Y-8.121 E28.6671
G1 X8.897 Y-7.996 E28.67167
G1 X3.119 Y14.6 E29.4474
G1 X-3.131 Y14.6 E29.65527
G1 X-8.9 Y-8.008 E30.43131
G1 X-9.019 Y-8.197 E30.43874
G1 X-9.26 Y-8.289 E30.44732
G1 X-9.506 Y-8.222 E30.4558
G1 X-9.656 Y-8.033 E30.46383
G1 X-9.68 Y-7.896 E30.46845
G1 X-9.68 Y14.6 E31.21667
G1 X-16.472 Y14.6 E31.44258
G1 X-16.472 Y-14.6 E32.41377
G1 X-4.991 Y-14.6 E32.79563
G1 X-.36 Y3.385 E33.41333
G1 X-.239 Y3.572 E33.42074
G1 X-0.001 Y3.664 E33.42922
G1 X0.253 Y3.595 E33.43798
G1 X0.399 Y3.389 E33.44638
G1 X5 Y-14.6 E34.06395
G1 X16.472 Y-14.6 E34.44551
G1 X16.472 Y14.6 E35.41671
G0 F4800 X16.272 Y14.6
G0 X16.002 Y14.13
G0 X9.981 Y-8.396
G0 X8.994 Y-8.702
G0 X-0.006 Y9.203
;TYPE:SKIN
G1 F600 X-.252 Y8.238 E35.44983
G1 X-.241 Y8.242 E35.45022
G1 X0.275 Y8.103 E35.46799
G1 X-0.006 Y9.203 E35.50576
G0 F4800 X-.219 Y7.822
G1 F600 X0.833 Y7.538 E35.542
G1 X0.04 Y10.64 E35.64849
G1 X-0.053 Y10.64 E35.65158
G1 X-.832 Y7.585 E35.75644
G1 X-.219 Y7.822 E35.7783
G0 F4800 X-.197 Y7.402
G1 F600 X1.391 Y6.974 E35.833
G1 X0.351 Y11.04 E35.97259
G1 X-.364 Y11.04 E35.99637
G1 X-1.412 Y6.933 E36.13735
G1 X-.197 Y7.402 E36.18067
G0 F4800 X-.175 Y6.982
G1 F600 X1.949 Y6.41 E36.25383
G1 X0.662 Y11.44 E36.42652
G1 X-.675 Y11.44 E36.47099
G1 X-1.992 Y6.28 E36.64811
G1 X-.175 Y6.982 E36.7129
G0 F4800 X-.153 Y6.562
G1 F600 X1.93 Y6.001 E36.78465
G1 X2.769 Y4.819 E36.83286
G1 X0.973 Y11.84 E37.0739
G1 X-.986 Y11.84 E37.13905
G1 X-2.816 Y4.67 E37.38517
G1 X-2.068 Y5.822 E37.43086
G1 X-.153 Y6.562 E37.49914
G0 F4800 X-.131 Y6.142
G1 F600 X1.687 Y5.652 E37.56176
G1 X2.577 Y4.398 E37.61291
G1 X6.835 Y-12.24 E38.18413
G1 X14.112 Y-12.24 E38.42616
G1 X14.112 Y12.24 E39.24037
G1 X12.04 Y12.24 E39.30928
G1 X12.04 Y-8.292 E39.99218
G1 X11.605 Y-9.598 E40.03796
G1 X10.137 Y-10.643 E40.0979
G1 X8.331 Y-10.615 E40.15797
G1 X7.054 Y-9.638 E40.21145
G1 X6.662 Y-8.787 E40.24261
G1 X1.284 Y12.24 E40.96449
G1 X-1.297 Y12.24 E41.05033
G1 X-6.705 Y-8.952 E41.77777
G1 X-7.443 Y-10.12 E41.82372
G1 X-9.137 Y-10.767 E41.88403
G1 X-10.875 Y-10.298 E41.94391
G1 X-11.874 Y-9.031 E41.99757
G1 X-12.04 Y-8.103 E42.02893
G1 X-12.04 Y12.24 E42.70554
G1 X-14.112 Y12.24 E42.77445
G1 X-14.112 Y-12.24 E43.58866
G1 X-6.82 Y-12.24 E43.83119
G1 X-2.549 Y4.346 E44.40084
G1 X-1.803 Y5.496 E44.44644
G1 X-.131 Y6.142 E44.50605
G0 F4800 X-.109 Y5.722
G1 F600 X1.444 Y5.303 E44.55955
G1 X2.208 Y4.227 E44.60344
G1 X6.524 Y-12.64 E45.18252
G1 X14.512 Y-12.64 E45.4482
G1 X14.512 Y12.64 E46.28902
G1 X11.64 Y12.64 E46.38454
G1 X11.64 Y-8.227 E47.07858
G1 X11.267 Y-9.348 E47.11787
G1 X10.012 Y-10.241 E47.1691
G1 X8.469 Y-10.217 E47.22043
G1 X7.376 Y-9.381 E47.2662
G1 X7.041 Y-8.653 E47.29285
G1 X1.595 Y12.64 E48.02386
G1 X-1.608 Y12.64 E48.13039
G1 X-7.077 Y-8.792 E48.86606
G1 X-7.71 Y-9.794 E48.90548
G1 X-9.158 Y-10.347 E48.95704
G1 X-10.643 Y-9.946 E49.0082
G1 X-11.498 Y-8.862 E49.05412
G1 X-11.64 Y-8.068 E49.08094
G1 X-11.64 Y12.64 E49.76969
G1 X-14.512 Y12.64 E49.86522
G1 X-14.512 Y-12.64 E50.70603
G1 X-6.51 Y-12.64 E50.97218
G1 X-2.178 Y4.183 E51.54997
G1 X-1.538 Y5.17 E51.58909
G1 X-.109 Y5.722 E51.64005
G0 F4800 X-0.087 Y5.302
G1 F600 X1.201 Y4.954 E51.68442
G1 X1.839 Y4.056 E51.72106
G1 X6.213 Y-13.04 E52.30799
G1 X14.912 Y-13.04 E52.59732
G1 X14.912 Y13.04 E53.46474
G1 X11.24 Y13.04 E53.58688
G1 X11.24 Y-8.162 E54.29206
G1 X10.929 Y-9.098 E54.32486
G1 X9.887 Y-9.839 E54.36739
G1 X8.607 Y-9.819 E54.40997
G1 X7.698 Y-9.124 E54.44802
G1 X7.42 Y-8.519 E54.47017
G1 X1.906 Y13.04 E55.21031
G1 X-1.919 Y13.04 E55.33753
G1 X-7.449 Y-8.632 E56.08144
G1 X-7.977 Y-9.468 E56.11432
G1 X-9.179 Y-9.927 E56.15712
G1 X-10.411 Y-9.594 E56.19956
G1 X-11.122 Y-8.693 E56.23774
G1 X-11.24 Y-8.033 E56.26004
G1 X-11.24 Y13.04 E56.96093
G1 X-14.912 Y13.04 E57.08306
G1 X-14.912 Y-13.04 E57.95049
G1 X-6.2 Y-13.04 E58.24025
G1 X-1.807 Y4.02 E58.82618
G1 X-1.273 Y4.844 E58.85883
G1 X-0.087 Y5.302 E58.90112
G0 F4800 X-0.065 Y4.882
G1 F600 X0.958 Y4.605 E58.93637
G1 X1.47 Y3.885 E58.96575
G1 X5.902 Y-13.44 E59.56054
G1 X15.312 Y-13.44 E59.87352
G1 X15.312 Y13.44 E60.76755
G1 X10.84 Y13.44 E60.91629
G1 X10.84 Y-8.097 E61.63262
G1 X10.591 Y-8.848 E61.65893
G1 X9.762 Y-9.437 E61.69275
G1 X8.745 Y-9.421 E61.72658
G1 X8.02 Y-8.867 E61.75693
G1 X7.799 Y-8.385 E61.77457
G1 X2.217 Y13.44 E62.52384
G1 X-2.23 Y13.44 E62.67174
G1 X-7.821 Y-8.472 E63.42389
G1 X-8.244 Y-9.142 E63.45024
G1 X-9.2 Y-9.507 E63.48428
G1 X-10.179 Y-9.242 E63.51801
G1 X-10.746 Y-8.524 E63.54844
G1 X-10.84 Y-7.998 E63.56621
G1 X-10.84 Y13.44 E64.27925
G1 X-15.312 Y13.44 E64.42798
G1 X-15.312 Y-13.44 E65.32202
G1 X-5.89 Y-13.44 E65.63539
G1 X-1.436 Y3.857 E66.22946
G1 X-1.008 Y4.518 E66.25565
G1 X-0.065 Y4.882 E66.28927
G0 F4800 X-0.043 Y4.462
G1 F600 X0.715 Y4.256 E66.3154
G1 X1.101 Y3.714 E66.33753
G1 X5.591 Y-13.84 E66.94017
G1 X15.712 Y-13.84 E67.2768
G1 X15.712 Y13.84 E68.19744
G1 X10.44 Y13.84 E68.37279
G1 X10.44 Y-8.033 E69.10029
G1 X10.253 Y-8.598 E69.12008
G1 X9.637 Y-9.035 E69.1452
G1 X8.883 Y-9.023 E69.17028
G1 X8.342 Y-8.61 E69.19292
G1 X8.178 Y-8.251 E69.20605
G1 X2.528 Y13.84 E69.96445
G1 X-2.541 Y13.84 E70.13304
G1 X-8.193 Y-8.312 E70.89343
G1 X-8.511 Y-8.816 E70.91325
G1 X-9.221 Y-9.087 E70.93852
G1 X-9.947 Y-8.89 E70.96354
G1 X-10.37 Y-8.355 E70.98623
G1 X-10.44 Y-7.963 E70.99947
G1 X-10.44 Y13.84 E71.72464
G1 X-15.712 Y13.84 E71.89999
G1 X-15.712 Y-13.84 E72.82063
G1 X-5.58 Y-13.84 E73.15762
G1 X-1.065 Y3.694 E73.75983
G1 X-.743 Y4.192 E73.77955
G1 X-0.043 Y4.462 E73.80451
G0 F4800 X-7.383 Y-3.834
G0 X-8.492 Y-8.183
G0 X-9.238 Y-8.748
G0 X-10.068 Y-8.218
G0 X-12.44 Y11.84
G1 F600 X-13.712 Y11.84 E73.84682
G1 X-13.712 Y-11.84 E74.63442
G1 X-7.13 Y-11.84 E74.85333
G1 X-6.492 Y-9.364 E74.93838
G1 X-7.176 Y-10.446 E74.98095
G1 X-9.116 Y-11.187 E75.05002
G1 X-11.107 Y-10.65 E75.11861
G1 X-12.25 Y-9.2 E75.18002
G1 X-12.44 Y-8.138 E75.2159
G1 X-12.44 Y11.84 E75.88037
G0 F4800 X-12.84 Y11.44
G1 F600 X-13.312 Y11.44 E75.89607
G1 X-13.312 Y-11.44 E76.65706
G1 X-9.714 Y-11.44 E76.77673
G1 X-11.339 Y-11.002 E76.83271
G1 X-12.626 Y-9.369 E76.90186
G1 X-12.84 Y-8.173 E76.94228
G1 X-12.84 Y11.44 E77.59461
G0 F4800 X-12.912 Y-9.652
G1 F600 X-12.912 Y-11.04 E77.64077
G1 X-11.818 Y-11.04 E77.67716
G1 X-12.912 Y-9.652 E77.73594
G0 F4800 X-7.307 Y-10.924
G1 F600 X-8.658 Y-11.44 E77.78404
G1 X-7.44 Y-11.44 E77.82455
G1 X-7.307 Y-10.924 E77.84227
G0 F4800 X-.767 Y3.564
G0 X-0.025 Y4.123
G0 X0.749 Y3.652
G0 X7.301 Y-10.834
G1 F600 X7.456 Y-11.44 E77.86308
G1 X9.934 Y-11.44 E77.9455
G1 X8.055 Y-11.411 E78.008
G1 X7.301 Y-10.834 E78.03958
G0 F4800 X12.912 Y-9.47
G1 F600 X12.619 Y-10.348 E78.07036
G1 X11.648 Y-11.04 E78.11002
G1 X12.912 Y-11.04 E78.15206
G1 X12.912 Y-9.47 E78.20428
G0 F4800 X12.84 Y11.44
G1 F600 X12.84 Y-8.422 E78.86489
G1 X12.281 Y-10.098 E78.92366
G1 X10.397 Y-11.44 E79.00059
G1 X13.312 Y-11.44 E79.09754
G1 X13.312 Y11.44 E79.85854
G1 X12.84 Y11.44 E79.87423
G0 F4800 X12.44 Y11.84
G1 F600 X12.44 Y-8.357 E80.54599
G1 X11.943 Y-9.848 E80.59826
G1 X10.262 Y-11.045 E80.6669
G1 X8.193 Y-11.013 E80.73572
G1 X6.732 Y-9.895 E80.79691
G1 X6.543 Y-9.486 E80.8119
G1 X7.146 Y-11.84 E80.89272
G1 X13.712 Y-11.84 E81.11111
G1 X13.712 Y11.84 E81.89871
G1 X12.44 Y11.84 E81.94101
