;FLAVOR:Marlin
;TIME:3158
;Filament used: 2.74576m
;Layer height: 0.2
;MINX:-47.845
;MINY:-18.4
;MINZ:0.2
;MAXX:47.845
;MAXY:48.545
;MAXZ:3.8
;POSTPROCESSED
;Generated with Cura_SteamEngine 4.13.1
M82 ;absolute extrusion mode
START_PRINT BED_TEMP=80 EXTRUDER_TEMP=220.0
G92 E0
G92 E0
G1 F1800 E-2
;LAYER_COUNT:19
;LAYER:0
M107
G0 F4800 X1.295 Y-18.233 Z0.2
;TYPE:SKIRT
G1 F1800 E0
G1 F600 X4.044 Y-18.308 E0.09147
G1 X5.725 Y-18.389 E0.14744
G1 X6.137 Y-18.4 E0.16115
G1 X13.86 Y-18.4 E0.41802
G1 X15.497 Y-18.394 E0.47246
G1 X16.281 Y-18.4 E0.49854
G1 X23.649 Y-18.4 E0.7436
G1 X24.458 Y-18.387 E0.77051
G1 X25.583 Y-18.338 E0.80797
G1 X25.964 Y-18.316 E0.82066
G1 X28.665 Y-18.237 E0.91053
G1 X31.395 Y-18.233 E1.00133
G1 X34.144 Y-18.308 E1.0928
G1 X35.825 Y-18.389 E1.14877
G1 X36.237 Y-18.4 E1.16248
G1 X43.59 Y-18.4 E1.40704
G1 X44.288 Y-18.39 E1.43026
G1 X44.822 Y-18.342 E1.4481
G1 X45.343 Y-18.216 E1.46592
G1 X45.84 Y-18.013 E1.48378
G1 X46.301 Y-17.739 E1.50162
G1 X46.716 Y-17.4 E1.51944
G1 X47.076 Y-17.002 E1.53729
G1 X47.373 Y-16.556 E1.55511
G1 X47.601 Y-16.07 E1.57297
G1 X47.753 Y-15.556 E1.59079
G1 X47.835 Y-14.891 E1.61308
G1 X47.845 Y-14.47 E1.62708
G1 X47.845 Y14.124 E2.57812
G1 X47.835 Y14.844 E2.60207
G1 X47.787 Y15.378 E2.61991
G1 X47.661 Y15.899 E2.63774
G1 X47.459 Y16.396 E2.65558
G1 X47.185 Y16.857 E2.67342
G1 X46.846 Y17.273 E2.69126
G1 X46.254 Y17.774 E2.71706
G1 X45.461 Y18.311 E2.74891
G1 X43.181 Y19.902 E2.84138
G1 X41.007 Y21.512 E2.93136
G1 X38.839 Y23.214 E3.02303
G1 X36.751 Y24.952 E3.11339
G1 X34.702 Y26.756 E3.20419
G1 X32.71 Y28.613 E3.29477
G1 X30.773 Y30.527 E3.38534
G1 X28.888 Y32.495 E3.47598
G1 X27.062 Y34.513 E3.5665
G1 X25.279 Y36.601 E3.65782
G1 X23.552 Y38.741 E3.74928
G1 X21.919 Y40.888 E3.839
G1 X20.339 Y43.089 E3.92911
G1 X18.812 Y45.35 E4.01986
G1 X18.341 Y46.092 E4.04909
G1 X17.808 Y46.906 E4.08145
G1 X17.481 Y47.332 E4.09931
G1 X17.095 Y47.704 E4.11714
G1 X16.658 Y48.015 E4.13498
G1 X16.18 Y48.257 E4.1528
G1 X15.671 Y48.426 E4.17064
G1 X14.917 Y48.532 E4.19597
G1 X14.47 Y48.545 E4.21084
G1 X-14.144 Y48.545 E5.16254
G1 X-14.845 Y48.535 E5.18586
G1 X-15.38 Y48.487 E5.20373
G1 X-15.901 Y48.361 E5.22156
G1 X-16.397 Y48.158 E5.23938
G1 X-16.858 Y47.884 E5.25722
G1 X-17.274 Y47.545 E5.27507
G1 X-17.634 Y47.148 E5.29289
G1 X-17.832 Y46.867 E5.30432
G1 X-18.108 Y46.433 E5.32143
G1 X-19.611 Y44.143 E5.41254
G1 X-21.161 Y41.922 E5.50262
G1 X-22.791 Y39.719 E5.59377
G1 X-24.461 Y37.591 E5.68374
G1 X-26.212 Y35.487 E5.77478
G1 X-28.017 Y33.437 E5.86563
G1 X-29.875 Y31.445 E5.95623
G1 X-31.778 Y29.514 E6.0464
G1 X-33.757 Y27.619 E6.13753
G1 X-35.796 Y25.774 E6.22899
G1 X-37.848 Y24.019 E6.3188
G1 X-39.963 Y22.312 E6.4092
G1 X-42.14 Y20.656 E6.50017
G1 X-44.362 Y19.062 E6.59112
G1 X-45.84 Y18.064 E6.65044
G1 X-46.3 Y17.742 E6.66912
G1 X-46.716 Y17.403 E6.68696
G1 X-47.076 Y17.006 E6.70479
G1 X-47.373 Y16.559 E6.72264
G1 X-47.601 Y16.073 E6.74049
G1 X-47.753 Y15.559 E6.75832
G1 X-47.835 Y14.893 E6.78064
G1 X-47.845 Y14.47 E6.79471
G1 X-47.845 Y-14.175 E7.74745
G1 X-47.836 Y-14.84 E7.76957
G1 X-47.788 Y-15.374 E7.7874
G1 X-47.662 Y-15.895 E7.80523
G1 X-47.46 Y-16.392 E7.82307
G1 X-47.187 Y-16.853 E7.84089
G1 X-46.848 Y-17.269 E7.85874
G1 X-46.451 Y-17.629 E7.87657
G1 X-46.004 Y-17.927 E7.89443
G1 X-45.519 Y-18.155 E7.91226
G1 X-45.005 Y-18.308 E7.9301
G1 X-44.337 Y-18.39 E7.95248
G1 X-43.915 Y-18.4 E7.96652
G1 X-36.551 Y-18.4 E8.21145
G1 X-35.742 Y-18.387 E8.23836
G1 X-34.617 Y-18.338 E8.27581
G1 X-34.236 Y-18.316 E8.28851
G1 X-31.535 Y-18.237 E8.37838
G1 X-28.805 Y-18.233 E8.46918
G1 X-26.056 Y-18.308 E8.56065
G1 X-24.375 Y-18.389 E8.61662
G1 X-23.963 Y-18.4 E8.63033
G1 X-16.24 Y-18.4 E8.8872
G1 X-14.603 Y-18.394 E8.94164
G1 X-13.819 Y-18.4 E8.96772
G1 X-6.451 Y-18.4 E9.21278
G1 X-5.642 Y-18.387 E9.23969
G1 X-4.517 Y-18.338 E9.27715
G1 X-4.136 Y-18.316 E9.28984
G1 X-1.435 Y-18.237 E9.37971
G1 X1.295 Y-18.233 E9.47051
G0 F4800 X1.305 Y-17.833
G1 F600 X4.073 Y-17.908 E9.56261
G1 X5.737 Y-17.99 E9.61802
G1 X6.137 Y-18 E9.63133
G1 X13.859 Y-18 E9.88817
G1 X15.499 Y-17.994 E9.94271
G1 X16.284 Y-18 E9.96882
G1 X23.643 Y-18 E10.21358
G1 X24.349 Y-17.99 E10.23707
G1 X25.561 Y-17.939 E10.27742
G1 X25.931 Y-17.918 E10.28974
G1 X28.688 Y-17.837 E10.38148
G1 X31.405 Y-17.833 E10.47185
G1 X34.173 Y-17.908 E10.56395
G1 X35.837 Y-17.99 E10.61936
G1 X36.237 Y-18 E10.63267
G1 X43.584 Y-18 E10.87703
G1 X44.282 Y-17.99 E10.90025
G1 X44.785 Y-17.943 E10.91705
G1 X45.275 Y-17.817 E10.93388
G1 X45.739 Y-17.615 E10.95071
G1 X46.165 Y-17.343 E10.96752
G1 X46.543 Y-17.008 E10.98432
G1 X46.863 Y-16.617 E11.00112
G1 X47.118 Y-16.18 E11.01795
G1 X47.301 Y-15.709 E11.03476
G1 X47.408 Y-15.215 E11.05157
G1 X47.444 Y-14.56 E11.07339
G1 X47.445 Y14.118 E12.02722
G1 X47.435 Y14.838 E12.05117
G1 X47.388 Y15.342 E12.06801
G1 X47.262 Y15.832 E12.08483
G1 X47.061 Y16.295 E12.10162
G1 X46.789 Y16.722 E12.11846
G1 X46.454 Y17.1 E12.13526
G1 X46.03 Y17.443 E12.1534
G1 X45.196 Y18.008 E12.1869
G1 X42.96 Y19.568 E12.27758
G1 X40.745 Y21.209 E12.36927
G1 X38.603 Y22.89 E12.45983
G1 X36.473 Y24.663 E12.55201
G1 X34.45 Y26.445 E12.64168
G1 X32.439 Y28.319 E12.7331
G1 X30.486 Y30.249 E12.82443
G1 X28.585 Y32.233 E12.91582
G1 X26.762 Y34.248 E13.00619
G1 X24.962 Y36.357 E13.09841
G1 X23.255 Y38.472 E13.18881
G1 X21.609 Y40.636 E13.27924
G1 X20 Y42.877 E13.371
G1 X18.47 Y45.142 E13.46191
G1 X18.006 Y45.873 E13.49071
G1 X17.473 Y46.687 E13.52307
G1 X17.164 Y47.087 E13.53988
G1 X16.795 Y47.433 E13.55671
G1 X16.377 Y47.716 E13.57349
G1 X15.919 Y47.931 E13.59032
G1 X15.433 Y48.07 E13.60714
G1 X14.904 Y48.132 E13.62485
G1 X14.47 Y48.145 E13.63929
G1 X-14.139 Y48.145 E14.59083
G1 X-14.84 Y48.135 E14.61415
G1 X-15.343 Y48.088 E14.63095
G1 X-15.833 Y47.962 E14.64778
G1 X-16.296 Y47.76 E14.66458
G1 X-16.723 Y47.488 E14.68142
G1 X-17.101 Y47.153 E14.69822
G1 X-17.494 Y46.652 E14.7194
G1 X-17.745 Y46.257 E14.73496
G1 X-19.276 Y43.924 E14.82777
G1 X-20.844 Y41.677 E14.91891
G1 X-22.47 Y39.48 E15.00982
G1 X-24.138 Y37.354 E15.09969
G1 X-25.923 Y35.209 E15.19251
G1 X-27.706 Y33.185 E15.28222
G1 X-29.598 Y31.155 E15.37452
G1 X-31.482 Y29.244 E15.46377
G1 X-33.518 Y27.295 E15.55752
G1 X-35.513 Y25.49 E15.647
G1 X-37.583 Y23.72 E15.73758
G1 X-39.715 Y21.998 E15.82874
G1 X-41.91 Y20.328 E15.92047
G1 X-44.127 Y18.738 E16.01121
G1 X-45.661 Y17.702 E16.07278
G1 X-46.071 Y17.415 E16.08942
G1 X-46.461 Y17.093 E16.10624
G1 X-46.796 Y16.714 E16.12307
G1 X-47.066 Y16.287 E16.13987
G1 X-47.266 Y15.822 E16.15671
G1 X-47.39 Y15.332 E16.17352
G1 X-47.444 Y14.559 E16.19929
G1 X-47.445 Y-14.169 E17.15479
G1 X-47.436 Y-14.834 E17.17691
G1 X-47.389 Y-15.338 E17.19374
G1 X-47.263 Y-15.827 E17.21054
G1 X-47.062 Y-16.291 E17.22736
G1 X-46.791 Y-16.718 E17.24418
G1 X-46.456 Y-17.096 E17.26098
G1 X-46.065 Y-17.417 E17.2778
G1 X-45.628 Y-17.672 E17.29463
G1 X-45.157 Y-17.856 E17.31145
G1 X-44.663 Y-17.962 E17.32826
G1 X-44.005 Y-17.999 E17.35017
G1 X-36.557 Y-18 E17.5979
G1 X-35.851 Y-17.99 E17.62138
G1 X-34.639 Y-17.939 E17.66173
G1 X-34.269 Y-17.918 E17.67405
G1 X-31.512 Y-17.837 E17.76579
G1 X-28.795 Y-17.833 E17.85616
G1 X-26.027 Y-17.908 E17.94826
G1 X-24.363 Y-17.99 E18.00367
G1 X-23.963 Y-18 E18.01698
G1 X-16.241 Y-18 E18.27381
G1 X-14.601 Y-17.994 E18.32836
G1 X-13.816 Y-18 E18.35447
G1 X-6.457 Y-18 E18.59923
G1 X-5.751 Y-17.99 E18.62271
G1 X-4.539 Y-17.939 E18.66306
G1 X-4.169 Y-17.918 E18.67539
G1 X-1.412 Y-17.837 E18.76712
G1 X1.305 Y-17.833 E18.85749
G1 F1800 E16.85749
;MESH:N.stl
G0 F4800 X6.421 Y-14.186
G1 F1800 E18.85749
G0 F4800 X6.407 Y-14.2
;TYPE:WALL-INNER
G1 F600 X13.545 Y-14.2 E19.0949
G1 X13.545 Y14.2 E20.03949
G1 X6.03 Y14.2 E20.28944
G1 X-5.022 Y-2.002 E20.94176
G1 X-5.354 Y-2.258 E20.9557
G1 X-5.873 Y-2.266 E20.97296
G1 X-6.297 Y-1.966 E20.99024
G1 X-6.428 Y-1.568 E21.00418
G1 X-6.428 Y14.2 E21.52862
G1 X-13.545 Y14.2 E21.76533
G1 X-13.545 Y-14.2 E22.70992
G1 X-6.113 Y-14.2 E22.95711
G1 X5 Y2.127 E23.61401
G1 X5.333 Y2.383 E23.62798
G1 X5.852 Y2.391 E23.64524
G1 X6.276 Y2.091 E23.66252
G1 X6.407 Y1.693 E23.67645
G1 X6.407 Y-14.2 E24.20505
G0 F4800 X6.007 Y-14.6
;TYPE:WALL-OUTER
G1 F600 X13.945 Y-14.6 E24.46907
G1 X13.945 Y14.6 E25.44027
G1 X5.819 Y14.6 E25.71054
G1 X-5.316 Y-1.724 E26.36776
G1 X-5.493 Y-1.86 E26.37519
G1 X-5.749 Y-1.864 E26.3837
G1 X-5.958 Y-1.716 E26.39222
G1 X-6.028 Y-1.504 E26.39965
G1 X-6.028 Y14.6 E26.93527
G1 X-13.945 Y14.6 E27.19859
G1 X-13.945 Y-14.6 E28.16979
G1 X-5.901 Y-14.6 E28.43733
G1 X5.295 Y1.849 E29.09913
G1 X5.472 Y1.985 E29.10656
G1 X5.728 Y1.989 E29.11507
G1 X5.937 Y1.841 E29.12359
G1 X6.007 Y1.629 E29.13101
G1 X6.007 Y-14.6 E29.67079
G0 F4800 X6.207 Y-14.6
G0 X6.477 Y-14.13
G0 X6.446 Y1.699
G0 X5.863 Y2.429
G0 X-7.674 Y-7.317
;TYPE:SKIN
G1 F600 X-8.385 Y-6.81 E29.69984
G1 X-8.385 Y-8.362 E29.75146
G1 X-7.674 Y-7.317 E29.7935
G0 F4800 X-7.36 Y-7.05
G1 F600 X-8.785 Y-6.034 E29.85171
G1 X-8.785 Y-9.44 E29.96499
G1 X-8.635 Y-9.44 E29.96998
G1 X-7.004 Y-7.045 E30.06635
G1 X-7.36 Y-7.05 E30.0782
G0 F4800 X-7.235 Y-6.648
G1 F600 X-9.185 Y-5.258 E30.15784
G1 X-9.185 Y-9.84 E30.31024
G1 X-8.423 Y-9.84 E30.33559
G1 X-6.239 Y-6.633 E30.46464
G1 X-7.235 Y-6.648 E30.49777
G0 F4800 X-7.11 Y-6.246
G1 F600 X-9.585 Y-4.482 E30.59885
G1 X-9.585 Y-10.24 E30.79037
G1 X-8.211 Y-10.24 E30.83607
G1 X-5.475 Y-6.221 E30.99777
G1 X-7.11 Y-6.246 E31.05216
G0 F4800 X-6.985 Y-5.844
G1 F600 X-9.305 Y-4.191 E31.14691
G1 X-9.985 Y-2.154 E31.21833
G1 X-9.985 Y-10.64 E31.50058
G1 X-7.999 Y-10.64 E31.56663
G1 X-4.71 Y-5.809 E31.76102
G1 X-6.985 Y-5.844 E31.83669
G0 F4800 X-6.86 Y-5.442
G1 F600 X-8.967 Y-3.941 E31.92273
G1 X-9.588 Y-2.08 E31.98799
G1 X-9.588 Y11.04 E32.42436
G1 X-10.385 Y11.04 E32.45087
G1 X-10.385 Y-11.04 E33.18525
G1 X-7.787 Y-11.04 E33.27166
G1 X-3.612 Y-4.907 E33.51842
G1 X-4.255 Y-5.402 E33.54541
G1 X-6.86 Y-5.442 E33.63207
G0 F4800 X-6.735 Y-5.04
G1 F600 X-8.629 Y-3.691 E33.70941
G1 X-9.188 Y-2.015 E33.76817
G1 X-9.188 Y11.44 E34.21568
G1 X-10.785 Y11.44 E34.2688
G1 X-10.785 Y-11.44 E35.02979
G1 X-7.575 Y-11.44 E35.13656
G1 X2.965 Y4.045 E35.75958
G1 X4.375 Y5.129 E35.81873
G1 X6.714 Y5.165 E35.89654
G1 X8.608 Y3.816 E35.97388
G1 X9.167 Y2.14 E36.03264
G1 X9.167 Y-11.44 E36.48431
G1 X10.785 Y-11.44 E36.53813
G1 X10.785 Y11.44 E37.29912
G1 X7.486 Y11.44 E37.40884
G1 X-2.987 Y-3.92 E38.02717
G1 X-4.394 Y-5.004 E38.08625
G1 X-6.735 Y-5.04 E38.16412
G0 F4800 X-6.61 Y-4.638
G1 F600 X-8.291 Y-3.441 E38.23275
G1 X-8.788 Y-1.95 E38.28503
G1 X-8.788 Y11.84 E38.74369
G1 X-11.185 Y11.84 E38.82341
G1 X-11.185 Y-11.84 E39.61101
G1 X-7.363 Y-11.84 E39.73813
G1 X3.26 Y3.767 E40.36606
G1 X4.514 Y4.731 E40.41866
G1 X6.589 Y4.763 E40.48769
G1 X8.27 Y3.566 E40.55632
G1 X8.767 Y2.075 E40.6086
G1 X8.767 Y-11.84 E41.07141
G1 X11.185 Y-11.84 E41.15184
G1 X11.185 Y11.84 E41.93944
G1 X7.275 Y11.84 E42.06948
G1 X-3.282 Y-3.642 E42.69274
G1 X-4.533 Y-4.606 E42.74527
G1 X-6.61 Y-4.638 E42.81436
G0 F4800 X-6.485 Y-4.236
G1 F600 X-7.953 Y-3.191 E42.87429
G1 X-8.388 Y-1.885 E42.92007
G1 X-8.388 Y12.24 E43.38987
G1 X-11.585 Y12.24 E43.49621
G1 X-11.585 Y-12.24 E44.31041
G1 X-7.151 Y-12.24 E44.45789
G1 X3.555 Y3.489 E45.09072
G1 X4.653 Y4.333 E45.13679
G1 X6.464 Y4.361 E45.19703
G1 X7.932 Y3.316 E45.25696
G1 X8.367 Y2.01 E45.30274
G1 X8.367 Y-12.24 E45.7767
G1 X11.585 Y-12.24 E45.88373
G1 X11.585 Y12.24 E46.69794
G1 X7.064 Y12.24 E46.84831
G1 X-3.577 Y-3.364 E47.47649
G1 X-4.672 Y-4.208 E47.52247
G1 X-6.485 Y-4.236 E47.58278
G0 F4800 X-6.36 Y-3.834
G1 F600 X-7.615 Y-2.941 E47.63401
G1 X-7.988 Y-1.82 E47.67331
G1 X-7.988 Y12.64 E48.15425
G1 X-11.985 Y12.64 E48.28719
G1 X-11.985 Y-12.64 E49.128
G1 X-6.939 Y-12.64 E49.29583
G1 X3.85 Y3.211 E49.93358
G1 X4.792 Y3.935 E49.97309
G1 X6.339 Y3.959 E50.02455
G1 X7.594 Y3.066 E50.07578
G1 X7.967 Y1.945 E50.11508
G1 X7.967 Y-12.64 E50.60018
G1 X11.985 Y-12.64 E50.73382
G1 X11.985 Y12.64 E51.57463
G1 X6.853 Y12.64 E51.74532
G1 X-3.872 Y-3.086 E52.37843
G1 X-4.811 Y-3.81 E52.41787
G1 X-6.36 Y-3.834 E52.46939
G0 F4800 X-6.235 Y-3.432
G1 F600 X-7.277 Y-2.691 E52.51192
G1 X-7.588 Y-1.755 E52.54473
G1 X-7.588 Y13.04 E53.03681
G1 X-12.385 Y13.04 E53.19636
G1 X-12.385 Y-13.04 E54.06378
G1 X-6.727 Y-13.04 E54.25197
G1 X4.145 Y2.933 E54.89462
G1 X4.931 Y3.537 E54.92759
G1 X6.214 Y3.557 E54.97027
G1 X7.256 Y2.816 E55.01279
G1 X7.567 Y1.88 E55.0456
G1 X7.567 Y-13.04 E55.54184
G1 X12.385 Y-13.04 E55.70209
G1 X12.385 Y13.04 E56.56951
G1 X6.642 Y13.04 E56.76052
G1 X-4.167 Y-2.808 E57.39856
G1 X-4.95 Y-3.412 E57.43145
G1 X-6.235 Y-3.432 E57.47419
G0 F4800 X-6.11 Y-3.03
G1 F600 X-6.939 Y-2.441 E57.50802
G1 X-7.188 Y-1.69 E57.53433
G1 X-7.188 Y13.44 E58.03756
G1 X-12.785 Y13.44 E58.22371
G1 X-12.785 Y-13.44 E59.11775
G1 X-6.515 Y-13.44 E59.32629
G1 X4.44 Y2.655 E59.97385
G1 X5.07 Y3.139 E60.00027
G1 X6.089 Y3.155 E60.03417
G1 X6.918 Y2.566 E60.06799
G1 X7.167 Y1.815 E60.0943
G1 X7.167 Y-13.44 E60.60169
G1 X12.785 Y-13.44 E60.78854
G1 X12.785 Y13.44 E61.68258
G1 X6.431 Y13.44 E61.89391
G1 X-4.462 Y-2.53 E62.53687
G1 X-5.089 Y-3.014 E62.56322
G1 X-6.11 Y-3.03 E62.59718
G0 F4800 X-5.985 Y-2.628
G1 F600 X-6.601 Y-2.191 E62.6223
G1 X-6.788 Y-1.626 E62.64209
G1 X-6.788 Y13.84 E63.1565
G1 X-13.185 Y13.84 E63.36926
G1 X-13.185 Y-13.84 E64.2899
G1 X-6.303 Y-13.84 E64.5188
G1 X4.735 Y2.377 E65.17126
G1 X5.209 Y2.741 E65.19114
G1 X5.964 Y2.753 E65.21625
G1 X6.58 Y2.316 E65.24137
G1 X6.767 Y1.751 E65.26117
G1 X6.767 Y-13.84 E65.77973
G1 X13.185 Y-13.84 E65.99319
G1 X13.185 Y13.84 E66.91383
G1 X6.22 Y13.84 E67.14549
G1 X-4.757 Y-2.252 E67.79338
G1 X-5.228 Y-2.616 E67.81318
G1 X-5.985 Y-2.628 E67.83836
G0 F4800 X3.61 Y5.046
G1 F600 X4.236 Y5.527 E67.86461
G1 X6.839 Y5.567 E67.9512
G1 X8.946 Y4.066 E68.03724
G1 X9.567 Y2.205 E68.1025
G1 X9.567 Y-11.04 E68.54303
G1 X10.385 Y-11.04 E68.57023
G1 X10.385 Y11.04 E69.30462
G1 X7.697 Y11.04 E69.39402
G1 X3.61 Y5.046 E69.63531
G0 F4800 X5.463 Y6.346
G1 F600 X7.089 Y6.371 E69.6894
G1 X9.585 Y4.592 E69.79135
G1 X9.585 Y10.24 E69.9792
G1 X8.119 Y10.24 E70.02796
G1 X5.463 Y6.346 E70.18473
G0 F4800 X6.227 Y6.758
G1 F600 X7.214 Y6.773 E70.21756
G1 X9.185 Y5.368 E70.29807
G1 X9.185 Y9.84 E70.44681
G1 X8.33 Y9.84 E70.47525
G1 X6.227 Y6.758 E70.59935
G0 F4800 X6.991 Y7.17
G1 F600 X7.339 Y7.175 E70.61092
G1 X8.785 Y6.144 E70.66999
G1 X8.785 Y9.44 E70.77961
G1 X8.541 Y9.44 E70.78773
G1 X6.991 Y7.17 E70.87915
G0 F4800 X7.659 Y7.438
G1 F600 X8.385 Y6.92 E70.90882
G1 X8.385 Y8.502 E70.96143
G1 X7.659 Y7.438 E71.00427
G0 F4800 X9.967 Y-10.64
G1 F600 X9.985 Y-10.64 E71.00487
G1 X9.985 Y10.64 E71.71265
G1 X7.908 Y10.64 E71.78173
G1 X4.699 Y5.934 E71.97118
G1 X6.964 Y5.969 E72.04652
G1 X9.284 Y4.316 E72.14127
G1 X9.967 Y2.27 E72.21301
G1 X9.967 Y-10.64 E72.6424
G0 F4800 X9.735 Y3.512
;TYPE:SKIN
G1 F600 X9.809 Y3.587 E72.64415
G0 F4800 X9.664 Y3.725
G1 F600 X9.809 Y3.869 E72.64755
G0 F4800 X9.594 Y3.937
G1 F600 X9.809 Y4.152 E72.65261
G0 F4800 X9.809 Y4.435
G1 F600 X9.523 Y4.149 E72.65933
G0 F4800 X9.452 Y4.361
G1 F600 X9.526 Y4.435 E72.66107
G0 F4800 X9.272 Y5.029
G1 F600 X9.409 Y5.166 E72.66429
G0 F4800 X8.898 Y5.786
G1 F600 X9.009 Y5.897 E72.66691
G0 F4800 X8.8 Y5.972
G1 F600 X8.732 Y5.904 E72.6685
G0 F4800 X8.524 Y6.544
G1 F600 X8.609 Y6.629 E72.6705
G0 F4800 X8.493 Y6.796
G1 F600 X8.358 Y6.661 E72.67368
G0 F4800 X8.15 Y7.302
G1 F600 X8.209 Y7.36 E72.67505
G0 F4800 X7.986 Y7.42
G1 F600 X8.209 Y7.643 E72.6803
G0 F4800 X8.386 Y8.669
G1 F600 X8.609 Y8.892 E72.68554
G0 F4800 X8.492 Y9.058
G1 F600 X8.575 Y9.14 E72.68748
G0 F4800 X6.836 Y7.119
G1 F600 X6.656 Y6.939 E72.69172
G0 F4800 X6.095 Y6.661
G1 F600 X5.963 Y6.528 E72.69483
G0 F4800 X5.357 Y6.205
G1 F600 X5.268 Y6.117 E72.69692
G0 F4800 X5.144 Y6.275
G1 F600 X5.258 Y6.389 E72.6996
G0 F4800 X4.518 Y5.932
G1 F600 X4.309 Y5.724 E72.7045
G0 F4800 X4.575 Y5.707
G1 F600 X4.618 Y5.749 E72.7055
G0 F4800 X3.507 Y4.921
G1 F600 X2.709 Y4.123 E72.72427
G0 F4800 X2.414 Y3.546
G1 F600 X2.102 Y3.234 E72.7316
G0 F4800 X1.811 Y2.66
G1 F600 X1.496 Y2.344 E72.73902
G0 F4800 X1.208 Y1.774
G1 F600 X0.889 Y1.455 E72.74653
G0 F4800 X0.605 Y0.888
G1 F600 X0.282 Y0.565 E72.75412
