;FLAVOR:Marlin
;TIME:2851
;Filament used: 2.4813m
;Layer height: 0.2
;MINX:-51.249
;MINY:-51.276
;MINZ:0.2
;MAXX:20.726
;MAXY:51.089
;MAXZ:3.8
;POSTPROCESSED
;Generated with Cura_SteamEngine 4.13.1
M82 ;absolute extrusion mode
START_PRINT BED_TEMP=80 EXTRUDER_TEMP=220.0
G92 E0
G92 E0
G1 F1800 E-2
;LAYER_COUNT:19
;LAYER:0
M107
G0 F4800 X18.898 Y0.768 Z0.2
;TYPE:SKIRT
G1 F1800 E0
G1 F600 X18.856 Y1.721 E0.03173
G1 X18.813 Y2.461 E0.05638
G1 X18.761 Y2.967 E0.0733
G1 X18.747 Y3.075 E0.07692
G1 X18.564 Y4.331 E0.11914
G1 X18.444 Y5.075 E0.1442
G1 X18.407 Y5.271 E0.15084
G1 X18.207 Y6.186 E0.18199
G1 X17.659 Y8.866 E0.27297
G1 X17.189 Y11.547 E0.3635
G1 X16.794 Y14.253 E0.45446
G1 X16.48 Y16.928 E0.54404
G1 X16.233 Y19.691 E0.6363
G1 X16.072 Y22.375 E0.72573
G1 X15.984 Y25.108 E0.81668
G1 X15.973 Y27.836 E0.90741
G1 X16.061 Y30.632 E1.00046
G1 X16.052 Y30.834 E1.00718
G1 X16.093 Y31.921 E1.04336
G1 X16.091 Y32.249 E1.05427
G1 X16.024 Y33.474 E1.09507
G1 X15.897 Y35.187 E1.15221
G1 X15.834 Y35.908 E1.17628
G1 X15.753 Y36.415 E1.19335
G1 X15.557 Y37.252 E1.22195
G1 X15.147 Y38.887 E1.27801
G1 X14.975 Y39.534 E1.30028
G1 X14.764 Y40.119 E1.32096
G1 X14.363 Y40.986 E1.35273
G1 X13.783 Y42.191 E1.39721
G1 X13.452 Y42.855 E1.42189
G1 X13.132 Y43.38 E1.44234
G1 X13.028 Y43.519 E1.44811
G1 X12.648 Y44.008 E1.46871
G1 X11.677 Y45.228 E1.52057
G1 X11.261 Y45.737 E1.54243
G1 X10.759 Y46.241 E1.56609
G1 X10.157 Y46.735 E1.592
G1 X8.985 Y47.668 E1.64182
G1 X8.454 Y48.077 E1.66411
G1 X7.981 Y48.385 E1.68289
G1 X7.335 Y48.714 E1.707
G1 X5.821 Y49.445 E1.76292
G1 X5.19 Y49.739 E1.78607
G1 X4.604 Y49.953 E1.80682
G1 X3.732 Y50.186 E1.83684
G1 X2.144 Y50.585 E1.8913
G1 X1.484 Y50.742 E1.91386
G1 X0.97 Y50.826 E1.93118
G1 X0.118 Y50.901 E1.95963
G1 X-1.877 Y51.048 E2.02617
G1 X-2.537 Y51.088 E2.04816
G1 X-2.955 Y51.089 E2.06206
G1 X-3.857 Y51.039 E2.09211
G1 X-5.878 Y50.894 E2.1595
G1 X-6.581 Y50.834 E2.18297
G1 X-7.159 Y50.741 E2.20244
G1 X-7.72 Y50.612 E2.22158
G1 X-9.59 Y50.157 E2.28559
G1 X-10.232 Y49.99 E2.30766
G1 X-10.805 Y49.788 E2.32787
G1 X-11.567 Y49.444 E2.35567
G1 X-12.915 Y48.81 E2.40522
G1 X-13.545 Y48.503 E2.42853
G1 X-14.153 Y48.128 E2.45229
G1 X-14.767 Y47.659 E2.47799
G1 X-15.905 Y46.765 E2.52612
G1 X-16.433 Y46.337 E2.54872
G1 X-16.94 Y45.834 E2.57248
G1 X-17.476 Y45.185 E2.60047
G1 X-18.316 Y44.138 E2.64512
G1 X-18.757 Y43.573 E2.66896
G1 X-19.045 Y43.144 E2.68614
G1 X-19.658 Y42.07 E2.72727
G1 X-19.842 Y41.736 E2.73996
G1 X-21.237 Y39.376 E2.83114
G1 X-22.679 Y37.087 E2.92112
G1 X-24.188 Y34.834 E3.01131
G1 X-25.779 Y32.599 E3.10256
G1 X-27.421 Y30.425 E3.19317
G1 X-29.144 Y28.272 E3.28489
G1 X-30.887 Y26.217 E3.37451
G1 X-32.708 Y24.191 E3.46512
G1 X-34.585 Y22.216 E3.55574
G1 X-36.562 Y20.25 E3.64847
G1 X-38.502 Y18.429 E3.73697
G1 X-40.543 Y16.618 E3.82772
G1 X-42.665 Y14.838 E3.91984
G1 X-43.655 Y14.053 E3.96187
G1 X-43.72 Y13.994 E3.96479
G1 X-45.389 Y12.665 E4.03575
G1 X-45.9 Y12.247 E4.05771
G1 X-46.401 Y11.748 E4.08122
G1 X-46.882 Y11.162 E4.10644
G1 X-47.809 Y9.998 E4.15593
G1 X-48.232 Y9.451 E4.17893
G1 X-48.555 Y8.953 E4.19867
G1 X-48.642 Y8.787 E4.20491
G1 X-48.925 Y8.219 E4.22601
G1 X-49.6 Y6.821 E4.27765
G1 X-49.898 Y6.181 E4.30113
G1 X-50.11 Y5.596 E4.32182
G1 X-50.355 Y4.687 E4.35313
G1 X-50.759 Y3.076 E4.40838
G1 X-50.903 Y2.466 E4.42922
G1 X-50.985 Y1.958 E4.44634
G1 X-51.062 Y1.086 E4.47545
G1 X-51.209 Y-.892 E4.54142
G1 X-51.248 Y-1.549 E4.56331
G1 X-51.249 Y-1.96 E4.57698
G1 X-51.198 Y-2.873 E4.6074
G1 X-51.054 Y-4.888 E4.67459
G1 X-50.994 Y-5.593 E4.69812
G1 X-50.9 Y-6.176 E4.71776
G1 X-50.772 Y-6.729 E4.73664
G1 X-50.318 Y-8.599 E4.80064
G1 X-50.153 Y-9.236 E4.82253
G1 X-49.949 Y-9.814 E4.84292
G1 X-49.597 Y-10.593 E4.87135
G1 X-48.961 Y-11.943 E4.92098
G1 X-48.658 Y-12.563 E4.94393
G1 X-48.287 Y-13.164 E4.96743
G1 X-47.814 Y-13.785 E4.99339
G1 X-46.931 Y-14.909 E5.04093
G1 X-46.506 Y-15.435 E5.06342
G1 X-46.003 Y-15.944 E5.08722
G1 X-45.338 Y-16.494 E5.11593
G1 X-44.295 Y-17.33 E5.16038
G1 X-43.739 Y-17.764 E5.18384
G1 X-43.306 Y-18.054 E5.20118
G1 X-43.041 Y-18.205 E5.21132
G1 X-40.722 Y-19.577 E5.30094
G1 X-38.387 Y-21.05 E5.39276
G1 X-36.127 Y-22.566 E5.48328
G1 X-33.922 Y-24.138 E5.57335
G1 X-31.742 Y-25.786 E5.66424
G1 X-29.591 Y-27.51 E5.75592
G1 X-27.537 Y-29.254 E5.84555
G1 X-25.511 Y-31.075 E5.93615
G1 X-23.519 Y-32.971 E6.02762
G1 X-21.606 Y-34.897 E6.1179
G1 X-19.738 Y-36.888 E6.20871
G1 X-17.921 Y-38.939 E6.29984
G1 X-16.172 Y-41.027 E6.39044
G1 X-14.74 Y-42.83 E6.46702
G1 X-13.687 Y-44.189 E6.5242
G1 X-12.732 Y-45.389 E6.57521
G1 X-12.287 Y-45.932 E6.59856
G1 X-11.79 Y-46.43 E6.62196
G1 X-11.206 Y-46.91 E6.6471
G1 X-10.027 Y-47.849 E6.69723
G1 X-9.494 Y-48.26 E6.71962
G1 X-9.026 Y-48.566 E6.73822
G1 X-8.833 Y-48.669 E6.74549
G1 X-8.311 Y-48.93 E6.7649
G1 X-6.865 Y-49.627 E6.81829
G1 X-6.225 Y-49.925 E6.84177
G1 X-5.642 Y-50.137 E6.86241
G1 X-4.728 Y-50.383 E6.89389
G1 X-3.181 Y-50.77 E6.94693
G1 X-2.516 Y-50.928 E6.96966
G1 X-2.005 Y-51.012 E6.98688
G1 X-1.157 Y-51.087 E7.0152
G1 X0.847 Y-51.236 E7.08204
G1 X1.506 Y-51.275 E7.10399
G1 X1.917 Y-51.276 E7.11766
G1 X2.828 Y-51.225 E7.14801
G1 X4.845 Y-51.081 E7.21527
G1 X5.547 Y-51.021 E7.2387
G1 X6.125 Y-50.928 E7.25817
G1 X6.688 Y-50.799 E7.27738
G1 X8.552 Y-50.344 E7.3412
G1 X9.19 Y-50.179 E7.36312
G1 X9.77 Y-49.975 E7.38357
G1 X10.56 Y-49.618 E7.4124
G1 X11.877 Y-48.998 E7.46082
G1 X12.505 Y-48.693 E7.48404
G1 X13.111 Y-48.32 E7.5077
G1 X13.72 Y-47.857 E7.53315
G1 X14.861 Y-46.96 E7.58142
G1 X15.388 Y-46.535 E7.60394
G1 X15.902 Y-46.027 E7.62798
G1 X16.469 Y-45.342 E7.65755
G1 X17.275 Y-44.334 E7.70048
G1 X17.73 Y-43.748 E7.72515
G1 X18.106 Y-43.152 E7.74859
G1 X18.427 Y-42.51 E7.77247
G1 X19.076 Y-41.169 E7.82202
G1 X19.379 Y-40.52 E7.84584
G1 X19.593 Y-39.935 E7.86656
G1 X19.841 Y-39.012 E7.89834
G1 X20.224 Y-37.49 E7.95055
G1 X20.379 Y-36.841 E7.97274
G1 X20.463 Y-36.322 E7.99022
G1 X20.534 Y-35.514 E8.0172
G1 X20.683 Y-33.515 E8.08387
G1 X20.721 Y-32.873 E8.10526
G1 X20.726 Y-32.561 E8.11564
G1 X20.698 Y-31.591 E8.14792
G1 X20.656 Y-30.641 E8.17955
G1 X20.613 Y-29.901 E8.2042
G1 X20.561 Y-29.395 E8.22112
G1 X20.547 Y-29.287 E8.22474
G1 X20.365 Y-28.034 E8.26685
G1 X20.233 Y-27.217 E8.29438
G1 X19.76 Y-24.511 E8.38575
G1 X19.372 Y-21.849 E8.47522
G1 X19.049 Y-19.094 E8.56748
G1 X18.812 Y-16.41 E8.6571
G1 X18.647 Y-13.652 E8.74899
G1 X18.561 Y-10.954 E8.83877
G1 X18.552 Y-8.225 E8.92954
G1 X18.62 Y-5.491 E9.0205
G1 X18.811 Y-2.122 E9.13274
G1 X18.881 Y-1.182 E9.16409
G1 X18.921 Y-.515 E9.18631
G1 X18.926 Y-.2 E9.19679
G1 X18.898 Y0.768 E9.229
G0 F4800 X18.499 Y0.751
G1 F600 X18.457 Y1.698 E9.26053
G1 X18.414 Y2.438 E9.28518
G1 X18.351 Y3.017 E9.30455
G1 X18.169 Y4.268 E9.3466
G1 X18.049 Y5.012 E9.37166
G1 X18.016 Y5.185 E9.37752
G1 X17.816 Y6.1 E9.40867
G1 X17.271 Y8.764 E9.49911
G1 X16.793 Y11.492 E9.59123
G1 X16.399 Y14.185 E9.68175
G1 X16.078 Y16.917 E9.77324
G1 X15.837 Y19.632 E9.8639
G1 X15.671 Y22.374 E9.95527
G1 X15.584 Y25.094 E10.04578
G1 X15.573 Y27.847 E10.13735
G1 X15.661 Y30.645 E10.23045
G1 X15.652 Y30.825 E10.23645
G1 X15.694 Y31.936 E10.27343
G1 X15.691 Y32.228 E10.28314
G1 X15.625 Y33.445 E10.32368
G1 X15.499 Y35.153 E10.38064
G1 X15.436 Y35.874 E10.40471
G1 X15.364 Y36.324 E10.41987
G1 X15.169 Y37.154 E10.44823
G1 X14.761 Y38.784 E10.50411
G1 X14.589 Y39.431 E10.52638
G1 X14.401 Y39.951 E10.54477
G1 X14.003 Y40.812 E10.57632
G1 X13.425 Y42.013 E10.62065
G1 X13.094 Y42.677 E10.64533
G1 X12.809 Y43.143 E10.66349
G1 X12.712 Y43.274 E10.66892
G1 X12.335 Y43.759 E10.68935
G1 X11.368 Y44.975 E10.74102
G1 X10.952 Y45.484 E10.76289
G1 X10.505 Y45.932 E10.78393
G1 X9.908 Y46.422 E10.80962
G1 X8.741 Y47.351 E10.85923
G1 X8.21 Y47.76 E10.88153
G1 X7.789 Y48.034 E10.89823
G1 X7.157 Y48.356 E10.92183
G1 X5.652 Y49.083 E10.97742
G1 X5.021 Y49.377 E11.00057
G1 X4.5 Y49.566 E11.019
G1 X3.635 Y49.799 E11.0488
G1 X2.052 Y50.196 E11.10308
G1 X1.392 Y50.353 E11.12564
G1 X0.935 Y50.427 E11.14104
G1 X0.089 Y50.502 E11.16929
G1 X-1.901 Y50.649 E11.23566
G1 X-2.561 Y50.689 E11.25765
G1 X-2.933 Y50.69 E11.27002
G1 X-3.828 Y50.64 E11.29984
G1 X-5.844 Y50.495 E11.36706
G1 X-6.547 Y50.435 E11.39053
G1 X-7.07 Y50.351 E11.40815
G1 X-7.626 Y50.223 E11.42712
G1 X-9.49 Y49.77 E11.49093
G1 X-10.132 Y49.603 E11.51299
G1 X-10.641 Y49.423 E11.53095
G1 X-11.397 Y49.082 E11.55853
G1 X-12.74 Y48.451 E11.60788
G1 X-13.37 Y48.144 E11.63119
G1 X-13.91 Y47.81 E11.65231
G1 X-14.52 Y47.345 E11.67782
G1 X-15.653 Y46.454 E11.72576
G1 X-16.181 Y46.026 E11.74837
G1 X-16.632 Y45.579 E11.76949
G1 X-17.164 Y44.935 E11.79727
G1 X-18.001 Y43.892 E11.84175
G1 X-18.442 Y43.327 E11.86559
G1 X-18.697 Y42.946 E11.88084
G1 X-19.308 Y41.877 E11.92179
G1 X-19.5 Y41.53 E11.93498
G1 X-20.888 Y39.18 E12.02576
G1 X-22.341 Y36.874 E12.11641
G1 X-23.874 Y34.585 E12.20804
G1 X-25.466 Y32.348 E12.29936
G1 X-27.104 Y30.18 E12.38974
G1 X-28.825 Y28.03 E12.48133
G1 X-30.584 Y25.957 E12.57176
G1 X-32.421 Y23.911 E12.66321
G1 X-34.296 Y21.939 E12.75372
G1 X-36.254 Y19.992 E12.84556
G1 X-38.246 Y18.121 E12.93645
G1 X-40.305 Y16.295 E13.02799
G1 X-42.383 Y14.552 E13.1182
G1 X-43.407 Y13.74 E13.16166
G1 X-43.471 Y13.68 E13.16458
G1 X-45.136 Y12.356 E13.23533
G1 X-45.647 Y11.938 E13.25729
G1 X-46.092 Y11.494 E13.2782
G1 X-46.569 Y10.913 E13.3032
G1 X-47.492 Y9.754 E13.35248
G1 X-47.915 Y9.207 E13.37548
G1 X-48.203 Y8.764 E13.39305
G1 X-48.284 Y8.609 E13.39887
G1 X-48.565 Y8.045 E13.41983
G1 X-49.237 Y6.652 E13.47127
G1 X-49.535 Y6.012 E13.49475
G1 X-49.724 Y5.493 E13.51312
G1 X-49.967 Y4.589 E13.54426
G1 X-50.369 Y2.984 E13.59929
G1 X-50.513 Y2.374 E13.62013
G1 X-50.586 Y1.923 E13.63533
G1 X-50.663 Y1.056 E13.66428
G1 X-50.809 Y-.915 E13.73001
G1 X-50.848 Y-1.572 E13.7519
G1 X-50.849 Y-1.938 E13.76408
G1 X-50.799 Y-2.844 E13.79426
G1 X-50.655 Y-4.854 E13.86128
G1 X-50.595 Y-5.559 E13.88481
G1 X-50.51 Y-6.086 E13.90257
G1 X-50.383 Y-6.635 E13.92131
G1 X-49.931 Y-8.498 E13.98507
G1 X-49.766 Y-9.135 E14.00696
G1 X-49.585 Y-9.649 E14.02508
G1 X-49.235 Y-10.423 E14.05334
G1 X-48.602 Y-11.767 E14.10275
G1 X-48.299 Y-12.387 E14.1257
G1 X-47.969 Y-12.922 E14.14661
G1 X-47.499 Y-13.538 E14.17238
G1 X-46.62 Y-14.657 E14.21971
G1 X-46.195 Y-15.183 E14.2422
G1 X-45.748 Y-15.636 E14.26336
G1 X-45.088 Y-16.182 E14.29185
G1 X-44.049 Y-17.015 E14.33615
G1 X-43.493 Y-17.449 E14.35961
G1 X-42.872 Y-17.841 E14.38403
G1 X-40.485 Y-19.253 E14.47627
G1 X-38.198 Y-20.696 E14.56621
G1 X-35.894 Y-22.24 E14.65846
G1 X-33.695 Y-23.809 E14.74831
G1 X-31.475 Y-25.487 E14.84087
G1 X-29.348 Y-27.191 E14.93151
G1 X-27.274 Y-28.952 E15.02201
G1 X-25.234 Y-30.787 E15.11327
G1 X-23.26 Y-32.665 E15.20389
G1 X-21.296 Y-34.643 E15.2966
G1 X-19.445 Y-36.615 E15.38656
G1 X-17.634 Y-38.659 E15.47739
G1 X-15.868 Y-40.766 E15.56882
G1 X-14.427 Y-42.582 E15.64593
G1 X-13.374 Y-43.94 E15.70309
G1 X-12.423 Y-45.135 E15.75388
G1 X-11.978 Y-45.678 E15.77723
G1 X-11.536 Y-46.121 E15.79804
G1 X-10.956 Y-46.597 E15.823
G1 X-9.783 Y-47.532 E15.87289
G1 X-9.25 Y-47.943 E15.89528
G1 X-8.761 Y-48.255 E15.91457
G1 X-8.654 Y-48.311 E15.91859
G1 X-8.137 Y-48.569 E15.93781
G1 X-6.696 Y-49.264 E15.99102
G1 X-6.056 Y-49.562 E16.0145
G1 X-5.538 Y-49.751 E16.03284
G1 X-4.631 Y-49.995 E16.06408
G1 X-3.089 Y-50.381 E16.11695
G1 X-2.424 Y-50.539 E16.13968
G1 X-1.969 Y-50.613 E16.15501
G1 X-1.127 Y-50.688 E16.18313
G1 X0.871 Y-50.836 E16.24976
G1 X1.53 Y-50.875 E16.27172
G1 X1.895 Y-50.876 E16.28386
G1 X2.799 Y-50.826 E16.31397
G1 X4.811 Y-50.682 E16.38106
G1 X5.513 Y-50.622 E16.4045
G1 X6.036 Y-50.538 E16.42212
G1 X6.593 Y-50.41 E16.44113
G1 X8.452 Y-49.957 E16.50477
G1 X9.09 Y-49.792 E16.52668
G1 X9.605 Y-49.611 E16.54484
G1 X10.39 Y-49.256 E16.57349
G1 X11.702 Y-48.638 E16.62173
G1 X12.33 Y-48.333 E16.64495
G1 X12.869 Y-48.002 E16.66599
G1 X13.473 Y-47.542 E16.69124
G1 X14.61 Y-46.649 E16.73933
G1 X15.137 Y-46.224 E16.76184
G1 X15.594 Y-45.773 E16.7832
G1 X16.157 Y-45.092 E16.81259
G1 X16.96 Y-44.089 E16.85532
G1 X17.415 Y-43.503 E16.88
G1 X17.748 Y-42.973 E16.90082
G1 X18.067 Y-42.335 E16.92454
G1 X18.714 Y-41 E16.97388
G1 X19.017 Y-40.351 E16.99771
G1 X19.206 Y-39.831 E17.01611
G1 X19.453 Y-38.914 E17.04769
G1 X19.834 Y-37.397 E17.09972
G1 X19.989 Y-36.748 E17.12191
G1 X20.065 Y-36.286 E17.13748
G1 X20.135 Y-35.484 E17.16426
G1 X20.283 Y-33.491 E17.23073
G1 X20.321 Y-32.849 E17.25212
G1 X20.326 Y-32.572 E17.26133
G1 X20.299 Y-31.609 E17.29338
G1 X20.257 Y-30.664 E17.32484
G1 X20.214 Y-29.924 E17.34949
G1 X20.151 Y-29.345 E17.36886
G1 X19.97 Y-28.097 E17.41081
G1 X19.839 Y-27.286 E17.43813
G1 X19.37 Y-24.606 E17.52862
G1 X18.965 Y-21.826 E17.62206
G1 X18.655 Y-19.178 E17.71073
G1 X18.41 Y-16.398 E17.80356
G1 X18.247 Y-13.689 E17.89382
G1 X18.161 Y-10.969 E17.98433
G1 X18.152 Y-8.216 E18.0759
G1 X18.22 Y-5.491 E18.16656
G1 X18.416 Y-2.043 E18.28143
G1 X18.481 Y-1.158 E18.31094
G1 X18.521 Y-.491 E18.33317
G1 X18.526 Y-.211 E18.34248
G1 X18.499 Y0.751 E18.37449
G1 F1800 E16.37449
;MESH:O.stl(3)
G0 F4800 X14.684 Y0.582
G0 X14.64 Y-.247
G1 F1800 E18.37449
G0 F4800 X14.739 Y-.248
;TYPE:WALL-INNER
G1 F600 X14.631 Y2.195 E18.45582
G1 X14.311 Y4.384 E18.5294
G1 X13.789 Y6.309 E18.59574
G1 X13.053 Y8.022 E18.65775
G1 X12.143 Y9.495 E18.71534
G1 X11.029 Y10.816 E18.77281
G1 X9.739 Y11.956 E18.83007
G1 X8.276 Y12.912 E18.8882
G1 X6.595 Y13.688 E18.94978
G1 X4.706 Y14.246 E19.01529
G1 X2.642 Y14.577 E19.08482
G1 X0.315 Y14.692 E19.16231
G1 X-4.177 Y14.3 E19.31228
G1 X-6.063 Y13.82 E19.37701
G1 X-7.734 Y13.154 E19.43684
G1 X-9.22 Y12.285 E19.49409
G1 X-10.544 Y11.208 E19.55086
G1 X-11.735 Y9.897 E19.60977
G1 X-12.779 Y8.365 E19.67143
G1 X-13.638 Y6.6 E19.73672
G1 X-14.248 Y4.631 E19.80528
G1 X-14.617 Y2.441 E19.87915
G1 X-14.743 Y0.005 E19.96028
G1 X-14.495 Y-3.335 E20.07167
G1 X-13.764 Y-6.261 E20.17198
G1 X-12.563 Y-8.758 E20.26414
G1 X-10.882 Y-10.869 E20.35389
G1 X-8.775 Y-12.548 E20.4435
G1 X-6.282 Y-13.751 E20.53557
G1 X-3.372 Y-14.481 E20.63535
G1 X-0.049 Y-14.729 E20.74618
G1 X3.35 Y-14.487 E20.85952
G1 X6.308 Y-13.767 E20.96078
G1 X8.827 Y-12.582 E21.05337
G1 X10.921 Y-10.939 E21.14189
G1 X12.581 Y-8.868 E21.23017
G1 X13.77 Y-6.41 E21.32099
G1 X14.495 Y-3.53 E21.41976
G1 X14.739 Y-.248 E21.52923
G0 F4800 X14.64 Y-.247
G0 X7.17 Y-.385
G0 X7.07 Y-.385
G1 F600 X6.961 Y-2.401 E21.59638
G1 X6.954 Y-2.467 E21.59858
G1 X6.624 Y-4.21 E21.65759
G1 X6.599 Y-4.295 E21.66053
G1 X6.044 Y-5.756 E21.71251
G1 X5.991 Y-5.856 E21.71628
G1 X5.207 Y-7.032 E21.76329
G1 X5.128 Y-7.122 E21.76727
G1 X4.146 Y-8.025 E21.81164
G1 X4.052 Y-8.092 E21.81548
G1 X2.915 Y-8.734 E21.85891
G1 X2.811 Y-8.78 E21.86269
G1 X1.508 Y-9.166 E21.90789
G1 X1.409 Y-9.183 E21.91123
G1 X-0.029 Y-9.31 E21.95925
G1 X-.121 Y-9.31 E21.96231
G1 X-1.512 Y-9.18 E22.00877
G1 X-1.613 Y-9.16 E22.0122
G1 X-2.872 Y-8.768 E22.05605
G1 X-2.977 Y-8.721 E22.05988
G1 X-4.092 Y-8.067 E22.10287
G1 X-4.182 Y-7.999 E22.10663
G1 X-5.151 Y-7.083 E22.15098
G1 X-5.228 Y-6.99 E22.15499
G1 X-6.011 Y-5.774 E22.2031
G1 X-6.061 Y-5.672 E22.20687
G1 X-6.61 Y-4.139 E22.26103
G1 X-6.632 Y-4.058 E22.26382
G1 X-6.959 Y-2.207 E22.32634
G1 X-6.966 Y-2.146 E22.32838
G1 X-7.074 Y0.018 E22.40045
G1 X-7.074 Y0.068 E22.40211
G1 X-6.967 Y2.212 E22.47351
G1 X-6.96 Y2.274 E22.47559
G1 X-6.635 Y4.111 E22.53763
G1 X-6.613 Y4.193 E22.54046
G1 X-6.064 Y5.723 E22.59452
G1 X-6.014 Y5.823 E22.59824
G1 X-5.238 Y7.037 E22.64616
G1 X-5.159 Y7.129 E22.6502
G1 X-4.191 Y8.042 E22.69445
G1 X-4.099 Y8.113 E22.69832
G1 X-2.962 Y8.769 E22.74198
G1 X-2.857 Y8.814 E22.74578
G1 X-1.574 Y9.205 E22.79039
G1 X-1.473 Y9.225 E22.79381
G1 X-0.037 Y9.355 E22.84177
G1 X0.051 Y9.355 E22.8447
G1 X1.512 Y9.228 E22.89347
G1 X1.61 Y9.211 E22.89678
G1 X2.915 Y8.828 E22.94202
G1 X3.022 Y8.783 E22.94588
G1 X4.156 Y8.14 E22.98923
G1 X4.252 Y8.07 E22.99319
G1 X5.211 Y7.166 E23.03702
G1 X5.294 Y7.063 E23.04142
G1 X6.047 Y5.838 E23.08925
G1 X6.097 Y5.733 E23.09311
G1 X6.627 Y4.125 E23.14943
G1 X6.647 Y4.046 E23.15214
G1 X6.962 Y2.062 E23.21895
G1 X6.967 Y2.005 E23.22085
G1 X7.07 Y-.385 E23.30042
G0 F4800 X6.67 Y-.383
;TYPE:WALL-OUTER
