;FLAVOR:Marlin
;TIME:2404
;Filament used: 2.08101m
;Layer height: 0.2
;MINX:-43.05
;MINY:-34.489
;MINZ:0.2
;MAXX:36.363
;MAXY:30.713
;MAXZ:3.8
;POSTPROCESSED
;Generated with Cura_SteamEngine 4.13.1
M82 ;absolute extrusion mode
START_PRINT BED_TEMP=80 EXTRUDER_TEMP=220.0
G92 E0
G92 E0
G1 F1800 E-2
;LAYER_COUNT:19
;LAYER:0
M107
G0 F4800 X-9.738 Y23.847 Z0.2
;TYPE:SKIRT
G1 F1800 E0
G1 F600 X-12.306 Y22.985 E0.0901
G1 X-14.923 Y22.189 E0.18107
G1 X-17.521 Y21.477 E0.27067
G1 X-20.213 Y20.822 E0.36282
G1 X-22.863 Y20.255 E0.45295
G1 X-25.559 Y19.76 E0.54412
G1 X-28.203 Y19.35 E0.63311
G1 X-30.954 Y19.002 E0.72534
G1 X-33.671 Y18.736 E0.81614
G1 X-36.342 Y18.552 E0.90519
G1 X-38.162 Y18.488 E0.96576
G1 X-38.233 Y18.48 E0.96814
G1 X-39.595 Y18.422 E1.01348
G1 X-40.127 Y18.359 E1.0313
G1 X-40.645 Y18.218 E1.04915
G1 X-41.135 Y18.001 E1.06697
G1 X-41.588 Y17.714 E1.08481
G1 X-41.994 Y17.363 E1.10266
G1 X-42.342 Y16.956 E1.12047
G1 X-42.627 Y16.501 E1.13833
G1 X-42.841 Y16.009 E1.15617
G1 X-42.979 Y15.491 E1.174
G1 X-43.04 Y14.923 E1.193
G1 X-43.05 Y14.493 E1.20731
G1 X-43.05 Y-14.119 E2.15895
G1 X-43.04 Y-14.807 E2.18183
G1 X-42.992 Y-15.341 E2.19967
G1 X-42.865 Y-15.863 E2.21753
G1 X-42.663 Y-16.359 E2.23535
G1 X-42.389 Y-16.82 E2.25318
G1 X-42.049 Y-17.235 E2.27103
G1 X-41.652 Y-17.595 E2.28885
G1 X-41.205 Y-17.892 E2.3067
G1 X-40.72 Y-18.12 E2.32453
G1 X-39.953 Y-18.318 E2.35087
G1 X-38.967 Y-18.46 E2.38401
G1 X-36.255 Y-18.887 E2.47532
G1 X-33.567 Y-19.389 E2.56627
G1 X-30.875 Y-19.971 E2.65787
G1 X-28.284 Y-20.607 E2.74661
G1 X-25.631 Y-21.34 E2.83815
G1 X-23.012 Y-22.144 E2.92927
G1 X-20.422 Y-23.019 E3.0202
G1 X-17.872 Y-23.963 E3.11064
G1 X-15.352 Y-24.976 E3.20097
G1 X-12.85 Y-26.067 E3.29176
G1 X-10.387 Y-27.223 E3.38225
G1 X-7.916 Y-28.471 E3.47433
G1 X-5.552 Y-29.748 E3.56369
G1 X-3.208 Y-31.103 E3.65374
G1 X-.872 Y-32.542 E3.745
G1 X0.944 Y-33.733 E3.81723
G1 X1.249 Y-33.925 E3.82921
G1 X1.723 Y-34.176 E3.84705
G1 X2.302 Y-34.373 E3.86739
G1 X3.073 Y-34.479 E3.89328
G1 X3.493 Y-34.489 E3.90725
G1 X32.108 Y-34.489 E4.85899
G1 X32.806 Y-34.479 E4.88221
G1 X33.34 Y-34.431 E4.90004
G1 X33.861 Y-34.305 E4.91787
G1 X34.358 Y-34.102 E4.93573
G1 X34.819 Y-33.828 E4.95356
G1 X35.234 Y-33.489 E4.97139
G1 X35.594 Y-33.091 E4.98924
G1 X35.891 Y-32.645 E5.00706
G1 X36.119 Y-32.159 E5.02491
G1 X36.271 Y-31.645 E5.04274
G1 X36.353 Y-30.98 E5.06503
G1 X36.363 Y-30.559 E5.07903
G1 X36.363 Y-16.347 E5.55172
G1 X36.355 Y-15.803 E5.56982
G1 X36.301 Y-14.598 E5.60994
G1 X36.251 Y-13.82 E5.63587
G1 X36.198 Y-13.14 E5.65855
G1 X36.14 Y-12.717 E5.67275
G1 X35.924 Y-11.634 E5.70948
G1 X35.83 Y-11.208 E5.72399
G1 X35.667 Y-10.519 E5.74754
G1 X35.351 Y-9.611 E5.77952
G1 X34.369 Y-6.987 E5.87271
G1 X33.503 Y-4.46 E5.96155
G1 X32.685 Y-1.828 E6.05322
G1 X31.944 Y0.816 E6.14455
G1 X31.283 Y3.456 E6.23507
G1 X30.696 Y6.115 E6.32564
G1 X30.189 Y8.785 E6.41603
G1 X29.756 Y11.468 E6.50642
G1 X29.396 Y14.179 E6.59738
G1 X29.113 Y16.899 E6.68834
G1 X28.907 Y19.619 E6.77906
G1 X28.78 Y22.313 E6.86877
G1 X28.727 Y25.567 E6.97701
G1 X28.727 Y26.427 E7.00561
G1 X28.717 Y27.154 E7.02979
G1 X28.669 Y27.688 E7.04763
G1 X28.543 Y28.209 E7.06545
G1 X28.341 Y28.706 E7.0833
G1 X28.067 Y29.167 E7.10113
G1 X27.728 Y29.582 E7.11896
G1 X27.331 Y29.943 E7.1368
G1 X26.885 Y30.24 E7.15463
G1 X26.399 Y30.468 E7.17248
G1 X25.885 Y30.621 E7.19032
G1 X25.218 Y30.703 E7.21267
G1 X24.797 Y30.713 E7.22668
G1 X10.584 Y30.713 E7.6994
G1 X10.042 Y30.705 E7.71743
G1 X8.824 Y30.651 E7.75798
G1 X8.06 Y30.602 E7.78345
G1 X7.393 Y30.551 E7.80569
G1 X6.965 Y30.492 E7.82006
G1 X5.822 Y30.264 E7.85883
G1 X5.443 Y30.181 E7.87173
G1 X4.743 Y30.015 E7.89566
G1 X4.262 Y29.864 E7.91243
G1 X3.631 Y29.603 E7.93514
G1 X3.116 Y29.38 E7.95381
G1 X2.298 Y29.011 E7.98365
G1 X1.677 Y28.71 E8.00661
G1 X0.343 Y28.041 E8.05624
G1 X-2.122 Y26.89 E8.14673
G1 X-4.626 Y25.806 E8.23748
G1 X-7.178 Y24.784 E8.32891
G1 X-9.738 Y23.847 E8.41958
G0 F4800 X-9.577 Y23.479
G1 F600 X-12.209 Y22.596 E8.51192
G1 X-14.796 Y21.809 E8.60186
G1 X-17.435 Y21.086 E8.69286
G1 X-20.099 Y20.437 E8.78406
G1 X-22.818 Y19.856 E8.87654
G1 X-25.456 Y19.372 E8.96574
G1 X-28.163 Y18.951 E9.05686
G1 X-30.901 Y18.605 E9.14865
G1 X-33.638 Y18.338 E9.24011
G1 X-36.331 Y18.151 E9.3299
G1 X-38.148 Y18.088 E9.39037
G1 X-38.218 Y18.08 E9.39271
G1 X-39.578 Y18.022 E9.43799
G1 X-40.079 Y17.961 E9.45477
G1 X-40.565 Y17.821 E9.4716
G1 X-41.023 Y17.607 E9.48841
G1 X-41.441 Y17.323 E9.50522
G1 X-41.81 Y16.976 E9.52206
G1 X-42.119 Y16.577 E9.53885
G1 X-42.362 Y16.133 E9.55568
G1 X-42.531 Y15.657 E9.57248
G1 X-42.64 Y14.912 E9.59753
G1 X-42.65 Y14.493 E9.61147
G1 X-42.65 Y-14.114 E10.56294
G1 X-42.64 Y-14.802 E10.58583
G1 X-42.592 Y-15.305 E10.60263
G1 X-42.466 Y-15.794 E10.61943
G1 X-42.265 Y-16.258 E10.63624
G1 X-41.993 Y-16.684 E10.65306
G1 X-41.657 Y-17.062 E10.66988
G1 X-41.266 Y-17.383 E10.6867
G1 X-40.83 Y-17.638 E10.7035
G1 X-40.358 Y-17.82 E10.72033
G1 X-39.896 Y-17.922 E10.73606
G1 X-38.926 Y-18.062 E10.76866
G1 X-36.184 Y-18.493 E10.86098
G1 X-33.488 Y-18.997 E10.9522
G1 X-30.793 Y-19.58 E11.04391
G1 X-28.154 Y-20.227 E11.13428
G1 X-25.522 Y-20.955 E11.22511
G1 X-22.904 Y-21.758 E11.31619
G1 X-20.291 Y-22.64 E11.40792
G1 X-17.732 Y-23.588 E11.49868
G1 X-15.179 Y-24.614 E11.5902
G1 X-12.7 Y-25.696 E11.68016
G1 X-10.173 Y-26.882 E11.773
G1 X-7.767 Y-28.097 E11.86265
G1 X-5.368 Y-29.393 E11.95334
G1 X-2.978 Y-30.774 E12.04515
G1 X-.648 Y-32.209 E12.13617
G1 X1.157 Y-33.394 E12.20798
G1 X1.462 Y-33.586 E12.21997
G1 X1.91 Y-33.821 E12.23679
G1 X2.399 Y-33.984 E12.25394
G1 X3.084 Y-34.079 E12.27694
G1 X3.493 Y-34.089 E12.29055
G1 X32.102 Y-34.089 E13.24209
G1 X32.8 Y-34.079 E13.2653
G1 X33.303 Y-34.032 E13.28211
G1 X33.793 Y-33.906 E13.29894
G1 X34.257 Y-33.704 E13.31577
G1 X34.683 Y-33.432 E13.33258
G1 X35.061 Y-33.097 E13.34938
G1 X35.381 Y-32.706 E13.36618
G1 X35.636 Y-32.269 E13.38301
G1 X35.819 Y-31.798 E13.39982
G1 X35.926 Y-31.304 E13.41663
G1 X35.962 Y-30.649 E13.43845
G1 X35.963 Y-16.353 E13.91393
G1 X35.952 Y-15.71 E13.93532
G1 X35.902 Y-14.624 E13.97148
G1 X35.852 Y-13.851 E13.99724
G1 X35.799 Y-13.171 E14.01993
G1 X35.747 Y-12.795 E14.03256
G1 X35.533 Y-11.72 E14.06901
G1 X35.441 Y-11.3 E14.08331
G1 X35.278 Y-10.611 E14.10686
G1 X35.147 Y-10.189 E14.12156
G1 X34.962 Y-9.713 E14.13854
G1 X34.003 Y-7.151 E14.22953
G1 X33.116 Y-4.561 E14.32058
G1 X32.293 Y-1.917 E14.41269
G1 X31.563 Y0.691 E14.50276
G1 X30.9 Y3.337 E14.59349
G1 X30.301 Y6.052 E14.68596
G1 X29.793 Y8.724 E14.77643
G1 X29.358 Y11.423 E14.86735
G1 X29 Y14.121 E14.95788
G1 X28.714 Y16.86 E15.04947
G1 X28.507 Y19.606 E15.14106
G1 X28.381 Y22.288 E15.23036
G1 X28.327 Y25.56 E15.33921
G1 X28.327 Y26.421 E15.36784
G1 X28.317 Y27.148 E15.39202
G1 X28.27 Y27.651 E15.40883
G1 X28.144 Y28.141 E15.42566
G1 X27.943 Y28.605 E15.44247
G1 X27.671 Y29.031 E15.45928
G1 X27.336 Y29.41 E15.47611
G1 X26.945 Y29.73 E15.49291
G1 X26.509 Y29.985 E15.50971
G1 X26.038 Y30.169 E15.52653
G1 X25.543 Y30.275 E15.54337
G1 X24.887 Y30.312 E15.56522
G1 X10.59 Y30.313 E16.04074
G1 X9.951 Y30.302 E16.062
G1 X8.85 Y30.251 E16.09866
G1 X8.09 Y30.203 E16.12399
G1 X7.423 Y30.152 E16.14623
G1 X7.043 Y30.1 E16.15899
G1 X5.907 Y29.873 E16.19752
G1 X5.536 Y29.792 E16.21015
G1 X4.836 Y29.626 E16.23408
G1 X4.316 Y29.456 E16.25228
G1 X3.75 Y29.219 E16.27268
G1 X3.241 Y28.997 E16.29115
G1 X2.472 Y28.651 E16.3192
G1 X1.857 Y28.353 E16.34193
G1 X0.498 Y27.671 E16.3925
G1 X-1.943 Y26.531 E16.48211
G1 X-4.467 Y25.439 E16.57358
G1 X-7.057 Y24.401 E16.66638
G1 X-9.577 Y23.479 E16.75563
G1 F1800 E14.75563
;MESH:P.stl
G0 F4800 X-9.577 Y14.18
G0 X-11.859 Y14.13
G1 F1800 E16.75563
G0 F4800 X-11.929 Y14.2
;TYPE:WALL-INNER
G1 F600 X-11.929 Y-14.2 E17.70022
G1 X2.646 Y-14.2 E18.18499
G1 X4.934 Y-14.055 E18.26124
G1 X6.829 Y-13.638 E18.32577
G1 X8.41 Y-12.953 E18.38308
G1 X9.666 Y-12.022 E18.43508
G1 X10.645 Y-10.84 E18.48613
G1 X11.348 Y-9.427 E18.53862
G1 X11.781 Y-7.74 E18.59655
G1 X11.928 Y-5.795 E18.66142
G1 X11.768 Y-3.782 E18.72859
G1 X11.297 Y-2.041 E18.78858
G1 X10.522 Y-.54 E18.84476
G1 X9.448 Y0.722 E18.89988
G1 X8.056 Y1.729 E18.95702
G1 X6.312 Y2.459 E19.0199
G1 X4.175 Y2.913 E19.09257
G1 X1.626 Y3.068 E19.1775
G1 X-3.513 Y3.068 E19.34843
G1 X-3.96 Y3.215 E19.36408
G1 X-4.217 Y3.726 E19.3831
G1 X-4.217 Y14.2 E19.73147
G1 X-11.929 Y14.2 E19.98797
G0 F4800 X-11.859 Y14.13
G0 X-4.145 Y-1.602
G0 X-4.07 Y-1.667
G1 F600 X-3.559 Y-1.41 E20.00699
G1 X-1.121 Y-1.41 E20.08808
G1 X1.267 Y-1.652 E20.16791
G1 X1.43 Y-1.697 E20.17354
G1 X3.022 Y-2.447 E20.23207
G1 X3.209 Y-2.596 E20.24002
G1 X4.111 Y-3.772 E20.28932
G1 X4.203 Y-3.978 E20.29682
G1 X4.5 Y-5.421 E20.34582
G1 X4.501 Y-5.611 E20.35214
G1 X4.246 Y-7.029 E20.40006
G1 X4.174 Y-7.214 E20.40666
G1 X3.393 Y-8.419 E20.45442
G1 X3.209 Y-8.588 E20.46273
G1 X1.738 Y-9.386 E20.51839
G1 X1.555 Y-9.445 E20.52479
G1 X-.706 Y-9.699 E20.60046
G1 X-.761 Y-9.702 E20.6023
G1 X-3.513 Y-9.702 E20.69383
G1 X-3.96 Y-9.555 E20.70948
G1 X-4.217 Y-9.044 E20.7285
G1 X-4.217 Y-2.114 E20.959
G1 X-4.07 Y-1.667 E20.97465
G0 F4800 X-3.742 Y-1.95
;TYPE:WALL-OUTER
G1 F600 X-3.464 Y-1.81 E20.985
G1 X-1.141 Y-1.81 E21.06226
G1 X1.193 Y-2.047 E21.14029
G1 X1.291 Y-2.074 E21.14367
G1 X2.81 Y-2.789 E21.19951
G1 X2.922 Y-2.878 E21.20427
G1 X3.765 Y-3.978 E21.25036
G1 X3.82 Y-4.101 E21.25484
G1 X4.1 Y-5.463 E21.30109
G1 X4.101 Y-5.577 E21.30488
G1 X3.859 Y-6.92 E21.35027
G1 X3.816 Y-7.031 E21.35423
G1 X3.085 Y-8.159 E21.39894
G1 X2.975 Y-8.26 E21.4039
G1 X1.58 Y-9.017 E21.45669
G1 X1.471 Y-9.052 E21.4605
G1 X-.74 Y-9.3 E21.5345
G1 X-.773 Y-9.302 E21.5356
G1 X-3.449 Y-9.302 E21.6246
G1 X-3.677 Y-9.227 E21.63259
G1 X-3.817 Y-8.949 E21.64294
G1 X-3.817 Y-2.178 E21.86814
G1 X-3.742 Y-1.95 E21.87613
G0 F4800 X-3.564 Y-1.86
G0 X-3.789 Y-1.414
G0 X-3.832 Y3.068
G0 X-3.677 Y3.543
G1 F600 X-3.817 Y3.821 E21.88648
G1 X-3.817 Y14.6 E22.24499
G1 X-12.329 Y14.6 E22.5281
G1 X-12.329 Y-14.6 E23.4993
G1 X2.655 Y-14.6 E23.99767
G1 X4.994 Y-14.452 E24.07562
G1 X6.951 Y-14.021 E24.14227
G1 X8.61 Y-13.302 E24.20241
G1 X9.944 Y-12.314 E24.25762
G1 X10.982 Y-11.06 E24.31176
G1 X11.724 Y-9.569 E24.36715
G1 X12.178 Y-7.801 E24.42787
G1 X12.329 Y-5.793 E24.49484
G1 X12.164 Y-3.716 E24.56414
G1 X11.672 Y-1.895 E24.62688
G1 X10.856 Y-.315 E24.68602
G1 X9.723 Y1.016 E24.74416
G1 X8.251 Y2.081 E24.80459
G1 X6.434 Y2.842 E24.87011
G1 X4.229 Y3.31 E24.94508
G1 X1.634 Y3.468 E25.03155
G1 X-3.449 Y3.468 E25.20061
G1 X-3.677 Y3.543 E25.2086
G0 F4800 X-3.767 Y3.721
G0 X-4.213 Y3.496
G0 X-7.329 Y1.099
;TYPE:SKIN
G1 F600 X-7.969 Y2.372 E25.25599
G1 X-7.969 Y-.848 E25.36308
G1 X-7.329 Y1.099 E25.43125
G0 F4800 X-6.989 Y0.851
G1 F600 X-6.803 Y0.944 E25.43817
G1 X-7.777 Y2.881 E25.51028
G1 X-7.777 Y10.64 E25.76834
G1 X-8.369 Y10.64 E25.78803
G1 X-8.369 Y-10.64 E26.49581
G1 X-7.4 Y-10.64 E26.52804
G1 X-7.777 Y-9.889 E26.55599
G1 X-7.777 Y-1.544 E26.83354
G1 X-6.989 Y0.851 E26.9174
G0 F4800 X-6.661 Y0.568
G1 F600 X-6.266 Y0.766 E26.9321
G1 X-7.377 Y2.976 E27.01437
G1 X-7.377 Y11.04 E27.28258
G1 X-8.769 Y11.04 E27.32888
G1 X-8.769 Y-11.04 E28.06326
G1 X-6.751 Y-11.04 E28.13038
G1 X-7.377 Y-9.794 E28.17676
G1 X-7.377 Y-1.608 E28.44902
G1 X-6.661 Y0.568 E28.52522
G0 F4800 X-6.333 Y0.285
G1 F600 X-5.364 Y0.772 E28.56129
G1 X-5.912 Y0.952 E28.58047
G1 X-6.977 Y3.071 E28.65935
G1 X-6.977 Y11.44 E28.9377
G1 X-9.169 Y11.44 E29.01061
G1 X-9.169 Y-11.44 E29.7716
G1 X-6.102 Y-11.44 E29.87361
G1 X-6.977 Y-9.699 E29.93842
G1 X-6.977 Y-1.672 E30.2054
G1 X-6.333 Y0.285 E30.27392
G0 F4800 X-5.677 Y-.281
G1 F600 X-4.024 Y0.55 E30.33546
G1 X-1.023 Y0.55 E30.43527
G1 X1.63 Y0.283 E30.52395
G1 X2.113 Y0.148 E30.54064
G1 X4.065 Y-.771 E30.61239
G1 X4.62 Y-1.214 E30.63601
G1 X5.806 Y-2.762 E30.70087
G1 X6.08 Y-3.371 E30.72309
G1 X6.46 Y-5.219 E30.78584
G1 X6.461 Y-5.782 E30.80456
G1 X6.142 Y-7.562 E30.86471
G1 X5.928 Y-8.111 E30.88431
G1 X4.902 Y-9.693 E30.94702
G1 X4.356 Y-10.195 E30.97169
G1 X2.512 Y-11.195 E31.04146
G1 X1.969 Y-11.371 E31.06044
G1 X-.537 Y-11.653 E31.14432
G1 X-.703 Y-11.662 E31.14985
G1 X-3.827 Y-11.662 E31.25375
G1 X-5.346 Y-11.162 E31.30694
G1 X-6.177 Y-9.509 E31.36848
G1 X-6.177 Y-1.8 E31.62488
G1 X-5.677 Y-.281 E31.67807
G0 F4800 X-5.349 Y-.564
G1 F600 X-3.929 Y0.15 E31.73093
G1 X-1.043 Y0.15 E31.82692
G1 X1.556 Y-.112 E31.9138
G1 X1.973 Y-.228 E31.9282
G1 X3.852 Y-1.113 E31.99728
G1 X4.332 Y-1.496 E32.0177
G1 X5.46 Y-2.968 E32.07939
G1 X5.697 Y-3.495 E32.0986
G1 X6.06 Y-5.26 E32.15854
G1 X6.061 Y-5.747 E32.17473
G1 X5.755 Y-7.453 E32.23238
G1 X5.57 Y-7.928 E32.24934
G1 X4.594 Y-9.433 E32.309
G1 X4.122 Y-9.867 E32.33032
G1 X2.354 Y-10.826 E32.39722
G1 X1.884 Y-10.978 E32.41365
G1 X-.571 Y-11.254 E32.49582
G1 X-.714 Y-11.262 E32.50058
G1 X-3.763 Y-11.262 E32.60199
G1 X-5.063 Y-10.834 E32.64751
G1 X-5.777 Y-9.414 E32.70038
G1 X-5.777 Y-1.864 E32.95149
G1 X-5.349 Y-.564 E32.99701
G0 F4800 X-5.021 Y-.847
G1 F600 X-3.834 Y-.25 E33.0412
G1 X-1.063 Y-.25 E33.13337
G1 X1.482 Y-.507 E33.21845
G1 X1.834 Y-.604 E33.23059
G1 X3.639 Y-1.455 E33.29696
G1 X4.044 Y-1.778 E33.31419
G1 X5.114 Y-3.174 E33.37269
G1 X5.314 Y-3.619 E33.38892
G1 X5.66 Y-5.301 E33.44604
G1 X5.661 Y-5.712 E33.45971
G1 X5.368 Y-7.344 E33.51485
G1 X5.212 Y-7.745 E33.52916
G1 X4.286 Y-9.173 E33.58577
G1 X3.888 Y-9.539 E33.60376
G1 X2.196 Y-10.457 E33.66778
G1 X1.799 Y-10.585 E33.68165
G1 X-.605 Y-10.855 E33.76211
G1 X-.726 Y-10.862 E33.76615
G1 X-3.699 Y-10.862 E33.86503
G1 X-4.78 Y-10.506 E33.90288
G1 X-5.377 Y-9.319 E33.94707
G1 X-5.377 Y-1.928 E34.1929
G1 X-5.021 Y-.847 E34.23075
G0 F4800 X-4.693 Y-1.13
G1 F600 X-3.739 Y-.65 E34.26627
G1 X-1.083 Y-.65 E34.35461
G1 X1.408 Y-.902 E34.43789
G1 X1.695 Y-.981 E34.44779
G1 X3.426 Y-1.797 E34.51144
G1 X3.756 Y-2.06 E34.52547
G1 X4.768 Y-3.38 E34.58079
G1 X4.931 Y-3.743 E34.59403
G1 X5.26 Y-5.342 E34.64833
G1 X5.261 Y-5.677 E34.65947
G1 X4.981 Y-7.235 E34.71212
G1 X4.854 Y-7.562 E34.72378
G1 X3.978 Y-8.913 E34.77734
G1 X3.654 Y-9.211 E34.79198
G1 X2.038 Y-10.088 E34.85313
G1 X1.715 Y-10.192 E34.86442
G1 X-.64 Y-10.456 E34.94324
G1 X-.738 Y-10.462 E34.9465
G1 X-3.635 Y-10.462 E35.04286
G1 X-4.497 Y-10.178 E35.07304
G1 X-4.977 Y-9.224 E35.10856
G1 X-4.977 Y-1.992 E35.3491
G1 X-4.693 Y-1.13 E35.37929
G0 F4800 X-4.365 Y-1.413
G1 F600 X-3.644 Y-1.05 E35.40614
G1 X-1.103 Y-1.05 E35.49065
G1 X1.334 Y-1.297 E35.57212
G1 X1.556 Y-1.358 E35.57978
G1 X3.213 Y-2.139 E35.6407
G1 X3.468 Y-2.342 E35.65154
G1 X4.422 Y-3.586 E35.70369
G1 X4.548 Y-3.867 E35.71393
G1 X4.86 Y-5.383 E35.76541
G1 X4.861 Y-5.642 E35.77402
G1 X4.594 Y-7.126 E35.82417
G1 X4.496 Y-7.379 E35.8332
G1 X3.67 Y-8.653 E35.8837
G1 X3.42 Y-8.883 E35.895
G1 X1.88 Y-9.719 E35.95328
G1 X1.631 Y-9.799 E35.96198
G1 X-.675 Y-10.057 E36.03915
G1 X-.751 Y-10.062 E36.04169
G1 X-3.571 Y-10.062 E36.13548
G1 X-4.214 Y-9.85 E36.158
G1 X-4.577 Y-9.129 E36.18485
G1 X-4.577 Y-2.056 E36.4201
G1 X-4.365 Y-1.413 E36.44261
G0 F4800 X-5.629 Y1.28
G1 F600 X-6.577 Y3.166 E36.51282
G1 X-6.577 Y11.84 E36.80132
G1 X-9.569 Y11.84 E36.90083
G1 X-9.569 Y-11.84 E37.68843
G1 X-4.566 Y-11.84 E37.85483
G1 X-5.629 Y-11.49 E37.89206
G1 X-6.577 Y-9.604 E37.96226
G1 X-6.577 Y-1.736 E38.22395
G1 X-6.005 Y0.002 E38.28481
G1 X-4.32 Y0.849 E38.34754
G1 X-5.629 Y1.28 E38.39337
G0 F4800 X-5.346 Y1.608
G1 F600 X-6.177 Y3.261 E38.45491
G1 X-6.177 Y12.24 E38.75355
G1 X-9.969 Y12.24 E38.87967
G1 X-9.969 Y-12.24 E39.69388
G1 X2.587 Y-12.24 E40.1115
G1 X4.653 Y-12.109 E40.18035
G1 X6.221 Y-11.764 E40.23375
G1 X7.427 Y-11.243 E40.27744
G1 X8.305 Y-10.59 E40.31384
G1 X8.997 Y-9.757 E40.34986
G1 X9.5 Y-8.746 E40.38741
G1 X9.839 Y-7.421 E40.4329
G1 X9.964 Y-5.796 E40.48711
G1 X9.829 Y-4.117 E40.54313
G1 X9.46 Y-2.762 E40.58984
G1 X8.882 Y-1.639 E40.63185
G1 X8.106 Y-.725 E40.67173
G1 X7.087 Y0.012 E40.71356
G1 X5.729 Y0.58 E40.76252
G1 X3.909 Y0.967 E40.8244
G1 X1.575 Y1.108 E40.90217
G1 X-3.827 Y1.108 E41.08185
G1 X-5.346 Y1.608 E41.13503
G0 F4800 X-5.063 Y1.936
G1 F600 X-5.777 Y3.356 E41.1879
G1 X-5.777 Y12.64 E41.49668
G1 X-10.369 Y12.64 E41.64942
G1 X-10.369 Y-12.64 E42.49023
G1 X2.596 Y-12.64 E42.92145
