;FLAVOR:Marlin
;TIME:3163
;Filament used: 2.72468m
;Layer height: 0.2
;MINX:-24.905
;MINY:-50.991
;MINZ:0.2
;MAXX:50.051
;MAXY:52.116
;MAXZ:3.8
;POSTPROCESSED
;Generated with Cura_SteamEngine 4.13.1
M82 ;absolute extrusion mode
START_PRINT BED_TEMP=80 EXTRUDER_TEMP=220.0
G92 E0
G92 E0
G1 F1800 E-2
;LAYER_COUNT:19
;LAYER:0
M107
G0 F4800 X-21.972 Y-1.636 Z0.2
;TYPE:SKIRT
G1 F1800 E0
G1 F600 X-21.937 Y-4.377 E0.09117
G1 X-21.979 Y-7.1 E0.18175
G1 X-22.098 Y-9.828 E0.27257
G1 X-22.294 Y-12.549 E0.36331
G1 X-22.567 Y-15.264 E0.45406
G1 X-22.815 Y-17.244 E0.52043
G1 X-22.858 Y-17.565 E0.5312
G1 X-22.89 Y-18.101 E0.54906
G1 X-22.802 Y-18.832 E0.57355
G1 X-22.761 Y-19.011 E0.57966
G1 X-22.134 Y-21.499 E0.665
G1 X-21.545 Y-24.151 E0.75535
G1 X-21.028 Y-26.839 E0.8464
G1 X-20.589 Y-29.522 E0.93682
G1 X-20.225 Y-32.231 E1.02773
G1 X-19.87 Y-35.704 E1.14385
G1 X-19.766 Y-36.329 E1.16492
G1 X-19.308 Y-38.315 E1.23271
G1 X-19.118 Y-39.081 E1.25896
G1 X-18.868 Y-39.797 E1.28418
G1 X-18.761 Y-40.048 E1.29326
G1 X-18.083 Y-41.579 E1.34895
G1 X-17.826 Y-42.14 E1.36947
G1 X-17.509 Y-42.695 E1.39073
G1 X-16.894 Y-43.58 E1.42657
G1 X-16.291 Y-44.413 E1.46078
G1 X-15.894 Y-44.947 E1.48291
G1 X-15.531 Y-45.364 E1.5013
G1 X-15.348 Y-45.54 E1.50974
G1 X-14.925 Y-45.92 E1.52865
G1 X-13.576 Y-47.105 E1.58837
G1 X-13.086 Y-47.525 E1.60984
G1 X-12.488 Y-47.941 E1.63407
G1 X-11.608 Y-48.428 E1.66752
G1 X-10.249 Y-49.147 E1.71866
G1 X-9.64 Y-49.457 E1.74139
G1 X-9.105 Y-49.678 E1.76064
G1 X-8.514 Y-49.855 E1.78116
G1 X-6.455 Y-50.421 E1.85218
G1 X-5.755 Y-50.602 E1.87623
G1 X-5.252 Y-50.695 E1.89324
G1 X-4.734 Y-50.747 E1.91056
G1 X-2.28 Y-50.945 E1.99244
G1 X-1.634 Y-50.988 E2.01398
G1 X-1.206 Y-50.991 E2.02821
G1 X-0.011 Y-50.927 E2.06801
G1 X1.738 Y-50.799 E2.12634
G1 X2.463 Y-50.737 E2.15054
G1 X2.983 Y-50.654 E2.16806
G1 X3.751 Y-50.472 E2.19431
G1 X5.459 Y-50.048 E2.25284
G1 X6.101 Y-49.879 E2.27492
G1 X6.686 Y-49.67 E2.29558
G1 X7.525 Y-49.285 E2.32629
G1 X8.76 Y-48.695 E2.37181
G1 X9.413 Y-48.374 E2.39601
G1 X9.948 Y-48.05 E2.41681
G1 X10.084 Y-47.95 E2.42243
G1 X10.552 Y-47.589 E2.44209
G1 X11.805 Y-46.598 E2.49522
G1 X12.337 Y-46.164 E2.51806
G1 X12.842 Y-45.66 E2.54179
G1 X13.301 Y-45.101 E2.56584
G1 X14.225 Y-43.945 E2.61507
G1 X14.663 Y-43.381 E2.63882
G1 X14.946 Y-42.958 E2.65574
G1 X15.204 Y-42.507 E2.67302
G1 X16.075 Y-40.931 E2.73292
G1 X17.462 Y-38.581 E2.82368
G1 X18.905 Y-36.287 E2.91381
G1 X20.424 Y-34.015 E3.00471
G1 X22.003 Y-31.796 E3.0953
G1 X23.643 Y-29.62 E3.18592
G1 X25.347 Y-27.489 E3.27667
G1 X27.124 Y-25.391 E3.36812
G1 X28.908 Y-23.403 E3.45696
G1 X30.821 Y-21.387 E3.5494
G1 X32.752 Y-19.465 E3.64001
G1 X34.714 Y-17.618 E3.72964
G1 X36.76 Y-15.801 E3.82065
G1 X38.858 Y-14.04 E3.91175
G1 X40.992 Y-12.349 E4.00231
G1 X41.765 Y-11.77 E4.03443
G1 X42.907 Y-10.891 E4.08237
G1 X44.166 Y-9.895 E4.13576
G1 X44.698 Y-9.461 E4.15859
G1 X45.203 Y-8.957 E4.18232
G1 X45.662 Y-8.398 E4.20638
G1 X46.588 Y-7.24 E4.2557
G1 X47.022 Y-6.682 E4.27921
G1 X47.395 Y-6.091 E4.30245
G1 X47.71 Y-5.466 E4.32573
G1 X48.402 Y-4.032 E4.37869
G1 X48.692 Y-3.412 E4.40146
G1 X48.907 Y-2.822 E4.42234
G1 X49.158 Y-1.888 E4.45451
G1 X49.545 Y-.349 E4.50729
G1 X49.703 Y0.321 E4.53018
G1 X49.784 Y0.821 E4.54703
G1 X49.859 Y1.65 E4.57472
G1 X50.012 Y3.699 E4.64306
G1 X50.05 Y4.331 E4.66412
G1 X50.051 Y4.745 E4.67788
G1 X50.001 Y5.64 E4.7077
G1 X49.857 Y7.647 E4.77462
G1 X49.795 Y8.376 E4.79896
G1 X49.705 Y8.933 E4.81772
G1 X49.553 Y9.597 E4.84038
G1 X49.138 Y11.303 E4.89878
G1 X48.955 Y12.015 E4.92323
G1 X48.75 Y12.599 E4.94381
G1 X48.404 Y13.364 E4.97174
G1 X47.764 Y14.727 E5.02182
G1 X47.471 Y15.329 E5.04409
G1 X47.102 Y15.93 E5.06755
G1 X46.647 Y16.528 E5.09254
G1 X45.774 Y17.644 E5.13966
G1 X45.317 Y18.211 E5.16389
G1 X44.812 Y18.723 E5.1878
G1 X44.119 Y19.297 E5.21773
G1 X43.101 Y20.112 E5.26111
G1 X42.539 Y20.549 E5.28478
G1 X41.932 Y20.93 E5.30862
G1 X40.985 Y21.401 E5.3438
G1 X38.512 Y22.675 E5.43632
G1 X36.124 Y23.991 E5.52701
G1 X33.797 Y25.362 E5.61684
G1 X31.477 Y26.817 E5.70793
G1 X29.181 Y28.351 E5.79977
G1 X26.974 Y29.916 E5.88975
G1 X24.812 Y31.543 E5.97975
G1 X22.653 Y33.267 E6.07164
G1 X20.604 Y35 E6.1609
G1 X18.54 Y36.848 E6.25304
G1 X16.579 Y38.706 E6.34289
G1 X14.654 Y40.636 E6.43356
G1 X12.787 Y42.616 E6.52407
G1 X10.958 Y44.672 E6.6156
G1 X9.257 Y46.696 E6.70353
G1 X9.133 Y46.839 E6.70983
G1 X8.704 Y47.258 E6.72977
G1 X8.102 Y47.755 E6.75574
G1 X6.987 Y48.646 E6.80321
G1 X6.396 Y49.103 E6.82806
G1 X5.811 Y49.471 E6.85104
G1 X5.211 Y49.772 E6.87337
G1 X3.772 Y50.467 E6.92652
G1 X3.145 Y50.76 E6.94954
G1 X2.559 Y50.975 E6.9703
G1 X1.642 Y51.222 E7.00189
G1 X0.089 Y51.611 E7.05514
G1 X-.579 Y51.769 E7.07797
G1 X-1.086 Y51.852 E7.09505
G1 X-1.909 Y51.925 E7.12253
G1 X-3.943 Y52.076 E7.19037
G1 X-4.602 Y52.115 E7.21233
G1 X-5.011 Y52.116 E7.22593
G1 X-5.934 Y52.065 E7.25668
G1 X-7.942 Y51.922 E7.32363
G1 X-8.639 Y51.862 E7.3469
G1 X-9.125 Y51.786 E7.36326
G1 X-9.865 Y51.618 E7.3885
G1 X-11.568 Y51.204 E7.44679
G1 X-12.282 Y51.02 E7.47132
G1 X-12.865 Y50.815 E7.49187
G1 X-13.614 Y50.477 E7.5192
G1 X-14.997 Y49.827 E7.57003
G1 X-15.593 Y49.538 E7.59206
G1 X-16.056 Y49.269 E7.60987
G1 X-16.818 Y48.694 E7.64162
G1 X-17.885 Y47.859 E7.68668
G1 X-18.468 Y47.389 E7.71159
G1 X-18.978 Y46.886 E7.73541
G1 X-19.614 Y46.12 E7.76853
G1 X-20.36 Y45.186 E7.80829
G1 X-20.811 Y44.607 E7.8327
G1 X-21.195 Y43.998 E7.85664
G1 X-21.564 Y43.253 E7.88429
G1 X-22.207 Y41.908 E7.93388
G1 X-22.483 Y41.309 E7.95581
G1 X-22.693 Y40.722 E7.97655
G1 X-22.937 Y39.799 E8.0083
G1 X-23.319 Y38.249 E8.0614
G1 X-23.483 Y37.541 E8.08557
G1 X-23.563 Y37.039 E8.10248
G1 X-23.631 Y36.249 E8.12885
G1 X-23.78 Y34.183 E8.19774
G1 X-23.823 Y33.445 E8.22233
G1 X-23.861 Y32.22 E8.2631
G1 X-23.866 Y31.873 E8.27464
G1 X-23.982 Y29.145 E8.36545
G1 X-24.176 Y26.415 E8.45648
G1 X-24.443 Y23.719 E8.54659
G1 X-24.809 Y20.877 E8.6419
G1 X-24.869 Y20.454 E8.65611
G1 X-24.905 Y19.918 E8.67397
G1 X-24.814 Y19.142 E8.69996
G1 X-24.596 Y18.195 E8.73228
G1 X-24.363 Y17.237 E8.76507
G1 X-23.801 Y14.613 E8.85433
G1 X-23.297 Y11.893 E8.94634
G1 X-22.883 Y9.221 E9.03627
G1 X-22.54 Y6.508 E9.12722
G1 X-22.271 Y3.774 E9.21859
G1 X-22.085 Y1.093 E9.30798
G1 X-21.972 Y-1.636 E9.39882
G0 F4800 X-21.573 Y-1.613
G1 F600 X-21.537 Y-4.377 E9.49076
G1 X-21.58 Y-7.123 E9.5821
G1 X-21.698 Y-9.838 E9.67249
G1 X-21.895 Y-12.584 E9.76406
G1 X-22.17 Y-15.315 E9.85535
G1 X-22.415 Y-17.267 E9.92078
G1 X-22.462 Y-17.618 E9.93256
G1 X-22.489 Y-18.123 E9.94938
G1 X-22.412 Y-18.745 E9.97023
G1 X-22.373 Y-18.914 E9.976
G1 X-21.748 Y-21.394 E10.06106
G1 X-21.148 Y-24.094 E10.15305
G1 X-20.635 Y-26.764 E10.24348
G1 X-20.191 Y-29.476 E10.33489
G1 X-19.829 Y-32.171 E10.42533
G1 X-19.472 Y-35.663 E10.54208
G1 X-19.373 Y-36.252 E10.56194
G1 X-19.35 Y-36.362 E10.56568
G1 X-18.906 Y-38.277 E10.63106
G1 X-18.73 Y-38.984 E10.65529
G1 X-18.496 Y-39.648 E10.67871
G1 X-18.395 Y-39.886 E10.68731
G1 X-17.719 Y-41.413 E10.74285
G1 X-17.462 Y-41.974 E10.76338
G1 X-17.181 Y-42.467 E10.78225
G1 X-16.57 Y-43.345 E10.81783
G1 X-15.97 Y-44.174 E10.85186
G1 X-15.573 Y-44.708 E10.87399
G1 X-15.184 Y-45.144 E10.89343
G1 X-15.08 Y-45.242 E10.89818
G1 X-14.661 Y-45.619 E10.91693
G1 X-13.316 Y-46.802 E10.97651
G1 X-12.826 Y-47.222 E10.99797
G1 X-12.294 Y-47.591 E11.0195
G1 X-11.42 Y-48.075 E11.05273
G1 X-10.068 Y-48.791 E11.10362
G1 X-9.459 Y-49.101 E11.12635
G1 X-8.983 Y-49.297 E11.14347
G1 X-8.404 Y-49.47 E11.16357
G1 X-6.355 Y-50.034 E11.23425
G1 X-5.655 Y-50.215 E11.2583
G1 X-4.991 Y-50.321 E11.28066
G1 X-4.702 Y-50.349 E11.29032
G1 X-2.254 Y-50.546 E11.372
G1 X-1.608 Y-50.589 E11.39354
G1 X-1.227 Y-50.592 E11.40621
G1 X-.106 Y-50.533 E11.44355
G1 X1.704 Y-50.4 E11.50391
G1 X2.429 Y-50.338 E11.52811
G1 X2.891 Y-50.264 E11.54367
G1 X3.655 Y-50.084 E11.56978
G1 X5.358 Y-49.662 E11.62814
G1 X6 Y-49.493 E11.65022
G1 X6.519 Y-49.306 E11.66856
G1 X7.353 Y-48.924 E11.69907
G1 X8.584 Y-48.336 E11.74445
G1 X9.237 Y-48.015 E11.76865
G1 X9.712 Y-47.727 E11.78713
G1 X9.84 Y-47.633 E11.79241
G1 X10.303 Y-47.276 E11.81185
G1 X11.552 Y-46.288 E11.86482
G1 X12.084 Y-45.854 E11.88766
G1 X12.533 Y-45.406 E11.90875
G1 X12.989 Y-44.851 E11.93264
G1 X13.909 Y-43.7 E11.98165
G1 X14.347 Y-43.136 E12.0054
G1 X14.832 Y-42.352 E12.03607
G1 X15.73 Y-40.728 E12.09779
G1 X17.106 Y-38.396 E12.18785
G1 X18.577 Y-36.057 E12.27975
G1 X20.099 Y-33.783 E12.37076
G1 X21.673 Y-31.569 E12.46111
G1 X23.328 Y-29.375 E12.55251
G1 X25.045 Y-27.226 E12.644
G1 X26.806 Y-25.148 E12.7346
G1 X28.639 Y-23.106 E12.82586
G1 X30.514 Y-21.129 E12.91649
G1 X32.479 Y-19.173 E13.00871
G1 X34.44 Y-17.327 E13.09828
G1 X36.501 Y-15.497 E13.18995
G1 X38.619 Y-13.718 E13.28195
G1 X40.744 Y-12.035 E13.37211
G1 X41.521 Y-11.454 E13.40438
G1 X42.659 Y-10.577 E13.45216
G1 X43.913 Y-9.585 E13.50534
G1 X44.445 Y-9.151 E13.52818
G1 X44.894 Y-8.703 E13.54928
G1 X45.35 Y-8.148 E13.57317
G1 X46.272 Y-6.995 E13.62227
G1 X46.706 Y-6.437 E13.64578
G1 X47.038 Y-5.911 E13.66647
G1 X47.349 Y-5.292 E13.68951
G1 X48.04 Y-3.863 E13.7423
G1 X48.33 Y-3.243 E13.76507
G1 X48.521 Y-2.719 E13.78362
G1 X48.77 Y-1.791 E13.81558
G1 X49.156 Y-.257 E13.86819
G1 X49.314 Y0.413 E13.89108
G1 X49.386 Y0.858 E13.90608
G1 X49.46 Y1.68 E13.93353
G1 X49.612 Y3.723 E14.00167
G1 X49.65 Y4.355 E14.02272
G1 X49.651 Y4.723 E14.03496
G1 X49.602 Y5.611 E14.06454
G1 X49.458 Y7.613 E14.1313
G1 X49.396 Y8.342 E14.15564
G1 X49.315 Y8.844 E14.17255
G1 X49.164 Y9.502 E14.195
G1 X48.75 Y11.204 E14.25326
G1 X48.567 Y11.916 E14.27771
G1 X48.385 Y12.435 E14.29601
G1 X48.042 Y13.194 E14.32371
G1 X47.404 Y14.552 E14.37361
G1 X47.111 Y15.154 E14.39588
G1 X46.783 Y15.689 E14.41675
G1 X46.332 Y16.282 E14.44153
G1 X45.462 Y17.393 E14.48847
G1 X45.005 Y17.96 E14.51269
G1 X44.557 Y18.415 E14.53392
G1 X43.869 Y18.985 E14.56364
G1 X42.855 Y19.796 E14.60683
G1 X42.293 Y20.233 E14.6305
G1 X41.754 Y20.572 E14.65168
G1 X40.801 Y21.046 E14.68708
G1 X38.329 Y22.319 E14.77956
G1 X35.933 Y23.639 E14.87055
G1 X33.561 Y25.038 E14.96214
G1 X31.247 Y26.489 E15.05299
G1 X28.973 Y28.008 E15.14394
G1 X26.748 Y29.586 E15.23467
G1 X24.545 Y31.244 E15.32637
G1 X22.43 Y32.933 E15.4164
G1 X20.325 Y34.713 E15.50808
G1 X18.281 Y36.543 E15.59933
G1 X16.303 Y38.417 E15.68996
G1 X14.362 Y40.363 E15.78138
G1 X12.481 Y42.359 E15.8726
G1 X10.654 Y44.411 E15.96398
G1 X8.955 Y46.434 E16.05185
G1 X8.831 Y46.577 E16.05814
G1 X8.45 Y46.949 E16.07585
G1 X7.852 Y47.442 E16.10163
G1 X6.742 Y48.329 E16.14889
G1 X6.151 Y48.786 E16.17373
G1 X5.631 Y49.114 E16.19418
G1 X5.037 Y49.412 E16.21629
G1 X3.603 Y50.105 E16.26926
G1 X2.976 Y50.398 E16.29228
G1 X2.455 Y50.588 E16.31072
G1 X1.545 Y50.834 E16.34208
G1 X-0.003 Y51.222 E16.39516
G1 X-.671 Y51.38 E16.41799
G1 X-1.122 Y51.453 E16.43318
G1 X-1.939 Y51.526 E16.46046
G1 X-3.967 Y51.676 E16.5281
G1 X-4.626 Y51.715 E16.55006
G1 X-4.989 Y51.716 E16.56213
G1 X-5.906 Y51.666 E16.59267
G1 X-7.907 Y51.523 E16.6594
G1 X-8.604 Y51.463 E16.68267
G1 X-9.036 Y51.396 E16.69721
G1 X-9.77 Y51.23 E16.72224
G1 X-11.469 Y50.817 E16.78039
G1 X-12.183 Y50.633 E16.80491
G1 X-12.701 Y50.451 E16.82317
G1 X-13.444 Y50.115 E16.8503
G1 X-14.822 Y49.467 E16.90094
G1 X-15.418 Y49.178 E16.92297
G1 X-15.854 Y48.923 E16.93977
G1 X-16.571 Y48.378 E16.96973
G1 X-17.634 Y47.547 E17.01461
G1 X-18.217 Y47.077 E17.03951
G1 X-18.671 Y46.631 E17.06068
G1 X-19.264 Y45.917 E17.09155
G1 X-20.045 Y44.94 E17.13315
G1 X-20.496 Y44.361 E17.15756
G1 X-20.836 Y43.819 E17.17884
G1 X-21.203 Y43.08 E17.20629
G1 X-21.843 Y41.74 E17.25568
G1 X-22.119 Y41.141 E17.27761
G1 X-22.307 Y40.62 E17.29603
G1 X-22.549 Y39.703 E17.32758
G1 X-22.929 Y38.159 E17.38046
G1 X-23.093 Y37.451 E17.40464
G1 X-23.164 Y37.005 E17.41966
G1 X-23.232 Y36.22 E17.44586
G1 X-23.381 Y34.16 E17.51456
G1 X-23.428 Y33.332 E17.54214
G1 X-23.461 Y32.214 E17.57934
G1 X-23.467 Y31.85 E17.59145
G1 X-23.582 Y29.134 E17.68187
G1 X-23.777 Y26.387 E17.77346
G1 X-24.047 Y23.664 E17.86447
G1 X-24.419 Y20.78 E17.96119
G1 X-24.473 Y20.397 E17.97406
G1 X-24.505 Y19.893 E17.99085
G1 X-24.424 Y19.231 E18.01304
G1 X-24.207 Y18.289 E18.04519
G1 X-23.977 Y17.343 E18.07757
G1 X-23.401 Y14.656 E18.16897
G1 X-22.901 Y11.956 E18.2603
G1 X-22.49 Y9.302 E18.34962
G1 X-22.143 Y6.557 E18.44165
G1 X-21.872 Y3.811 E18.53342
G1 X-21.684 Y1.1 E18.62381
G1 X-21.573 Y-1.613 E18.71412
G1 F1800 E16.71412
;MESH:Q.stl(3)
G0 F4800 X-16.027 Y-1.214
G0 X-15.834 Y-2.781
G1 F1800 E18.71412
G0 F4800 X-15.932 Y-2.796
;TYPE:WALL-INNER
G1 F600 X-15.215 Y-5.751 E18.81525
G1 X-14.035 Y-8.267 E18.90768
G1 X-12.391 Y-10.368 E18.99641
G1 X-10.313 Y-12.031 E19.08493
G1 X-7.821 Y-13.221 E19.17678
G1 X-4.876 Y-13.948 E19.27768
G1 X-1.494 Y-14.194 E19.39046
G1 X1.572 Y-13.995 E19.49265
G1 X4.258 Y-13.41 E19.58408
G1 X6.617 Y-12.443 E19.66888
G1 X8.794 Y-11.001 E19.75573
G1 X9.247 Y-10.876 E19.77136
G1 X9.742 Y-11.16 E19.79034
G1 X11.346 Y-13.563 E19.88643
G1 X11.381 Y-13.623 E19.88874
G1 X12.082 Y-15.066 E19.9421
G1 X15.789 Y-13.227 E20.07973
G1 X13.992 Y-10.14 E20.19854
G1 X11.989 Y-7.416 E20.311
G1 X11.91 Y-6.967 E20.32616
G1 X12.925 Y-3.456 E20.44772
G1 X13.244 Y0.629 E20.584
G1 X13.03 Y3.76 E20.68838
G1 X12.393 Y6.499 E20.78191
G1 X11.344 Y8.873 E20.86823
G1 X9.891 Y10.884 E20.95075
G1 X7.712 Y12.8 E21.04726
G1 X5.12 Y14.174 E21.14483
G1 X2.095 Y15.008 E21.2492
G1 X-1.367 Y15.289 E21.36472
G1 X-4.732 Y15.041 E21.47695
G1 X-7.676 Y14.311 E21.57783
G1 X-10.183 Y13.114 E21.67023
G1 X-12.308 Y11.435 E21.76031
G1 X-13.988 Y9.335 E21.84975
G1 X-15.194 Y6.841 E21.94189
G1 X-15.926 Y3.926 E22.04186
G1 X-16.175 Y0.592 E22.15306
G1 X-15.932 Y-2.796 E22.26603
G0 F4800 X-15.834 Y-2.781
G0 X-10.709 Y-.999
G0 X-10.612 Y-.977
G1 F600 X-10.629 Y-.879 E22.26934
G1 X-10.756 Y0.576 E22.31792
G1 X-10.756 Y0.666 E22.32091
G1 X-10.626 Y2.041 E22.36685
G1 X-10.606 Y2.143 E22.3703
G1 X-10.213 Y3.398 E22.41404
G1 X-10.164 Y3.501 E22.41784
G1 X-9.515 Y4.606 E22.46046
G1 X-9.45 Y4.696 E22.46415
G1 X-8.533 Y5.671 E22.50867
G1 X-8.447 Y5.746 E22.51247
G1 X-7.252 Y6.54 E22.56018
G1 X-7.152 Y6.59 E22.5639
G1 X-5.682 Y7.15 E22.61622
G1 X-5.597 Y7.172 E22.61914
G1 X-3.82 Y7.509 E22.6793
G1 X-1.789 Y7.619 E22.74695
G1 X0.559 Y7.513 E22.82513
G1 X0.619 Y7.506 E22.82713
G1 X2.565 Y7.185 E22.89273
G1 X2.644 Y7.165 E22.89544
G1 X4.234 Y6.624 E22.9513
G1 X4.339 Y6.577 E22.95513
G1 X5.581 Y5.8 E23.00386
G1 X5.68 Y5.72 E23.00809
G1 X6.6 Y4.748 E23.0526
G1 X6.67 Y4.653 E23.05653
G1 X7.324 Y3.52 E23.10004
G1 X7.369 Y3.415 E23.10384
G1 X7.759 Y2.126 E23.14863
G1 X7.779 Y2.026 E23.15202
G1 X7.909 Y0.582 E23.20025
G1 X7.909 Y0.485 E23.20347
G1 X7.712 Y-1.421 E23.2672
G1 X7.541 Y-1.804 E23.28115
G1 X7.088 Y-2.057 E23.29841
G1 X6.596 Y-2 E23.31489
G1 X6.324 Y-1.777 E23.32658
G1 X5.168 Y-.188 E23.39194
G1 X5.12 Y-.109 E23.39501
G1 X4.407 Y1.396 E23.4504
G1 X2.426 Y0.534 E23.52226
G1 X2.751 Y-.592 E23.56124
G1 X4.402 Y-3.157 E23.6627
G1 X5.129 Y-4.259 E23.70661
G1 X5.24 Y-4.661 E23.72048
G1 X5.057 Y-5.136 E23.73741
G1 X4.742 Y-5.352 E23.75011
G1 X2.147 Y-6.221 E23.84113
G1 X2.028 Y-6.243 E23.84516
G1 X-1.477 Y-6.524 E23.96211
G1 X-1.542 Y-6.525 E23.96427
G1 X-3.694 Y-6.417 E24.03594
G1 X-3.755 Y-6.41 E24.03798
G1 X-5.584 Y-6.086 E24.09976
G1 X-5.667 Y-6.064 E24.10261
G1 X-7.18 Y-5.516 E24.15614
G1 X-7.283 Y-5.466 E24.15994
G1 X-8.483 Y-4.686 E24.20755
G1 X-8.579 Y-4.604 E24.21175
G1 X-9.475 Y-3.629 E24.25579
G1 X-9.543 Y-3.536 E24.25962
G1 X-10.184 Y-2.393 E24.30321
G1 X-10.229 Y-2.288 E24.30701
G1 X-10.612 Y-.977 E24.35243
G0 F4800 X-10.222 Y-.887
;TYPE:WALL-OUTER
G1 F600 X-10.232 Y-.828 E24.35442
G1 X-10.356 Y0.593 E24.40187
G1 X-10.356 Y0.647 E24.40366
G1 X-10.23 Y1.983 E24.44829
G1 X-10.218 Y2.044 E24.45036
G1 X-9.839 Y3.253 E24.4925
G1 X-9.81 Y3.315 E24.49478
G1 X-9.18 Y4.387 E24.53614
G1 X-9.141 Y4.441 E24.53835
G1 X-8.256 Y5.382 E24.58132
G1 X-8.204 Y5.427 E24.5836
G1 X-7.051 Y6.193 E24.62964
G1 X-6.991 Y6.223 E24.63188
G1 X-5.561 Y6.768 E24.68277
G1 X-5.51 Y6.781 E24.68453
G1 X-3.772 Y7.111 E24.74336
G1 X-1.787 Y7.219 E24.80948
G1 X0.528 Y7.114 E24.88656
G1 X0.564 Y7.11 E24.88776
G1 X2.483 Y6.793 E24.95246
