;FLAVOR:Marlin
;TIME:3021
;Filament used: 2.64205m
;Layer height: 0.2
;MINX:-48.923
;MINY:-49.107
;MINZ:0.2
;MAXX:45.489
;MAXY:21.905
;MAXZ:3.8
;POSTPROCESSED
;Generated with Cura_SteamEngine 4.13.1
M82 ;absolute extrusion mode
START_PRINT BED_TEMP=80 EXTRUDER_TEMP=220.0
G92 E0
G92 E0
G1 F1800 E-2
;LAYER_COUNT:19
;LAYER:0
M107
G0 F4800 X1.71 Y18.749 Z0.2
;TYPE:SKIRT
G1 F1800 E0
G1 F600 X-.965 Y19.014 E0.08941
G1 X-3.705 Y19.364 E0.18128
G1 X-6.382 Y19.785 E0.27141
G1 X-9.062 Y20.283 E0.36207
G1 X-11.679 Y20.847 E0.45111
G1 X-14.141 Y21.45 E0.53542
G1 X-15.415 Y21.774 E0.57914
G1 X-15.944 Y21.867 E0.59701
G1 X-16.233 Y21.884 E0.60664
G1 X-17.338 Y21.905 E0.6434
G1 X-25.713 Y21.905 E0.92195
G1 X-26.535 Y21.892 E0.94929
G1 X-27.271 Y21.861 E0.97379
G1 X-30.051 Y21.782 E1.06629
G1 X-32.745 Y21.782 E1.1559
G1 X-35.533 Y21.861 E1.24866
G1 X-36.048 Y21.887 E1.26581
G1 X-36.638 Y21.904 E1.28545
G1 X-44.662 Y21.905 E1.55233
G1 X-45.36 Y21.896 E1.57554
G1 X-45.895 Y21.849 E1.59341
G1 X-46.416 Y21.723 E1.61123
G1 X-46.913 Y21.521 E1.62908
G1 X-47.374 Y21.248 E1.6469
G1 X-47.79 Y20.909 E1.66475
G1 X-48.151 Y20.513 E1.68257
G1 X-48.449 Y20.067 E1.70041
G1 X-48.677 Y19.581 E1.71826
G1 X-48.83 Y19.067 E1.7361
G1 X-48.913 Y18.393 E1.75869
G1 X-48.923 Y17.963 E1.77299
G1 X-48.923 Y-10.639 E2.7243
G1 X-48.913 Y-11.341 E2.74765
G1 X-48.865 Y-11.875 E2.76548
G1 X-48.739 Y-12.397 E2.78334
G1 X-48.536 Y-12.893 E2.80117
G1 X-48.262 Y-13.354 E2.81901
G1 X-47.923 Y-13.77 E2.83685
G1 X-47.377 Y-14.262 E2.8613
G1 X-45.763 Y-15.606 E2.93116
G1 X-43.718 Y-17.407 E3.02179
G1 X-41.721 Y-19.268 E3.11258
G1 X-39.785 Y-21.18 E3.20308
G1 X-37.9 Y-23.148 E3.29372
G1 X-36.071 Y-25.169 E3.38438
G1 X-34.292 Y-27.251 E3.47546
G1 X-32.576 Y-29.377 E3.56633
G1 X-30.935 Y-31.534 E3.65648
G1 X-29.337 Y-33.761 E3.74764
G1 X-27.81 Y-36.021 E3.83836
G1 X-26.362 Y-38.301 E3.92819
G1 X-24.947 Y-40.676 E4.02014
G1 X-23.635 Y-43.024 E4.1096
G1 X-22.363 Y-45.462 E4.20106
G1 X-21.976 Y-46.258 E4.2305
G1 X-21.543 Y-47.117 E4.2625
G1 X-21.266 Y-47.577 E4.28036
G1 X-20.925 Y-47.99 E4.29817
G1 X-20.525 Y-48.349 E4.31605
G1 X-20.077 Y-48.643 E4.33387
G1 X-19.591 Y-48.868 E4.35168
G1 X-19.076 Y-49.018 E4.36952
G1 X-18.439 Y-49.095 E4.39086
G1 X-18.005 Y-49.107 E4.4053
G1 X10.609 Y-49.107 E5.35701
G1 X11.311 Y-49.097 E5.38036
G1 X11.845 Y-49.049 E5.39819
G1 X12.367 Y-48.923 E5.41605
G1 X12.863 Y-48.72 E5.43388
G1 X13.324 Y-48.446 E5.45172
G1 X13.74 Y-48.107 E5.46956
G1 X14.122 Y-47.681 E5.4886
G1 X14.53 Y-47.146 E5.51097
G1 X15.463 Y-45.886 E5.56312
G1 X17.139 Y-43.755 E5.65329
G1 X18.874 Y-41.671 E5.74348
G1 X20.704 Y-39.596 E5.8355
G1 X22.549 Y-37.618 E5.92547
G1 X24.461 Y-35.683 E6.01595
G1 X26.433 Y-33.797 E6.1067
G1 X28.449 Y-31.974 E6.1971
G1 X30.556 Y-30.176 E6.28923
G1 X32.663 Y-28.478 E6.37923
G1 X34.811 Y-26.846 E6.46896
G1 X37.061 Y-25.231 E6.56108
G1 X39.276 Y-23.737 E6.64994
G1 X41.616 Y-22.252 E6.74212
G1 X43.586 Y-21.079 E6.81838
G1 X43.772 Y-20.964 E6.82565
G1 X44.206 Y-20.649 E6.84348
G1 X44.588 Y-20.273 E6.86131
G1 X44.91 Y-19.844 E6.87915
G1 X45.165 Y-19.372 E6.897
G1 X45.347 Y-18.867 E6.91485
G1 X45.452 Y-18.342 E6.93266
G1 X45.487 Y-17.689 E6.95441
G1 X45.489 Y-17.578 E6.9581
G1 X45.489 Y11.001 E7.90864
G1 X45.48 Y11.728 E7.93282
G1 X45.433 Y12.262 E7.95065
G1 X45.308 Y12.783 E7.96847
G1 X45.106 Y13.28 E7.98632
G1 X44.833 Y13.742 E8.00417
G1 X44.495 Y14.158 E8.02199
G1 X44.098 Y14.519 E8.03984
G1 X43.652 Y14.817 E8.05768
G1 X43.167 Y15.045 E8.07551
G1 X42.653 Y15.199 E8.09335
G1 X41.981 Y15.282 E8.11587
G1 X41.559 Y15.292 E8.12991
G1 X39.173 Y15.292 E8.20927
G1 X36.392 Y15.331 E8.30178
G1 X33.664 Y15.447 E8.39259
G1 X30.935 Y15.641 E8.48359
G1 X28.258 Y15.906 E8.57306
G1 X25.519 Y16.256 E8.6649
G1 X22.841 Y16.677 E8.75507
G1 X20.155 Y17.177 E8.84594
G1 X17.519 Y17.744 E8.93562
G1 X15.382 Y18.264 E9.00877
G1 X15.268 Y18.29 E9.01266
G1 X14.537 Y18.379 E9.03715
G1 X13.43 Y18.4 E9.07397
G1 X9.949 Y18.4 E9.18975
G1 X7.168 Y18.439 E9.28226
G1 X4.44 Y18.555 E9.37307
G1 X1.71 Y18.749 E9.4641
G0 F4800 X1.682 Y18.35
G1 F600 X-1.022 Y18.618 E9.55448
G1 X-3.746 Y18.966 E9.64582
G1 X-6.446 Y19.391 E9.73672
G1 X-9.155 Y19.894 E9.82837
G1 X-11.779 Y20.459 E9.91764
G1 X-14.236 Y21.061 E10.00178
G1 X-15.514 Y21.386 E10.04564
G1 X-16.241 Y21.484 E10.07004
G1 X-17.338 Y21.505 E10.10653
G1 X-25.708 Y21.505 E10.38492
G1 X-26.427 Y21.495 E10.40883
G1 X-27.248 Y21.461 E10.43616
G1 X-30.04 Y21.382 E10.52906
G1 X-32.757 Y21.382 E10.61943
G1 X-35.521 Y21.46 E10.7114
G1 X-36.06 Y21.487 E10.72935
G1 X-36.65 Y21.504 E10.74898
G1 X-44.657 Y21.505 E11.01529
G1 X-45.355 Y21.496 E11.03851
G1 X-45.859 Y21.449 E11.05535
G1 X-46.349 Y21.324 E11.07217
G1 X-46.813 Y21.123 E11.08898
G1 X-47.239 Y20.852 E11.10578
G1 X-47.618 Y20.517 E11.1226
G1 X-47.939 Y20.126 E11.13943
G1 X-48.194 Y19.69 E11.15623
G1 X-48.378 Y19.219 E11.17304
G1 X-48.485 Y18.725 E11.18986
G1 X-48.522 Y18.049 E11.21237
G1 X-48.523 Y-10.634 E12.16637
G1 X-48.513 Y-11.336 E12.18973
G1 X-48.466 Y-11.839 E12.20653
G1 X-48.34 Y-12.329 E12.22336
G1 X-48.138 Y-12.792 E12.24016
G1 X-47.867 Y-13.219 E12.25698
G1 X-47.393 Y-13.722 E12.27997
G1 X-47.084 Y-13.986 E12.29348
G1 X-45.506 Y-15.299 E12.36176
G1 X-43.447 Y-17.114 E12.45305
G1 X-41.449 Y-18.974 E12.54384
G1 X-39.498 Y-20.902 E12.63507
G1 X-37.597 Y-22.886 E12.72646
G1 X-35.771 Y-24.904 E12.81698
G1 X-33.975 Y-27.006 E12.90894
G1 X-32.261 Y-29.13 E12.99972
G1 X-30.624 Y-31.281 E13.08962
G1 X-29.005 Y-33.537 E13.18198
G1 X-27.484 Y-35.788 E13.27233
G1 X-26.014 Y-38.103 E13.36354
G1 X-24.612 Y-40.456 E13.45464
G1 X-23.274 Y-42.851 E13.54589
G1 X-22.021 Y-45.253 E13.636
G1 X-21.618 Y-46.078 E13.66654
G1 X-21.185 Y-46.937 E13.69853
G1 X-20.923 Y-47.369 E13.71533
G1 X-20.596 Y-47.755 E13.73216
G1 X-20.212 Y-48.084 E13.74898
G1 X-19.781 Y-48.348 E13.76579
G1 X-19.314 Y-48.541 E13.7826
G1 X-18.822 Y-48.659 E13.79942
G1 X-18.104 Y-48.705 E13.82335
G1 X-18.005 Y-48.707 E13.82665
G1 X10.604 Y-48.707 E14.77819
G1 X11.306 Y-48.697 E14.80154
G1 X11.809 Y-48.65 E14.81834
G1 X12.299 Y-48.524 E14.83517
G1 X12.762 Y-48.322 E14.85197
G1 X13.189 Y-48.051 E14.86879
G1 X13.567 Y-47.715 E14.88561
G1 X13.804 Y-47.438 E14.89774
G1 X14.208 Y-46.908 E14.9199
G1 X15.142 Y-45.647 E14.97209
G1 X16.832 Y-43.497 E15.06305
G1 X18.565 Y-41.416 E15.15312
G1 X20.395 Y-39.342 E15.24512
G1 X22.255 Y-37.347 E15.33584
G1 X24.184 Y-35.396 E15.42709
G1 X26.17 Y-33.496 E15.51851
G1 X28.206 Y-31.655 E15.6098
G1 X30.291 Y-29.876 E15.70096
G1 X32.393 Y-28.181 E15.79077
G1 X34.599 Y-26.505 E15.88292
G1 X36.794 Y-24.93 E15.97277
G1 X39.101 Y-23.374 E16.06533
G1 X41.402 Y-21.914 E16.15596
G1 X43.376 Y-20.739 E16.23237
G1 X43.562 Y-20.624 E16.23964
G1 X43.969 Y-20.325 E16.25644
G1 X44.325 Y-19.965 E16.27328
G1 X44.619 Y-19.554 E16.29009
G1 X44.845 Y-19.102 E16.3069
G1 X44.997 Y-18.62 E16.32371
G1 X45.077 Y-18.001 E16.34447
G1 X45.089 Y-17.578 E16.35854
G1 X45.089 Y10.996 E17.30892
G1 X45.08 Y11.723 E17.3331
G1 X45.034 Y12.226 E17.3499
G1 X44.909 Y12.716 E17.36672
G1 X44.708 Y13.18 E17.38353
G1 X44.437 Y13.607 E17.40036
G1 X44.102 Y13.986 E17.41718
G1 X43.712 Y14.307 E17.43398
G1 X43.276 Y14.563 E17.4508
G1 X42.805 Y14.746 E17.4676
G1 X42.311 Y14.854 E17.48442
G1 X41.649 Y14.891 E17.50647
G1 X39.167 Y14.892 E17.58903
G1 X36.37 Y14.932 E17.68206
G1 X33.653 Y15.047 E17.77251
G1 X30.907 Y15.242 E17.86407
G1 X28.201 Y15.51 E17.95452
G1 X25.478 Y15.858 E18.04582
G1 X22.777 Y16.283 E18.13676
G1 X20.069 Y16.786 E18.22837
G1 X17.42 Y17.356 E18.31849
G1 X15.294 Y17.874 E18.39127
G1 X15.18 Y17.9 E18.39516
G1 X14.53 Y17.979 E18.41694
G1 X13.43 Y18 E18.45353
G1 X9.943 Y18 E18.56951
G1 X7.146 Y18.04 E18.66255
G1 X4.429 Y18.155 E18.753
G1 X1.682 Y18.35 E18.84459
G1 F1800 E16.84459
;MESH:R.stl
G0 F4800 X4.767 Y14.183
G1 F1800 E18.84459
G0 F4800 X4.757 Y14.2
;TYPE:WALL-INNER
G1 F600 X0.016 Y5.429 E19.17621
G1 X-.9 Y3.917 E19.23501
G1 X-.963 Y3.837 E19.23839
G1 X-1.804 Y2.936 E19.27939
G1 X-1.95 Y2.826 E19.28547
G1 X-3.115 Y2.258 E19.32857
G1 X-3.262 Y2.213 E19.33369
G1 X-4.532 Y2.029 E19.37637
G1 X-4.604 Y2.024 E19.37877
G1 X-5.539 Y2.024 E19.40987
G1 X-5.986 Y2.171 E19.42552
G1 X-6.243 Y2.682 E19.44454
G1 X-6.243 Y14.2 E19.82763
G1 X-13.954 Y14.2 E20.0841
G1 X-13.954 Y-14.2 E21.02869
G1 X0.657 Y-14.2 E21.51465
G1 X4.399 Y-14.019 E21.63926
G1 X6.998 Y-13.501 E21.7274
G1 X8.833 Y-12.561 E21.79598
G1 X10.258 Y-11.075 E21.86445
G1 X11.194 Y-9.089 E21.93748
G1 X11.512 Y-6.666 E22.01876
G1 X11.27 Y-4.548 E22.08966
G1 X10.551 Y-2.759 E22.15379
G1 X9.421 Y-1.295 E22.2153
G1 X7.904 Y-.112 E22.27928
G1 X6.636 Y0.478 E22.3258
G1 X4.759 Y1.018 E22.39076
G1 X4.411 Y1.251 E22.40469
G1 X4.239 Y1.746 E22.42212
G1 X4.387 Y2.222 E22.4387
G1 X4.665 Y2.454 E22.45074
G1 X7.007 Y3.527 E22.53642
G1 X8.349 Y4.956 E22.60162
G1 X9.576 Y6.716 E22.67298
G1 X13.44 Y14.2 E22.95312
G1 X4.757 Y14.2 E23.24192
G0 F4800 X4.808 Y14.115
G0 X-1.415 Y-1.952
G0 X-1.427 Y-2.051
G1 F600 X1.085 Y-2.47 E23.32662
G1 X1.185 Y-2.498 E23.33008
G1 X2.099 Y-2.857 E23.36274
G1 X2.257 Y-2.954 E23.3689
G1 X3.001 Y-3.639 E23.40254
G1 X3.104 Y-3.769 E23.40806
G1 X3.59 Y-4.673 E23.44219
G1 X3.645 Y-4.833 E23.44782
G1 X3.806 Y-5.861 E23.48243
G1 X3.805 Y-6.027 E23.48795
G1 X3.554 Y-7.426 E23.53522
G1 X3.465 Y-7.635 E23.54278
G1 X2.687 Y-8.701 E23.58667
G1 X2.482 Y-8.865 E23.59541
G1 X1.039 Y-9.5 E23.64784
G1 X0.882 Y-9.54 E23.65323
G1 X-1.347 Y-9.743 E23.72767
G1 X-5.539 Y-9.743 E23.8671
G1 X-5.986 Y-9.596 E23.88275
G1 X-6.243 Y-9.085 E23.90178
G1 X-6.243 Y-2.748 E24.11254
G1 X-6.096 Y-2.301 E24.1282
G1 X-5.585 Y-2.044 E24.14722
G1 X-1.51 Y-2.044 E24.28275
G1 X-1.427 Y-2.051 E24.28552
G0 F4800 X-1.415 Y-1.952
G0 X-5.594 Y-2.006
G0 X-5.768 Y-2.584
;TYPE:WALL-OUTER
G1 F600 X-5.49 Y-2.444 E24.29588
G1 X-1.526 Y-2.444 E24.42772
G1 X-1.476 Y-2.448 E24.42939
G1 X0.997 Y-2.861 E24.51278
G1 X1.057 Y-2.878 E24.51485
G1 X1.92 Y-3.216 E24.54568
G1 X2.014 Y-3.274 E24.54935
G1 X2.707 Y-3.912 E24.58068
G1 X2.769 Y-3.99 E24.584
G1 X3.222 Y-4.834 E24.61586
G1 X3.255 Y-4.93 E24.61923
G1 X3.406 Y-5.89 E24.65156
G1 X3.405 Y-5.989 E24.65485
G1 X3.168 Y-7.311 E24.69952
G1 X3.115 Y-7.436 E24.70404
G1 X2.395 Y-8.422 E24.74464
G1 X2.273 Y-8.52 E24.74985
G1 X0.908 Y-9.121 E24.79945
G1 X0.814 Y-9.145 E24.80268
G1 X-1.365 Y-9.343 E24.87545
G1 X-5.475 Y-9.343 E25.01215
G1 X-5.703 Y-9.268 E25.02014
G1 X-5.843 Y-8.99 E25.03049
G1 X-5.843 Y-2.812 E25.23597
G1 X-5.768 Y-2.584 E25.24395
G0 F4800 X-5.59 Y-2.494
G0 X-5.815 Y-2.048
G0 X-5.858 Y2.024
G0 X-5.703 Y2.499
G1 F600 X-5.843 Y2.777 E25.25431
G1 X-5.843 Y14.6 E25.64754
G1 X-14.354 Y14.6 E25.93062
G1 X-14.354 Y-14.6 E26.90181
G1 X0.676 Y-14.6 E27.40171
G1 X4.443 Y-14.418 E27.52715
G1 X7.131 Y-13.882 E27.61831
G1 X9.076 Y-12.886 E27.69099
G1 X10.592 Y-11.305 E27.76385
G1 X11.583 Y-9.203 E27.84114
G1 X11.915 Y-6.673 E27.92601
G1 X11.661 Y-4.448 E28.00049
G1 X10.901 Y-2.558 E28.06825
G1 X9.708 Y-1.012 E28.1332
G1 X8.111 Y0.233 E28.20055
G1 X6.781 Y0.852 E28.24934
G1 X4.93 Y1.385 E28.3134
G1 X4.745 Y1.509 E28.32081
G1 X4.66 Y1.753 E28.32941
G1 X4.734 Y1.991 E28.3377
G1 X4.88 Y2.113 E28.34402
G1 X7.246 Y3.196 E28.43057
G1 X8.659 Y4.701 E28.49923
G1 X9.917 Y6.505 E28.57238
G1 X14.096 Y14.6 E28.87538
G1 X4.518 Y14.6 E29.19395
G1 X-.331 Y5.628 E29.53315
G1 X-1.229 Y4.146 E29.59078
G1 X-1.267 Y4.098 E29.59282
G1 X-2.072 Y3.235 E29.63207
G1 X-2.16 Y3.169 E29.63573
G1 X-3.262 Y2.631 E29.67652
G1 X-3.35 Y2.604 E29.67958
G1 X-4.575 Y2.427 E29.72075
G1 X-4.618 Y2.424 E29.72218
G1 X-5.475 Y2.424 E29.75069
G1 X-5.703 Y2.499 E29.75867
G0 F4800 X-5.793 Y2.677
G0 X-6.239 Y2.452
G0 X-9.436 Y0.216
;TYPE:SKIN
G1 F600 X-9.994 Y1.326 E29.79999
G1 X-9.994 Y-1.479 E29.89328
G1 X-9.436 Y0.216 E29.95264
G0 F4800 X-9.015 Y0.217
G1 F600 X-8.994 Y0.227 E29.95341
G1 X-9.803 Y1.837 E30.01334
G1 X-9.803 Y10.64 E30.30613
G1 X-10.394 Y10.64 E30.32579
G1 X-10.394 Y-10.64 E31.03356
G1 X-9.446 Y-10.64 E31.06509
G1 X-9.803 Y-9.93 E31.09152
G1 X-9.803 Y-2.178 E31.34936
G1 X-9.015 Y0.217 E31.43321
G0 F4800 X-8.687 Y-0.066
G1 F600 X-8.457 Y0.049 E31.44177
G1 X-9.403 Y1.932 E31.51186
G1 X-9.403 Y11.04 E31.81479
G1 X-10.794 Y11.04 E31.86105
G1 X-10.794 Y-11.04 E32.59544
G1 X-8.797 Y-11.04 E32.66186
G1 X-9.403 Y-9.835 E32.70672
G1 X-9.403 Y-2.242 E32.95926
G1 X-8.687 Y-0.066 E33.03545
G0 F4800 X-8.359 Y-.349
G1 F600 X-7.883 Y-.11 E33.05317
G1 X-7.938 Y-0.092 E33.0551
G1 X-9.003 Y2.027 E33.13397
G1 X-9.003 Y11.44 E33.44705
G1 X-11.194 Y11.44 E33.51992
G1 X-11.194 Y-11.44 E34.28092
G1 X-8.149 Y-11.44 E34.38219
G1 X-9.003 Y-9.74 E34.44547
G1 X-9.003 Y-2.306 E34.69273
G1 X-8.359 Y-.349 E34.76125
G0 F4800 X-8.031 Y-.632
G1 F600 X-6.839 Y-0.033 E34.80562
G1 X-7.655 Y0.236 E34.8342
G1 X-8.603 Y2.122 E34.9044
G1 X-8.603 Y11.84 E35.22763
G1 X-11.594 Y11.84 E35.32711
G1 X-11.594 Y-11.84 E36.11471
G1 X-6.716 Y-11.84 E36.27695
G1 X-7.655 Y-11.531 E36.30983
G1 X-8.603 Y-9.645 E36.38004
G1 X-8.603 Y-2.37 E36.622
G1 X-8.031 Y-.632 E36.68286
G0 F4800 X-7.703 Y-.915
G1 F600 X-6.05 Y-0.084 E36.7444
G1 X-1.43 Y-0.084 E36.89806
G1 X-1.184 Y-.105 E36.90627
G1 X1.512 Y-.554 E36.99717
G1 X1.808 Y-.636 E37.00739
G1 X2.981 Y-1.097 E37.04931
G1 X3.447 Y-1.386 E37.06755
G1 X4.442 Y-2.301 E37.11251
G1 X4.75 Y-2.691 E37.12903
G1 X5.393 Y-3.885 E37.17414
G1 X5.556 Y-4.358 E37.19078
G1 X5.766 Y-5.714 E37.23642
G1 X5.765 Y-6.205 E37.25275
G1 X5.445 Y-7.99 E37.31306
G1 X5.18 Y-8.61 E37.33549
G1 X4.118 Y-10.063 E37.39535
G1 X3.511 Y-10.556 E37.42136
G1 X1.677 Y-11.362 E37.48799
G1 X1.212 Y-11.479 E37.50394
G1 X-1.259 Y-11.703 E37.58646
G1 X-5.853 Y-11.703 E37.73926
G1 X-7.372 Y-11.203 E37.79244
G1 X-8.203 Y-9.55 E37.85398
G1 X-8.203 Y-2.434 E38.09066
G1 X-7.703 Y-.915 E38.14385
G0 F4800 X-7.375 Y-1.198
G1 F600 X-5.955 Y-.484 E38.19671
G1 X-1.447 Y-.484 E38.34665
G1 X-1.234 Y-.502 E38.35376
G1 X1.425 Y-.945 E38.44342
G1 X1.681 Y-1.016 E38.45225
G1 X2.801 Y-1.456 E38.49227
G1 X3.204 Y-1.706 E38.50805
G1 X4.148 Y-2.574 E38.5507
G1 X4.414 Y-2.911 E38.56498
G1 X5.025 Y-4.046 E38.60785
G1 X5.166 Y-4.455 E38.62224
G1 X5.366 Y-5.744 E38.66563
G1 X5.365 Y-6.169 E38.67976
G1 X5.059 Y-7.875 E38.73741
G1 X4.83 Y-8.411 E38.7568
G1 X3.826 Y-9.785 E38.8134
G1 X3.301 Y-10.211 E38.83588
G1 X1.547 Y-10.982 E38.89961
G1 X1.145 Y-11.083 E38.9134
G1 X-1.277 Y-11.303 E38.99428
G1 X-5.789 Y-11.303 E39.14435
G1 X-7.089 Y-10.875 E39.18987
G1 X-7.803 Y-9.455 E39.24274
G1 X-7.803 Y-2.498 E39.47413
G1 X-7.375 Y-1.198 E39.51965
G0 F4800 X-7.047 Y-1.481
G1 F600 X-5.86 Y-.884 E39.56384
G1 X-1.464 Y-.884 E39.71005
G1 X-1.284 Y-.899 E39.71606
G1 X1.338 Y-1.336 E39.80447
G1 X1.554 Y-1.396 E39.81193
G1 X2.621 Y-1.815 E39.85005
G1 X2.961 Y-2.026 E39.86336
G1 X3.854 Y-2.847 E39.90371
G1 X4.078 Y-3.131 E39.91574
G1 X4.657 Y-4.207 E39.95638
G1 X4.776 Y-4.552 E39.96852
G1 X4.966 Y-5.774 E40.00965
G1 X4.965 Y-6.133 E40.02159
G1 X4.673 Y-7.76 E40.07657
G1 X4.48 Y-8.212 E40.09292
G1 X3.534 Y-9.507 E40.14626
G1 X3.091 Y-9.866 E40.16522
G1 X1.417 Y-10.602 E40.22604
G1 X1.078 Y-10.687 E40.23767
G1 X-1.295 Y-10.903 E40.31692
G1 X-5.725 Y-10.903 E40.46426
G1 X-6.806 Y-10.547 E40.50212
G1 X-7.403 Y-9.36 E40.54631
G1 X-7.403 Y-2.562 E40.77241
G1 X-7.047 Y-1.481 E40.81026
G0 F4800 X-6.719 Y-1.764
G1 F600 X-5.765 Y-1.284 E40.84578
G1 X-1.48 Y-1.284 E40.9883
G1 X-1.333 Y-1.296 E40.99321
G1 X1.251 Y-1.727 E41.08034
G1 X1.427 Y-1.776 E41.08642
G1 X2.441 Y-2.174 E41.12265
G1 X2.718 Y-2.346 E41.13349
G1 X3.56 Y-3.12 E41.17153
G1 X3.742 Y-3.351 E41.18131
G1 X4.289 Y-4.368 E41.21972
G1 X4.386 Y-4.649 E41.22961
G1 X4.566 Y-5.804 E41.26849
G1 X4.565 Y-6.097 E41.27823
G1 X4.287 Y-7.645 E41.33054
G1 X4.13 Y-8.013 E41.34385
G1 X3.242 Y-9.229 E41.39393
G1 X2.881 Y-9.521 E41.40937
G1 X1.287 Y-10.222 E41.46729
G1 X1.011 Y-10.291 E41.47675
G1 X-1.313 Y-10.503 E41.55437
G1 X-5.661 Y-10.503 E41.69899
G1 X-6.523 Y-10.219 E41.72917
G1 X-7.003 Y-9.265 E41.76469
G1 X-7.003 Y-2.626 E41.98551
G1 X-6.719 Y-1.764 E42.01569
G0 F4800 X-6.391 Y-2.047
G1 F600 X-5.67 Y-1.684 E42.04254
G1 X-1.496 Y-1.684 E42.18137
G1 X-1.382 Y-1.693 E42.18517
G1 X1.164 Y-2.118 E42.27102
G1 X1.3 Y-2.156 E42.27572
