;FLAVOR:Marlin
;TIME:2629
;Filament used: 2.30028m
;Layer height: 0.2
;MINX:-44.598
;MINY:-18.91
;MINZ:0.2
;MAXX:44.515
;MAXY:47.002
;MAXZ:3.8
;POSTPROCESSED
;Generated with Cura_SteamEngine 4.13.1
M82 ;absolute extrusion mode
START_PRINT BED_TEMP=80 EXTRUDER_TEMP=220.0
G92 E0
G92 E0
G1 F1800 E-2
;LAYER_COUNT:19
;LAYER:0
M107
G0 F4800 X0.372 Y-18.89 Z0.2
;TYPE:SKIRT
G1 F1800 E0
G1 F600 X2.73 Y-18.767 E0.07853
G1 X3.451 Y-18.719 E0.10257
G1 X3.949 Y-18.656 E0.11926
G1 X4.328 Y-18.59 E0.13206
G1 X6.179 Y-18.243 E0.1947
G1 X6.282 Y-18.222 E0.19819
G1 X8.966 Y-17.718 E0.28902
G1 X11.701 Y-17.284 E0.38113
G1 X14.367 Y-16.939 E0.47054
G1 X17.083 Y-16.665 E0.56133
G1 X19.813 Y-16.467 E0.65237
G1 X22.536 Y-16.347 E0.74302
G1 X25.266 Y-16.304 E0.83384
G1 X27.296 Y-16.33 E0.90136
G1 X27.741 Y-16.328 E0.91616
G1 X28.849 Y-16.293 E0.95303
G1 X29.953 Y-16.238 E0.9898
G1 X30.658 Y-16.193 E1.01329
G1 X30.968 Y-16.159 E1.02366
G1 X31.91 Y-16.016 E1.05535
G1 X32.773 Y-15.869 E1.08447
G1 X33.374 Y-15.759 E1.10479
G1 X33.793 Y-15.656 E1.11914
G1 X34.852 Y-15.327 E1.15603
G1 X35.261 Y-15.192 E1.17035
G1 X35.973 Y-14.946 E1.19541
G1 X36.451 Y-14.741 E1.21271
G1 X36.932 Y-14.484 E1.23084
G1 X37.622 Y-14.1 E1.25711
G1 X38.25 Y-13.736 E1.28125
G1 X38.824 Y-13.323 E1.30477
G1 X39.359 Y-12.851 E1.3285
G1 X39.688 Y-12.554 E1.34324
G1 X40.167 Y-12.108 E1.36501
G1 X40.647 Y-11.56 E1.38924
G1 X41.319 Y-10.613 E1.42786
G1 X41.771 Y-9.933 E1.45502
G1 X42.065 Y-9.396 E1.47538
G1 X42.299 Y-8.848 E1.4952
G1 X42.613 Y-8.066 E1.52323
G1 X42.84 Y-7.475 E1.54428
G1 X42.992 Y-6.969 E1.56186
G1 X43.246 Y-5.829 E1.6007
G1 X43.3 Y-5.556 E1.60996
G1 X43.433 Y-4.846 E1.63398
G1 X43.492 Y-4.339 E1.65096
G1 X43.548 Y-3.022 E1.6948
G1 X43.562 Y-2.566 E1.70998
G1 X43.725 Y0.202 E1.8022
G1 X43.956 Y2.848 E1.89054
G1 X44.245 Y5.374 E1.97511
G1 X44.412 Y6.682 E2.01896
G1 X44.494 Y7.401 E2.04303
G1 X44.515 Y7.937 E2.06087
G1 X44.459 Y8.524 E2.08049
G1 X44.203 Y10.32 E2.14083
G1 X44.089 Y11.042 E2.16514
G1 X43.966 Y11.564 E2.18297
G1 X43.821 Y11.946 E2.19656
G1 X43.356 Y12.987 E2.23448
G1 X42.892 Y13.973 E2.27073
G1 X42.606 Y14.563 E2.29254
G1 X42.337 Y15.027 E2.31038
G1 X42.092 Y15.345 E2.32373
G1 X41.479 Y16.055 E2.35493
G1 X40.596 Y17.044 E2.39902
G1 X40.166 Y17.512 E2.42016
G1 X39.775 Y17.878 E2.43797
G1 X39.449 Y18.112 E2.45132
G1 X38.236 Y18.885 E2.49916
G1 X36.341 Y20.077 E2.57362
G1 X34.069 Y21.597 E2.66454
G1 X31.85 Y23.176 E2.75512
G1 X29.674 Y24.816 E2.84575
G1 X27.542 Y26.521 E2.93655
G1 X25.463 Y28.282 E3.02717
G1 X23.437 Y30.1 E3.1177
G1 X21.44 Y31.994 E3.20925
G1 X19.518 Y33.925 E3.29986
G1 X17.669 Y35.889 E3.38958
G1 X15.86 Y37.925 E3.48017
G1 X14.092 Y40.033 E3.57167
G1 X13.297 Y41.026 E3.61398
G1 X13.069 Y41.299 E3.62581
G1 X12.569 Y41.866 E3.65096
G1 X12.262 Y42.206 E3.66619
G1 X11.846 Y42.653 E3.6865
G1 X11.298 Y43.133 E3.71073
G1 X10.442 Y43.742 E3.74567
G1 X10.345 Y43.809 E3.74959
G1 X9.659 Y44.264 E3.77697
G1 X9.113 Y44.562 E3.79766
G1 X8.572 Y44.791 E3.8172
G1 X7.802 Y45.1 E3.8448
G1 X7.211 Y45.327 E3.86585
G1 X6.705 Y45.479 E3.88343
G1 X5.565 Y45.733 E3.92227
G1 X5.299 Y45.786 E3.93129
G1 X4.597 Y45.919 E3.95506
G1 X4.081 Y45.979 E3.97234
G1 X2.75 Y46.035 E4.01664
G1 X2.301 Y46.049 E4.03158
G1 X-.466 Y46.212 E4.12377
G1 X-3.128 Y46.445 E4.21265
G1 X-5.638 Y46.732 E4.29668
G1 X-6.946 Y46.899 E4.34054
G1 X-7.665 Y46.981 E4.36461
G1 X-8.201 Y47.002 E4.38245
G1 X-8.788 Y46.946 E4.40206
G1 X-10.585 Y46.69 E4.46243
G1 X-11.312 Y46.574 E4.48692
G1 X-11.834 Y46.45 E4.50476
G1 X-12.207 Y46.308 E4.51804
G1 X-13.245 Y45.846 E4.55583
G1 X-14.208 Y45.393 E4.59122
G1 X-14.833 Y45.089 E4.61434
G1 X-15.296 Y44.82 E4.63215
G1 X-15.61 Y44.577 E4.64535
G1 X-16.327 Y43.958 E4.67686
G1 X-17.313 Y43.078 E4.72081
G1 X-17.78 Y42.647 E4.74195
G1 X-18.145 Y42.254 E4.75979
G1 X-18.371 Y41.941 E4.77263
G1 X-18.928 Y41.07 E4.80702
G1 X-20.43 Y38.786 E4.89794
G1 X-21.991 Y36.552 E4.98858
G1 X-23.617 Y34.357 E5.07944
G1 X-25.301 Y32.215 E5.17006
G1 X-27.046 Y30.12 E5.26075
G1 X-28.845 Y28.081 E5.35119
G1 X-30.708 Y26.084 E5.44202
G1 X-32.612 Y24.158 E5.5321
G1 X-34.594 Y22.263 E5.62331
G1 X-36.63 Y20.421 E5.71462
G1 X-38.697 Y18.657 E5.805
G1 X-40.027 Y17.576 E5.86201
G1 X-40.467 Y17.155 E5.88226
G1 X-40.698 Y16.892 E5.89391
G1 X-41.404 Y16.047 E5.93053
G1 X-41.849 Y15.497 E5.95406
G1 X-42.144 Y15.074 E5.97121
G1 X-42.38 Y14.674 E5.98666
G1 X-42.849 Y13.838 E6.01854
G1 X-43.149 Y13.286 E6.03944
G1 X-43.369 Y12.799 E6.05721
G1 X-43.757 Y11.731 E6.095
G1 X-43.901 Y11.309 E6.10984
G1 X-44.106 Y10.678 E6.1319
G1 X-44.244 Y10.109 E6.15138
G1 X-44.345 Y9.534 E6.17079
G1 X-44.457 Y8.847 E6.19394
G1 X-44.559 Y8.162 E6.21698
G1 X-44.598 Y7.627 E6.23482
G1 X-44.565 Y7.148 E6.25079
G1 X-44.375 Y5.75 E6.29771
G1 X-44.318 Y5.369 E6.31053
G1 X-43.99 Y2.627 E6.40238
G1 X-43.743 Y-0.07 E6.49246
G1 X-43.571 Y-2.813 E6.58387
G1 X-43.509 Y-4.382 E6.63609
G1 X-43.466 Y-4.896 E6.65325
G1 X-43.394 Y-5.436 E6.67137
G1 X-43.243 Y-6.441 E6.70517
G1 X-43.134 Y-7.102 E6.72745
G1 X-43.008 Y-7.623 E6.74528
G1 X-42.865 Y-7.993 E6.75847
G1 X-42.421 Y-8.979 E6.79444
G1 X-42.142 Y-9.565 E6.81603
G1 X-41.833 Y-10.196 E6.83939
G1 X-41.562 Y-10.659 E6.85724
G1 X-41.125 Y-11.198 E6.88032
G1 X-40.098 Y-12.325 E6.93103
G1 X-39.611 Y-12.843 E6.95468
G1 X-39.215 Y-13.205 E6.97252
G1 X-38.889 Y-13.434 E6.98577
G1 X-37.965 Y-14.008 E7.02195
G1 X-37.009 Y-14.575 E7.05892
G1 X-36.482 Y-14.876 E7.07911
G1 X-35.998 Y-15.107 E7.09694
G1 X-35.726 Y-15.2 E7.1065
G1 X-34.686 Y-15.509 E7.14259
G1 X-33.094 Y-15.95 E7.19753
G1 X-32.44 Y-16.121 E7.22002
G1 X-31.836 Y-16.225 E7.2404
G1 X-31.011 Y-16.295 E7.26794
G1 X-28.293 Y-16.485 E7.35856
G1 X-27.561 Y-16.526 E7.38295
G1 X-27.145 Y-16.531 E7.39678
G1 X-25.101 Y-16.493 E7.46478
G1 X-22.334 Y-16.521 E7.55681
G1 X-19.647 Y-16.623 E7.64625
G1 X-16.915 Y-16.806 E7.73732
G1 X-14.197 Y-17.065 E7.82813
G1 X-11.493 Y-17.399 E7.91875
G1 X-8.779 Y-17.814 E8.01007
G1 X-6.114 Y-18.297 E8.10015
G1 X-5.247 Y-18.475 E8.12959
G1 X-4.652 Y-18.572 E8.14964
G1 X-3.67 Y-18.667 E8.18245
G1 X-1.248 Y-18.858 E8.26326
G1 X-.532 Y-18.904 E8.28712
G1 X-.228 Y-18.91 E8.29723
G1 X0.372 Y-18.89 E8.3172
G0 F4800 X0.354 Y-18.491
G1 F600 X2.704 Y-18.368 E8.39547
G1 X3.425 Y-18.32 E8.4195
G1 X3.966 Y-18.248 E8.43766
G1 X4.254 Y-18.197 E8.44738
G1 X6.099 Y-17.851 E8.50982
G1 X6.195 Y-17.831 E8.51308
G1 X8.901 Y-17.323 E8.60465
G1 X11.619 Y-16.892 E8.69618
G1 X14.347 Y-16.539 E8.78767
G1 X17.05 Y-16.266 E8.87803
G1 X19.802 Y-16.066 E8.96981
G1 X22.511 Y-15.947 E9.06
G1 X25.266 Y-15.904 E9.15164
G1 X27.302 Y-15.93 E9.21936
G1 X27.728 Y-15.928 E9.23353
G1 X28.829 Y-15.893 E9.27017
G1 X29.928 Y-15.839 E9.30677
G1 X30.633 Y-15.794 E9.33026
G1 X30.908 Y-15.764 E9.33946
G1 X31.843 Y-15.622 E9.37092
G1 X32.701 Y-15.476 E9.39986
G1 X33.302 Y-15.366 E9.42019
G1 X33.674 Y-15.274 E9.43293
G1 X34.726 Y-14.947 E9.46957
G1 X35.13 Y-14.814 E9.48372
G1 X35.842 Y-14.568 E9.50877
G1 X36.441 Y-14.295 E9.53067
G1 X36.772 Y-14.116 E9.54318
G1 X37.422 Y-13.754 E9.56793
G1 X38.05 Y-13.39 E9.59207
G1 X38.56 Y-13.023 E9.61297
G1 X39.091 Y-12.554 E9.63653
G1 X39.416 Y-12.261 E9.65109
G1 X39.895 Y-11.815 E9.67286
G1 X40.321 Y-11.328 E9.69438
G1 X40.986 Y-10.391 E9.73259
G1 X41.438 Y-9.711 E9.75975
G1 X41.7 Y-9.234 E9.77785
G1 X41.929 Y-8.696 E9.7973
G1 X42.239 Y-7.922 E9.82503
G1 X42.466 Y-7.331 E9.84609
G1 X42.602 Y-6.882 E9.86169
G1 X42.854 Y-5.751 E9.90023
G1 X42.907 Y-5.482 E9.90935
G1 X43.04 Y-4.772 E9.93337
G1 X43.092 Y-4.322 E9.94844
G1 X43.149 Y-3.01 E9.99212
G1 X43.164 Y-2.495 E10.00926
G1 X43.323 Y0.189 E10.09868
G1 X43.564 Y2.945 E10.1907
G1 X43.848 Y5.42 E10.27356
G1 X44.014 Y6.727 E10.31738
G1 X44.096 Y7.446 E10.34145
G1 X44.096 Y8.174 E10.36566
G1 X44.05 Y8.568 E10.37885
G1 X43.8 Y10.308 E10.43732
G1 X43.694 Y10.979 E10.45991
G1 X43.576 Y11.471 E10.47674
G1 X43.456 Y11.783 E10.48786
G1 X42.994 Y12.817 E10.52553
G1 X42.533 Y13.799 E10.56161
G1 X42.247 Y14.389 E10.58342
G1 X41.991 Y14.825 E10.60023
G1 X41.789 Y15.084 E10.61116
G1 X41.18 Y15.789 E10.64214
G1 X40.301 Y16.773 E10.68603
G1 X39.871 Y17.241 E10.70717
G1 X39.501 Y17.585 E10.72397
G1 X39.234 Y17.775 E10.73487
G1 X38.023 Y18.546 E10.78262
G1 X36.136 Y19.734 E10.85678
G1 X33.837 Y21.272 E10.94878
G1 X31.623 Y22.846 E11.03913
G1 X29.407 Y24.517 E11.13144
G1 X27.3 Y26.201 E11.22115
G1 X25.201 Y27.98 E11.31267
G1 X23.158 Y29.812 E11.40394
G1 X21.182 Y31.687 E11.49454
G1 X19.226 Y33.652 E11.58675
G1 X17.362 Y35.632 E11.6772
G1 X15.578 Y37.64 E11.76654
G1 X13.76 Y39.807 E11.86062
G1 X12.99 Y40.77 E11.90163
G1 X12.769 Y41.035 E11.9131
G1 X12.273 Y41.598 E11.93806
G1 X11.97 Y41.933 E11.95308
G1 X11.554 Y42.38 E11.97339
G1 X11.066 Y42.807 E11.99496
G1 X10.124 Y43.476 E12.03339
G1 X9.438 Y43.931 E12.06077
G1 X8.952 Y44.195 E12.07916
G1 X8.42 Y44.421 E12.09839
G1 X7.658 Y44.726 E12.12569
G1 X7.067 Y44.953 E12.14674
G1 X6.618 Y45.089 E12.16235
G1 X5.487 Y45.341 E12.20089
G1 X5.225 Y45.393 E12.20977
G1 X4.523 Y45.526 E12.23353
G1 X4.064 Y45.579 E12.2489
G1 X2.738 Y45.635 E12.29304
G1 X2.265 Y45.65 E12.30878
G1 X-.453 Y45.81 E12.39934
G1 X-3.209 Y46.051 E12.49136
G1 X-5.684 Y46.335 E12.57421
G1 X-6.991 Y46.501 E12.61804
G1 X-7.71 Y46.583 E12.6421
G1 X-8.438 Y46.583 E12.66632
G1 X-8.832 Y46.537 E12.67951
G1 X-10.579 Y46.286 E12.73821
G1 X-11.249 Y46.179 E12.76078
G1 X-11.74 Y46.06 E12.77758
G1 X-12.045 Y45.943 E12.78845
G1 X-13.075 Y45.484 E12.82595
G1 X-14.033 Y45.034 E12.86116
G1 X-14.658 Y44.73 E12.88427
G1 X-15.093 Y44.473 E12.90108
G1 X-15.349 Y44.274 E12.91186
G1 X-16.061 Y43.659 E12.94315
G1 X-17.041 Y42.784 E12.98685
G1 X-17.508 Y42.353 E13.00799
G1 X-17.852 Y41.981 E13.02484
G1 X-18.034 Y41.725 E13.03529
G1 X-18.591 Y40.854 E13.06967
G1 X-20.101 Y38.559 E13.16105
G1 X-21.67 Y36.313 E13.25217
G1 X-23.298 Y34.117 E13.34309
G1 X-24.981 Y31.975 E13.4337
G1 X-26.759 Y29.84 E13.52611
G1 X-28.536 Y27.827 E13.61541
G1 X-30.432 Y25.795 E13.70785
G1 X-32.316 Y23.888 E13.79701
G1 X-34.331 Y21.961 E13.88974
G1 X-36.367 Y20.12 E13.98104
G1 X-38.424 Y18.364 E14.07099
G1 X-39.775 Y17.266 E14.1289
G1 X-40.168 Y16.889 E14.14701
G1 X-40.391 Y16.636 E14.15823
G1 X-41.093 Y15.796 E14.19464
G1 X-41.538 Y15.246 E14.21817
G1 X-41.991 Y14.548 E14.24584
G1 X-42.477 Y13.685 E14.27879
G1 X-42.798 Y13.095 E14.30113
G1 X-42.993 Y12.662 E14.31692
G1 X-43.378 Y11.602 E14.35443
G1 X-43.52 Y11.186 E14.36905
G1 X-43.725 Y10.555 E14.39112
G1 X-43.85 Y10.039 E14.40878
G1 X-43.95 Y9.47 E14.42799
G1 X-44.061 Y8.788 E14.45097
G1 X-44.163 Y8.103 E14.47401
G1 X-44.198 Y7.599 E14.49081
G1 X-44.169 Y7.202 E14.50405
G1 X-43.98 Y5.809 E14.55081
G1 X-43.915 Y5.377 E14.56534
G1 X-43.596 Y2.71 E14.65467
G1 X-43.344 Y-0.044 E14.74665
G1 X-43.173 Y-2.773 E14.8376
G1 X-43.11 Y-4.366 E14.89062
G1 X-43.051 Y-4.995 E14.91164
G1 X-42.998 Y-5.377 E14.92446
G1 X-42.848 Y-6.376 E14.95806
G1 X-42.739 Y-7.037 E14.98034
G1 X-42.618 Y-7.527 E14.99713
G1 X-42.5 Y-7.829 E15.00792
G1 X-42.059 Y-8.807 E15.0436
G1 X-41.783 Y-9.389 E15.06502
G1 X-41.474 Y-10.02 E15.08839
G1 X-41.216 Y-10.455 E15.10521
G1 X-40.822 Y-10.936 E15.12589
G1 X-39.806 Y-12.051 E15.17606
G1 X-39.319 Y-12.569 E15.19971
G1 X-38.945 Y-12.909 E15.21652
G1 X-38.678 Y-13.094 E15.22733
G1 X-37.761 Y-13.664 E15.26324
G1 X-36.811 Y-14.228 E15.29998
G1 X-36.284 Y-14.529 E15.32017
G1 X-35.612 Y-14.816 E15.34447
G1 X-34.579 Y-15.124 E15.38033
G1 X-32.992 Y-15.563 E15.43509
G1 X-32.338 Y-15.734 E15.45758
G1 X-31.802 Y-15.826 E15.47566
G1 X-30.983 Y-15.896 E15.503
G1 X-28.271 Y-16.086 E15.59343
G1 X-27.539 Y-16.127 E15.61781
G1 X-27.152 Y-16.131 E15.63068
G1 X-25.104 Y-16.093 E15.69881
G1 X-22.351 Y-16.12 E15.79038
G1 X-19.604 Y-16.225 E15.88181
G1 X-16.886 Y-16.408 E15.97242
G1 X-14.147 Y-16.668 E16.06393
G1 X-11.416 Y-17.006 E16.15545
G1 X-8.754 Y-17.413 E16.24502
G1 X-6.008 Y-17.911 E16.33784
G1 X-5.174 Y-18.082 E16.36616
G1 X-4.613 Y-18.174 E16.38507
G1 X-3.639 Y-18.268 E16.41761
G1 X-1.222 Y-18.458 E16.49825
G1 X-.506 Y-18.504 E16.52211
G1 X-.236 Y-18.51 E16.5311
G1 X0.354 Y-18.491 E16.55073
G1 F1800 E14.55073
;MESH:S.stl(2)
G0 F4800 X0.154 Y-14.678
G1 F1800 E16.55073
G0 F4800 X-.296 Y-14.72
;TYPE:WALL-INNER
G1 F600 X3.131 Y-14.542 E16.66487
G1 X5.957 Y-14.012 E16.7605
G1 X8.141 Y-13.157 E16.83851
G1 X9.749 Y-11.984 E16.90471
G1 X10.952 Y-10.544 E16.96712
G1 X11.873 Y-8.9 E17.02979
G1 X12.502 Y-7.062 E17.0944
G1 X12.702 Y-5.828 E17.13598
G1 X5.442 Y-5.374 E17.37792
G1 X5.15 Y-6.641 E17.42117
G1 X5.105 Y-6.764 E17.42552
G1 X4.334 Y-8.222 E17.48038
G1 X4.245 Y-8.341 E17.48532
G1 X3.396 Y-9.193 E17.52533
G1 X3.299 Y-9.27 E17.52945
G1 X2.29 Y-9.875 E17.56858
G1 X2.181 Y-9.925 E17.57257
G1 X1.014 Y-10.288 E17.61321
G1 X0.91 Y-10.308 E17.61674
G1 X-.405 Y-10.427 E17.66065
G1 X-.515 Y-10.426 E17.66431
G1 X-2.36 Y-10.181 E17.72622
G1 X-2.532 Y-10.126 E17.73222
G1 X-3.934 Y-9.374 E17.78514
G1 X-4.09 Y-9.245 E17.79187
G1 X-4.976 Y-8.139 E17.839
G1 X-5.074 Y-7.938 E17.84644
G1 X-5.374 Y-6.652 E17.89036
G1 X-5.374 Y-6.424 E17.89794
G1 X-5.088 Y-5.19 E17.94008
G1 X-4.994 Y-4.993 E17.94734
G1 X-4.147 Y-3.907 E17.99314
G1 X-3.985 Y-3.772 E18.00016
G1 X-2.202 Y-2.832 E18.0672
G1 X-2.102 Y-2.792 E18.07078
G1 X1.013 Y-1.932 E18.17826
G1 X3.785 Y-1.205 E18.27357
G1 X6.095 Y-.38 E18.35516
G1 X7.958 Y0.541 E18.42428
G1 X9.364 Y1.541 E18.48167
G1 X10.39 Y2.627 E18.53136
G1 X11.122 Y3.852 E18.57882
G1 X11.557 Y5.203 E18.62603
G1 X11.703 Y6.697 E18.67595
G1 X11.398 Y8.735 E18.74449
G1 X10.495 Y10.642 E18.81467
G1 X8.977 Y12.302 E18.88949
G1 X6.823 Y13.581 E18.97281
G1 X3.812 Y14.414 E19.07672
G1 X-.248 Y14.699 E19.21208
G1 X-2.874 Y14.569 E19.29953
G1 X-5.107 Y14.19 E19.37486
G1 X-7.009 Y13.563 E19.44147
G1 X-8.542 Y12.707 E19.49987
G1 X-9.756 Y11.61 E19.55429
G1 X-10.706 Y10.214 E19.61046
G1 X-11.392 Y8.503 E19.67177
G1 X-11.634 Y7.305 E19.71242
G1 X-4.443 Y6.882 E19.952
G1 X-4.071 Y8.087 E19.99395
G1 X-3.987 Y8.245 E19.9999
G1 X-2.991 Y9.536 E20.05413
G1 X-2.824 Y9.674 E20.06134
G1 X-1.396 Y10.417 E20.11488
G1 X-1.23 Y10.471 E20.12069
G1 X0.61 Y10.713 E20.18241
G1 X0.735 Y10.714 E20.18657
G1 X2.245 Y10.532 E20.23715
G1 X2.412 Y10.482 E20.24295
G1 X3.533 Y9.916 E20.28472
G1 X3.698 Y9.782 E20.29179
G1 X4.396 Y8.918 E20.32873
G1 X4.495 Y8.712 E20.33633
G1 X4.729 Y7.67 E20.37185
G1 X4.728 Y7.438 E20.37957
G1 X4.526 Y6.624 E20.40747
G1 X4.425 Y6.423 E20.41495
G1 X3.836 Y5.716 E20.44555
G1 X3.681 Y5.59 E20.4522
G1 X2.489 Y4.973 E20.49684
G1 X2.386 Y4.934 E20.5005
G1 X0.367 Y4.398 E20.56998
G1 X-4.824 Y3.086 E20.74806
G1 X-8.191 Y1.801 E20.86793
G1 X-10.296 Y0.41 E20.95185
G1 X-11.698 Y-1.233 E21.02368
G1 X-12.506 Y-3.126 E21.09214
G1 X-12.775 Y-5.24 E21.16302
G1 X-12.408 Y-7.789 E21.24868
G1 X-11.311 Y-10.126 E21.33454
G1 X-9.56 Y-12.086 E21.42196
G1 X-7.198 Y-13.526 E21.51397
G1 X-4.14 Y-14.417 E21.6199
G1 X-.296 Y-14.72 E21.74815
G0 F4800 X-.306 Y-15.121
;TYPE:WALL-OUTER
G1 F600 X3.181 Y-14.939 E21.86429
G1 X6.071 Y-14.397 E21.96209
G1 X8.333 Y-13.512 E22.04287
G1 X10.024 Y-12.279 E22.11248
G1 X11.284 Y-10.769 E22.17789
G1 X12.238 Y-9.067 E22.24279
G1 X12.892 Y-7.157 E22.30993
G1 X13.168 Y-5.457 E22.36722
G1 X5.128 Y-4.954 E22.63515
G1 X4.766 Y-6.527 E22.68884
G1 X4.739 Y-6.601 E22.69146
G1 X3.995 Y-8.008 E22.74439
G1 X3.942 Y-8.079 E22.74734
G1 X3.129 Y-8.894 E22.78563
G1 X3.071 Y-8.94 E22.78809
G1 X2.104 Y-9.52 E22.8256
G1 X2.038 Y-9.55 E22.82801
G1 X0.916 Y-9.899 E22.86709
G1 X0.854 Y-9.911 E22.86919
G1 X-.42 Y-10.027 E22.91174
G1 X-.486 Y-10.026 E22.91393
G1 X-2.272 Y-9.789 E22.97386
G1 X-2.375 Y-9.756 E22.97745
G1 X-3.71 Y-9.04 E23.02784
G1 X-3.803 Y-8.963 E23.03185
G1 X-4.636 Y-7.924 E23.07615
G1 X-4.695 Y-7.803 E23.08062
G1 X-4.974 Y-6.606 E23.1215
G1 X-4.974 Y-6.47 E23.12603
G1 X-4.708 Y-5.322 E23.16522
G1 X-4.652 Y-5.204 E23.16957
G1 X-3.858 Y-4.187 E23.21248
G1 X-3.761 Y-4.106 E23.21668
G1 X-2.034 Y-3.196 E23.28161
G1 X-1.974 Y-3.172 E23.28376
G1 X1.117 Y-2.318 E23.39042
G1 X3.905 Y-1.587 E23.48628
G1 X6.253 Y-.749 E23.5692
G1 X8.163 Y0.196 E23.64008
G1 X9.629 Y1.238 E23.6999
G1 X10.709 Y2.381 E23.7522
G1 X11.49 Y3.689 E23.80287
G1 X11.951 Y5.119 E23.85284
