;FLAVOR:Marlin
;TIME:1999
;Filament used: 1.74799m
;Layer height: 0.2
;MINX:-37.505
;MINY:-26.798
;MINZ:0.2
;MAXX:37.415
;MAXY:48.089
;MAXZ:3.8
;POSTPROCESSED
;Generated with Cura_SteamEngine 4.13.1
M82 ;absolute extrusion mode
START_PRINT BED_TEMP=80 EXTRUDER_TEMP=220.0
G92 E0
G92 E0
G1 F1800 E-2
;LAYER_COUNT:19
;LAYER:0
M107
G0 F4800 X-1.05 Y-26.591 Z0.2
;TYPE:SKIRT
G1 F1800 E0
G1 F600 X1.645 Y-26.591 E0.08964
G1 X4.392 Y-26.668 E0.18104
G1 X5.914 Y-26.743 E0.23172
G1 X6.367 Y-26.754 E0.24679
G1 X33.16 Y-26.754 E1.13793
G1 X33.858 Y-26.744 E1.16115
G1 X34.392 Y-26.696 E1.17898
G1 X34.913 Y-26.57 E1.19681
G1 X35.41 Y-26.367 E1.21467
G1 X35.871 Y-26.093 E1.2325
G1 X36.286 Y-25.754 E1.25033
G1 X36.646 Y-25.356 E1.26817
G1 X36.943 Y-24.91 E1.286
G1 X37.171 Y-24.424 E1.30385
G1 X37.323 Y-23.91 E1.32168
G1 X37.405 Y-23.248 E1.34387
G1 X37.415 Y-22.832 E1.35771
G1 X37.415 Y-16.797 E1.55843
G1 X37.404 Y-16.093 E1.58185
G1 X37.355 Y-15.559 E1.59968
G1 X37.228 Y-15.038 E1.61752
G1 X36.979 Y-14.451 E1.63873
G1 X36.771 Y-14.064 E1.65334
G1 X35.786 Y-12.298 E1.7206
G1 X34.543 Y-9.914 E1.81002
G1 X33.341 Y-7.441 E1.90147
G1 X32.213 Y-4.941 E1.9927
G1 X31.165 Y-2.435 E2.08304
G1 X30.188 Y0.11 E2.17371
G1 X29.279 Y2.686 E2.26457
G1 X28.445 Y5.278 E2.35513
G1 X27.946 Y6.998 E2.4147
G1 X27.794 Y7.496 E2.43201
G1 X27.609 Y7.976 E2.44912
G1 X27.391 Y8.44 E2.46617
G1 X26.278 Y10.902 E2.55604
G1 X25.214 Y13.45 E2.64788
G1 X24.232 Y15.996 E2.73864
G1 X23.332 Y18.544 E2.82852
G1 X22.495 Y21.147 E2.91946
G1 X21.734 Y23.764 E3.01011
G1 X21.051 Y26.39 E3.10035
G1 X20.426 Y29.099 E3.19282
G1 X19.897 Y31.741 E3.28244
G1 X19.439 Y34.417 E3.37274
G1 X19.055 Y37.115 E3.46338
G1 X18.746 Y39.834 E3.55439
G1 X18.513 Y42.559 E3.64536
G1 X18.43 Y44.052 E3.69509
G1 X18.38 Y44.741 E3.71807
G1 X18.301 Y45.271 E3.73589
G1 X18.145 Y45.784 E3.75373
G1 X17.914 Y46.268 E3.77156
G1 X17.613 Y46.712 E3.7894
G1 X17.25 Y47.107 E3.80725
G1 X16.833 Y47.444 E3.82508
G1 X16.37 Y47.714 E3.84291
G1 X15.872 Y47.913 E3.86074
G1 X15.35 Y48.036 E3.87858
G1 X14.572 Y48.088 E3.90451
G1 X8.448 Y48.089 E4.1082
G1 X7.745 Y48.079 E4.13158
G1 X7.211 Y48.031 E4.14942
G1 X6.689 Y47.905 E4.16728
G1 X6.095 Y47.652 E4.18875
G1 X5.708 Y47.444 E4.20336
G1 X3.944 Y46.46 E4.27055
G1 X1.56 Y45.217 E4.35997
G1 X-.912 Y44.015 E4.45139
G1 X-3.396 Y42.895 E4.54202
G1 X-5.916 Y41.842 E4.63286
G1 X-8.495 Y40.85 E4.72476
G1 X-11.028 Y39.957 E4.81409
G1 X-13.601 Y39.129 E4.90399
G1 X-15.381 Y38.612 E4.96564
G1 X-15.851 Y38.467 E4.982
G1 X-16.351 Y38.271 E4.99986
G1 X-16.815 Y38.003 E5.01769
G1 X-17.235 Y37.669 E5.03553
G1 X-17.6 Y37.277 E5.05335
G1 X-17.903 Y36.835 E5.07117
G1 X-18.137 Y36.352 E5.08902
G1 X-18.314 Y35.763 E5.10948
G1 X-18.376 Y35.465 E5.1196
G1 X-18.796 Y33.22 E5.19557
G1 X-19.374 Y30.55 E5.28643
G1 X-20.013 Y27.952 E5.37541
G1 X-20.756 Y25.266 E5.46811
G1 X-21.547 Y22.69 E5.55773
G1 X-22.428 Y20.087 E5.64913
G1 X-23.365 Y17.556 E5.7389
G1 X-24.384 Y15.028 E5.82955
G1 X-25.491 Y12.49 E5.92165
G1 X-26.635 Y10.055 E6.01113
G1 X-27.437 Y8.466 E6.07033
G1 X-27.677 Y7.974 E6.08854
G1 X-27.896 Y7.407 E6.10875
G1 X-28.172 Y6.464 E6.14143
G1 X-28.991 Y3.797 E6.23423
G1 X-29.861 Y1.228 E6.32444
G1 X-30.804 Y-1.321 E6.41483
G1 X-31.828 Y-3.864 E6.50601
G1 X-32.914 Y-6.354 E6.59637
G1 X-34.071 Y-8.815 E6.68681
G1 X-35.318 Y-11.286 E6.77887
G1 X-36.606 Y-13.664 E6.86882
G1 X-37.038 Y-14.438 E6.8983
G1 X-37.263 Y-14.925 E6.91615
G1 X-37.41 Y-15.421 E6.93335
G1 X-37.495 Y-16.1 E6.95611
G1 X-37.505 Y-16.52 E6.97009
G1 X-37.505 Y-22.547 E7.17054
G1 X-37.496 Y-23.236 E7.19346
G1 X-37.449 Y-23.77 E7.21129
G1 X-37.323 Y-24.292 E7.22915
G1 X-37.121 Y-24.788 E7.24696
G1 X-36.848 Y-25.25 E7.26481
G1 X-36.509 Y-25.665 E7.28264
G1 X-36.112 Y-26.026 E7.30048
G1 X-35.666 Y-26.324 E7.31832
G1 X-35.181 Y-26.552 E7.33615
G1 X-34.667 Y-26.706 E7.35399
G1 X-33.997 Y-26.788 E7.37645
G1 X-33.575 Y-26.798 E7.39049
G1 X-6.782 Y-26.798 E8.28162
G1 X-5.971 Y-26.785 E8.3086
G1 X-5.346 Y-26.757 E8.32941
G1 X-3.816 Y-26.67 E8.38038
G1 X-1.05 Y-26.591 E8.47242
G0 F4800 X-1.061 Y-26.191
G1 F600 X1.657 Y-26.191 E8.56282
G1 X4.422 Y-26.268 E8.65482
G1 X5.926 Y-26.343 E8.7049
G1 X6.367 Y-26.354 E8.71957
G1 X33.154 Y-26.354 E9.61051
G1 X33.852 Y-26.344 E9.63373
G1 X34.355 Y-26.297 E9.65053
G1 X34.845 Y-26.171 E9.66736
G1 X35.309 Y-25.969 E9.68419
G1 X35.735 Y-25.697 E9.701
G1 X36.113 Y-25.362 E9.7178
G1 X36.433 Y-24.971 E9.73461
G1 X36.688 Y-24.534 E9.75144
G1 X36.871 Y-24.063 E9.76824
G1 X36.978 Y-23.569 E9.78505
G1 X37.014 Y-22.924 E9.80654
G1 X37.015 Y-16.803 E10.01013
G1 X37.004 Y-16.099 E10.03354
G1 X36.956 Y-15.596 E10.05035
G1 X36.829 Y-15.106 E10.06719
G1 X36.626 Y-14.64 E10.08409
G1 X36.422 Y-14.259 E10.09847
G1 X35.44 Y-12.499 E10.1655
G1 X34.172 Y-10.067 E10.25672
G1 X32.981 Y-7.615 E10.34739
G1 X31.85 Y-5.11 E10.4388
G1 X30.782 Y-2.555 E10.53091
G1 X29.83 Y-0.078 E10.61917
G1 X28.897 Y2.568 E10.71248
G1 X28.066 Y5.15 E10.8027
G1 X27.564 Y6.881 E10.86265
G1 X27.412 Y7.379 E10.87996
G1 X27.049 Y8.227 E10.91064
G1 X25.909 Y10.748 E11.00267
G1 X24.843 Y13.3 E11.09465
G1 X23.858 Y15.856 E11.18576
G1 X22.95 Y18.426 E11.27642
G1 X22.116 Y21.019 E11.36701
G1 X21.349 Y23.658 E11.45842
G1 X20.658 Y26.314 E11.5497
G1 X20.039 Y28.996 E11.64125
G1 X19.505 Y31.667 E11.73184
G1 X19.041 Y34.37 E11.82306
G1 X18.656 Y37.08 E11.9141
G1 X18.347 Y39.791 E12.00485
G1 X18.116 Y42.504 E12.09541
G1 X18.031 Y44.023 E12.14601
G1 X17.981 Y44.712 E12.16899
G1 X17.904 Y45.211 E12.18578
G1 X17.75 Y45.693 E12.20261
G1 X17.522 Y46.144 E12.21942
G1 X17.226 Y46.554 E12.23624
G1 X16.869 Y46.912 E12.25306
G1 X16.46 Y47.209 E12.26987
G1 X16.009 Y47.438 E12.28669
G1 X15.528 Y47.593 E12.3035
G1 X14.879 Y47.679 E12.32527
G1 X14.47 Y47.689 E12.33888
G1 X8.453 Y47.689 E12.53901
G1 X7.75 Y47.679 E12.56239
G1 X7.247 Y47.632 E12.5792
G1 X6.757 Y47.506 E12.59602
G1 X6.284 Y47.299 E12.6132
G1 X5.903 Y47.094 E12.62759
G1 X4.172 Y46.128 E12.69352
G1 X1.713 Y44.846 E12.78575
G1 X-.751 Y43.648 E12.87688
G1 X-3.213 Y42.538 E12.9667
G1 X-5.797 Y41.459 E13.05984
G1 X-8.324 Y40.486 E13.1499
G1 X-10.92 Y39.571 E13.24145
G1 X-13.504 Y38.74 E13.33173
G1 X-15.263 Y38.23 E13.39264
G1 X-15.733 Y38.085 E13.409
G1 X-16.203 Y37.898 E13.42583
G1 X-16.638 Y37.64 E13.44265
G1 X-17.026 Y37.316 E13.45946
G1 X-17.359 Y36.935 E13.47629
G1 X-17.627 Y36.507 E13.49309
G1 X-17.825 Y36.042 E13.5099
G1 X-17.969 Y35.456 E13.52997
G1 X-18.397 Y33.175 E13.60716
G1 X-18.981 Y30.476 E13.699
G1 X-19.635 Y27.814 E13.79018
G1 X-20.361 Y25.19 E13.88073
G1 X-21.172 Y22.55 E13.97259
G1 X-22.049 Y19.957 E14.06363
G1 X-22.995 Y17.402 E14.15425
G1 X-24.017 Y14.867 E14.24515
G1 X-25.12 Y12.339 E14.33689
G1 X-26.274 Y9.884 E14.42712
G1 X-27.077 Y8.291 E14.48645
G1 X-27.317 Y7.799 E14.50466
G1 X-27.512 Y7.294 E14.52266
G1 X-27.789 Y6.347 E14.55548
G1 X-28.605 Y3.689 E14.64796
G1 X-29.482 Y1.097 E14.73897
G1 X-30.441 Y-1.492 E14.8308
G1 X-31.453 Y-4.007 E14.92096
G1 X-32.549 Y-6.519 E15.01212
G1 X-33.723 Y-9.016 E15.10389
G1 X-34.944 Y-11.435 E15.19402
G1 X-36.256 Y-13.859 E15.28569
G1 X-36.688 Y-14.633 E15.31517
G1 X-36.899 Y-15.093 E15.332
G1 X-37.02 Y-15.508 E15.34638
G1 X-37.095 Y-16.111 E15.36659
G1 X-37.105 Y-16.52 E15.3802
G1 X-37.105 Y-22.542 E15.58049
G1 X-37.096 Y-23.231 E15.60341
G1 X-37.049 Y-23.734 E15.62021
G1 X-36.924 Y-24.224 E15.63703
G1 X-36.723 Y-24.688 E15.65385
G1 X-36.452 Y-25.115 E15.67067
G1 X-36.117 Y-25.493 E15.68747
G1 X-35.726 Y-25.814 E15.7043
G1 X-35.29 Y-26.07 E15.72111
G1 X-34.819 Y-26.253 E15.73792
G1 X-34.325 Y-26.36 E15.75473
G1 X-33.665 Y-26.397 E15.77672
G1 X-6.788 Y-26.398 E16.67065
G1 X-6.082 Y-26.388 E16.69413
G1 X-5.369 Y-26.358 E16.71787
G1 X-3.816 Y-26.27 E16.76961
G1 X-1.061 Y-26.191 E16.86127
G1 F1800 E14.86127
;MESH:T.stl(2)
G0 F4800 X-1.061 Y-14.157
G0 X-3.782 Y-14.107
G1 F1800 E16.86127
G0 F4800 X-3.852 Y-14.177
;TYPE:WALL-INNER
G1 F600 X3.819 Y-14.177 E17.11641
G1 X3.819 Y7.711 E17.84441
G1 X3.966 Y8.158 E17.86006
G1 X4.477 Y8.415 E17.87909
G1 X13.273 Y8.415 E18.17164
G1 X13.273 Y14.223 E18.36482
G1 X-13.306 Y14.223 E19.24884
G1 X-13.306 Y8.415 E19.44201
G1 X-4.556 Y8.415 E19.73304
G1 X-4.109 Y8.268 E19.74869
G1 X-3.852 Y7.757 E19.76771
G1 X-3.852 Y-14.177 E20.49724
G0 F4800 X-4.252 Y-14.577
;TYPE:WALL-OUTER
G1 F600 X4.219 Y-14.577 E20.77899
G1 X4.219 Y7.647 E21.51816
G1 X4.294 Y7.875 E21.52614
G1 X4.572 Y8.015 E21.5365
G1 X13.673 Y8.015 E21.8392
G1 X13.673 Y14.623 E22.05898
G1 X-13.706 Y14.623 E22.96961
G1 X-13.706 Y8.015 E23.18939
G1 X-4.62 Y8.015 E23.49159
G1 X-4.392 Y7.94 E23.49958
G1 X-4.252 Y7.662 E23.50993
G1 X-4.252 Y-14.577 E24.2496
G0 F4800 X-4.052 Y-14.577
G0 X-3.782 Y-14.107
G0 X0.49 Y10.263
;TYPE:SKIN
G1 F600 X-.679 Y10.263 E24.28848
G1 X0.028 Y8.857 E24.34083
G1 X0.49 Y10.263 E24.39005
G0 F4800 X1.043 Y10.663
G1 F600 X-1.328 Y10.663 E24.46891
G1 X-.292 Y8.602 E24.54563
G1 X-.292 Y-10.617 E25.18486
G1 X0.259 Y-10.617 E25.20319
G1 X0.259 Y8.281 E25.83174
G1 X1.043 Y10.663 E25.91514
G0 F4800 X1.375 Y10.393
G1 F600 X2.708 Y11.063 E25.96476
G1 X-2.494 Y11.063 E26.13778
G1 X-1.874 Y10.859 E26.15949
G1 X-.692 Y8.507 E26.24704
G1 X-.692 Y-11.017 E26.89641
G1 X0.659 Y-11.017 E26.94135
G1 X0.659 Y8.217 E27.58107
G1 X1.375 Y10.393 E27.65726
G0 F4800 X1.703 Y10.11
G1 F600 X3.822 Y11.175 E27.73614
G1 X10.513 Y11.175 E27.95869
G1 X10.513 Y11.463 E27.96827
G1 X-10.546 Y11.463 E28.66869
G1 X-10.546 Y11.175 E28.67827
G1 X-4.114 Y11.175 E28.8922
G1 X-2.157 Y10.531 E28.96072
G1 X-1.092 Y8.412 E29.0396
G1 X-1.092 Y-11.417 E29.69912
G1 X1.059 Y-11.417 E29.77066
G1 X1.059 Y8.153 E30.42156
G1 X1.703 Y10.11 E30.49008
G0 F4800 X2.031 Y9.827
G1 F600 X3.917 Y10.775 E30.56029
G1 X10.913 Y10.775 E30.79298
G1 X10.913 Y11.863 E30.82917
G1 X-10.946 Y11.863 E31.5562
G1 X-10.946 Y10.775 E31.59239
G1 X-4.178 Y10.775 E31.81749
G1 X-2.44 Y10.203 E31.87835
G1 X-1.492 Y8.317 E31.94855
G1 X-1.492 Y-11.817 E32.61821
G1 X1.459 Y-11.817 E32.71637
G1 X1.459 Y8.089 E33.37844
G1 X2.031 Y9.827 E33.4393
G0 F4800 X2.359 Y9.544
G1 F600 X4.012 Y10.375 E33.50083
G1 X11.313 Y10.375 E33.74367
G1 X11.313 Y12.263 E33.80646
G1 X-11.346 Y12.263 E34.5601
G1 X-11.346 Y10.375 E34.6229
G1 X-4.242 Y10.375 E34.85918
G1 X-2.723 Y9.875 E34.91237
G1 X-1.892 Y8.222 E34.9739
G1 X-1.892 Y-12.217 E35.65371
G1 X1.859 Y-12.217 E35.77846
G1 X1.859 Y8.025 E36.45172
G1 X2.359 Y9.544 E36.5049
G0 F4800 X2.687 Y9.261
G1 F600 X4.107 Y9.975 E36.55777
G1 X11.713 Y9.975 E36.81074
G1 X11.713 Y12.663 E36.90015
G1 X-11.746 Y12.663 E37.6804
G1 X-11.746 Y9.975 E37.7698
G1 X-4.306 Y9.975 E38.01726
G1 X-3.006 Y9.547 E38.06278
G1 X-2.292 Y8.127 E38.11564
G1 X-2.292 Y-12.617 E38.80559
G1 X2.259 Y-12.617 E38.95696
G1 X2.259 Y7.961 E39.64138
G1 X2.687 Y9.261 E39.6869
G0 F4800 X3.015 Y8.978
G1 F600 X4.202 Y9.575 E39.7311
G1 X12.113 Y9.575 E39.99422
G1 X12.113 Y13.063 E40.11023
G1 X-12.146 Y13.063 E40.91709
G1 X-12.146 Y9.575 E41.0331
G1 X-4.37 Y9.575 E41.29173
G1 X-3.289 Y9.219 E41.32958
G1 X-2.692 Y8.032 E41.37377
G1 X-2.692 Y-13.017 E42.07387
G1 X2.659 Y-13.017 E42.25184
G1 X2.659 Y7.897 E42.94744
G1 X3.015 Y8.978 E42.9853
G0 F4800 X3.343 Y8.695
G1 F600 X4.297 Y9.175 E43.02082
G1 X12.513 Y9.175 E43.29408
G1 X12.513 Y13.463 E43.4367
G1 X-12.546 Y13.463 E44.27017
G1 X-12.546 Y9.175 E44.41279
G1 X-4.434 Y9.175 E44.68259
G1 X-3.572 Y8.891 E44.71278
G1 X-3.092 Y7.937 E44.7483
G1 X-3.092 Y-13.417 E45.45854
G1 X3.059 Y-13.417 E45.66312
G1 X3.059 Y7.833 E46.3699
G1 X3.343 Y8.695 E46.40008
G0 F4800 X3.671 Y8.412
G1 F600 X4.392 Y8.775 E46.42693
G1 X12.913 Y8.775 E46.71034
G1 X12.913 Y13.863 E46.87957
G1 X-12.946 Y13.863 E47.73964
G1 X-12.946 Y8.775 E47.90887
G1 X-4.498 Y8.775 E48.18985
G1 X-3.855 Y8.563 E48.21237
G1 X-3.492 Y7.842 E48.23922
G1 X-3.492 Y-13.817 E48.9596
G1 X3.459 Y-13.817 E49.19079
G1 X3.459 Y7.769 E49.90875
G1 X3.671 Y8.412 E49.93126
G0 F4800 X3.073 Y10.993
;TYPE:SKIN
G1 F600 X3.367 Y11.286 E49.93817
G0 F4800 X3.084 Y11.286
G1 F600 X2.87 Y11.072 E49.9432
G0 F4800 X1.834 Y10.885
G1 F600 X1.7 Y10.751 E49.94635
G0 F4800 X1.553 Y10.887
G1 F600 X1.19 Y10.523 E49.9549
G0 F4800 X0.187 Y10.086
G1 F600 X-.2 Y9.698 E49.96401
G0 F4800 X-.295 Y9.886
G1 F600 X-0.095 Y10.086 E49.96872
G0 F4800 X0.14 Y9.756
G1 F600 X-.106 Y9.509 E49.97452
G0 F4800 X-0.08 Y8.687
G1 F600 X-.117 Y8.65 E49.97539
G0 F4800 X-.117 Y8.367
G1 F600 X0.212 Y8.697 E49.98313
G0 F4800 X0.084 Y8.286
G1 F600 X-.117 Y8.085 E49.98786
G0 F4800 X0.084 Y8.003
G1 F600 X-.117 Y7.802 E49.99259
G0 F4800 X0.084 Y7.72
G1 F600 X-.117 Y7.519 E49.99732
G0 F4800 X0.084 Y7.438
G1 F600 X-.117 Y7.236 E50.00206
G0 F4800 X0.084 Y7.155
G1 F600 X-.117 Y6.953 E50.00679
G0 F4800 X0.084 Y6.872
G1 F600 X-.117 Y6.67 E50.01153
G0 F4800 X0.084 Y6.589
G1 F600 X-.117 Y6.388 E50.01626
G0 F4800 X0.084 Y6.306
G1 F600 X-.117 Y6.105 E50.02099
G0 F4800 X0.084 Y6.023
G1 F600 X-.117 Y5.822 E50.02571
G0 F4800 X0.084 Y5.74
G1 F600 X-.117 Y5.539 E50.03044
G0 F4800 X0.084 Y5.458
G1 F600 X-.117 Y5.256 E50.03518
G0 F4800 X0.084 Y5.175
G1 F600 X-.117 Y4.973 E50.03992
G0 F4800 X0.084 Y4.892
G1 F600 X-.117 Y4.69 E50.04466
G0 F4800 X0.084 Y4.609
G1 F600 X-.117 Y4.408 E50.04939
G0 F4800 X0.084 Y4.326
G1 F600 X-.117 Y4.125 E50.05411
G0 F4800 X0.084 Y4.043
G1 F600 X-.117 Y3.842 E50.05884
G0 F4800 X0.084 Y3.761
G1 F600 X-.117 Y3.559 E50.06358
G0 F4800 X0.084 Y3.478
G1 F600 X-.117 Y3.276 E50.06832
G0 F4800 X0.084 Y3.195
G1 F600 X-.117 Y2.993 E50.07306
G0 F4800 X0.084 Y2.912
G1 F600 X-.117 Y2.711 E50.07778
G0 F4800 X0.084 Y2.629
G1 F600 X-.117 Y2.428 E50.08251
G0 F4800 X0.084 Y2.346
G1 F600 X-.117 Y2.145 E50.08724
G0 F4800 X0.084 Y2.064
G1 F600 X-.117 Y1.862 E50.09198
G0 F4800 X0.084 Y1.781
G1 F600 X-.117 Y1.579 E50.09672
G0 F4800 X0.084 Y1.498
G1 F600 X-.117 Y1.296 E50.10146
G0 F4800 X0.084 Y1.215
G1 F600 X-.117 Y1.013 E50.1062
G0 F4800 X0.084 Y0.932
G1 F600 X-.117 Y0.731 E50.11092
G0 F4800 X0.084 Y0.649
G1 F600 X-.117 Y0.448 E50.11565
G0 F4800 X0.084 Y0.366
G1 F600 X-.117 Y0.165 E50.12038
G0 F4800 X0.084 Y0.084
G1 F600 X-.117 Y-.117 E50.1251
G0 F4800 X0.084 Y-.198
G1 F600 X-.117 Y-.4 E50.12984
G0 F4800 X0.084 Y-.481
G1 F600 X-.117 Y-.683 E50.13458
G0 F4800 X0.084 Y-.764
G1 F600 X-.117 Y-.965 E50.13931
G0 F4800 X0.084 Y-1.047
G1 F600 X-.117 Y-1.248 E50.14404
G0 F4800 X0.084 Y-1.33
G1 F600 X-.117 Y-1.531 E50.14876
G0 F4800 X0.084 Y-1.612
G1 F600 X-.117 Y-1.814 E50.1535
G0 F4800 X0.084 Y-1.895
G1 F600 X-.117 Y-2.097 E50.15824
G0 F4800 X0.084 Y-2.178
G1 F600 X-.117 Y-2.38 E50.16298
G0 F4800 X0.084 Y-2.461
G1 F600 X-.117 Y-2.662 E50.16771
G0 F4800 X0.084 Y-2.744
G1 F600 X-.117 Y-2.945 E50.17243
G0 F4800 X0.084 Y-3.027
G1 F600 X-.117 Y-3.228 E50.17716
G0 F4800 X0.084 Y-3.309
G1 F600 X-.117 Y-3.511 E50.1819
G0 F4800 X0.084 Y-3.592
G1 F600 X-.117 Y-3.794 E50.18664
G0 F4800 X0.084 Y-3.875
G1 F600 X-.117 Y-4.077 E50.19138
G0 F4800 X0.084 Y-4.158
G1 F600 X-.117 Y-4.36 E50.19612
G0 F4800 X0.084 Y-4.441
G1 F600 X-.117 Y-4.642 E50.20085
G0 F4800 X0.084 Y-4.724
G1 F600 X-.117 Y-4.925 E50.20557
G0 F4800 X0.084 Y-5.007
G1 F600 X-.117 Y-5.208 E50.2103
G0 F4800 X0.084 Y-5.289
G1 F600 X-.117 Y-5.491 E50.21504
G0 F4800 X0.084 Y-5.572
G1 F600 X-.117 Y-5.774 E50.21978
G0 F4800 X0.084 Y-5.855
G1 F600 X-.117 Y-6.057 E50.22452
G0 F4800 X0.084 Y-6.138
G1 F600 X-.117 Y-6.339 E50.22924
G0 F4800 X0.084 Y-6.421
G1 F600 X-.117 Y-6.622 E50.23397
G0 F4800 X0.084 Y-6.704
G1 F600 X-.117 Y-6.905 E50.2387
G0 F4800 X0.084 Y-6.986
G1 F600 X-.117 Y-7.188 E50.24344
G0 F4800 X0.084 Y-7.269
G1 F600 X-.117 Y-7.471 E50.24818
G0 F4800 X0.084 Y-7.552
G1 F600 X-.117 Y-7.754 E50.25292
G0 F4800 X0.084 Y-7.835
G1 F600 X-.117 Y-8.036 E50.25764
G0 F4800 X0.084 Y-8.118
G1 F600 X-.117 Y-8.319 E50.26237
G0 F4800 X0.084 Y-8.401
G1 F600 X-.117 Y-8.602 E50.2671
G0 F4800 X0.084 Y-8.683
G1 F600 X-.117 Y-8.885 E50.27184
G0 F4800 X0.084 Y-8.966
G1 F600 X-.117 Y-9.168 E50.27657
G0 F4800 X0.084 Y-9.249
G1 F600 X-.117 Y-9.451 E50.28131
G0 F4800 X0.084 Y-9.532
G1 F600 X-.117 Y-9.734 E50.28605
G0 F4800 X0.084 Y-9.815
G1 F600 X-.117 Y-10.016 E50.29078
G0 F4800 X0.084 Y-10.098
G1 F600 X-.117 Y-10.299 E50.29551
G0 F4800 X0.024 Y-10.441
G1 F600 X0.084 Y-10.381 E50.29692
