;FLAVOR:Marlin
;TIME:2762
;Filament used: 2.39494m
;Layer height: 0.2
;MINX:-48.076
;MINY:-48.978
;MINZ:0.2
;MAXX:48.076
;MAXY:18.641
;MAXZ:3.8
;POSTPROCESSED
;Generated with Cura_SteamEngine 4.13.1
M82 ;absolute extrusion mode
START_PRINT BED_TEMP=80 EXTRUDER_TEMP=220.0
G92 E0
G92 E0
G1 F1800 E-2
;LAYER_COUNT:19
;LAYER:0
M107
G0 F4800 X-0.017 Y18.615 Z0.2
;TYPE:SKIRT
G1 F1800 E0
G1 F600 X-3.544 Y18.387 E0.11755
G1 X-4.365 Y18.322 E0.14495
G1 X-7.187 Y18.058 E0.23922
G1 X-9.933 Y17.882 E0.33074
G1 X-12.665 Y17.784 E0.42166
G1 X-15.396 Y17.762 E0.5125
G1 X-18.09 Y17.818 E0.60212
G1 X-20.854 Y17.953 E0.69416
G1 X-23.535 Y18.16 E0.7836
G1 X-24.821 Y18.296 E0.82661
G1 X-26.689 Y18.462 E0.88898
G1 X-28.62 Y18.599 E0.95337
G1 X-29.343 Y18.64 E0.97745
G1 X-29.909 Y18.636 E0.99628
G1 X-30.317 Y18.614 E1.00987
G1 X-33.847 Y18.386 E1.12752
G1 X-34.479 Y18.336 E1.14861
G1 X-34.799 Y18.296 E1.15933
G1 X-36.023 Y18.087 E1.20063
G1 X-36.645 Y17.966 E1.22171
G1 X-37.312 Y17.828 E1.24436
G1 X-37.819 Y17.684 E1.26189
G1 X-38.895 Y17.29 E1.30001
G1 X-39.282 Y17.139 E1.31382
G1 X-39.908 Y16.885 E1.33629
G1 X-40.444 Y16.613 E1.35628
G1 X-40.827 Y16.374 E1.3713
G1 X-41.663 Y15.821 E1.40464
G1 X-42.221 Y15.44 E1.42711
G1 X-42.622 Y15.122 E1.44413
G1 X-43.082 Y14.688 E1.46517
G1 X-43.71 Y14.074 E1.49438
G1 X-44.21 Y13.571 E1.51797
G1 X-44.551 Y13.174 E1.53537
G1 X-45.151 Y12.362 E1.56895
G1 X-45.432 Y11.966 E1.5851
G1 X-45.797 Y11.439 E1.60643
G1 X-46.111 Y10.888 E1.62752
G1 X-46.582 Y9.857 E1.66522
G1 X-46.682 Y9.626 E1.67359
G1 X-46.929 Y9.033 E1.69496
G1 X-47.094 Y8.539 E1.71228
G1 X-47.32 Y7.654 E1.74266
G1 X-47.608 Y6.449 E1.78387
G1 X-47.763 Y5.76 E1.80736
G1 X-47.831 Y5.347 E1.82128
G1 X-47.919 Y4.507 E1.84937
G1 X-47.999 Y3.626 E1.87879
G1 X-48.05 Y2.953 E1.90124
G1 X-48.059 Y2.743 E1.90823
G1 X-48.076 Y1.745 E1.94143
G1 X-48.076 Y-14.437 E2.47964
G1 X-48.066 Y-15.104 E2.50183
G1 X-48.018 Y-15.638 E2.51966
G1 X-47.891 Y-16.159 E2.5375
G1 X-47.688 Y-16.656 E2.55536
G1 X-47.414 Y-17.116 E2.57316
G1 X-47.074 Y-17.531 E2.59101
G1 X-46.486 Y-18.03 E2.61666
G1 X-45.865 Y-18.451 E2.64161
G1 X-43.637 Y-20.006 E2.73198
G1 X-41.439 Y-21.635 E2.82297
G1 X-39.291 Y-23.322 E2.91382
G1 X-37.194 Y-25.068 E3.00457
G1 X-35.154 Y-26.867 E3.09504
G1 X-33.16 Y-28.727 E3.18573
G1 X-31.229 Y-30.632 E3.27595
G1 X-29.337 Y-32.61 E3.36699
G1 X-27.51 Y-34.63 E3.45758
G1 X-25.736 Y-36.708 E3.54846
G1 X-24.005 Y-38.854 E3.64016
G1 X-22.376 Y-40.996 E3.72966
G1 X-20.788 Y-43.212 E3.82034
G1 X-19.251 Y-45.488 E3.91168
G1 X-18.354 Y-46.9 E3.96732
G1 X-18.06 Y-47.347 E3.98512
G1 X-17.732 Y-47.772 E4.00297
G1 X-17.346 Y-48.144 E4.0208
G1 X-16.908 Y-48.454 E4.03865
G1 X-16.429 Y-48.695 E4.05648
G1 X-15.92 Y-48.863 E4.07431
G1 X-15.152 Y-48.968 E4.10009
G1 X-14.729 Y-48.978 E4.11417
G1 X1.955 Y-48.978 E4.66908
G1 X2.765 Y-48.965 E4.69602
G1 X3.458 Y-48.922 E4.71912
G1 X4.81 Y-48.814 E4.76423
G1 X5.512 Y-48.747 E4.78768
G1 X6.01 Y-48.664 E4.80447
G1 X6.731 Y-48.49 E4.82914
G1 X7.869 Y-48.198 E4.86822
G1 X8.507 Y-48.024 E4.89021
G1 X9.073 Y-47.818 E4.91025
G1 X9.796 Y-47.483 E4.93675
G1 X10.724 Y-47.036 E4.97101
G1 X11.347 Y-46.725 E4.99417
G1 X11.947 Y-46.347 E5.01775
G1 X12.55 Y-45.878 E5.04316
G1 X13.391 Y-45.204 E5.07901
G1 X13.887 Y-44.796 E5.10037
G1 X14.334 Y-44.359 E5.12116
G1 X14.925 Y-43.668 E5.1514
G1 X15.752 Y-42.674 E5.19441
G1 X15.884 Y-42.527 E5.20098
G1 X16.735 Y-41.499 E5.24537
G1 X18.543 Y-39.439 E5.33653
G1 X20.401 Y-37.437 E5.42738
G1 X22.3 Y-35.505 E5.51748
G1 X24.272 Y-33.609 E5.60847
G1 X26.273 Y-31.791 E5.69839
G1 X28.36 Y-30 E5.78986
G1 X30.487 Y-28.276 E5.88092
G1 X32.651 Y-26.623 E5.97149
G1 X34.848 Y-25.039 E6.06157
G1 X37.109 Y-23.505 E6.15245
G1 X39.403 Y-22.041 E6.24296
G1 X41.748 Y-20.637 E6.33387
G1 X44.134 Y-19.299 E6.42485
G1 X45.49 Y-18.59 E6.47575
G1 X46.182 Y-18.215 E6.50192
G1 X46.633 Y-17.925 E6.51976
G1 X47.036 Y-17.571 E6.5376
G1 X47.383 Y-17.162 E6.55544
G1 X47.664 Y-16.705 E6.57328
G1 X47.874 Y-16.212 E6.59111
G1 X48.009 Y-15.693 E6.60894
G1 X48.066 Y-15.15 E6.6271
G1 X48.076 Y-14.727 E6.64117
G1 X48.076 Y1.96 E7.19619
G1 X48.063 Y2.765 E7.22296
G1 X48.053 Y2.973 E7.22989
G1 X48.015 Y3.521 E7.24816
G1 X47.914 Y4.775 E7.29
G1 X47.846 Y5.501 E7.31426
G1 X47.762 Y6.008 E7.33135
G1 X47.585 Y6.74 E7.3564
G1 X47.298 Y7.864 E7.39498
G1 X47.126 Y8.5 E7.41689
G1 X46.916 Y9.077 E7.43732
G1 X46.575 Y9.811 E7.46424
G1 X46.143 Y10.708 E7.49735
G1 X45.835 Y11.329 E7.52041
G1 X45.456 Y11.933 E7.54412
G1 X44.992 Y12.532 E7.56932
G1 X44.335 Y13.352 E7.60427
G1 X43.89 Y13.892 E7.62754
G1 X43.454 Y14.337 E7.64826
G1 X42.757 Y14.934 E7.67879
G1 X42.158 Y15.431 E7.70468
G1 X41.578 Y15.899 E7.72946
G1 X41.074 Y16.239 E7.74968
G1 X40.564 Y16.515 E7.76897
G1 X39.697 Y16.962 E7.80142
G1 X39.074 Y17.273 E7.82457
G1 X38.398 Y17.529 E7.84862
G1 X37.611 Y17.74 E7.87572
G1 X36.072 Y18.129 E7.92851
G1 X35.396 Y18.29 E7.95163
G1 X34.882 Y18.374 E7.96895
G1 X33.911 Y18.46 E8.00137
G1 X31.98 Y18.597 E8.06576
G1 X31.258 Y18.638 E8.08981
G1 X30.7 Y18.634 E8.10837
G1 X30.254 Y18.61 E8.12323
G1 X26.732 Y18.384 E8.24061
G1 X25.957 Y18.322 E8.26647
G1 X23.148 Y18.06 E8.3603
G1 X20.393 Y17.882 E8.45212
G1 X17.663 Y17.783 E8.54298
G1 X14.935 Y17.761 E8.63372
G1 X12.236 Y17.817 E8.72351
G1 X9.479 Y17.95 E8.81531
G1 X6.799 Y18.158 E8.90472
G1 X5.483 Y18.297 E8.94873
G1 X3.611 Y18.463 E9.01124
G1 X1.68 Y18.6 E9.07563
G1 X0.957 Y18.641 E9.09971
G1 X0.391 Y18.637 E9.11854
G1 X-0.017 Y18.615 E9.13213
G0 F4800 X0.008 Y18.215
G1 F600 X-3.513 Y17.988 E9.24948
G1 X-4.328 Y17.924 E9.27667
G1 X-7.192 Y17.656 E9.37234
G1 X-9.895 Y17.483 E9.46243
G1 X-12.647 Y17.384 E9.55402
G1 X-15.401 Y17.362 E9.64562
G1 X-18.119 Y17.418 E9.73604
G1 X-20.866 Y17.552 E9.82752
G1 X-23.574 Y17.762 E9.91786
G1 X-24.857 Y17.897 E9.96076
G1 X-26.717 Y18.063 E10.02287
G1 X-28.643 Y18.2 E10.08709
G1 X-29.366 Y18.241 E10.11118
G1 X-29.887 Y18.236 E10.12851
G1 X-30.292 Y18.214 E10.142
G1 X-33.815 Y17.987 E10.25942
G1 X-34.447 Y17.937 E10.2805
G1 X-34.732 Y17.902 E10.29005
G1 X-35.948 Y17.694 E10.33109
G1 X-36.564 Y17.575 E10.35195
G1 X-37.231 Y17.437 E10.37461
G1 X-37.682 Y17.308 E10.39021
G1 X-38.75 Y16.917 E10.42804
G1 X-39.131 Y16.768 E10.44164
G1 X-39.757 Y16.514 E10.46411
G1 X-40.234 Y16.273 E10.48189
G1 X-40.607 Y16.041 E10.4965
G1 X-41.437 Y15.491 E10.52961
G1 X-41.995 Y15.11 E10.55209
G1 X-42.482 Y14.708 E10.57309
G1 X-42.826 Y14.379 E10.58892
G1 X-43.426 Y13.792 E10.61684
G1 X-43.926 Y13.289 E10.64043
G1 X-44.23 Y12.936 E10.65592
G1 X-44.825 Y12.13 E10.68925
G1 X-45.104 Y11.738 E10.70525
G1 X-45.469 Y11.211 E10.72657
G1 X-45.747 Y10.722 E10.74528
G1 X-46.215 Y9.698 E10.78273
G1 X-46.313 Y9.472 E10.79092
G1 X-46.56 Y8.879 E10.81228
G1 X-46.707 Y8.44 E10.82768
G1 X-46.931 Y7.56 E10.85788
G1 X-47.218 Y6.361 E10.89889
G1 X-47.373 Y5.672 E10.92238
G1 X-47.433 Y5.305 E10.93475
G1 X-47.521 Y4.471 E10.96264
G1 X-47.6 Y3.596 E10.99186
G1 X-47.651 Y2.923 E11.01431
G1 X-47.66 Y2.736 E11.02054
G1 X-47.676 Y1.8 E11.05167
G1 X-47.676 Y-14.431 E11.59152
G1 X-47.666 Y-15.098 E11.61371
G1 X-47.618 Y-15.601 E11.63051
G1 X-47.492 Y-16.091 E11.64734
G1 X-47.29 Y-16.554 E11.66414
G1 X-47.018 Y-16.981 E11.68098
G1 X-46.682 Y-17.358 E11.69777
G1 X-46.262 Y-17.699 E11.71577
G1 X-45.641 Y-18.12 E11.74072
G1 X-43.399 Y-19.684 E11.83164
G1 X-41.193 Y-21.319 E11.92297
G1 X-39.033 Y-23.016 E12.01433
G1 X-36.939 Y-24.759 E12.10495
G1 X-34.88 Y-26.575 E12.19626
G1 X-32.889 Y-28.433 E12.28684
G1 X-30.942 Y-30.353 E12.37779
G1 X-29.052 Y-32.329 E12.46873
G1 X-27.191 Y-34.387 E12.56102
G1 X-25.436 Y-36.443 E12.65092
G1 X-23.707 Y-38.585 E12.74248
G1 X-22.048 Y-40.767 E12.83365
G1 X-20.447 Y-43.001 E12.92506
G1 X-18.943 Y-45.23 E13.0145
G1 X-18.02 Y-46.68 E13.07167
G1 X-17.726 Y-47.127 E13.08946
G1 X-17.415 Y-47.527 E13.10631
G1 X-17.046 Y-47.872 E13.12312
G1 X-16.627 Y-48.155 E13.13993
G1 X-16.168 Y-48.368 E13.15676
G1 X-15.682 Y-48.506 E13.17357
G1 X-15.141 Y-48.568 E13.19168
G1 X-14.729 Y-48.578 E13.20538
G1 X1.949 Y-48.578 E13.7601
G1 X2.655 Y-48.568 E13.78358
G1 X3.432 Y-48.523 E13.80947
G1 X4.772 Y-48.416 E13.85418
G1 X5.474 Y-48.349 E13.87763
G1 X5.916 Y-48.275 E13.89254
G1 X6.631 Y-48.103 E13.917
G1 X7.764 Y-47.812 E13.9559
G1 X8.402 Y-47.638 E13.9779
G1 X8.905 Y-47.455 E13.9957
G1 X9.622 Y-47.122 E14.022
G1 X10.545 Y-46.678 E14.05606
G1 X11.168 Y-46.367 E14.07922
G1 X11.702 Y-46.031 E14.10021
G1 X12.3 Y-45.566 E14.1254
G1 X13.137 Y-44.895 E14.16108
G1 X13.633 Y-44.487 E14.18244
G1 X14.03 Y-44.098 E14.20093
G1 X14.617 Y-43.412 E14.23096
G1 X15.497 Y-42.354 E14.27673
G1 X15.576 Y-42.272 E14.28052
G1 X16.442 Y-41.226 E14.32568
G1 X18.249 Y-39.167 E14.4168
G1 X20.087 Y-37.186 E14.50668
G1 X22.02 Y-35.219 E14.5984
G1 X23.991 Y-33.324 E14.68934
G1 X26.045 Y-31.459 E14.78162
G1 X28.093 Y-29.701 E14.87139
G1 X30.237 Y-27.963 E14.96319
G1 X32.397 Y-26.313 E15.05359
G1 X34.619 Y-24.711 E15.1447
G1 X36.892 Y-23.169 E15.23606
G1 X39.189 Y-21.704 E15.32667
G1 X41.569 Y-20.279 E15.41893
G1 X43.932 Y-18.954 E15.50904
G1 X45.3 Y-18.238 E15.56039
G1 X45.992 Y-17.863 E15.58657
G1 X46.416 Y-17.588 E15.60338
G1 X46.791 Y-17.25 E15.62017
G1 X47.109 Y-16.856 E15.63701
G1 X47.36 Y-16.418 E15.6538
G1 X47.539 Y-15.945 E15.67062
G1 X47.642 Y-15.45 E15.68744
G1 X47.675 Y-14.816 E15.70856
G1 X47.676 Y1.955 E16.26636
G1 X47.666 Y2.656 E16.28968
G1 X47.653 Y2.946 E16.29933
G1 X47.616 Y3.489 E16.31744
G1 X47.516 Y4.737 E16.35908
G1 X47.448 Y5.463 E16.38333
G1 X47.373 Y5.914 E16.39854
G1 X47.198 Y6.641 E16.42341
G1 X46.912 Y7.759 E16.46179
G1 X46.74 Y8.395 E16.4837
G1 X46.553 Y8.908 E16.50186
G1 X46.214 Y9.637 E16.5286
G1 X45.785 Y10.53 E16.56156
G1 X45.477 Y11.151 E16.58461
G1 X45.14 Y11.688 E16.6057
G1 X44.68 Y12.282 E16.63069
G1 X44.027 Y13.098 E16.66545
G1 X43.582 Y13.638 E16.68872
G1 X43.194 Y14.033 E16.70714
G1 X42.501 Y14.626 E16.73747
G1 X41.906 Y15.119 E16.76317
G1 X41.326 Y15.587 E16.78796
G1 X40.878 Y15.89 E16.80595
G1 X40.378 Y16.161 E16.82486
G1 X39.518 Y16.604 E16.85704
G1 X38.895 Y16.915 E16.8802
G1 X38.294 Y17.143 E16.90158
G1 X37.512 Y17.352 E16.9285
G1 X35.979 Y17.74 E16.9811
G1 X35.303 Y17.901 E17.00421
G1 X34.847 Y17.975 E17.01957
G1 X33.883 Y18.061 E17.05176
G1 X31.957 Y18.198 E17.11598
G1 X31.235 Y18.239 E17.14004
G1 X30.721 Y18.234 E17.15713
G1 X30.28 Y18.21 E17.17182
G1 X26.763 Y17.985 E17.28904
G1 X25.994 Y17.924 E17.3147
G1 X23.14 Y17.657 E17.41003
G1 X20.435 Y17.483 E17.50019
G1 X17.68 Y17.383 E17.59188
G1 X14.93 Y17.361 E17.68335
G1 X12.209 Y17.417 E17.77387
G1 X9.466 Y17.55 E17.86521
G1 X6.759 Y17.759 E17.95551
G1 X5.448 Y17.898 E17.99936
G1 X3.583 Y18.064 E18.06164
G1 X1.657 Y18.201 E18.12586
G1 X0.934 Y18.242 E18.14994
G1 X0.413 Y18.237 E18.16727
G1 X0.008 Y18.215 E18.18076
G1 F1800 E16.18076
;MESH:U.stl(1)
G0 F4800 X0.255 Y14.405
G1 F1800 E18.18076
G0 F4800 X0.757 Y14.456
;TYPE:WALL-INNER
G1 F600 X-3.94 Y14.153 E18.33731
G1 X-6.184 Y13.723 E18.4133
G1 X-7.986 Y13.02 E18.47764
G1 X-9.519 Y12.006 E18.53877
G1 X-10.933 Y10.623 E18.60456
G1 X-12.055 Y9.049 E18.66885
G1 X-12.753 Y7.439 E18.72721
G1 X-13.372 Y4.85 E18.81575
G1 X-13.576 Y2.587 E18.89132
G1 X-13.576 Y-14.454 E19.45811
G1 X-5.926 Y-14.454 E19.71255
G1 X-5.926 Y3.064 E20.2952
G1 X-5.921 Y3.142 E20.2978
G1 X-5.567 Y5.414 E20.37428
G1 X-5.497 Y5.601 E20.38092
G1 X-4.41 Y7.355 E20.44955
G1 X-4.253 Y7.516 E20.45703
G1 X-2.517 Y8.622 E20.52549
G1 X-2.326 Y8.693 E20.53227
G1 X-0.074 Y9.055 E20.60813
G1 X0.084 Y9.056 E20.61339
G1 X2.332 Y8.7 E20.68909
G1 X2.522 Y8.628 E20.69585
G1 X4.249 Y7.54 E20.76373
G1 X4.408 Y7.38 E20.77124
G1 X5.498 Y5.625 E20.83995
G1 X5.568 Y5.436 E20.84665
G1 X5.921 Y3.141 E20.92388
G1 X5.926 Y3.065 E20.92642
G1 X5.926 Y-14.454 E21.5091
G1 X13.576 Y-14.454 E21.76354
G1 X13.576 Y2.599 E22.33073
G1 X13.379 Y5.064 E22.41297
G1 X12.791 Y7.366 E22.492
G1 X11.801 Y9.426 E22.56801
G1 X10.379 Y11.202 E22.64369
G1 X8.69 Y12.605 E22.71672
G1 X6.947 Y13.502 E22.78191
G1 X4.127 Y14.217 E22.87868
G1 X0.757 Y14.456 E22.99104
G0 F4800 X0.759 Y14.857
;TYPE:WALL-OUTER
G1 F600 X-3.993 Y14.55 E23.14943
G1 X-6.296 Y14.109 E23.22742
G1 X-8.173 Y13.377 E23.29442
G1 X-9.771 Y12.32 E23.35815
G1 X-11.238 Y10.885 E23.4264
G1 X-12.405 Y9.248 E23.49327
G1 X-13.134 Y7.566 E23.55424
G1 X-13.767 Y4.917 E23.64483
G1 X-13.976 Y2.603 E23.72211
G1 X-13.976 Y-14.854 E24.30273
G1 X-5.526 Y-14.854 E24.58378
G1 X-5.526 Y3.051 E25.1793
G1 X-5.523 Y3.098 E25.18086
G1 X-5.178 Y5.312 E25.25539
G1 X-5.136 Y5.424 E25.25937
G1 X-4.093 Y7.107 E25.32522
G1 X-3.999 Y7.203 E25.32969
G1 X-2.338 Y8.262 E25.39521
G1 X-2.224 Y8.304 E25.39925
G1 X-0.04 Y8.655 E25.47282
G1 X0.055 Y8.656 E25.47598
G1 X2.229 Y8.311 E25.5492
G1 X2.343 Y8.268 E25.55325
G1 X3.998 Y7.225 E25.61831
G1 X4.093 Y7.13 E25.62278
G1 X5.137 Y5.449 E25.6886
G1 X5.179 Y5.335 E25.69264
G1 X5.523 Y3.097 E25.76795
G1 X5.526 Y3.052 E25.76945
G1 X5.526 Y-14.854 E26.36501
G1 X13.976 Y-14.854 E26.64605
G1 X13.976 Y2.619 E27.22721
G1 X13.775 Y5.131 E27.31102
G1 X13.169 Y7.503 E27.39245
G1 X12.143 Y9.639 E27.47127
G1 X10.664 Y11.486 E27.54997
G1 X8.913 Y12.94 E27.62566
G1 X7.09 Y13.879 E27.69387
G1 X4.192 Y14.613 E27.7933
G1 X0.759 Y14.857 E27.90777
G0 F4800 X0.56 Y14.845
G0 X0.592 Y14.346
G0 X10.016 Y2.446
;TYPE:SKIN
G1 F600 X9.856 Y4.462 E27.97503
G1 X9.422 Y6.165 E28.03349
G1 X8.772 Y7.517 E28.08338
G1 X7.84 Y8.679 E28.13292
G1 X7.739 Y8.763 E28.13729
G1 X8.711 Y7.2 E28.19851
G1 X9.031 Y6.334 E28.22922
G1 X9.463 Y3.532 E28.32351
G1 X9.486 Y3.183 E28.33515
G1 X9.486 Y-10.894 E28.80335
G1 X10.016 Y-10.894 E28.82098
G1 X10.016 Y2.446 E29.26467
G0 F4800 X10.416 Y2.465
G1 F600 X10.252 Y4.529 E29.33353
G1 X9.801 Y6.298 E29.39425
G1 X9.111 Y7.733 E29.44721
G1 X8.127 Y8.96 E29.49952
G1 X6.929 Y9.957 E29.55136
G1 X5.824 Y10.524 E29.59267
G1 X5.182 Y10.688 E29.61471
G1 X6.24 Y10.021 E29.65631
G1 X6.904 Y9.348 E29.68775
G1 X8.35 Y7.023 E29.77882
G1 X8.642 Y6.233 E29.80683
G1 X9.065 Y3.488 E29.89921
G1 X9.086 Y3.17 E29.90981
G1 X9.086 Y-11.294 E30.39088
G1 X10.416 Y-11.294 E30.43512
G1 X10.416 Y2.465 E30.89275
G0 F4800 X10.816 Y2.484
G1 F600 X10.648 Y4.596 E30.96321
G1 X10.18 Y6.431 E31.0262
G1 X9.45 Y7.949 E31.08222
G1 X8.412 Y9.244 E31.13742
G1 X7.152 Y10.292 E31.19193
G1 X5.966 Y10.901 E31.23628
G1 X3.674 Y11.485 E31.31494
G1 X1.381 Y11.645 E31.39139
G1 X3.043 Y11.383 E31.44736
G1 X3.758 Y11.112 E31.47279
G1 X5.988 Y9.707 E31.56045
G1 X6.588 Y9.099 E31.58886
G1 X7.989 Y6.846 E31.6771
G1 X8.253 Y6.132 E31.70242
G1 X8.667 Y3.444 E31.79288
G1 X8.686 Y3.157 E31.80245
G1 X8.686 Y-11.694 E32.29639
G1 X10.816 Y-11.694 E32.36724
G1 X10.816 Y2.484 E32.8388
G0 F4800 X11.216 Y2.503
G1 F600 X11.044 Y4.663 E32.91087
G1 X10.559 Y6.564 E32.97612
G1 X9.789 Y8.165 E33.03521
G1 X8.697 Y9.528 E33.0933
G1 X7.375 Y10.627 E33.15048
G1 X6.108 Y11.278 E33.19786
G1 X3.74 Y11.881 E33.27913
G1 X0.752 Y12.09 E33.37875
G1 X-3.639 Y11.808 E33.5251
G1 X-5.523 Y11.447 E33.5889
G1 X-6.906 Y10.909 E33.63826
G1 X-8.015 Y10.174 E33.68251
G1 X-9.134 Y9.078 E33.7346
G1 X-9.99 Y7.879 E33.7836
G1 X-10.503 Y6.694 E33.82655
G1 X-11.043 Y4.445 E33.90348
G1 X-11.216 Y2.497 E33.96853
G1 X-11.216 Y-12.094 E34.45382
G1 X-8.286 Y-12.094 E34.55128
G1 X-8.286 Y3.14 E35.05796
G1 X-8.269 Y3.401 E35.06666
G1 X-7.862 Y6.016 E35.15468
G1 X-7.626 Y6.646 E35.17706
G1 X-6.28 Y8.818 E35.26205
G1 X-5.752 Y9.357 E35.28714
G1 X-3.573 Y10.751 E35.37318
G1 X-2.926 Y10.987 E35.39608
G1 X-.267 Y11.415 E35.48566
G1 X0.266 Y11.416 E35.50339
G1 X2.94 Y10.994 E35.59343
G1 X3.579 Y10.752 E35.61615
G1 X5.736 Y9.393 E35.70095
G1 X6.272 Y8.85 E35.72632
G1 X7.628 Y6.669 E35.81174
G1 X7.864 Y6.031 E35.83437
G1 X8.269 Y3.4 E35.92291
G1 X8.286 Y3.144 E35.93144
G1 X8.286 Y-12.094 E36.43826
G1 X11.216 Y-12.094 E36.53571
G1 X11.216 Y2.503 E37.02121
G0 F4800 X11.616 Y2.522
G1 F600 X11.44 Y4.73 E37.09488
G1 X10.938 Y6.697 E37.1624
G1 X10.128 Y8.381 E37.22455
G1 X8.982 Y9.812 E37.28553
G1 X7.598 Y10.963 E37.3454
G1 X6.25 Y11.655 E37.3958
G1 X3.806 Y12.277 E37.47967
G1 X0.754 Y12.491 E37.58143
G1 X-3.692 Y12.205 E37.72961
G1 X-5.635 Y11.833 E37.79541
G1 X-7.089 Y11.267 E37.84731
