;FLAVOR:Marlin
;TIME:2406
;Filament used: 2.06986m
;Layer height: 0.2
;MINX:-39.502
;MINY:-49.867
;MINZ:0.2
;MAXX:39.76
;MAXY:26.043
;MAXZ:3.8
;POSTPROCESSED
;Generated with Cura_SteamEngine 4.13.1
M82 ;absolute extrusion mode
START_PRINT BED_TEMP=80 EXTRUDER_TEMP=220.0
G92 E0
G92 E0
G1 F1800 E-2
;LAYER_COUNT:19
;LAYER:0
M107
G0 F4800 X1.278 Y25.89 Z0.2
;TYPE:SKIRT
G1 F1800 E0
G1 F600 X-1.478 Y25.932 E0.09168
G1 X-3.719 Y26.021 E0.16627
G1 X-4.91 Y26.043 E0.20589
G1 X-12.584 Y26.043 E0.46113
G1 X-13.29 Y26.033 E0.48461
G1 X-13.665 Y26.018 E0.49709
G1 X-16.014 Y25.885 E0.57535
G1 X-18.779 Y25.808 E0.66735
G1 X-21.474 Y25.808 E0.75698
G1 X-24.245 Y25.887 E0.84919
G1 X-26.7 Y26.025 E0.93097
G1 X-26.949 Y26.035 E0.93926
G1 X-27.577 Y26.043 E0.96015
G1 X-35.271 Y26.043 E1.21605
G1 X-35.962 Y26.033 E1.23903
G1 X-36.496 Y25.985 E1.25687
G1 X-37.017 Y25.858 E1.2747
G1 X-37.514 Y25.656 E1.29255
G1 X-37.975 Y25.382 E1.31038
G1 X-38.39 Y25.042 E1.32823
G1 X-38.75 Y24.645 E1.34605
G1 X-39.047 Y24.199 E1.36387
G1 X-39.275 Y23.713 E1.38173
G1 X-39.428 Y23.199 E1.39957
G1 X-39.502 Y22.668 E1.4174
G1 X-39.497 Y22.132 E1.43523
G1 X-39.413 Y21.602 E1.45307
G1 X-39.304 Y21.232 E1.4659
G1 X-39.028 Y20.454 E1.49336
G1 X-28.526 Y-7.825 E2.49669
G1 X-28.28 Y-8.459 E2.51931
G1 X-28.05 Y-8.943 E2.53713
G1 X-27.781 Y-9.347 E2.55327
G1 X-27.39 Y-9.857 E2.57465
G1 X-26.372 Y-11.151 E2.62941
G1 X-24.746 Y-13.346 E2.72026
G1 X-23.191 Y-15.571 E2.81055
G1 X-21.682 Y-17.869 E2.90199
G1 X-20.25 Y-20.19 E2.99269
G1 X-18.884 Y-22.548 E3.08333
G1 X-17.593 Y-24.928 E3.17338
G1 X-16.362 Y-27.365 E3.26419
G1 X-15.197 Y-29.841 E3.35521
G1 X-14.115 Y-32.321 E3.4452
G1 X-12.604 Y-36.135 E3.58165
G1 X-8.605 Y-46.911 E3.96394
G1 X-8.356 Y-47.555 E3.98691
G1 X-8.126 Y-48.04 E4.00476
G1 X-7.826 Y-48.485 E4.02261
G1 X-7.464 Y-48.88 E4.04043
G1 X-7.047 Y-49.217 E4.05826
G1 X-6.584 Y-49.489 E4.07612
G1 X-6.087 Y-49.688 E4.09393
G1 X-5.565 Y-49.812 E4.11177
G1 X-5.051 Y-49.857 E4.12893
G1 X-4.366 Y-49.867 E4.15172
G1 X4.111 Y-49.867 E4.43367
G1 X4.812 Y-49.857 E4.45698
G1 X5.347 Y-49.809 E4.47485
G1 X5.868 Y-49.683 E4.49268
G1 X6.364 Y-49.48 E4.5105
G1 X6.825 Y-49.206 E4.52834
G1 X7.241 Y-48.867 E4.54619
G1 X7.601 Y-48.47 E4.56401
G1 X7.898 Y-48.023 E4.58186
G1 X8.15 Y-47.483 E4.60168
G1 X8.338 Y-47.003 E4.61883
G1 X12.351 Y-36.377 E4.99661
G1 X13.368 Y-33.793 E5.08898
G1 X14.448 Y-31.266 E5.18038
G1 X15.573 Y-28.826 E5.26974
G1 X16.803 Y-26.343 E5.36191
G1 X18.054 Y-23.987 E5.45063
G1 X19.431 Y-21.565 E5.54329
G1 X20.817 Y-19.278 E5.63224
G1 X22.32 Y-16.949 E5.72443
G1 X23.835 Y-14.744 E5.81341
G1 X25.454 Y-12.522 E5.90485
G1 X27.617 Y-9.745 E6.02193
G1 X27.8 Y-9.517 E6.03165
G1 X28.104 Y-9.075 E6.04949
G1 X28.374 Y-8.51 E6.07032
G1 X28.554 Y-8.053 E6.08666
G1 X39.327 Y20.472 E7.10081
G1 X39.551 Y21.094 E7.1228
G1 X39.695 Y21.611 E7.14065
G1 X39.76 Y22.143 E7.15847
G1 X39.745 Y22.679 E7.17631
G1 X39.651 Y23.207 E7.19415
G1 X39.48 Y23.715 E7.21197
G1 X39.235 Y24.192 E7.22981
G1 X38.922 Y24.628 E7.24766
G1 X38.548 Y25.012 E7.26549
G1 X38.12 Y25.336 E7.28334
G1 X37.65 Y25.593 E7.30116
G1 X37.146 Y25.777 E7.31901
G1 X36.621 Y25.885 E7.33683
G1 X36.231 Y25.913 E7.34984
G1 X35.256 Y25.931 E7.38227
G1 X27.582 Y25.931 E7.63751
G1 X26.775 Y25.918 E7.66435
G1 X26.515 Y25.906 E7.67301
G1 X24.176 Y25.774 E7.75093
G1 X21.406 Y25.696 E7.8431
G1 X18.712 Y25.696 E7.9327
G1 X15.936 Y25.775 E8.02507
G1 X13.376 Y25.917 E8.11034
G1 X13.222 Y25.923 E8.11547
G1 X12.593 Y25.931 E8.13639
G1 X4.898 Y25.931 E8.39233
G1 X2.929 Y25.904 E8.45783
G1 X2.78 Y25.909 E8.46278
G1 X1.278 Y25.89 E8.51274
G0 F4800 X1.277 Y25.49
G1 F600 X-1.5 Y25.532 E8.60512
G1 X-3.726 Y25.621 E8.67921
G1 X-4.91 Y25.643 E8.7186
G1 X-12.578 Y25.643 E8.97364
G1 X-13.284 Y25.633 E8.99712
G1 X-13.643 Y25.619 E9.00907
G1 X-16.017 Y25.485 E9.08816
G1 X-18.767 Y25.408 E9.17966
G1 X-21.485 Y25.408 E9.27006
G1 X-24.244 Y25.487 E9.36186
G1 X-26.718 Y25.626 E9.44428
G1 X-26.954 Y25.635 E9.45213
G1 X-27.582 Y25.643 E9.47302
G1 X-35.265 Y25.643 E9.72856
G1 X-35.956 Y25.633 E9.75155
G1 X-36.46 Y25.585 E9.76838
G1 X-36.949 Y25.46 E9.78517
G1 X-37.413 Y25.258 E9.802
G1 X-37.839 Y24.986 E9.81881
G1 X-38.217 Y24.65 E9.83564
G1 X-38.538 Y24.259 E9.85246
G1 X-38.792 Y23.823 E9.86924
G1 X-38.975 Y23.351 E9.88608
G1 X-39.082 Y22.857 E9.90289
G1 X-39.109 Y22.352 E9.91971
G1 X-39.056 Y21.849 E9.93654
G1 X-38.927 Y21.365 E9.9532
G1 X-38.653 Y20.593 E9.98044
G1 X-28.153 Y-7.681 E10.98359
G1 X-27.907 Y-8.315 E11.00621
G1 X-27.688 Y-8.77 E11.02301
G1 X-27.464 Y-9.103 E11.03635
G1 X-27.076 Y-9.61 E11.05759
G1 X-26.04 Y-10.928 E11.11335
G1 X-24.425 Y-13.107 E11.20356
G1 X-22.862 Y-15.344 E11.29432
G1 X-21.326 Y-17.682 E11.38736
G1 X-19.921 Y-19.959 E11.47635
G1 X-18.545 Y-22.337 E11.56773
G1 X-17.229 Y-24.763 E11.65953
G1 X-16.009 Y-27.178 E11.74952
G1 X-14.834 Y-29.676 E11.84134
G1 X-13.739 Y-32.182 E11.9323
G1 X-12.226 Y-36.005 E12.06904
G1 X-8.232 Y-46.767 E12.45085
G1 X-7.983 Y-47.411 E12.47381
G1 X-7.764 Y-47.867 E12.49064
G1 X-7.476 Y-48.282 E12.50744
G1 X-7.126 Y-48.647 E12.52426
G1 X-6.723 Y-48.952 E12.54107
G1 X-6.277 Y-49.19 E12.55788
G1 X-5.799 Y-49.355 E12.5747
G1 X-5.301 Y-49.443 E12.59152
G1 X-5.045 Y-49.457 E12.60005
G1 X-4.36 Y-49.467 E12.62283
G1 X4.106 Y-49.467 E12.90441
G1 X4.807 Y-49.457 E12.92773
G1 X5.31 Y-49.41 E12.94453
G1 X5.8 Y-49.284 E12.96136
G1 X6.263 Y-49.082 E12.97816
G1 X6.69 Y-48.81 E12.995
G1 X7.068 Y-48.475 E13.0118
G1 X7.388 Y-48.084 E13.0286
G1 X7.717 Y-47.482 E13.05142
G1 X7.951 Y-46.895 E13.07244
G1 X11.995 Y-36.189 E13.45308
G1 X12.987 Y-33.668 E13.54319
G1 X14.075 Y-31.12 E13.63534
G1 X15.223 Y-28.631 E13.7265
G1 X16.434 Y-26.186 E13.81725
G1 X17.719 Y-23.766 E13.90838
G1 X19.075 Y-21.381 E13.99963
G1 X20.482 Y-19.059 E14.08994
G1 X21.972 Y-16.751 E14.18131
G1 X23.544 Y-14.463 E14.27364
G1 X25.127 Y-12.29 E14.36305
G1 X27.272 Y-9.536 E14.47916
G1 X27.488 Y-9.267 E14.49063
G1 X27.773 Y-8.849 E14.50746
G1 X28.006 Y-8.354 E14.52566
G1 X28.18 Y-7.912 E14.54146
G1 X38.951 Y20.608 E15.55543
G1 X39.175 Y21.23 E15.57742
G1 X39.308 Y21.717 E15.59421
G1 X39.363 Y22.22 E15.61104
G1 X39.337 Y22.725 E15.62786
G1 X39.233 Y23.22 E15.64468
G1 X39.052 Y23.692 E15.66149
G1 X38.799 Y24.129 E15.67829
G1 X38.48 Y24.522 E15.69512
G1 X38.104 Y24.859 E15.71192
G1 X37.679 Y25.133 E15.72874
G1 X37.216 Y25.336 E15.74555
G1 X36.727 Y25.464 E15.76236
G1 X36.224 Y25.513 E15.77917
G1 X35.256 Y25.531 E15.81137
G1 X27.588 Y25.531 E16.06641
G1 X26.883 Y25.521 E16.08986
G1 X26.537 Y25.507 E16.10138
G1 X24.173 Y25.374 E16.18013
G1 X21.417 Y25.296 E16.27183
G1 X18.7 Y25.296 E16.3622
G1 X15.94 Y25.374 E16.45403
G1 X13.354 Y25.518 E16.54018
G1 X13.217 Y25.523 E16.54474
G1 X12.588 Y25.531 E16.56566
G1 X4.903 Y25.531 E16.82126
G1 X2.87 Y25.503 E16.88889
G1 X2.785 Y25.509 E16.89172
G1 X1.277 Y25.49 E16.94188
G1 F1800 E14.94188
;MESH:V.stl
G0 F4800 X1.277 Y14.18
G0 X4.506 Y14.118
G1 F1800 E16.94188
G0 F4800 X4.563 Y14.2
;TYPE:WALL-INNER
G1 F600 X-4.377 Y14.2 E17.23923
G1 X-15.103 Y-14.2 E18.24894
G1 X-7.156 Y-14.2 E18.51326
G1 X-.55 Y6.922 E19.24934
G1 X-.306 Y7.26 E19.2632
G1 X0.186 Y7.422 E19.28043
G1 X0.679 Y7.258 E19.29771
G1 X0.92 Y6.917 E19.3116
G1 X7.439 Y-14.2 E20.04666
G1 X15.109 Y-14.2 E20.30176
G1 X4.563 Y14.2 E21.30937
G0 F4800 X4.841 Y14.6
;TYPE:WALL-OUTER
G1 F600 X-4.653 Y14.6 E21.62515
G1 X-15.681 Y-14.6 E22.6633
G1 X-6.862 Y-14.6 E22.95662
G1 X-.188 Y6.741 E23.70032
G1 X-0.058 Y6.921 E23.70771
G1 X0.185 Y7.001 E23.71622
G1 X0.428 Y6.92 E23.72474
G1 X0.557 Y6.738 E23.73216
G1 X7.144 Y-14.6 E24.47491
G1 X15.684 Y-14.6 E24.75895
G1 X4.841 Y14.6 E25.79494
G0 F4800 X4.641 Y14.6
G0 X4.506 Y14.118
G0 X-.585 Y6.939
G0 X-8.883 Y-7.796
;TYPE:SKIN
G1 F600 X-9.958 Y-10.64 E25.89607
G1 X-9.773 Y-10.64 E25.90222
G1 X-8.883 Y-7.796 E26.00133
G0 F4800 X-9.479 Y-11.04
G1 F600 X-4.384 Y5.247 E26.56893
G1 X-10.536 Y-11.04 E27.14799
G1 X-9.479 Y-11.04 E27.18315
G0 F4800 X-9.185 Y-11.44
G1 F600 X-3.048 Y8.178 E27.86683
G1 X-2.017 Y9.6 E27.92525
G1 X0.192 Y10.328 E28.00261
G1 X2.41 Y9.59 E28.08035
G1 X3.425 Y8.152 E28.1389
G1 X9.474 Y-11.44 E28.82088
G1 X11.142 Y-11.44 E28.87636
G1 X2.645 Y11.44 E29.68813
G1 X-2.472 Y11.44 E29.85833
G1 X-11.114 Y-11.44 E30.67179
G1 X-9.185 Y-11.44 E30.73595
G0 F4800 X-8.891 Y-11.84
G1 F600 X-2.686 Y7.996 E31.42722
G1 X-1.769 Y9.261 E31.47919
G1 X0.191 Y9.907 E31.54783
G1 X2.159 Y9.252 E31.61682
G1 X3.062 Y7.973 E31.66889
G1 X9.179 Y-11.84 E32.35856
G1 X11.717 Y-11.84 E32.44298
G1 X2.923 Y11.84 E33.28314
G1 X-2.748 Y11.84 E33.47175
G1 X-11.692 Y-11.84 E34.31366
G1 X-8.891 Y-11.84 E34.40682
G0 F4800 X-8.597 Y-12.24
G1 F600 X-2.324 Y7.814 E35.10569
G1 X-1.521 Y8.922 E35.1512
G1 X0.19 Y9.486 E35.21112
G1 X1.908 Y8.914 E35.27135
G1 X2.699 Y7.794 E35.31695
G1 X8.884 Y-12.24 E36.01432
G1 X12.292 Y-12.24 E36.12767
G1 X3.201 Y12.24 E36.99621
G1 X-3.024 Y12.24 E37.20325
G1 X-12.27 Y-12.24 E38.0736
G1 X-8.597 Y-12.24 E38.19577
G0 F4800 X-8.303 Y-12.64
G1 F600 X-1.962 Y7.632 E38.90223
G1 X-1.273 Y8.583 E38.94129
G1 X0.189 Y9.065 E38.99249
G1 X1.657 Y8.576 E39.04395
G1 X2.336 Y7.615 E39.08309
G1 X8.589 Y-12.64 E39.78815
G1 X12.867 Y-12.64 E39.93043
G1 X3.479 Y12.64 E40.82736
G1 X-3.3 Y12.64 E41.05283
G1 X-12.848 Y-12.64 E41.95162
G1 X-8.303 Y-12.64 E42.10278
G0 F4800 X-8.009 Y-13.04
G1 F600 X-1.6 Y7.45 E42.81684
G1 X-1.025 Y8.244 E42.84945
G1 X0.188 Y8.644 E42.89193
G1 X1.406 Y8.238 E42.93463
G1 X1.973 Y7.436 E42.9673
G1 X8.294 Y-13.04 E43.68005
G1 X13.442 Y-13.04 E43.85127
G1 X3.757 Y13.04 E44.77657
G1 X-3.576 Y13.04 E45.02047
G1 X-13.426 Y-13.04 E45.9477
G1 X-8.009 Y-13.04 E46.12787
G0 F4800 X-7.715 Y-13.44
G1 F600 X-1.238 Y7.268 E46.84953
G1 X-.777 Y7.905 E46.87568
G1 X0.187 Y8.223 E46.90944
G1 X1.155 Y7.9 E46.94338
G1 X1.61 Y7.257 E46.96958
G1 X7.999 Y-13.44 E47.69002
G1 X14.017 Y-13.44 E47.89018
G1 X4.035 Y13.44 E48.84387
G1 X-3.852 Y13.44 E49.10619
G1 X-14.004 Y-13.44 E50.06186
G1 X-7.715 Y-13.44 E50.27103
G0 F4800 X-7.421 Y-13.84
G1 F600 X-.876 Y7.086 E51.00028
G1 X-.529 Y7.566 E51.01998
G1 X0.186 Y7.802 E51.04502
G1 X0.904 Y7.562 E51.0702
G1 X1.247 Y7.078 E51.08993
G1 X7.704 Y-13.84 E51.81806
G1 X14.592 Y-13.84 E52.04716
G1 X4.313 Y13.84 E53.02923
G1 X-4.128 Y13.84 E53.30998
G1 X-14.582 Y-13.84 E54.29409
G1 X-7.421 Y-13.84 E54.53226
G0 F4800 X-.585 Y6.939
G0 X0.186 Y7.462
G0 X5.834 Y1.703
G1 F600 X9.769 Y-11.04 E54.97585
G1 X10.567 Y-11.04 E55.00239
G1 X5.834 Y1.703 E55.45451
G0 F4800 X1.788 Y10.64
G1 F600 X2.131 Y10.526 E55.46653
G1 X2.089 Y10.64 E55.47057
G1 X1.788 Y10.64 E55.48059
G0 F4800 X-1.992 Y10.45
G1 F600 X-1.414 Y10.64 E55.50082
G1 X-1.92 Y10.64 E55.51765
G1 X-1.992 Y10.45 E55.52441
G0 F4800 X-2.989 Y8.941
G1 F600 X-2.265 Y9.939 E55.56542
G1 X0.193 Y10.749 E55.6515
G1 X2.661 Y9.928 E55.738
G1 X2.912 Y9.572 E55.75249
G1 X2.367 Y11.04 E55.80457
G1 X-2.196 Y11.04 E55.95634
G1 X-2.989 Y8.941 E56.03097
G0 F4800 X-3.074 Y8.804
;TYPE:SKIN
G1 F600 X-3.406 Y8.472 E56.03878
G0 F4800 X-3.275 Y8.038
G1 F600 X-3.749 Y7.563 E56.04994
G0 F4800 X-3.404 Y7.626
G1 F600 X-3.921 Y7.109 E56.0621
G0 F4800 X-3.661 Y6.803
G1 F600 X-4.264 Y6.2 E56.07628
G0 F4800 X-3.918 Y5.98
G1 F600 X-4.457 Y5.441 E56.08895
G0 F4800 X-4.247 Y5.369
G1 F600 X-4.047 Y5.569 E56.09366
G0 F4800 X-4.436 Y5.745
G1 F600 X-3.79 Y6.392 E56.10886
G0 F4800 X-4.092 Y6.655
G1 F600 X-3.532 Y7.215 E56.12203
G0 F4800 X-3.578 Y8.017
G1 F600 X-2.891 Y8.705 E56.1382
G0 F4800 X-2.325 Y10.119
G1 F600 X-2.107 Y10.337 E56.14333
G0 F4800 X-1.25 Y10.628
G1 F600 X-1.015 Y10.863 E56.14886
G0 F4800 X-.732 Y10.863
G1 F600 X-1.086 Y10.51 E56.15717
G0 F4800 X-.663 Y10.649
G1 F600 X-.449 Y10.863 E56.1622
G0 F4800 X0.61 Y10.793
G1 F600 X0.681 Y10.863 E56.16386
G0 F4800 X0.823 Y10.722
G1 F600 X0.964 Y10.863 E56.16718
G0 F4800 X1.035 Y10.651
G1 F600 X1.247 Y10.863 E56.17216
G0 F4800 X1.248 Y10.581
G1 F600 X1.53 Y10.863 E56.17879
G0 F4800 X1.633 Y10.684
G1 F600 X1.46 Y10.511 E56.18286
G0 F4800 X2.309 Y10.229
G1 F600 X2.433 Y10.353 E56.18578
G0 F4800 X2.853 Y9.358
G1 F600 X2.814 Y9.319 E56.1867
G0 F4800 X2.93 Y9.153
G1 F600 X3.206 Y9.428 E56.19318
G0 F4800 X3.282 Y9.222
G1 F600 X3.048 Y8.988 E56.19868
G0 F4800 X3.165 Y8.821
G1 F600 X3.358 Y9.015 E56.20323
G0 F4800 X3.435 Y8.809
G1 F600 X3.281 Y8.655 E56.20685
G0 F4800 X3.399 Y8.49
G1 F600 X3.511 Y8.602 E56.20949
G0 F4800 X3.588 Y8.396
G1 F600 X3.515 Y8.324 E56.21119
G0 F4800 X3.741 Y7.983
G1 F600 X3.677 Y7.92 E56.21268
G0 F4800 X3.817 Y7.777
G1 F600 X3.744 Y7.704 E56.2144
G0 F4800 X3.894 Y7.571
G1 F600 X3.811 Y7.488 E56.21635
G0 F4800 X3.971 Y7.365
G1 F600 X3.877 Y7.271 E56.21856
G0 F4800 X4.047 Y7.158
G1 F600 X3.944 Y7.056 E56.22098
G0 F4800 X4.124 Y6.952
G1 F600 X4.011 Y6.839 E56.22363
G0 F4800 X4.2 Y6.746
G1 F600 X4.078 Y6.624 E56.2265
G0 F4800 X4.277 Y6.54
G1 F600 X4.145 Y6.407 E56.22962
G0 F4800 X4.354 Y6.334
G1 F600 X4.211 Y6.191 E56.23298
G0 F4800 X4.278 Y5.975
G1 F600 X4.43 Y6.127 E56.23656
G0 F4800 X4.507 Y5.921
G1 F600 X4.345 Y5.759 E56.24037
G0 F4800 X4.411 Y5.543
G1 F600 X4.584 Y5.715 E56.24442
G0 F4800 X4.66 Y5.509
G1 F600 X4.478 Y5.327 E56.2487
G0 F4800 X4.545 Y5.11
G1 F600 X4.736 Y5.302 E56.25321
G0 F4800 X4.813 Y5.096
G1 F600 X4.611 Y4.894 E56.25796
G0 F4800 X4.678 Y4.678
G1 F600 X4.89 Y4.89 E56.26294
G0 F4800 X4.967 Y4.684
G1 F600 X4.745 Y4.462 E56.26817
G0 F4800 X4.811 Y4.246
G1 F600 X5.043 Y4.478 E56.27362
G0 F4800 X5.12 Y4.271
G1 F600 X4.879 Y4.03 E56.27929
G0 F4800 X4.945 Y3.814
G1 F600 X5.197 Y4.065 E56.2852
G0 F4800 X5.273 Y3.859
G1 F600 X5.011 Y3.597 E56.29137
G0 F4800 X5.079 Y3.382
G1 F600 X5.349 Y3.652 E56.29772
G0 F4800 X5.427 Y3.447
G1 F600 X5.145 Y3.165 E56.30435
G0 F4800 X5.212 Y2.949
G1 F600 X5.503 Y3.24 E56.31119
G0 F4800 X5.579 Y3.034
G1 F600 X5.279 Y2.733 E56.31826
G0 F4800 X5.345 Y2.517
G1 F600 X5.656 Y2.828 E56.32557
G0 F4800 X5.733 Y2.621
G1 F600 X5.412 Y2.301 E56.33311
G0 F4800 X5.479 Y2.085
G1 F600 X5.809 Y2.415 E56.34087
G0 F4800 X5.886 Y2.209
G1 F600 X5.545 Y1.868 E56.34889
G0 F4800 X5.831 Y1.871
G1 F600 X5.963 Y2.003 E56.352
G0 F4800 X8.331 Y-5.527
G1 F600 X8.267 Y-5.591 E56.3535
G0 F4800 X8.408 Y-5.733
G1 F600 X8.334 Y-5.807 E56.35524
G0 F4800 X8.485 Y-5.939
G1 F600 X8.401 Y-6.023 E56.35722
G0 F4800 X8.561 Y-6.146
G1 F600 X8.468 Y-6.239 E56.3594
G0 F4800 X8.638 Y-6.351
G1 F600 X8.534 Y-6.455 E56.36185
G0 F4800 X8.715 Y-6.558
G1 F600 X8.601 Y-6.672 E56.36453
G0 F4800 X8.791 Y-6.764
G1 F600 X8.668 Y-6.887 E56.36742
G0 F4800 X8.868 Y-6.97
G1 F600 X8.734 Y-7.104 E56.37058
G0 F4800 X8.944 Y-7.177
G1 F600 X8.801 Y-7.32 E56.37394
G0 F4800 X8.868 Y-7.536
G1 F600 X9.021 Y-7.382 E56.37755
G0 F4800 X9.098 Y-7.589
G1 F600 X8.935 Y-7.752 E56.38138
G0 F4800 X9.002 Y-7.968
G1 F600 X9.174 Y-7.795 E56.38544
G0 F4800 X9.251 Y-8.001
G1 F600 X9.068 Y-8.184 E56.38974
G0 F4800 X9.135 Y-8.401
G1 F600 X9.328 Y-8.208 E56.39428
G0 F4800 X9.405 Y-8.413
G1 F600 X9.202 Y-8.616 E56.39906
G0 F4800 X9.268 Y-8.833
G1 F600 X9.481 Y-8.62 E56.40407
G0 F4800 X9.557 Y-8.826
G1 F600 X9.335 Y-9.048 E56.40929
G0 F4800 X9.402 Y-9.265
G1 F600 X9.635 Y-9.032 E56.41477
G0 F4800 X9.711 Y-9.239
G1 F600 X9.468 Y-9.481 E56.42047
G0 F4800 X9.536 Y-9.697
G1 F600 X9.788 Y-9.444 E56.42641
G0 F4800 X9.864 Y-9.651
G1 F600 X9.602 Y-9.913 E56.43257
G0 F4800 X9.669 Y-10.129
G1 F600 X9.941 Y-9.857 E56.43897
G0 F4800 X10.018 Y-10.063
G1 F600 X9.736 Y-10.345 E56.4456
G0 F4800 X9.802 Y-10.562
G1 F600 X10.094 Y-10.27 E56.45247
G0 F4800 X10.171 Y-10.475
G1 F600 X9.869 Y-10.777 E56.45957
G0 F4800 X10.066 Y-10.863
G1 F600 X10.248 Y-10.682 E56.46384
G0 F4800 X0.955 Y6.934
G0 X0.186 Y7.462
G0 X-7.744 Y-4.916
G1 F600 X-8.211 Y-5.383 E56.47482
G0 F4800 X-7.873 Y-5.328
G1 F600 X-8.382 Y-5.837 E56.48679
G0 F4800 X-8.002 Y-5.739
G1 F600 X-8.554 Y-6.291 E56.49977
G0 F4800 X-8.26 Y-6.563
G1 F600 X-8.897 Y-7.2 E56.51476
G0 F4800 X-9 Y-7.585
G1 F600 X-8.389 Y-6.974 E56.52913
G0 F4800 X-8.726 Y-6.746
G1 F600 X-8.131 Y-6.151 E56.54312
G0 F4800 X-8.039 Y-4.928
G1 F600 X-7.616 Y-4.504 E56.55308
G0 F4800 X-7.867 Y-4.473
G1 F600 X-7.487 Y-4.093 E56.56202
G0 F4800 X-7.696 Y-4.019
G1 F600 X-7.358 Y-3.681 E56.56997
G0 F4800 X-7.525 Y-3.565
