;FLAVOR:Marlin
;TIME:3907
;Filament used: 3.38988m
;Layer height: 0.2
;MINX:-24.326
;MINY:-49.9
;MINZ:0.2
;MAXX:61.218
;MAXY:49.9
;MAXZ:3.8
;POSTPROCESSED
;Generated with Cura_SteamEngine 4.13.1
M82 ;absolute extrusion mode
START_PRINT BED_TEMP=80 EXTRUDER_TEMP=220.0
G92 E0
G92 E0
G1 F1800 E-2
;LAYER_COUNT:19
;LAYER:0
M107
G0 F4800 X-23.082 Y0.332 Z0.2
;TYPE:SKIRT
G1 F1800 E0
G1 F600 X-23.139 Y-2.364 E0.08969
G1 X-23.274 Y-5.129 E0.18176
G1 X-23.481 Y-7.81 E0.2712
G1 X-23.769 Y-10.529 E0.36214
G1 X-24.144 Y-13.31 E0.45547
G1 X-24.287 Y-14.268 E0.48769
G1 X-24.326 Y-14.802 E0.5055
G1 X-24.294 Y-15.28 E0.52143
G1 X-24.219 Y-15.827 E0.53979
G1 X-23.957 Y-17.574 E0.59855
G1 X-23.626 Y-20.302 E0.68995
G1 X-23.376 Y-23.009 E0.78037
G1 X-23.2 Y-25.744 E0.87152
G1 X-23.103 Y-28.469 E0.96221
G1 X-23.082 Y-31.2 E1.05305
G1 X-23.139 Y-33.894 E1.14267
G1 X-23.275 Y-36.662 E1.23485
G1 X-23.482 Y-39.338 E1.32412
G1 X-23.771 Y-42.065 E1.41533
G1 X-24.143 Y-44.822 E1.50785
G1 X-24.281 Y-45.758 E1.53932
G1 X-24.32 Y-46.292 E1.55713
G1 X-24.279 Y-46.827 E1.57498
G1 X-24.159 Y-47.35 E1.59282
G1 X-23.962 Y-47.849 E1.61067
G1 X-23.694 Y-48.313 E1.62849
G1 X-23.359 Y-48.732 E1.64633
G1 X-22.966 Y-49.097 E1.66417
G1 X-22.523 Y-49.4 E1.68202
G1 X-22.041 Y-49.633 E1.69983
G1 X-21.528 Y-49.792 E1.71769
G1 X-20.784 Y-49.883 E1.74262
G1 X-19.821 Y-49.9 E1.77466
G1 X-13 Y-49.9 E2.00152
G1 X-12.098 Y-49.887 E2.03153
G1 X-9.656 Y-49.817 E2.11278
G1 X-6.959 Y-49.817 E2.20248
G1 X-4.47 Y-49.886 E2.2853
G1 X-3.523 Y-49.9 E2.3168
G1 X3.597 Y-49.9 E2.55361
G1 X4.49 Y-49.887 E2.58332
G1 X6.967 Y-49.817 E2.66574
G1 X9.665 Y-49.817 E2.75547
G1 X12.379 Y-49.891 E2.84577
G1 X13.035 Y-49.9 E2.86759
G1 X20.084 Y-49.9 E3.10205
G1 X20.785 Y-49.89 E3.12536
G1 X21.32 Y-49.842 E3.14323
G1 X21.841 Y-49.716 E3.16106
G1 X22.337 Y-49.513 E3.17888
G1 X22.798 Y-49.239 E3.19672
G1 X23.214 Y-48.9 E3.21457
G1 X23.574 Y-48.503 E3.23239
G1 X23.771 Y-48.223 E3.24378
G1 X24.171 Y-47.593 E3.2686
G1 X24.85 Y-46.492 E3.31162
G1 X26.349 Y-44.206 E3.40254
G1 X27.895 Y-41.988 E3.49247
G1 X29.528 Y-39.78 E3.58381
G1 X31.215 Y-37.628 E3.67476
G1 X32.939 Y-35.555 E3.76443
G1 X34.755 Y-33.493 E3.85582
G1 X36.614 Y-31.497 E3.94654
G1 X38.517 Y-29.566 E4.03671
G1 X40.493 Y-27.672 E4.12775
G1 X42.516 Y-25.839 E4.21855
G1 X44.581 Y-24.072 E4.30894
G1 X46.703 Y-22.358 E4.39967
G1 X48.885 Y-20.696 E4.4909
G1 X51.111 Y-19.099 E4.58202
G1 X52.705 Y-18.021 E4.64602
G1 X53.095 Y-17.75 E4.66181
G1 X53.512 Y-17.412 E4.67967
G1 X53.873 Y-17.016 E4.69749
G1 X54.172 Y-16.571 E4.71532
G1 X54.401 Y-16.086 E4.73316
G1 X54.566 Y-15.543 E4.75204
G1 X54.671 Y-15.099 E4.76721
G1 X61.007 Y13.382 E5.73765
G1 X61.148 Y14.064 E5.76081
G1 X61.218 Y14.596 E5.77866
G1 X61.207 Y15.132 E5.79649
G1 X61.117 Y15.661 E5.81434
G1 X60.949 Y16.17 E5.83217
G1 X60.708 Y16.649 E5.85
G1 X60.398 Y17.087 E5.86785
G1 X60.026 Y17.473 E5.88568
G1 X59.601 Y17.801 E5.90353
G1 X58.898 Y18.159 E5.92977
G1 X58.488 Y18.315 E5.94436
G1 X55.886 Y19.339 E6.03737
G1 X53.422 Y20.392 E6.12649
G1 X50.906 Y21.552 E6.21864
G1 X48.469 Y22.759 E6.30909
G1 X46.083 Y24.027 E6.39896
G1 X43.684 Y25.39 E6.49073
G1 X41.377 Y26.788 E6.58045
G1 X39.059 Y28.284 E6.67221
G1 X36.83 Y29.815 E6.76215
G1 X34.638 Y31.413 E6.85237
G1 X32.466 Y33.092 E6.94368
G1 X30.372 Y34.808 E7.03373
G1 X28.282 Y36.622 E7.12577
G1 X26.288 Y38.452 E7.21579
G1 X24.339 Y40.348 E7.30623
G1 X22.429 Y42.313 E7.39737
G1 X20.595 Y44.309 E7.48753
G1 X18.808 Y46.369 E7.57823
G1 X17.756 Y47.639 E7.63308
G1 X17.004 Y48.561 E7.67265
G1 X16.635 Y48.951 E7.69051
G1 X16.212 Y49.281 E7.70835
G1 X15.745 Y49.544 E7.72618
G1 X15.244 Y49.736 E7.74402
G1 X14.455 Y49.878 E7.77069
G1 X13.692 Y49.9 E7.79608
G1 X6.094 Y49.9 E8.04879
G1 X5.294 Y49.887 E8.0754
G1 X4.179 Y49.84 E8.11252
G1 X1.394 Y49.761 E8.20518
G1 X-1.301 Y49.761 E8.29482
G1 X-4.023 Y49.837 E8.38539
G1 X-5.352 Y49.891 E8.42963
G1 X-6.01 Y49.9 E8.45151
G1 X-13.493 Y49.9 E8.7004
G1 X-14.175 Y49.89 E8.72309
G1 X-14.709 Y49.842 E8.74092
G1 X-15.23 Y49.715 E8.75875
G1 X-15.727 Y49.513 E8.7766
G1 X-16.188 Y49.238 E8.79445
G1 X-16.603 Y48.899 E8.81227
G1 X-16.963 Y48.501 E8.83012
G1 X-17.26 Y48.055 E8.84795
G1 X-17.502 Y47.528 E8.86723
G1 X-17.691 Y46.935 E8.88793
G1 X-17.774 Y46.578 E8.90012
G1 X-24.108 Y18.109 E9.87016
G1 X-24.248 Y17.44 E9.89289
G1 X-24.318 Y16.909 E9.91071
G1 X-24.291 Y16.218 E9.93371
G1 X-24.217 Y15.675 E9.95193
G1 X-23.956 Y13.942 E10.01022
G1 X-23.629 Y11.239 E10.10078
G1 X-23.377 Y8.519 E10.19164
G1 X-23.201 Y5.789 E10.28263
G1 X-23.104 Y3.062 E10.37338
G1 X-23.082 Y0.332 E10.46419
G0 F4800 X-22.682 Y0.32
G1 F600 X-22.739 Y-2.393 E10.55444
G1 X-22.873 Y-5.141 E10.64595
G1 X-23.083 Y-7.853 E10.73642
G1 X-23.372 Y-10.584 E10.82776
G1 X-23.747 Y-13.363 E10.92103
G1 X-23.891 Y-14.327 E10.95345
G1 X-23.926 Y-14.831 E10.97025
G1 X-23.897 Y-15.226 E10.98342
G1 X-23.824 Y-15.768 E11.00161
G1 X-23.559 Y-17.539 E11.06117
G1 X-23.225 Y-20.288 E11.15328
G1 X-22.976 Y-22.982 E11.24326
G1 X-22.801 Y-25.704 E11.33398
G1 X-22.703 Y-28.451 E11.42541
G1 X-22.682 Y-31.213 E11.51727
G1 X-22.739 Y-33.923 E11.60743
G1 X-22.874 Y-36.674 E11.69904
G1 X-23.084 Y-39.381 E11.78934
G1 X-23.375 Y-42.125 E11.88112
G1 X-23.741 Y-44.835 E11.97207
G1 X-23.886 Y-45.816 E12.00506
G1 X-23.92 Y-46.321 E12.02189
G1 X-23.874 Y-46.824 E12.03869
G1 X-23.75 Y-47.314 E12.0555
G1 X-23.55 Y-47.778 E12.07231
G1 X-23.279 Y-48.205 E12.08913
G1 X-22.944 Y-48.584 E12.10595
G1 X-22.554 Y-48.906 E12.12277
G1 X-22.119 Y-49.162 E12.13956
G1 X-21.648 Y-49.347 E12.15639
G1 X-21.154 Y-49.454 E12.1732
G1 X-20.777 Y-49.483 E12.18578
G1 X-19.821 Y-49.5 E12.21758
G1 X-13.006 Y-49.5 E12.44425
G1 X-12.109 Y-49.487 E12.47409
G1 X-9.667 Y-49.417 E12.55534
G1 X-6.948 Y-49.417 E12.64578
G1 X-4.464 Y-49.486 E12.72843
G1 X-3.517 Y-49.5 E12.75993
G1 X3.592 Y-49.5 E12.99637
G1 X4.478 Y-49.487 E13.02584
G1 X6.955 Y-49.417 E13.10826
G1 X9.676 Y-49.417 E13.19876
G1 X12.384 Y-49.491 E13.28887
G1 X13.04 Y-49.5 E13.31069
G1 X20.079 Y-49.5 E13.5448
G1 X20.78 Y-49.49 E13.56812
G1 X21.283 Y-49.443 E13.58492
G1 X21.773 Y-49.317 E13.60175
G1 X22.236 Y-49.115 E13.61855
G1 X22.663 Y-48.843 E13.63539
G1 X23.041 Y-48.508 E13.65219
G1 X23.434 Y-48.008 E13.67334
G1 X23.831 Y-47.384 E13.69794
G1 X24.518 Y-46.269 E13.7415
G1 X26.02 Y-43.98 E13.83256
G1 X27.573 Y-41.751 E13.92292
G1 X29.208 Y-39.54 E14.01438
G1 X30.895 Y-37.388 E14.10533
G1 X32.664 Y-35.261 E14.19734
G1 X34.443 Y-33.241 E14.28687
G1 X36.337 Y-31.208 E14.37928
G1 X38.238 Y-29.279 E14.46936
G1 X40.213 Y-27.385 E14.56037
G1 X42.252 Y-25.539 E14.65185
G1 X44.337 Y-23.755 E14.74312
G1 X46.45 Y-22.048 E14.83347
G1 X48.655 Y-20.369 E14.92565
G1 X50.858 Y-18.788 E15.01584
G1 X52.477 Y-17.693 E15.08084
G1 X52.867 Y-17.422 E15.09664
G1 X53.258 Y-17.101 E15.11347
G1 X53.594 Y-16.723 E15.13029
G1 X53.866 Y-16.297 E15.1471
G1 X54.136 Y-15.606 E15.17177
G1 X54.273 Y-15.044 E15.19101
G1 X60.616 Y13.463 E16.16235
G1 X60.757 Y14.145 E16.18551
G1 X60.82 Y14.647 E16.20234
G1 X60.803 Y15.152 E16.21914
G1 X60.707 Y15.648 E16.23595
G1 X60.533 Y16.123 E16.25277
G1 X60.288 Y16.565 E16.26958
G1 X59.975 Y16.963 E16.28642
G1 X59.604 Y17.306 E16.30322
G1 X59.184 Y17.587 E16.32003
G1 X58.341 Y17.943 E16.35047
G1 X55.761 Y18.959 E16.44269
G1 X53.203 Y20.052 E16.53521
G1 X50.754 Y21.18 E16.62489
G1 X48.311 Y22.391 E16.71558
G1 X45.862 Y23.692 E16.80782
G1 X43.501 Y25.034 E16.89814
G1 X41.159 Y26.453 E16.98922
G1 X38.861 Y27.936 E17.08019
G1 X36.591 Y29.495 E17.17178
G1 X34.382 Y31.105 E17.26269
G1 X32.236 Y32.764 E17.35291
G1 X30.102 Y34.513 E17.44468
G1 X28.013 Y36.326 E17.53668
G1 X26.023 Y38.153 E17.62653
G1 X24.056 Y40.066 E17.71779
G1 X22.148 Y42.029 E17.80884
G1 X20.282 Y44.06 E17.90057
G1 X18.502 Y46.112 E17.99092
G1 X17.464 Y47.365 E18.04504
G1 X16.694 Y48.309 E18.08556
G1 X16.344 Y48.674 E18.10238
G1 X15.942 Y48.98 E18.11918
G1 X15.496 Y49.218 E18.136
G1 X15.018 Y49.383 E18.15281
G1 X14.429 Y49.479 E18.17266
G1 X13.687 Y49.5 E18.19735
G1 X6.099 Y49.5 E18.44973
G1 X5.4 Y49.49 E18.47298
G1 X4.199 Y49.44 E18.51296
G1 X1.406 Y49.361 E18.60589
G1 X-1.312 Y49.361 E18.6963
G1 X-4.04 Y49.437 E18.78706
G1 X-5.357 Y49.491 E18.8309
G1 X-6.015 Y49.5 E18.85279
G1 X-13.487 Y49.5 E19.10131
G1 X-14.169 Y49.49 E19.124
G1 X-14.672 Y49.442 E19.1408
G1 X-15.162 Y49.316 E19.15763
G1 X-15.626 Y49.115 E19.17445
G1 X-16.052 Y48.843 E19.19126
G1 X-16.43 Y48.507 E19.20808
G1 X-16.75 Y48.116 E19.22489
G1 X-17.005 Y47.679 E19.24171
G1 X-17.302 Y46.844 E19.27119
G1 X-17.384 Y46.491 E19.28324
G1 X-23.716 Y18.027 E20.2531
G1 X-23.856 Y17.358 E20.27584
G1 X-23.92 Y16.857 E20.29263
G1 X-23.895 Y16.272 E20.31211
G1 X-23.821 Y15.734 E20.33017
G1 X-23.562 Y14.013 E20.38806
G1 X-23.228 Y11.252 E20.48056
G1 X-22.977 Y8.546 E20.57095
G1 X-22.802 Y5.829 E20.6615
G1 X-22.704 Y3.081 E20.75296
G1 X-22.682 Y0.32 E20.84479
G1 F1800 E18.84479
;MESH:W.stl
G0 F4800 X-17.038 Y-.935
G0 X-9.645 Y2.475
G1 F1800 E20.84479
G0 F4800 X-9.577 Y2.402
;TYPE:WALL-INNER
G1 F600 X-9.107 Y2.623 E20.86207
G1 X-8.571 Y2.51 E20.88029
G1 X-8.271 Y2.121 E20.89662
G1 X-3.762 Y-14.2 E21.4598
G1 X3.794 Y-14.2 E21.71111
G1 X8.308 Y2.08 E22.27302
G1 X8.54 Y2.425 E22.28684
G1 X9.028 Y2.605 E22.30414
G1 X9.549 Y2.448 E22.32224
G1 X9.817 Y2.037 E22.33856
G1 X12.889 Y-14.2 E22.88819
G1 X19.99 Y-14.2 E23.12437
G1 X13.731 Y14.2 E24.09162
G1 X5.889 Y14.2 E24.35245
G1 X0.765 Y-4.197 E24.98763
G1 X0.53 Y-4.544 E25.00156
G1 X0.044 Y-4.719 E25.01875
G1 X-.463 Y-4.568 E25.03634
G1 X-.723 Y-4.202 E25.05127
G1 X-5.829 Y14.2 E25.68645
G1 X-13.671 Y14.2 E25.94728
G1 X-19.99 Y-14.2 E26.91496
G1 X-12.844 Y-14.2 E27.15264
G1 X-9.779 Y2.039 E27.70229
G1 X-9.577 Y2.402 E27.7161
G0 F4800 X-8.798 Y2.149
;TYPE:WALL-OUTER
G1 F600 X-8.636 Y1.939 E27.72492
G1 X-4.067 Y-14.6 E28.29562
G1 X4.098 Y-14.6 E28.56719
G1 X8.676 Y1.91 E29.13703
G1 X8.8 Y2.094 E29.14441
G1 X9.041 Y2.183 E29.15296
G1 X9.294 Y2.107 E29.16174
G1 X9.439 Y1.885 E29.17056
G1 X12.558 Y-14.6 E29.72858
G1 X20.488 Y-14.6 E29.99234
G1 X14.053 Y14.6 E30.98684
G1 X5.586 Y14.6 E31.26845
G1 X0.397 Y-4.027 E31.91158
G1 X0.272 Y-4.212 E31.919
G1 X0.032 Y-4.298 E31.92748
G1 X-.217 Y-4.224 E31.93612
G1 X-.356 Y-4.028 E31.94411
G1 X-5.525 Y14.6 E32.58709
G1 X-13.991 Y14.6 E32.86867
G1 X-20.488 Y-14.6 E33.86362
G1 X-12.513 Y-14.6 E34.12887
G1 X-9.398 Y1.901 E34.68739
G1 X-9.29 Y2.095 E34.69477
G1 X-9.058 Y2.204 E34.7033
G1 X-8.798 Y2.149 E34.71214
G0 F4800 X-8.676 Y1.991
G0 X-8.281 Y2.297
G0 X-.486 Y-4.6
G0 X0.503 Y-4.594
G0 X9.677 Y8.595
;TYPE:SKIN
G1 F600 X9.474 Y7.864 E34.73737
G1 X9.865 Y7.746 E34.75096
G1 X9.677 Y8.595 E34.77988
G0 F4800 X9.498 Y9.44
G1 F600 X8.984 Y7.594 E34.84361
G1 X10.403 Y7.165 E34.89292
G1 X9.901 Y9.44 E34.9704
G1 X9.498 Y9.44 E34.98381
G0 F4800 X9.194 Y9.84
G1 F600 X8.412 Y7.028 E35.08088
G1 X8.887 Y7.205 E35.09774
G1 X10.941 Y6.585 E35.1691
G1 X10.223 Y9.84 E35.27997
G1 X9.194 Y9.84 E35.31419
G0 F4800 X8.891 Y10.24
G1 F600 X7.817 Y6.38 E35.44745
G1 X8.9 Y6.783 E35.48589
G1 X11.479 Y6.005 E35.57548
G1 X10.545 Y10.24 E35.71973
G1 X8.891 Y10.24 E35.77474
G0 F4800 X8.587 Y10.64
G1 F600 X7.222 Y5.732 E35.94417
G1 X8.913 Y6.361 E36.00418
G1 X11.827 Y5.482 E36.10542
G1 X12.096 Y5.067 E36.12187
G1 X10.867 Y10.64 E36.31168
G1 X8.587 Y10.64 E36.38751
G0 F4800 X8.926 Y5.939
G1 F600 X11.571 Y5.141 E36.4794
G1 X12.803 Y3.238 E36.5548
G1 X15.504 Y-11.04 E37.03811
G1 X16.056 Y-11.04 E37.05647
G1 X11.189 Y11.04 E37.80848
G1 X8.284 Y11.04 E37.9051
G1 X6.627 Y5.084 E38.11073
G1 X8.926 Y5.939 E38.19231
G0 F4800 X8.939 Y5.517
G1 F600 X11.315 Y4.8 E38.27485
G1 X12.425 Y3.086 E38.34277
G1 X15.173 Y-11.44 E38.83448
G1 X16.554 Y-11.44 E38.88041
G1 X11.511 Y11.44 E39.65967
G1 X7.98 Y11.44 E39.77711
G1 X3.304 Y-5.37 E40.35744
G1 X2.31 Y-6.835 E40.41632
G1 X0.127 Y-7.623 E40.49352
G1 X-2.161 Y-6.942 E40.57291
G1 X-3.255 Y-5.405 E40.63566
G1 X-7.927 Y11.44 E41.21708
G1 X-11.463 Y11.44 E41.33469
G1 X-16.554 Y-11.44 E42.11429
G1 X-15.13 Y-11.44 E42.16165
G1 X-12.408 Y2.991 E42.65009
G1 X-11.557 Y4.521 E42.70832
G1 X-9.438 Y5.515 E42.78617
G1 X-7.005 Y5 E42.86888
G1 X-5.753 Y3.377 E42.93706
G1 X-1.658 Y-11.44 E43.44835
G1 X1.696 Y-11.44 E43.55991
G1 X5.769 Y3.247 E44.06683
G1 X6.746 Y4.702 E44.12512
G1 X8.939 Y5.517 E44.20294
G0 F4800 X8.952 Y5.095
G1 F600 X11.059 Y4.459 E44.27614
G1 X12.047 Y2.934 E44.33658
G1 X14.842 Y-11.84 E44.83668
G1 X17.052 Y-11.84 E44.91018
G1 X11.833 Y11.84 E45.71668
G1 X7.677 Y11.84 E45.85491
G1 X2.936 Y-5.2 E46.44319
G1 X2.052 Y-6.503 E46.49556
G1 X0.115 Y-7.202 E46.56406
G1 X-1.915 Y-6.598 E46.6345
G1 X-2.888 Y-5.23 E46.69033
G1 X-7.623 Y11.84 E47.27952
G1 X-11.783 Y11.84 E47.41788
G1 X-17.052 Y-11.84 E48.22475
G1 X-14.799 Y-11.84 E48.29968
G1 X-12.027 Y2.853 E48.79699
G1 X-11.27 Y4.214 E48.84879
G1 X-9.39 Y5.096 E48.91786
G1 X-7.232 Y4.639 E48.99123
G1 X-6.118 Y3.195 E49.05189
G1 X-1.963 Y-11.84 E49.5707
G1 X2 Y-11.84 E49.70251
G1 X6.137 Y3.078 E50.21741
G1 X7.006 Y4.372 E50.26925
G1 X8.952 Y5.095 E50.3383
G0 F4800 X8.965 Y4.673
G1 F600 X10.803 Y4.118 E50.40215
G1 X11.669 Y2.782 E50.45511
G1 X14.511 Y-12.24 E50.96361
G1 X17.55 Y-12.24 E51.06468
G1 X12.155 Y12.24 E51.89843
G1 X7.374 Y12.24 E52.05745
G1 X2.568 Y-5.03 E52.65368
G1 X1.794 Y-6.171 E52.69953
G1 X0.103 Y-6.781 E52.75932
G1 X-1.669 Y-6.254 E52.82081
G1 X-2.521 Y-5.055 E52.86973
G1 X-7.319 Y12.24 E53.46669
G1 X-12.103 Y12.24 E53.62581
G1 X-17.55 Y-12.24 E54.45993
G1 X-14.467 Y-12.24 E54.56247
G1 X-11.646 Y2.715 E55.06865
G1 X-10.983 Y3.907 E55.11401
G1 X-9.342 Y4.677 E55.1743
G1 X-7.459 Y4.278 E55.23832
G1 X-6.483 Y3.013 E55.29146
G1 X-2.268 Y-12.24 E55.8178
G1 X2.304 Y-12.24 E55.96986
G1 X6.505 Y2.909 E56.49273
G1 X7.266 Y4.042 E56.53813
G1 X8.965 Y4.673 E56.59841
G0 F4800 X8.978 Y4.251
G1 F600 X10.547 Y3.777 E56.65292
G1 X11.291 Y2.63 E56.6984
G1 X14.18 Y-12.64 E57.21529
G1 X18.048 Y-12.64 E57.34394
G1 X12.477 Y12.64 E58.20493
G1 X7.071 Y12.64 E58.38473
G1 X2.2 Y-4.86 E58.98891
G1 X1.536 Y-5.839 E59.02826
G1 X0.091 Y-6.36 E59.07935
G1 X-1.423 Y-5.91 E59.13188
G1 X-2.154 Y-4.881 E59.17386
G1 X-7.015 Y12.64 E59.77862
G1 X-12.423 Y12.64 E59.95849
G1 X-18.048 Y-12.64 E60.81987
G1 X-14.136 Y-12.64 E60.94999
G1 X-11.265 Y2.577 E61.46504
G1 X-10.696 Y3.6 E61.50397
G1 X-9.294 Y4.258 E61.55548
G1 X-7.686 Y3.917 E61.61015
G1 X-6.848 Y2.831 E61.65578
G1 X-2.573 Y-12.64 E62.18963
G1 X2.608 Y-12.64 E62.36195
G1 X6.873 Y2.74 E62.89279
G1 X7.526 Y3.712 E62.93174
G1 X8.978 Y4.251 E62.98325
G0 F4800 X8.991 Y3.829
G1 F600 X10.291 Y3.436 E63.02843
G1 X10.913 Y2.478 E63.06642
G1 X13.849 Y-13.04 E63.5917
G1 X18.546 Y-13.04 E63.74793
G1 X12.799 Y13.04 E64.63616
G1 X6.768 Y13.04 E64.83675
G1 X1.832 Y-4.69 E65.44888
G1 X1.278 Y-5.507 E65.48171
G1 X0.079 Y-5.939 E65.5241
G1 X-1.177 Y-5.566 E65.56768
G1 X-1.787 Y-4.707 E65.60272
G1 X-6.711 Y13.04 E66.21529
G1 X-12.743 Y13.04 E66.41591
G1 X-18.546 Y-13.04 E67.30455
G1 X-13.804 Y-13.04 E67.46227
G1 X-10.884 Y2.439 E67.98618
G1 X-10.409 Y3.293 E68.01869
G1 X-9.246 Y3.839 E68.06142
G1 X-7.913 Y3.556 E68.10674
G1 X-7.213 Y2.649 E68.14485
G1 X-2.878 Y-13.04 E68.68622
G1 X2.912 Y-13.04 E68.8788
G1 X7.241 Y2.571 E69.41761
G1 X7.786 Y3.382 E69.45011
G1 X8.991 Y3.829 E69.49286
G0 F4800 X9.004 Y3.407
G1 F600 X10.035 Y3.095 E69.52869
G1 X10.535 Y2.326 E69.55919
G1 X13.518 Y-13.44 E70.09288
G1 X19.044 Y-13.44 E70.27667
G1 X13.121 Y13.44 E71.19215
G1 X6.465 Y13.44 E71.41353
G1 X1.464 Y-4.52 E72.03361
G1 X1.02 Y-5.175 E72.05993
G1 X0.067 Y-5.518 E72.09362
G1 X-.931 Y-5.222 E72.12824
G1 X-1.42 Y-4.533 E72.15634
G1 X-6.407 Y13.44 E72.77671
G1 X-13.063 Y13.44 E72.99809
G1 X-19.044 Y-13.44 E73.91399
G1 X-13.473 Y-13.44 E74.09928
G1 X-10.503 Y2.301 E74.63206
G1 X-10.122 Y2.986 E74.65813
G1 X-9.198 Y3.42 E74.69209
G1 X-8.14 Y3.195 E74.72806
G1 X-7.578 Y2.467 E74.75865
G1 X-3.183 Y-13.44 E75.30754
G1 X3.216 Y-13.44 E75.52038
G1 X7.609 Y2.402 E76.06717
G1 X8.046 Y3.052 E76.09322
G1 X9.004 Y3.407 E76.1272
G0 F4800 X9.017 Y2.985
G1 F600 X9.779 Y2.754 E76.15368
G1 X10.157 Y2.174 E76.17671
G1 X13.187 Y-13.84 E76.71878
G1 X19.542 Y-13.84 E76.93015
G1 X13.443 Y13.84 E77.87288
