;FLAVOR:Marlin
;TIME:2587
;Filament used: 2.2848m
;Layer height: 0.2
;MINX:-19.528
;MINY:-49.9
;MINZ:0.2
;MAXX:51.246
;MAXY:49.9
;MAXZ:3.8
;POSTPROCESSED
;Generated with Cura_SteamEngine 4.13.1
M82 ;absolute extrusion mode
START_PRINT BED_TEMP=80 EXTRUDER_TEMP=220.0
G92 E0
G92 E0
G1 F1800 E-2
;LAYER_COUNT:19
;LAYER:0
M107
G0 F4800 X-18.288 Y-1.167 Z0.2
;TYPE:SKIRT
G1 F1800 E0
G1 F600 X-18.334 Y-3.935 E0.09208
G1 X-18.454 Y-6.609 E0.1811
G1 X-18.65 Y-9.296 E0.27071
G1 X-18.93 Y-12.051 E0.36282
G1 X-19.282 Y-14.758 E0.45361
G1 X-19.33 Y-15.057 E0.46368
G1 X-19.492 Y-16.187 E0.50165
G1 X-19.528 Y-16.722 E0.51948
G1 X-19.477 Y-17.303 E0.53888
G1 X-19.276 Y-18.483 E0.57869
G1 X-18.855 Y-21.186 E0.66968
G1 X-18.516 Y-23.863 E0.75943
G1 X-18.247 Y-26.609 E0.8512
G1 X-18.058 Y-29.305 E0.94109
G1 X-17.945 Y-32.031 E1.03183
G1 X-17.91 Y-34.771 E1.12297
G1 X-17.951 Y-37.492 E1.21348
G1 X-18.07 Y-40.222 E1.30437
G1 X-18.266 Y-42.951 E1.39537
G1 X-18.528 Y-45.57 E1.48291
G1 X-18.564 Y-45.893 E1.49372
G1 X-18.583 Y-46.428 E1.51153
G1 X-18.523 Y-46.961 E1.52937
G1 X-18.384 Y-47.479 E1.54721
G1 X-18.169 Y-47.971 E1.56506
G1 X-17.884 Y-48.425 E1.58289
G1 X-17.534 Y-48.832 E1.60075
G1 X-17.128 Y-49.182 E1.61858
G1 X-16.675 Y-49.468 E1.63639
G1 X-16.184 Y-49.684 E1.65424
G1 X-15.666 Y-49.824 E1.67208
G1 X-15.042 Y-49.889 E1.69295
G1 X-14.329 Y-49.9 E1.71667
G1 X-5.927 Y-49.9 E1.99612
G1 X-5.131 Y-49.887 E2.0226
G1 X-3.993 Y-49.839 E2.06048
G1 X-1.208 Y-49.76 E2.15315
G1 X1.484 Y-49.76 E2.24268
G1 X3.981 Y-49.847 E2.32578
G1 X6.515 Y-49.9 E2.41008
G1 X14.408 Y-49.9 E2.67261
G1 X15.11 Y-49.89 E2.69596
G1 X15.644 Y-49.842 E2.71379
G1 X16.166 Y-49.716 E2.73165
G1 X16.662 Y-49.513 E2.74948
G1 X17.123 Y-49.239 E2.76731
G1 X17.539 Y-48.9 E2.78516
G1 X18.041 Y-48.306 E2.81103
G1 X18.661 Y-47.389 E2.84784
G1 X19.018 Y-46.845 E2.86949
G1 X20.592 Y-44.59 E2.96095
G1 X22.21 Y-42.408 E3.0513
G1 X23.897 Y-40.26 E3.14214
G1 X25.641 Y-38.165 E3.23281
G1 X27.428 Y-36.138 E3.32268
G1 X29.319 Y-34.11 E3.41491
G1 X31.216 Y-32.191 E3.50466
G1 X33.185 Y-30.306 E3.59532
G1 X35.225 Y-28.461 E3.6868
G1 X37.285 Y-26.702 E3.7769
G1 X39.398 Y-24.998 E3.86718
G1 X41.597 Y-23.327 E3.95904
G1 X43.788 Y-21.755 E4.04873
G1 X46.034 Y-20.239 E4.13886
G1 X49.543 Y-18.046 E4.27649
G1 X49.975 Y-17.729 E4.29431
G1 X50.356 Y-17.351 E4.31216
G1 X50.676 Y-16.92 E4.33001
G1 X50.928 Y-16.447 E4.34784
G1 X51.108 Y-15.942 E4.36567
G1 X51.21 Y-15.415 E4.38352
G1 X51.235 Y-15.048 E4.39576
G1 X51.246 Y-14.328 E4.41971
G1 X51.246 Y-5.928 E4.69909
G1 X51.233 Y-5.121 E4.72594
G1 X51.186 Y-4.013 E4.76282
G1 X51.106 Y-1.221 E4.85572
G1 X51.106 Y1.472 E4.94529
G1 X51.193 Y3.972 E5.02849
G1 X51.246 Y6.511 E5.11296
G1 X51.246 Y14.408 E5.37561
G1 X51.236 Y15.111 E5.399
G1 X51.188 Y15.645 E5.41683
G1 X51.062 Y16.167 E5.43469
G1 X50.859 Y16.663 E5.45252
G1 X50.585 Y17.124 E5.47035
G1 X50.246 Y17.539 E5.48818
G1 X49.849 Y17.9 E5.50602
G1 X49.567 Y18.098 E5.51748
G1 X48.457 Y18.804 E5.56124
G1 X46.168 Y20.306 E5.6523
G1 X43.9 Y21.89 E5.74431
G1 X41.722 Y23.503 E5.83445
G1 X39.597 Y25.171 E5.9243
G1 X37.484 Y26.93 E6.01574
G1 X35.447 Y28.727 E6.10609
G1 X33.446 Y30.592 E6.19707
G1 X31.52 Y32.493 E6.28708
G1 X29.626 Y34.472 E6.37819
G1 X27.799 Y36.491 E6.46875
G1 X26.006 Y38.591 E6.56059
G1 X24.305 Y40.698 E6.65066
G1 X22.668 Y42.851 E6.74061
G1 X21.076 Y45.072 E6.8315
G1 X19.54 Y47.348 E6.92283
G1 X19.098 Y48.035 E6.95
G1 X18.92 Y48.299 E6.96059
G1 X18.588 Y48.72 E6.97842
G1 X18.197 Y49.087 E6.99626
G1 X17.756 Y49.392 E7.01409
G1 X17.274 Y49.628 E7.03194
G1 X16.763 Y49.79 E7.04977
G1 X15.997 Y49.885 E7.07544
G1 X15.121 Y49.9 E7.10458
G1 X6.662 Y49.9 E7.38593
G1 X5.856 Y49.887 E7.41274
G1 X4.692 Y49.837 E7.45149
G1 X4.021 Y49.799 E7.47385
G1 X1.26 Y49.723 E7.56571
G1 X-1.471 Y49.725 E7.65655
G1 X-4.166 Y49.803 E7.74622
G1 X-4.7 Y49.834 E7.76401
G1 X-5.88 Y49.886 E7.8033
G1 X-6.756 Y49.9 E7.83243
G1 X-15.284 Y49.9 E8.11608
G1 X-15.962 Y49.89 E8.13863
G1 X-16.496 Y49.842 E8.15646
G1 X-17.017 Y49.715 E8.1743
G1 X-17.514 Y49.512 E8.19215
G1 X-17.975 Y49.238 E8.20999
G1 X-18.39 Y48.899 E8.22781
G1 X-18.807 Y48.426 E8.24879
G1 X-18.821 Y48.407 E8.24957
G1 X-19.106 Y47.952 E8.26743
G1 X-19.321 Y47.461 E8.28526
G1 X-19.46 Y46.943 E8.30309
G1 X-19.52 Y46.41 E8.32093
G1 X-19.488 Y45.769 E8.34228
G1 X-19.32 Y44.582 E8.38215
G1 X-19.222 Y43.949 E8.40346
G1 X-18.878 Y41.214 E8.49514
G1 X-18.618 Y38.532 E8.58476
G1 X-18.429 Y35.775 E8.67668
G1 X-18.321 Y33.08 E8.76638
G1 X-18.288 Y30.333 E8.85776
G1 X-18.334 Y27.565 E8.94983
G1 X-18.454 Y24.891 E9.03886
G1 X-18.65 Y22.204 E9.12847
G1 X-18.93 Y19.449 E9.22057
G1 X-19.283 Y16.734 E9.31163
G1 X-19.336 Y16.401 E9.32285
G1 X-19.492 Y15.313 E9.35941
G1 X-19.528 Y14.778 E9.37724
G1 X-19.492 Y14.298 E9.39325
G1 X-19.321 Y13.086 E9.43396
G1 X-19.219 Y12.426 E9.45617
G1 X-18.878 Y9.714 E9.54708
G1 X-18.618 Y7.034 E9.63664
G1 X-18.429 Y4.275 E9.72862
G1 X-18.321 Y1.58 E9.81833
G1 X-18.288 Y-1.167 E9.9097
G0 F4800 X-17.888 Y-1.152
G1 F600 X-17.933 Y-3.906 E10.00131
G1 X-18.055 Y-6.622 E10.09174
G1 X-18.255 Y-9.364 E10.18318
G1 X-18.534 Y-12.111 E10.27501
G1 X-18.884 Y-14.801 E10.36524
G1 X-18.934 Y-15.114 E10.37578
G1 X-19.096 Y-16.244 E10.41375
G1 X-19.128 Y-16.748 E10.43054
G1 X-19.083 Y-17.235 E10.44681
G1 X-18.882 Y-18.415 E10.48662
G1 X-18.463 Y-21.106 E10.57721
G1 X-18.116 Y-23.845 E10.66903
G1 X-17.848 Y-26.578 E10.76037
G1 X-17.658 Y-29.297 E10.85102
G1 X-17.546 Y-32.009 E10.9413
G1 X-17.51 Y-34.771 E11.03317
G1 X-17.552 Y-37.517 E11.12452
G1 X-17.67 Y-40.231 E11.21487
G1 X-17.868 Y-42.986 E11.30674
G1 X-18.127 Y-45.576 E11.39331
G1 X-18.167 Y-45.937 E11.40539
G1 X-18.182 Y-46.442 E11.4222
G1 X-18.118 Y-46.943 E11.43899
G1 X-17.976 Y-47.429 E11.45584
G1 X-17.759 Y-47.885 E11.47263
G1 X-17.473 Y-48.302 E11.48945
G1 X-17.125 Y-48.669 E11.50627
G1 X-16.724 Y-48.976 E11.52307
G1 X-16.279 Y-49.216 E11.53988
G1 X-15.802 Y-49.383 E11.55669
G1 X-15.304 Y-49.473 E11.57353
G1 X-15.035 Y-49.489 E11.58249
G1 X-14.322 Y-49.5 E11.60621
G1 X-5.933 Y-49.5 E11.88523
G1 X-5.237 Y-49.49 E11.90838
G1 X-4.013 Y-49.439 E11.94912
G1 X-1.22 Y-49.36 E12.04205
G1 X1.498 Y-49.36 E12.13246
G1 X3.989 Y-49.447 E12.21536
G1 X6.515 Y-49.5 E12.29939
G1 X14.403 Y-49.5 E12.56175
G1 X15.105 Y-49.49 E12.5851
G1 X15.608 Y-49.443 E12.6019
G1 X16.098 Y-49.317 E12.61873
G1 X16.561 Y-49.115 E12.63553
G1 X16.988 Y-48.844 E12.65235
G1 X17.366 Y-48.508 E12.66917
G1 X17.71 Y-48.082 E12.68738
G1 X18.327 Y-47.169 E12.72403
G1 X18.688 Y-46.619 E12.74592
G1 X20.271 Y-44.352 E12.83788
G1 X21.894 Y-42.162 E12.92854
G1 X23.591 Y-40.002 E13.0199
G1 X25.317 Y-37.929 E13.10962
G1 X27.151 Y-35.847 E13.2019
G1 X29.025 Y-33.839 E13.29326
G1 X30.937 Y-31.903 E13.38376
G1 X32.904 Y-30.021 E13.4743
G1 X34.963 Y-28.16 E13.56661
G1 X37.04 Y-26.385 E13.65748
G1 X39.151 Y-24.684 E13.74765
G1 X41.344 Y-23.016 E13.83929
G1 X43.554 Y-21.432 E13.92973
G1 X45.82 Y-19.901 E14.02069
G1 X49.331 Y-17.707 E14.15839
G1 X49.737 Y-17.406 E14.1752
G1 X50.091 Y-17.045 E14.19202
G1 X50.383 Y-16.632 E14.20884
G1 X50.607 Y-16.179 E14.22565
G1 X50.757 Y-15.696 E14.24247
G1 X50.835 Y-15.042 E14.26437
G1 X50.846 Y-14.322 E14.28832
G1 X50.846 Y-5.934 E14.56731
G1 X50.836 Y-5.228 E14.59079
G1 X50.786 Y-4.024 E14.63087
G1 X50.706 Y-1.232 E14.72377
G1 X50.706 Y1.486 E14.81418
G1 X50.793 Y3.98 E14.89718
G1 X50.846 Y6.511 E14.98138
G1 X50.846 Y14.403 E15.24387
G1 X50.836 Y15.106 E15.26725
G1 X50.789 Y15.609 E15.28405
G1 X50.663 Y16.099 E15.30088
G1 X50.461 Y16.562 E15.31768
G1 X50.19 Y16.989 E15.3345
G1 X49.854 Y17.367 E15.35132
G1 X49.352 Y17.761 E15.37255
G1 X48.216 Y18.483 E15.41732
G1 X45.942 Y19.976 E15.5078
G1 X43.679 Y21.556 E15.59959
G1 X41.482 Y23.183 E15.69052
G1 X39.318 Y24.882 E15.78203
G1 X37.247 Y26.606 E15.87165
G1 X35.174 Y28.435 E15.9636
G1 X33.158 Y30.314 E16.05526
G1 X31.25 Y32.197 E16.14442
G1 X29.325 Y34.208 E16.23701
G1 X27.48 Y36.248 E16.3285
G1 X25.724 Y38.304 E16.41843
G1 X23.992 Y40.45 E16.51015
G1 X22.34 Y42.622 E16.60091
G1 X20.735 Y44.861 E16.69254
G1 X19.211 Y47.119 E16.78315
G1 X18.766 Y47.811 E16.81051
G1 X18.588 Y48.075 E16.8211
G1 X18.273 Y48.47 E16.8379
G1 X17.9 Y48.812 E16.85474
G1 X17.478 Y49.089 E16.87153
G1 X17.017 Y49.297 E16.88835
G1 X16.529 Y49.43 E16.90517
G1 X15.99 Y49.486 E16.92319
G1 X15.176 Y49.5 E16.95027
G1 X6.668 Y49.5 E17.23325
G1 X5.963 Y49.49 E17.2567
G1 X4.714 Y49.438 E17.29828
G1 X4.019 Y49.399 E17.32143
G1 X1.271 Y49.323 E17.41286
G1 X-1.447 Y49.325 E17.50326
G1 X-4.201 Y49.405 E17.5949
G1 X-4.717 Y49.434 E17.61209
G1 X-5.992 Y49.489 E17.65454
G1 X-6.761 Y49.5 E17.68012
G1 X-15.278 Y49.5 E17.96339
G1 X-15.956 Y49.49 E17.98595
G1 X-16.46 Y49.442 E18.00278
G1 X-16.949 Y49.316 E18.01958
G1 X-17.413 Y49.115 E18.0364
G1 X-17.839 Y48.843 E18.05321
G1 X-18.217 Y48.507 E18.07003
G1 X-18.499 Y48.169 E18.08467
G1 X-18.766 Y47.74 E18.10148
G1 X-18.962 Y47.274 E18.11829
G1 X-19.082 Y46.783 E18.1351
G1 X-19.123 Y46.279 E18.15192
G1 X-19.092 Y45.825 E18.16706
G1 X-18.925 Y44.644 E18.20673
G1 X-18.824 Y43.994 E18.22861
G1 X-18.482 Y41.269 E18.31995
G1 X-18.219 Y38.561 E18.41044
G1 X-18.028 Y35.77 E18.50349
G1 X-17.921 Y33.1 E18.59237
G1 X-17.888 Y30.348 E18.6839
G1 X-17.933 Y27.594 E18.77552
G1 X-18.055 Y24.878 E18.86594
G1 X-18.255 Y22.136 E18.95738
G1 X-18.534 Y19.389 E19.04922
G1 X-18.884 Y16.697 E19.13951
G1 X-18.94 Y16.344 E19.1514
G1 X-19.096 Y15.256 E19.18795
G1 X-19.128 Y14.752 E19.20475
G1 X-19.096 Y14.354 E19.21803
G1 X-18.925 Y13.147 E19.25858
G1 X-18.825 Y12.5 E19.28035
G1 X-18.482 Y9.769 E19.3719
G1 X-18.219 Y7.061 E19.46239
G1 X-18.028 Y4.27 E19.55544
G1 X-17.921 Y1.6 E19.64431
G1 X-17.888 Y-1.152 E19.73585
G1 F1800 E17.73585
;MESH:X.stl
G0 F4800 X-9.258 Y-6.801
G0 X-13.888 Y-14.2
;TYPE:WALL-INNER
G1 F1800 E19.73585
G1 F600 X-5.618 Y-14.2 E20.01091
G1 X-.491 Y-5.287 E20.35291
G1 X-.179 Y-5.009 E20.3668
G1 X0.368 Y-4.957 E20.38508
G1 X0.789 Y-5.267 E20.40247
G1 X5.791 Y-14.2 E20.74299
G1 X13.966 Y-14.2 E21.01489
G1 X5.369 Y-.825 E21.54372
G1 X5.265 Y-.437 E21.55708
G1 X5.382 Y-0.094 E21.56913
G1 X14.823 Y14.2 E22.13889
G1 X6.342 Y14.2 E22.42097
G1 X0.599 Y4.861 E22.78562
G1 X0.282 Y4.592 E22.79944
G1 X-.26 Y4.553 E22.81752
G1 X-.651 Y4.844 E22.83373
G1 X-6.403 Y14.2 E23.19902
G1 X-14.821 Y14.2 E23.479
G1 X-5.242 Y-.272 E24.05623
G1 X-5.134 Y-.659 E24.06959
G1 X-5.248 Y-1.007 E24.08177
G1 X-13.888 Y-14.2 E24.6063
G0 F4800 X-14.628 Y-14.6
;TYPE:WALL-OUTER
G1 F600 X-5.387 Y-14.6 E24.91365
G1 X-.177 Y-5.543 E25.26118
G1 X-0.011 Y-5.395 E25.26857
G1 X0.254 Y-5.37 E25.27743
G1 X0.482 Y-5.538 E25.28685
G1 X5.557 Y-14.6 E25.6323
G1 X14.698 Y-14.6 E25.93633
G1 X5.739 Y-.661 E26.48744
G1 X5.683 Y-.451 E26.49467
G1 X5.744 Y-.272 E26.50096
G1 X15.566 Y14.6 E27.09375
G1 X6.118 Y14.6 E27.40799
G1 X0.292 Y5.125 E27.77794
G1 X0.123 Y4.982 E27.7853
G1 X-.141 Y4.963 E27.7941
G1 X-.351 Y5.119 E27.8028
G1 X-6.179 Y14.6 E28.17296
G1 X-15.566 Y14.6 E28.48517
G1 X-5.61 Y-.44 E29.08507
G1 X-5.552 Y-.649 E29.09229
G1 X-5.612 Y-.832 E29.09869
G1 X-14.628 Y-14.6 E29.64607
G0 F4800 X-14.428 Y-14.6
G0 X-14.428 Y-14.5
G0 X0.179 Y-.192
;TYPE:SKIN
G1 F600 X-.312 Y-.227 E29.66244
G1 X-.308 Y-.238 E29.66283
G1 X0.179 Y-.192 E29.6791
G0 F4800 X0.709 Y-.284
G1 F600 X0.895 Y0.261 E29.69825
G1 X-.83 Y0.137 E29.75577
G1 X-.603 Y-.668 E29.78359
G1 X0.777 Y-.536 E29.8297
G1 X0.709 Y-.284 E29.83838
G0 F4800 X1.127 Y-.298
G1 F600 X1.469 Y0.703 E29.87356
G1 X-1.348 Y0.501 E29.9675
G1 X-.996 Y-.749 E30.01069
G1 X-1.117 Y-1.119 E30.02364
G1 X1.286 Y-.889 E30.10393
G1 X1.127 Y-.298 E30.12428
G0 F4800 X1.545 Y-.312
G1 F600 X2.16 Y1.49 E30.18761
G1 X2.196 Y1.545 E30.1898
G1 X1.698 Y1.121 E30.21155
G1 X-1.328 Y0.904 E30.31246
G1 X-2.169 Y1.532 E30.34737
G1 X-1.967 Y1.226 E30.35956
G1 X-1.414 Y-.74 E30.42749
G1 X-1.691 Y-1.589 E30.45719
G1 X-1.674 Y-1.574 E30.45795
G1 X1.383 Y-1.282 E30.56008
G1 X1.911 Y-1.671 E30.5819
G1 X1.545 Y-.312 E30.62871
G0 F4800 X1.963 Y-.326
G1 F600 X2.522 Y1.312 E30.68627
G1 X8.947 Y11.04 E31.07403
G1 X8.111 Y11.04 E31.10183
G1 X3.026 Y2.776 E31.42456
G1 X1.539 Y1.511 E31.48949
G1 X-1.208 Y1.314 E31.58109
G1 X-3.028 Y2.672 E31.65662
G1 X-8.172 Y11.04 E31.98332
G1 X-8.937 Y11.04 E32.00877
G1 X-2.335 Y1.057 E32.40684
G1 X-1.832 Y-.731 E32.46862
G1 X-2.373 Y-2.389 E32.52663
G1 X-2.912 Y-3.211 E32.55932
G1 X-1.506 Y-1.96 E32.62192
G1 X1.269 Y-1.695 E32.71463
G1 X2.984 Y-2.958 E32.78547
G1 X2.446 Y-2.121 E32.81857
G1 X1.963 Y-.326 E32.88039
G0 F4800 X1.155 Y-2.108
G1 F600 X2.907 Y-3.398 E32.95276
G1 X7.407 Y-11.44 E33.25926
G1 X8.914 Y-11.44 E33.30939
G1 X2.816 Y-1.957 E33.68437
G1 X2.381 Y-.34 E33.74007
G1 X2.884 Y1.134 E33.79187
G1 X9.691 Y11.44 E34.20267
G1 X7.887 Y11.44 E34.26267
G1 X2.719 Y3.04 E34.5907
G1 X1.38 Y1.901 E34.64916
G1 X-1.088 Y1.724 E34.73146
G1 X-2.727 Y2.947 E34.79948
G1 X-7.948 Y11.44 E35.13106
G1 X-9.682 Y11.44 E35.18874
G1 X-2.703 Y0.889 E35.60949
G1 X-2.25 Y-.722 E35.66515
G1 X-2.737 Y-2.214 E35.71735
G1 X-8.781 Y-11.44 E36.08419
G1 X-7.212 Y-11.44 E36.13637
G1 X-2.658 Y-3.521 E36.44021
G1 X-1.338 Y-2.346 E36.49899
G1 X1.155 Y-2.108 E36.58228
G0 F4800 X1.041 Y-2.521
G1 F600 X2.6 Y-3.669 E36.64667
G1 X7.173 Y-11.84 E36.95811
G1 X9.646 Y-11.84 E37.04036
G1 X3.186 Y-1.793 E37.43764
G1 X2.799 Y-.354 E37.4872
G1 X3.246 Y0.956 E37.53324
G1 X10.435 Y11.84 E37.96708
G1 X7.663 Y11.84 E38.05928
G1 X2.412 Y3.304 E38.39261
G1 X1.221 Y2.291 E38.44461
G1 X-.968 Y2.134 E38.5176
G1 X-2.426 Y3.222 E38.57811
G1 X-7.724 Y11.84 E38.91458
G1 X-10.427 Y11.84 E39.00448
G1 X-3.071 Y0.72 E39.44793
G1 X-2.668 Y-.713 E39.49744
G1 X-3.101 Y-2.039 E39.54384
G1 X-9.522 Y-11.84 E39.93355
G1 X-6.981 Y-11.84 E40.01806
G1 X-2.344 Y-3.777 E40.32742
G1 X-1.17 Y-2.732 E40.3797
G1 X1.041 Y-2.521 E40.45357
G0 F4800 X0.927 Y-2.934
G1 F600 X2.293 Y-3.94 E40.51
G1 X6.939 Y-12.24 E40.82636
G1 X10.378 Y-12.24 E40.94074
G1 X3.556 Y-1.629 E41.36031
G1 X3.217 Y-.368 E41.40374
G1 X3.608 Y0.778 E41.44402
G1 X11.178 Y12.24 E41.90088
G1 X7.439 Y12.24 E42.02524
G1 X2.105 Y3.568 E42.36387
G1 X1.062 Y2.681 E42.40941
G1 X-.848 Y2.544 E42.4731
G1 X-2.125 Y3.497 E42.52609
G1 X-7.5 Y12.24 E42.86745
G1 X-11.172 Y12.24 E42.98958
G1 X-3.439 Y0.552 E43.4557
G1 X-3.086 Y-.704 E43.4991
G1 X-3.465 Y-1.864 E43.53969
G1 X-10.262 Y-12.24 E43.95225
G1 X-6.75 Y-12.24 E44.06906
G1 X-2.03 Y-4.033 E44.38395
G1 X-1.002 Y-3.118 E44.42972
G1 X0.927 Y-2.934 E44.49417
G0 F4800 X0.813 Y-3.347
G1 F600 X1.986 Y-4.211 E44.54263
G1 X6.705 Y-12.64 E44.86392
G1 X11.11 Y-12.64 E45.01043
G1 X3.926 Y-1.465 E45.45229
G1 X3.635 Y-.382 E45.48959
G1 X3.97 Y0.6 E45.5241
G1 X11.922 Y12.64 E46.00401
G1 X7.215 Y12.64 E46.16057
G1 X1.798 Y3.832 E46.50449
G1 X0.903 Y3.071 E46.54356
G1 X-.728 Y2.954 E46.59795
G1 X-1.824 Y3.772 E46.64344
G1 X-7.276 Y12.64 E46.98967
G1 X-11.917 Y12.64 E47.14403
G1 X-3.807 Y0.383 E47.63286
G1 X-3.504 Y-.695 E47.6701
G1 X-3.829 Y-1.689 E47.70489
G1 X-11.002 Y-12.64 E48.1403
G1 X-6.519 Y-12.64 E48.2894
G1 X-1.716 Y-4.289 E48.60982
G1 X-.834 Y-3.504 E48.64909
G1 X0.813 Y-3.347 E48.70412
G0 F4800 X0.699 Y-3.76
G1 F600 X1.679 Y-4.482 E48.74461
G1 X6.471 Y-13.04 E49.07083
G1 X11.842 Y-13.04 E49.24947
G1 X4.296 Y-1.301 E49.71362
G1 X4.053 Y-.396 E49.74479
G1 X4.332 Y0.422 E49.77353
G1 X12.666 Y13.04 E50.27649
G1 X6.991 Y13.04 E50.46524
G1 X1.491 Y4.096 E50.81446
G1 X0.744 Y3.461 E50.84707
G1 X-.608 Y3.364 E50.89216
G1 X-1.523 Y4.047 E50.93013
G1 X-7.052 Y13.04 E51.28125
G1 X-12.662 Y13.04 E51.46784
G1 X-4.175 Y0.215 E51.97934
G1 X-3.922 Y-.686 E52.01047
G1 X-4.193 Y-1.514 E52.03945
G1 X-11.742 Y-13.04 E52.49771
G1 X-6.288 Y-13.04 E52.67911
G1 X-1.402 Y-4.545 E53.00505
G1 X-.666 Y-3.89 E53.03782
G1 X0.699 Y-3.76 E53.08343
G0 F4800 X0.585 Y-4.173
G1 F600 X1.372 Y-4.753 E53.11595
G1 X6.237 Y-13.44 E53.4471
G1 X12.574 Y-13.44 E53.65787
G1 X4.666 Y-1.137 E54.14431
G1 X4.471 Y-.41 E54.16934
G1 X4.694 Y0.244 E54.19233
G1 X13.41 Y13.44 E54.71832
G1 X6.767 Y13.44 E54.93927
G1 X1.184 Y4.36 E55.29379
G1 X0.585 Y3.851 E55.31994
G1 X-.488 Y3.774 E55.35572
G1 X-1.222 Y4.322 E55.38618
G1 X-6.828 Y13.44 E55.74218
G1 X-13.407 Y13.44 E55.961
G1 X-4.543 Y0.047 E56.49518
