;FLAVOR:Marlin
;TIME:1991
;Filament used: 1.75221m
;Layer height: 0.2
;MINX:-39.118
;MINY:-26.089
;MINZ:0.2
;MAXX:39.101
;MAXY:48.893
;MAXZ:3.8
;POSTPROCESSED
;Generated with Cura_SteamEngine 4.13.1
M82 ;absolute extrusion mode
START_PRINT BED_TEMP=80 EXTRUDER_TEMP=220.0
G92 E0
G92 E0
G1 F1800 E-2
;LAYER_COUNT:19
;LAYER:0
M107
G0 F4800 X-20.177 Y16.086 Z0.2
;TYPE:SKIRT
G1 F1800 E0
G1 F600 X-22.036 Y14.091 E0.0907
G1 X-23.957 Y12.144 E0.18167
G1 X-25.932 Y10.254 E0.27259
G1 X-26.485 Y9.738 E0.29775
G1 X-26.849 Y9.344 E0.31559
G1 X-27.15 Y8.9 E0.33343
G1 X-27.323 Y8.559 E0.34615
G1 X-27.54 Y7.909 E0.36894
G1 X-27.778 Y6.881 E0.40403
G1 X-27.836 Y6.607 E0.41335
G1 X-28.473 Y3.989 E0.50296
G1 X-29.201 Y1.328 E0.59472
G1 X-29.994 Y-1.277 E0.68529
G1 X-30.861 Y-3.862 E0.77597
G1 X-31.797 Y-6.412 E0.86632
G1 X-32.809 Y-8.946 E0.95707
G1 X-33.887 Y-11.434 E1.04726
G1 X-35.045 Y-13.915 E1.13832
G1 X-36.262 Y-16.342 E1.22863
G1 X-38.19 Y-19.875 E1.36249
G1 X-38.651 Y-20.679 E1.39332
G1 X-38.883 Y-21.163 E1.41117
G1 X-39.04 Y-21.676 E1.42901
G1 X-39.118 Y-22.206 E1.44683
G1 X-39.118 Y-22.742 E1.46466
G1 X-39.037 Y-23.273 E1.48252
G1 X-38.879 Y-23.785 E1.50034
G1 X-38.646 Y-24.268 E1.51818
G1 X-38.344 Y-24.711 E1.53601
G1 X-37.98 Y-25.105 E1.55385
G1 X-37.561 Y-25.44 E1.5717
G1 X-37.097 Y-25.709 E1.58954
G1 X-36.598 Y-25.906 E1.60738
G1 X-36.076 Y-26.027 E1.6252
G1 X-35.601 Y-26.068 E1.64106
G1 X-34.545 Y-26.089 E1.67619
G1 X-26.398 Y-26.089 E1.94716
G1 X-25.589 Y-26.076 E1.97407
G1 X-24.606 Y-26.033 E2.0068
G1 X-23.59 Y-25.976 E2.04064
G1 X-20.825 Y-25.901 E2.13264
G1 X-18.13 Y-25.903 E2.22227
G1 X-14.128 Y-26.045 E2.35547
G1 X-13.838 Y-26.059 E2.36512
G1 X-12.357 Y-26.089 E2.41439
G1 X-4.309 Y-26.089 E2.68207
G1 X-3.505 Y-26.076 E2.70881
G1 X-.72 Y-25.996 E2.80148
G1 X2.634 Y-26.006 E2.91304
G1 X4.647 Y-26.046 E2.98
G1 X12.785 Y-26.046 E3.25067
G1 X13.592 Y-26.033 E3.27752
G1 X14.565 Y-25.991 E3.30991
G1 X15.539 Y-25.936 E3.34236
G1 X18.305 Y-25.859 E3.43439
G1 X21 Y-25.86 E3.52403
G1 X24.998 Y-26 E3.65708
G1 X25.324 Y-26.015 E3.66794
G1 X26.829 Y-26.046 E3.718
G1 X34.869 Y-26.046 E3.98541
G1 X35.561 Y-26.036 E4.00843
G1 X36.095 Y-25.988 E4.02626
G1 X36.616 Y-25.861 E4.0441
G1 X37.113 Y-25.659 E4.06194
G1 X37.574 Y-25.385 E4.07978
G1 X37.989 Y-25.045 E4.09762
G1 X38.349 Y-24.648 E4.11545
G1 X38.646 Y-24.202 E4.13327
G1 X38.874 Y-23.716 E4.15113
G1 X39.027 Y-23.202 E4.16896
G1 X39.101 Y-22.671 E4.1868
G1 X39.096 Y-22.135 E4.20462
G1 X39.012 Y-21.605 E4.22247
G1 X38.79 Y-20.954 E4.24535
G1 X38.368 Y-20.02 E4.27944
G1 X37.285 Y-17.521 E4.37002
G1 X36.261 Y-14.969 E4.46148
G1 X35.33 Y-12.433 E4.55133
G1 X34.456 Y-9.832 E4.6426
G1 X33.671 Y-7.259 E4.73207
G1 X32.94 Y-4.594 E4.82398
G1 X32.298 Y-1.97 E4.91383
G1 X31.716 Y0.741 E5.00605
G1 X31.227 Y3.391 E5.09568
G1 X30.809 Y6.076 E5.18606
G1 X30.466 Y8.771 E5.27642
G1 X30.196 Y11.516 E5.36816
G1 X30.008 Y14.207 E5.45788
G1 X29.895 Y16.933 E5.54862
G1 X29.858 Y19.632 E5.6384
G1 X29.858 Y22.579 E5.73642
G1 X29.845 Y23.388 E5.76333
G1 X29.802 Y24.371 E5.79606
G1 X29.745 Y25.387 E5.8299
G1 X29.67 Y28.152 E5.9219
G1 X29.672 Y30.847 E6.01154
G1 X29.814 Y34.846 E6.14463
G1 X29.828 Y35.139 E6.15438
G1 X29.858 Y36.619 E6.20362
G1 X29.858 Y44.631 E6.4701
G1 X29.848 Y45.351 E6.49405
G1 X29.8 Y45.885 E6.51188
G1 X29.674 Y46.406 E6.52971
G1 X29.472 Y46.903 E6.54755
G1 X29.198 Y47.364 E6.56539
G1 X28.859 Y47.78 E6.58324
G1 X28.462 Y48.14 E6.60106
G1 X28.015 Y48.437 E6.61891
G1 X27.53 Y48.665 E6.63674
G1 X27.016 Y48.818 E6.65457
G1 X26.485 Y48.893 E6.67241
G1 X25.949 Y48.889 E6.69024
G1 X25.419 Y48.804 E6.70809
G1 X24.908 Y48.642 E6.72592
G1 X24.497 Y48.446 E6.74107
G1 X23.955 Y48.144 E6.7617
G1 X22.692 Y47.415 E6.81021
G1 X20.314 Y46.133 E6.90006
G1 X17.857 Y44.895 E6.99157
G1 X15.396 Y43.742 E7.08196
G1 X12.881 Y42.65 E7.17315
G1 X10.394 Y41.651 E7.26229
G1 X7.798 Y40.693 E7.35433
G1 X5.227 Y39.827 E7.44456
G1 X2.608 Y39.026 E7.53565
G1 X-0.007 Y38.306 E7.62586
G1 X-2.712 Y37.643 E7.7185
G1 X-4.072 Y37.339 E7.76485
G1 X-4.494 Y37.226 E7.77938
G1 X-4.988 Y37.016 E7.79723
G1 X-5.445 Y36.736 E7.81506
G1 X-5.855 Y36.39 E7.8329
G1 X-6.209 Y35.988 E7.85072
G1 X-6.482 Y35.57 E7.86732
G1 X-6.852 Y34.904 E7.89266
G1 X-7.461 Y33.78 E7.93518
G1 X-8.849 Y31.379 E8.02742
G1 X-10.261 Y29.092 E8.11682
G1 X-11.772 Y26.787 E8.20849
G1 X-13.322 Y24.567 E8.29854
G1 X-14.942 Y22.377 E8.38914
G1 X-16.63 Y20.229 E8.48001
G1 X-18.379 Y18.126 E8.57098
G1 X-20.177 Y16.086 E8.66142
G0 F4800 X-19.884 Y15.814
G1 F600 X-21.76 Y13.802 E8.75292
G1 X-23.644 Y11.892 E8.84215
G1 X-25.689 Y9.934 E8.93632
G1 X-26.212 Y9.446 E8.96011
G1 X-26.553 Y9.073 E8.97692
G1 X-26.832 Y8.651 E8.99374
G1 X-26.957 Y8.397 E9.00316
G1 X-27.151 Y7.819 E9.02344
G1 X-27.386 Y6.798 E9.05828
G1 X-27.442 Y6.534 E9.06726
G1 X-28.087 Y3.886 E9.15791
G1 X-28.818 Y1.211 E9.25014
G1 X-29.608 Y-1.384 E9.34036
G1 X-30.478 Y-3.979 E9.43139
G1 X-31.422 Y-6.55 E9.52249
G1 X-32.447 Y-9.117 E9.61442
G1 X-33.509 Y-11.569 E9.7033
G1 X-34.69 Y-14.099 E9.79616
G1 X-35.911 Y-16.534 E9.88676
G1 X-37.839 Y-20.067 E10.02063
G1 X-38.304 Y-20.878 E10.05172
G1 X-38.52 Y-21.335 E10.06853
G1 X-38.662 Y-21.82 E10.08534
G1 X-38.725 Y-22.322 E10.10217
G1 X-38.708 Y-22.827 E10.11897
G1 X-38.612 Y-23.324 E10.13581
G1 X-38.439 Y-23.799 E10.15262
G1 X-38.193 Y-24.241 E10.16945
G1 X-37.881 Y-24.638 E10.18624
G1 X-37.51 Y-24.982 E10.20307
G1 X-37.089 Y-25.262 E10.21989
G1 X-36.63 Y-25.473 E10.23669
G1 X-36.143 Y-25.609 E10.25351
G1 X-35.593 Y-25.668 E10.2719
G1 X-34.545 Y-25.689 E10.30677
G1 X-26.404 Y-25.689 E10.57754
G1 X-25.698 Y-25.679 E10.60102
G1 X-24.628 Y-25.634 E10.63664
G1 X-23.587 Y-25.576 E10.67132
G1 X-20.836 Y-25.501 E10.76285
G1 X-18.115 Y-25.503 E10.85335
G1 X-14.143 Y-25.644 E10.98555
G1 X-13.83 Y-25.659 E10.99597
G1 X-12.357 Y-25.689 E11.04497
G1 X-4.315 Y-25.689 E11.31245
G1 X-3.516 Y-25.676 E11.33903
G1 X-.73 Y-25.596 E11.43173
G1 X2.643 Y-25.606 E11.54391
G1 X4.647 Y-25.646 E11.61058
G1 X12.779 Y-25.646 E11.88105
G1 X13.485 Y-25.636 E11.90454
G1 X14.542 Y-25.592 E11.93972
G1 X15.54 Y-25.536 E11.97297
G1 X18.294 Y-25.459 E12.0646
G1 X21.014 Y-25.46 E12.15507
G1 X25.035 Y-25.601 E12.28889
G1 X25.333 Y-25.615 E12.29881
G1 X26.829 Y-25.646 E12.34858
G1 X34.863 Y-25.646 E12.61579
G1 X35.555 Y-25.636 E12.63881
G1 X36.059 Y-25.588 E12.65565
G1 X36.548 Y-25.463 E12.67244
G1 X37.012 Y-25.261 E12.68927
G1 X37.438 Y-24.989 E12.70608
G1 X37.816 Y-24.653 E12.7229
G1 X38.137 Y-24.262 E12.73973
G1 X38.391 Y-23.826 E12.75651
G1 X38.574 Y-23.354 E12.77335
G1 X38.681 Y-22.86 E12.79016
G1 X38.708 Y-22.355 E12.80698
G1 X38.655 Y-21.853 E12.82377
G1 X38.524 Y-21.364 E12.84061
G1 X38.425 Y-21.118 E12.84943
G1 X38.003 Y-20.184 E12.88352
G1 X36.918 Y-17.68 E12.97428
G1 X35.878 Y-15.09 E13.06711
G1 X34.95 Y-12.561 E13.15671
G1 X34.088 Y-9.993 E13.2468
G1 X33.279 Y-7.344 E13.33893
G1 X32.56 Y-4.723 E13.42932
G1 X31.905 Y-2.043 E13.52108
G1 X31.326 Y0.656 E13.6129
G1 X30.833 Y3.322 E13.70307
G1 X30.41 Y6.041 E13.79459
G1 X30.07 Y8.714 E13.88421
G1 X29.797 Y11.485 E13.97682
G1 X29.608 Y14.198 E14.06728
G1 X29.496 Y16.91 E14.15755
G1 X29.458 Y19.626 E14.2479
G1 X29.458 Y22.573 E14.34592
G1 X29.448 Y23.279 E14.3694
G1 X29.403 Y24.349 E14.40502
G1 X29.345 Y25.39 E14.4397
G1 X29.27 Y28.141 E14.53123
G1 X29.272 Y30.862 E14.62173
G1 X29.412 Y34.819 E14.75342
G1 X29.428 Y35.147 E14.76435
G1 X29.458 Y36.619 E14.81331
G1 X29.458 Y44.625 E15.0796
G1 X29.448 Y45.345 E15.10354
G1 X29.401 Y45.849 E15.12038
G1 X29.275 Y46.339 E15.13721
G1 X29.074 Y46.802 E15.154
G1 X28.802 Y47.229 E15.17084
G1 X28.467 Y47.607 E15.18763
G1 X28.076 Y47.928 E15.20446
G1 X27.639 Y48.183 E15.22129
G1 X27.168 Y48.366 E15.23809
G1 X26.674 Y48.473 E15.25491
G1 X26.169 Y48.5 E15.27173
G1 X25.666 Y48.448 E15.28855
G1 X25.178 Y48.317 E15.30535
G1 X24.692 Y48.097 E15.32309
G1 X24.155 Y47.798 E15.34354
G1 X22.89 Y47.068 E15.39211
G1 X20.49 Y45.774 E15.4828
G1 X18.028 Y44.533 E15.5745
G1 X15.56 Y43.377 E15.66515
G1 X13.041 Y42.283 E15.75649
G1 X10.503 Y41.264 E15.84745
G1 X7.939 Y40.318 E15.93835
G1 X5.356 Y39.447 E16.02902
G1 X2.726 Y38.643 E16.12049
G1 X0.081 Y37.915 E16.21173
G1 X-2.573 Y37.264 E16.30262
G1 X-3.985 Y36.949 E16.35074
G1 X-4.393 Y36.838 E16.3648
G1 X-4.855 Y36.634 E16.3816
G1 X-5.28 Y36.36 E16.39842
G1 X-5.656 Y36.022 E16.41523
G1 X-5.975 Y35.629 E16.43207
G1 X-6.132 Y35.375 E16.442
G1 X-6.501 Y34.713 E16.46721
G1 X-7.128 Y33.556 E16.51098
G1 X-8.49 Y31.2 E16.60149
G1 X-9.929 Y28.868 E16.69263
G1 X-11.443 Y26.561 E16.78441
G1 X-13.016 Y24.307 E16.87583
G1 X-14.621 Y22.138 E16.96557
G1 X-16.323 Y19.971 E17.05722
G1 X-18.055 Y17.889 E17.1473
G1 X-19.884 Y15.814 E17.2393
G1 F1800 E15.2393
;MESH:Y.stl(1)
G0 F4800 X-15.546 Y14.579
G0 X-14.815 Y14.188
;TYPE:WALL-INNER
G1 F1800 E17.2393
G1 F600 X-3.933 Y-2.076 E17.89015
G1 X-3.847 Y-2.358 E17.89996
G1 X-3.847 Y-14.212 E18.29423
G1 X3.844 Y-14.212 E18.55003
G1 X3.844 Y-2.358 E18.9443
G1 X3.93 Y-2.076 E18.9541
G1 X14.831 Y14.188 E19.60531
G1 X6.486 Y14.188 E19.88287
G1 X0.624 Y4.371 E20.26316
G1 X0.306 Y4.101 E20.27704
G1 X-.233 Y4.058 E20.29502
G1 X-.637 Y4.35 E20.3116
G1 X-6.523 Y14.188 E20.69291
G1 X-14.815 Y14.188 E20.9687
G0 F4800 X-15.563 Y14.588
;TYPE:WALL-OUTER
G1 F600 X-4.298 Y-2.249 E21.64248
G1 X-4.247 Y-2.417 E21.64832
G1 X-4.247 Y-14.612 E22.05393
G1 X4.244 Y-14.612 E22.33634
G1 X4.244 Y-2.417 E22.74195
G1 X4.295 Y-2.249 E22.74779
G1 X15.581 Y14.588 E23.42196
G1 X6.259 Y14.588 E23.73201
G1 X0.314 Y4.633 E24.11766
G1 X0.145 Y4.489 E24.12505
G1 X-.118 Y4.468 E24.13382
G1 X-.336 Y4.626 E24.14278
G1 X-6.297 Y14.588 E24.5289
G1 X-15.563 Y14.588 E24.83709
G0 F4800 X-15.452 Y14.422
G0 X-15.369 Y14.478
G0 X0.316 Y-.355
;TYPE:SKIN
G1 F600 X0.662 Y0.161 E24.85776
G1 X-.598 Y0.061 E24.8998
G1 X-.319 Y-.356 E24.91648
G1 X-0.002 Y-1.391 E24.95249
G1 X0.316 Y-.355 E24.98853
G0 F4800 X0.681 Y-.529
G1 F600 X1.455 Y0.626 E25.03477
G1 X-1.256 Y0.409 E25.12523
G1 X-1.366 Y0.488 E25.12973
G1 X-.684 Y-.53 E25.17049
G1 X-.287 Y-1.824 E25.21551
G1 X-.287 Y-10.652 E25.50913
G1 X0.284 Y-10.652 E25.52812
G1 X0.284 Y-1.824 E25.82174
G1 X0.681 Y-.529 E25.86679
G0 F4800 X1.046 Y-.703
G1 F600 X3.05 Y2.288 E25.98654
G1 X1.57 Y1.036 E26.05101
G1 X-1.141 Y0.819 E26.14147
G1 X-2.934 Y2.111 E26.21497
G1 X-1.049 Y-.704 E26.32765
G1 X-.687 Y-1.884 E26.36871
G1 X-.687 Y-11.052 E26.67364
G1 X0.684 Y-11.052 E26.71924
G1 X0.684 Y-1.884 E27.02416
G1 X1.046 Y-.703 E27.06525
G0 F4800 X1.411 Y-.877
G1 F600 X9.657 Y11.428 E27.55791
G1 X8.052 Y11.428 E27.6113
G1 X2.757 Y2.563 E27.95474
G1 X1.41 Y1.424 E28.01341
G1 X-1.026 Y1.229 E28.09469
G1 X-2.714 Y2.446 E28.1639
G1 X-8.083 Y11.428 E28.51195
G1 X-9.652 Y11.428 E28.56413
G1 X-1.414 Y-.878 E29.05668
G1 X-1.087 Y-1.944 E29.09377
G1 X-1.087 Y-11.452 E29.41
G1 X1.084 Y-11.452 E29.48221
G1 X1.084 Y-1.944 E29.79845
G1 X1.411 Y-.877 E29.83557
G0 F4800 X1.776 Y-1.051
G1 F600 X10.407 Y11.828 E30.35122
G1 X7.825 Y11.828 E30.4371
G1 X2.448 Y2.825 E30.78588
G1 X1.25 Y1.812 E30.83806
G1 X-.911 Y1.639 E30.91016
G1 X-2.413 Y2.722 E30.97175
G1 X-7.857 Y11.828 E31.32462
G1 X-10.401 Y11.828 E31.40923
G1 X-1.779 Y-1.052 E31.92475
G1 X-1.487 Y-2.004 E31.95787
G1 X-1.487 Y-11.852 E32.28541
G1 X1.484 Y-11.852 E32.38423
G1 X1.484 Y-2.004 E32.71177
G1 X1.776 Y-1.051 E32.74492
G0 F4800 X2.141 Y-1.225
G1 F600 X11.157 Y12.228 E33.28357
G1 X7.598 Y12.228 E33.40194
G1 X2.139 Y3.087 E33.75606
G1 X1.09 Y2.2 E33.80175
G1 X-.796 Y2.049 E33.86468
G1 X-2.112 Y2.998 E33.91864
G1 X-7.631 Y12.228 E34.27633
G1 X-11.149 Y12.228 E34.39334
G1 X-2.144 Y-1.226 E34.9318
G1 X-1.887 Y-2.064 E34.96096
G1 X-1.887 Y-12.252 E35.29981
G1 X1.884 Y-12.252 E35.42523
G1 X1.884 Y-2.064 E35.76409
G1 X2.141 Y-1.225 E35.79327
G0 F4800 X2.506 Y-1.399
G1 F600 X11.907 Y12.628 E36.3549
G1 X7.371 Y12.628 E36.50577
G1 X1.83 Y3.349 E36.86523
G1 X0.93 Y2.588 E36.90443
G1 X-.681 Y2.459 E36.95818
G1 X-1.811 Y3.274 E37.00452
G1 X-7.405 Y12.628 E37.36703
G1 X-11.897 Y12.628 E37.51643
G1 X-2.509 Y-1.4 E38.07785
G1 X-2.287 Y-2.124 E38.10304
G1 X-2.287 Y-12.652 E38.4532
G1 X2.284 Y-12.652 E38.60523
G1 X2.284 Y-2.124 E38.95539
G1 X2.506 Y-1.399 E38.98061
G0 F4800 X2.871 Y-1.573
G1 F600 X12.657 Y13.028 E39.56523
G1 X7.144 Y13.028 E39.74859
G1 X1.521 Y3.611 E40.11339
G1 X0.77 Y2.976 E40.1461
G1 X-.566 Y2.869 E40.19068
G1 X-1.51 Y3.55 E40.2294
G1 X-7.179 Y13.028 E40.59672
G1 X-12.645 Y13.028 E40.77852
G1 X-2.874 Y-1.574 E41.36289
G1 X-2.687 Y-2.184 E41.38411
G1 X-2.687 Y-13.052 E41.74558
G1 X2.684 Y-13.052 E41.92422
G1 X2.684 Y-2.184 E42.28569
G1 X2.871 Y-1.573 E42.30694
G0 F4800 X3.236 Y-1.747
G1 F600 X13.407 Y13.428 E42.91455
G1 X6.917 Y13.428 E43.13041
G1 X1.212 Y3.873 E43.50054
G1 X0.61 Y3.364 E43.52677
G1 X-.451 Y3.279 E43.56217
G1 X-1.209 Y3.826 E43.59326
G1 X-6.953 Y13.428 E43.9654
G1 X-13.393 Y13.428 E44.1796
G1 X-3.239 Y-1.747 E44.78689
G1 X-3.087 Y-2.244 E44.80417
G1 X-3.087 Y-13.452 E45.17695
G1 X3.084 Y-13.452 E45.3822
G1 X3.084 Y-2.244 E45.75498
G1 X3.236 Y-1.747 E45.77227
G0 F4800 X3.601 Y-1.92
G1 F600 X14.157 Y13.828 E46.40283
G1 X6.69 Y13.828 E46.65119
G1 X0.903 Y4.135 E47.02666
G1 X0.45 Y3.752 E47.04639
G1 X-.336 Y3.689 E47.07262
G1 X-.908 Y4.102 E47.09609
G1 X-6.727 Y13.828 E47.47305
G1 X-14.141 Y13.828 E47.71964
G1 X-3.604 Y-1.92 E48.34986
G1 X-3.487 Y-2.304 E48.36321
G1 X-3.487 Y-13.852 E48.7473
G1 X3.484 Y-13.852 E48.97915
G1 X3.484 Y-2.304 E49.36324
G1 X3.601 Y-1.92 E49.37659
G0 F4800 X3.122 Y2.395
G1 F600 X8.907 Y11.028 E49.72223
G1 X8.279 Y11.028 E49.74312
G1 X3.122 Y2.395 E50.07758
G0 F4800 X-3.365 Y2.756
G1 F600 X-8.309 Y11.028 E50.39811
G1 X-8.903 Y11.028 E50.41786
G1 X-3.365 Y2.756 E50.74896
G0 F4800 X-3.386 Y2.553
;TYPE:SKIN
G1 F600 X-3.454 Y2.484 E50.75057
G0 F4800 X-3.341 Y2.315
G1 F600 X-3.026 Y2.63 E50.75798
G0 F4800 X-2.92 Y2.453
G1 F600 X-3.228 Y2.145 E50.76522
G0 F4800 X-2.031 Y1.079
G1 F600 X-1.936 Y1.175 E50.76747
G0 F4800 X-1.771 Y1.057
G1 F600 X-1.918 Y0.91 E50.77092
G0 F4800 X-1.805 Y0.74
G1 F600 X-1.607 Y0.938 E50.77558
G0 F4800 X-1.443 Y0.819
G1 F600 X-1.692 Y0.57 E50.78144
G0 F4800 X-.208 Y-.208
G1 F600 X-0.072 Y-0.072 E50.78464
G0 F4800 X0.234 Y-0.048
G1 F600 X-.122 Y-.405 E50.79302
G0 F4800 X-0.055 Y-.621
G1 F600 X0.099 Y-.465 E50.79667
G0 F4800 X0.801 Y0.236
G1 F600 X0.977 Y0.411 E50.80079
G0 F4800 X1.578 Y0.729
G1 F600 X2.025 Y1.176 E50.81131
G0 F4800 X0.147 Y-1.549
G1 F600 X-.111 Y-1.808 E50.81738
G0 F4800 X-.176 Y-1.59
G1 F600 X-.135 Y-1.549 E50.81835
G0 F4800 X0.108 Y-1.871
G1 F600 X-.111 Y-2.091 E50.82351
G0 F4800 X0.108 Y-2.153
G1 F600 X-.111 Y-2.374 E50.82869
G0 F4800 X0.108 Y-2.436
G1 F600 X-.111 Y-2.657 E50.83386
G0 F4800 X0.108 Y-2.719
G1 F600 X-.111 Y-2.94 E50.83903
G0 F4800 X0.108 Y-3.002
G1 F600 X-.111 Y-3.222 E50.8442
G0 F4800 X0.108 Y-3.285
G1 F600 X-.111 Y-3.505 E50.84936
G0 F4800 X0.108 Y-3.568
G1 F600 X-.111 Y-3.788 E50.85452
G0 F4800 X0.108 Y-3.85
G1 F600 X-.111 Y-4.071 E50.85969
G0 F4800 X0.108 Y-4.133
G1 F600 X-.111 Y-4.354 E50.86487
G0 F4800 X0.108 Y-4.416
G1 F600 X-.111 Y-4.637 E50.87004
G0 F4800 X0.108 Y-4.699
G1 F600 X-.111 Y-4.92 E50.87522
G0 F4800 X0.108 Y-4.982
G1 F600 X-.111 Y-5.202 E50.88038
G0 F4800 X0.108 Y-5.265
G1 F600 X-.111 Y-5.485 E50.88554
G0 F4800 X0.108 Y-5.547
G1 F600 X-.111 Y-5.768 E50.89072
G0 F4800 X0.108 Y-5.83
G1 F600 X-.111 Y-6.051 E50.89589
G0 F4800 X0.108 Y-6.113
G1 F600 X-.111 Y-6.334 E50.90106
G0 F4800 X0.108 Y-6.396
G1 F600 X-.111 Y-6.617 E50.90624
G0 F4800 X0.108 Y-6.679
G1 F600 X-.111 Y-6.899 E50.9114
G0 F4800 X0.108 Y-6.962
G1 F600 X-.111 Y-7.182 E50.91656
G0 F4800 X0.108 Y-7.245
G1 F600 X-.111 Y-7.465 E50.92173
G0 F4800 X0.108 Y-7.527
G1 F600 X-.111 Y-7.748 E50.9269
G0 F4800 X0.108 Y-7.81
G1 F600 X-.111 Y-8.031 E50.93207
G0 F4800 X0.108 Y-8.093
G1 F600 X-.111 Y-8.314 E50.93725
G0 F4800 X0.108 Y-8.376
G1 F600 X-.111 Y-8.597 E50.94242
G0 F4800 X0.108 Y-8.659
G1 F600 X-.111 Y-8.879 E50.94758
G0 F4800 X0.108 Y-8.942
G1 F600 X-.111 Y-9.162 E50.95275
G0 F4800 X0.108 Y-9.224
G1 F600 X-.111 Y-9.445 E50.95792
G0 F4800 X0.108 Y-9.507
G1 F600 X-.111 Y-9.728 E50.96309
G0 F4800 X0.108 Y-9.79
