;FLAVOR:Marlin
;TIME:2572
;Filament used: 2.25584m
;Layer height: 0.2
;MINX:-47.13
;MINY:-48.333
;MINZ:0.2
;MAXX:46.271
;MAXY:20.315
;MAXZ:3.8
;POSTPROCESSED
;Generated with Cura_SteamEngine 4.13.1
M82 ;absolute extrusion mode
START_PRINT BED_TEMP=80 EXTRUDER_TEMP=220.0
G92 E0
G92 E0
G1 F1800 E-2
;LAYER_COUNT:19
;LAYER:0
M107
G0 F4800 X-.18 Y18.592 Z0.2
;TYPE:SKIRT
G1 F1800 E0
G1 F600 X-2.945 Y18.514 E0.092
G1 X-5.639 Y18.514 E0.1816
G1 X-8.405 Y18.592 E0.27364
G1 X-11.101 Y18.745 E0.36345
G1 X-13.817 Y18.975 E0.45411
G1 X-15.093 Y19.111 E0.49679
G1 X-15.693 Y19.139 E0.51677
G1 X-42.875 Y19.14 E1.42084
G1 X-43.573 Y19.13 E1.44406
G1 X-44.107 Y19.082 E1.46189
G1 X-44.628 Y18.956 E1.47972
G1 X-45.125 Y18.753 E1.49758
G1 X-45.586 Y18.479 E1.51542
G1 X-46.001 Y18.14 E1.53324
G1 X-46.361 Y17.742 E1.55109
G1 X-46.658 Y17.296 E1.56891
G1 X-46.886 Y16.81 E1.58676
G1 X-47.038 Y16.296 E1.60459
G1 X-47.12 Y15.628 E1.62698
G1 X-47.13 Y15.198 E1.64128
G1 X-47.13 Y10.25 E1.80585
G1 X-47.119 Y9.54 E1.82947
G1 X-47.076 Y9.041 E1.84613
G1 X-47.006 Y8.598 E1.86105
G1 X-46.68 Y6.695 E1.92526
G1 X-46.293 Y3.977 E2.01658
G1 X-45.986 Y1.268 E2.10725
G1 X-45.754 Y-1.453 E2.19808
G1 X-45.601 Y-4.146 E2.2878
G1 X-45.522 Y-6.946 E2.38096
G1 X-45.513 Y-8.283 E2.42543
G1 X-45.513 Y-13.404 E2.59576
G1 X-45.503 Y-14.106 E2.61911
G1 X-45.455 Y-14.64 E2.63694
G1 X-45.329 Y-15.162 E2.6548
G1 X-45.126 Y-15.658 E2.67263
G1 X-44.852 Y-16.119 E2.69046
G1 X-44.513 Y-16.535 E2.70831
G1 X-44.086 Y-16.918 E2.72739
G1 X-43.244 Y-17.559 E2.76259
G1 X-42.558 Y-18.067 E2.79098
G1 X-40.407 Y-19.758 E2.88198
G1 X-38.336 Y-21.485 E2.97167
G1 X-36.26 Y-23.317 E3.06376
G1 X-34.281 Y-25.164 E3.15379
G1 X-32.355 Y-27.071 E3.24394
G1 X-30.445 Y-29.064 E3.33576
G1 X-28.633 Y-31.071 E3.42569
G1 X-26.864 Y-33.143 E3.5163
G1 X-25.159 Y-35.259 E3.60669
G1 X-23.504 Y-37.439 E3.69772
G1 X-21.894 Y-39.686 E3.78966
G1 X-20.395 Y-41.909 E3.87884
G1 X-18.917 Y-44.241 E3.97067
G1 X-18.193 Y-45.456 E4.01771
G1 X-17.859 Y-45.998 E4.03888
G1 X-17.544 Y-46.432 E4.05672
G1 X-17.169 Y-46.815 E4.07455
G1 X-16.74 Y-47.137 E4.09239
G1 X-16.269 Y-47.393 E4.11022
G1 X-15.765 Y-47.576 E4.12805
G1 X-15.239 Y-47.681 E4.14589
G1 X-14.581 Y-47.717 E4.16781
G1 X-14.47 Y-47.719 E4.1715
G1 X-9.74 Y-47.719 E4.32882
G1 X-8.927 Y-47.706 E4.35587
G1 X-7.694 Y-47.654 E4.39691
G1 X-4.914 Y-47.575 E4.48941
G1 X-2.22 Y-47.575 E4.57902
G1 X0.545 Y-47.653 E4.67102
G1 X3.238 Y-47.806 E4.76073
G1 X5.951 Y-48.037 E4.85129
G1 X7.419 Y-48.194 E4.9004
G1 X8.355 Y-48.301 E4.93173
G1 X8.982 Y-48.332 E4.95261
G1 X14.144 Y-48.333 E5.1243
G1 X14.846 Y-48.323 E5.14765
G1 X15.38 Y-48.275 E5.16548
G1 X15.902 Y-48.149 E5.18334
G1 X16.398 Y-47.946 E5.20117
G1 X16.859 Y-47.672 E5.219
G1 X17.275 Y-47.333 E5.23685
G1 X17.635 Y-46.936 E5.25468
G1 X17.938 Y-46.479 E5.27292
G1 X18.589 Y-45.314 E5.3173
G1 X19.958 Y-42.947 E5.40825
G1 X21.388 Y-40.629 E5.49884
G1 X22.893 Y-38.335 E5.59009
G1 X24.446 Y-36.11 E5.68034
G1 X26.059 Y-33.932 E5.77048
G1 X27.754 Y-31.774 E5.86175
G1 X29.499 Y-29.677 E5.95248
G1 X31.297 Y-27.637 E6.04293
G1 X33.159 Y-25.64 E6.13374
G1 X35.063 Y-23.711 E6.22389
G1 X37.041 Y-21.818 E6.31495
G1 X39.062 Y-19.989 E6.40561
G1 X41.151 Y-18.204 E6.497
G1 X43.266 Y-16.498 E6.58738
G1 X44.27 Y-15.71 E6.62983
G1 X44.666 Y-15.348 E6.64767
G1 X45.004 Y-14.932 E6.6655
G1 X45.276 Y-14.47 E6.68333
G1 X45.477 Y-13.973 E6.70116
G1 X45.601 Y-13.451 E6.71901
G1 X45.655 Y-12.666 E6.74518
G1 X45.657 Y-12.555 E6.74887
G1 X45.657 Y-7.825 E6.90619
G1 X45.644 Y-7.018 E6.93304
G1 X45.592 Y-5.791 E6.97388
G1 X45.513 Y-2.999 E7.06678
G1 X45.513 Y-.303 E7.15645
G1 X45.591 Y2.46 E7.24839
G1 X45.744 Y5.153 E7.3381
G1 X45.973 Y7.849 E7.42809
G1 X46.132 Y9.346 E7.47816
G1 X46.237 Y10.258 E7.5087
G1 X46.269 Y10.874 E7.52921
G1 X46.271 Y10.987 E7.53297
G1 X46.271 Y16.024 E7.7005
G1 X46.262 Y16.751 E7.72468
G1 X46.215 Y17.285 E7.74251
G1 X46.09 Y17.806 E7.76033
G1 X45.888 Y18.303 E7.77818
G1 X45.615 Y18.765 E7.79603
G1 X45.277 Y19.181 E7.81385
G1 X44.88 Y19.542 E7.8317
G1 X44.434 Y19.84 E7.84954
G1 X43.949 Y20.068 E7.86737
G1 X43.435 Y20.222 E7.88521
G1 X42.763 Y20.305 E7.90773
G1 X42.341 Y20.315 E7.92177
G1 X15.256 Y20.315 E8.82262
G1 X14.549 Y20.304 E8.84614
G1 X13.95 Y20.244 E8.86616
G1 X13.334 Y20.13 E8.887
G1 X10.654 Y19.67 E8.97744
G1 X7.941 Y19.284 E9.06858
G1 X5.234 Y18.977 E9.1592
G1 X2.513 Y18.745 E9.25003
G1 X-.18 Y18.592 E9.33974
G0 F4800 X-.181 Y18.192
G1 F600 X-2.934 Y18.114 E9.43134
G1 X-5.651 Y18.114 E9.52171
G1 X-8.403 Y18.192 E9.61328
G1 X-11.122 Y18.346 E9.70386
G1 X-13.895 Y18.581 E9.79642
G1 X-15.136 Y18.713 E9.83793
G1 X-15.704 Y18.739 E9.85684
G1 X-42.869 Y18.74 E10.76035
G1 X-43.567 Y18.73 E10.78357
G1 X-44.07 Y18.683 E10.80037
G1 X-44.56 Y18.557 E10.8172
G1 X-45.024 Y18.355 E10.83403
G1 X-45.45 Y18.083 E10.85084
G1 X-45.828 Y17.748 E10.86764
G1 X-46.148 Y17.357 E10.88445
G1 X-46.403 Y16.92 E10.90127
G1 X-46.586 Y16.449 E10.91808
G1 X-46.693 Y15.955 E10.93489
G1 X-46.729 Y15.285 E10.95721
G1 X-46.73 Y10.256 E11.12447
G1 X-46.719 Y9.546 E11.14809
G1 X-46.62 Y8.712 E11.17602
G1 X-46.283 Y6.742 E11.2425
G1 X-45.899 Y4.047 E11.33304
G1 X-45.583 Y1.264 E11.4262
G1 X-45.357 Y-1.4 E11.51512
G1 X-45.201 Y-4.147 E11.60663
G1 X-45.123 Y-6.911 E11.6986
G1 X-45.113 Y-8.281 E11.74417
G1 X-45.113 Y-13.399 E11.91439
G1 X-45.103 Y-14.101 E11.93775
G1 X-45.056 Y-14.604 E11.95455
G1 X-44.93 Y-15.094 E11.97138
G1 X-44.728 Y-15.557 E11.98818
G1 X-44.457 Y-15.984 E12.005
G1 X-44.121 Y-16.362 E12.02182
G1 X-43.843 Y-16.6 E12.03399
G1 X-43.005 Y-17.238 E12.06902
G1 X-42.318 Y-17.748 E12.09748
G1 X-40.166 Y-19.439 E12.18851
G1 X-38.061 Y-21.194 E12.27966
G1 X-35.986 Y-23.025 E12.3717
G1 X-34.027 Y-24.853 E12.46082
G1 X-32.049 Y-26.811 E12.55339
G1 X-30.176 Y-28.767 E12.64347
G1 X-28.315 Y-30.827 E12.7358
G1 X-26.565 Y-32.878 E12.82547
G1 X-24.828 Y-35.034 E12.91756
G1 X-23.175 Y-37.209 E13.00842
G1 X-21.58 Y-39.435 E13.0995
G1 X-20.058 Y-41.694 E13.1901
G1 X-18.585 Y-44.018 E13.28161
G1 X-17.852 Y-45.246 E13.32918
G1 X-17.518 Y-45.788 E13.35036
G1 X-17.22 Y-46.196 E13.36716
G1 X-16.861 Y-46.552 E13.38398
G1 X-16.45 Y-46.847 E13.4008
G1 X-15.998 Y-47.074 E13.41763
G1 X-15.517 Y-47.226 E13.4344
G1 X-14.893 Y-47.307 E13.45533
G1 X-14.47 Y-47.319 E13.46941
G1 X-9.746 Y-47.319 E13.62653
G1 X-9.035 Y-47.309 E13.65018
G1 X-7.717 Y-47.254 E13.69405
G1 X-4.925 Y-47.175 E13.78695
G1 X-2.208 Y-47.175 E13.87732
G1 X0.544 Y-47.253 E13.96889
G1 X3.294 Y-47.409 E14.0605
G1 X5.983 Y-47.638 E14.15026
G1 X7.474 Y-47.797 E14.20013
G1 X8.401 Y-47.903 E14.23117
G1 X8.994 Y-47.932 E14.25091
G1 X14.139 Y-47.933 E14.42204
G1 X14.841 Y-47.923 E14.44539
G1 X15.344 Y-47.876 E14.46219
G1 X15.834 Y-47.75 E14.47902
G1 X16.297 Y-47.548 E14.49582
G1 X16.724 Y-47.277 E14.51264
G1 X17.102 Y-46.941 E14.52946
G1 X17.422 Y-46.55 E14.54627
G1 X17.588 Y-46.284 E14.5567
G1 X18.221 Y-45.151 E14.59986
G1 X19.62 Y-42.732 E14.6928
G1 X21.046 Y-40.422 E14.7831
G1 X22.558 Y-38.117 E14.87478
G1 X24.112 Y-35.889 E14.96513
G1 X25.739 Y-33.692 E15.05606
G1 X27.448 Y-31.517 E15.14806
G1 X29.208 Y-29.402 E15.23958
G1 X30.988 Y-27.383 E15.3291
G1 X32.883 Y-25.351 E15.42151
G1 X34.767 Y-23.441 E15.51074
G1 X36.779 Y-21.515 E15.60338
G1 X38.797 Y-19.689 E15.6939
G1 X40.886 Y-17.904 E15.78529
G1 X43.047 Y-16.161 E15.87763
G1 X44.023 Y-15.395 E15.9189
G1 X44.395 Y-15.053 E15.9357
G1 X44.708 Y-14.656 E15.95252
G1 X44.955 Y-14.215 E15.96933
G1 X45.129 Y-13.74 E15.98615
G1 X45.226 Y-13.244 E16.00296
G1 X45.255 Y-12.654 E16.02261
G1 X45.257 Y-12.555 E16.0259
G1 X45.257 Y-7.831 E16.18303
G1 X45.247 Y-7.125 E16.20651
G1 X45.192 Y-5.802 E16.25055
G1 X45.113 Y-3.01 E16.34345
G1 X45.113 Y-.292 E16.43385
G1 X45.191 Y2.46 E16.52542
G1 X45.347 Y5.209 E16.617
G1 X45.575 Y7.892 E16.70656
G1 X45.732 Y9.364 E16.75579
G1 X45.84 Y10.304 E16.78726
G1 X45.869 Y10.886 E16.80665
G1 X45.871 Y10.987 E16.81001
G1 X45.871 Y16.019 E16.97737
G1 X45.862 Y16.746 E17.00155
G1 X45.816 Y17.249 E17.01835
G1 X45.691 Y17.739 E17.03517
G1 X45.49 Y18.203 E17.05199
G1 X45.219 Y18.63 E17.06881
G1 X44.884 Y19.009 E17.08563
G1 X44.494 Y19.33 E17.10243
G1 X44.058 Y19.586 E17.11925
G1 X43.587 Y19.769 E17.13606
G1 X43.093 Y19.877 E17.15288
G1 X42.431 Y19.914 E17.17493
G1 X15.262 Y19.915 E18.07857
G1 X14.555 Y19.904 E18.10209
G1 X14.023 Y19.851 E18.11987
G1 X13.407 Y19.737 E18.14071
G1 X10.701 Y19.273 E18.23202
G1 X8.011 Y18.89 E18.3224
G1 X5.245 Y18.576 E18.41499
G1 X2.566 Y18.348 E18.50441
G1 X-.181 Y18.192 E18.59592
G1 F1800 E16.59592
;MESH:Z.stl(2)
G0 F4800 X-.181 Y14.226
G0 X-2.854 Y9.463
G1 F1800 E18.59592
G0 F4800 X-2.808 Y9.375
;TYPE:WALL-INNER
G1 F600 X-2.501 Y9.441 E18.60637
G1 X11.81 Y9.441 E19.08235
G1 X11.81 Y14.246 E19.24217
G1 X-12.824 Y14.246 E20.0615
G1 X-12.824 Y9.371 E20.22364
G1 X3.858 Y-8.023 E21.02523
G1 X4.041 Y-8.398 E21.03911
G1 X3.943 Y-8.911 E21.05648
G1 X3.587 Y-9.242 E21.07265
G1 X3.28 Y-9.308 E21.08309
G1 X-13.438 Y-9.308 E21.63914
G1 X-13.438 Y-14.154 E21.80032
G1 X13.427 Y-14.154 E22.69385
G1 X13.427 Y-9.054 E22.86348
G1 X-3.079 Y8.156 E23.6566
G1 X-3.262 Y8.531 E23.67048
G1 X-3.164 Y9.044 E23.68785
G1 X-2.808 Y9.375 E23.70401
G0 F4800 X-2.844 Y8.587
;TYPE:WALL-OUTER
G1 F600 X-2.796 Y8.84 E23.71258
G1 X-2.616 Y9.007 E23.72075
G1 X-2.458 Y9.041 E23.72612
G1 X12.21 Y9.041 E24.21398
G1 X12.21 Y14.646 E24.4004
G1 X-13.224 Y14.646 E25.24634
G1 X-13.224 Y9.21 E25.42714
G1 X3.526 Y-8.255 E26.232
G1 X3.623 Y-8.454 E26.23937
G1 X3.575 Y-8.707 E26.24793
G1 X3.395 Y-8.874 E26.2561
G1 X3.237 Y-8.908 E26.26147
G1 X-13.838 Y-8.908 E26.82939
G1 X-13.838 Y-14.554 E27.01718
G1 X13.827 Y-14.554 E27.93732
G1 X13.827 Y-8.893 E28.12561
G1 X-2.747 Y8.388 E28.922
G1 X-2.844 Y8.587 E28.92936
G0 F4800 X-2.807 Y8.783
G0 X-3.298 Y8.875
G0 X7.946 Y-9.061
;TYPE:SKIN
G1 F600 X7.728 Y-10.194 E28.96774
G1 X9.032 Y-10.194 E29.01111
G1 X7.946 Y-9.061 E29.06331
G0 F4800 X7.7 Y-8.226
G1 F600 X7.243 Y-10.594 E29.14352
G1 X9.867 Y-10.594 E29.23079
G1 X9.867 Y-10.486 E29.23439
G1 X7.7 Y-8.226 E29.33852
G0 F4800 X7.343 Y-7.963
G1 F600 X6.85 Y-10.522 E29.4252
G1 X6.344 Y-10.994 E29.44822
G1 X10.267 Y-10.994 E29.5787
G1 X10.267 Y-10.325 E29.60095
G1 X6.666 Y-6.57 E29.77399
G1 X7.343 Y-7.963 E29.8255
G0 F4800 X6.925 Y-8.018
G1 F600 X6.482 Y-10.318 E29.90341
G1 X5.327 Y-11.394 E29.95591
G1 X10.667 Y-11.394 E30.13352
G1 X10.667 Y-10.164 E30.17443
G1 X-5.37 Y6.556 E30.94499
G1 X-6.146 Y8.151 E31.00398
G1 X-5.703 Y10.451 E31.08189
G1 X-4.592 Y11.486 E31.13239
G1 X-10.064 Y11.486 E31.31439
G1 X-10.064 Y10.481 E31.34782
G1 X6.149 Y-6.423 E32.12685
G1 X6.925 Y-8.018 E32.18584
G0 F4800 X6.507 Y-8.073
G1 F600 X6.114 Y-10.114 E32.25497
G1 X4.72 Y-11.413 E32.31835
G1 X3.529 Y-11.668 E32.35886
G1 X-11.078 Y-11.668 E32.84469
G1 X-11.078 Y-11.794 E32.84888
G1 X11.067 Y-11.794 E33.58543
G1 X11.067 Y-10.003 E33.64499
G1 X-5.038 Y6.788 E34.41883
G1 X-5.728 Y8.206 E34.47128
G1 X-5.335 Y10.247 E34.54041
G1 X-3.941 Y11.546 E34.60378
G1 X-2.75 Y11.801 E34.64429
G1 X9.45 Y11.801 E35.05007
G1 X9.45 Y11.886 E35.05289
G1 X-10.464 Y11.886 E35.71524
G1 X-10.464 Y10.32 E35.76732
G1 X5.817 Y-6.655 E36.54962
G1 X6.507 Y-8.073 E36.60207
G0 F4800 X6.089 Y-8.128
G1 F600 X5.746 Y-9.91 E36.66243
G1 X4.528 Y-11.045 E36.7178
G1 X3.487 Y-11.268 E36.75321
G1 X-11.478 Y-11.268 E37.25095
G1 X-11.478 Y-12.194 E37.28175
G1 X11.467 Y-12.194 E38.0449
G1 X11.467 Y-9.842 E38.12313
G1 X-4.706 Y7.019 E38.90021
G1 X-5.31 Y8.261 E38.94614
G1 X-4.967 Y10.043 E39.0065
G1 X-3.749 Y11.178 E39.06187
G1 X-2.708 Y11.401 E39.09728
G1 X9.85 Y11.401 E39.51496
G1 X9.85 Y12.286 E39.5444
G1 X-10.864 Y12.286 E40.23335
G1 X-10.864 Y10.159 E40.30409
G1 X5.485 Y-6.886 E41.08964
G1 X6.089 Y-8.128 E41.13557
G0 F4800 X5.671 Y-8.183
G1 F600 X5.378 Y-9.706 E41.18716
G1 X4.336 Y-10.677 E41.23453
G1 X3.445 Y-10.868 E41.26484
G1 X-11.878 Y-10.868 E41.77448
G1 X-11.878 Y-12.594 E41.83189
G1 X11.867 Y-12.594 E42.62165
G1 X11.867 Y-9.681 E42.71854
G1 X-4.374 Y7.251 E43.49889
G1 X-4.892 Y8.316 E43.53828
G1 X-4.599 Y9.839 E43.58986
G1 X-3.557 Y10.81 E43.63723
G1 X-2.666 Y11.001 E43.66754
G1 X10.25 Y11.001 E44.09713
G1 X10.25 Y12.686 E44.15317
G1 X-11.264 Y12.686 E44.86873
G1 X-11.264 Y9.998 E44.95813
G1 X5.153 Y-7.118 E45.74695
G1 X5.671 Y-8.183 E45.78634
G0 F4800 X5.253 Y-8.238
G1 F600 X5.01 Y-9.502 E45.82915
G1 X4.144 Y-10.309 E45.86852
G1 X3.403 Y-10.468 E45.89373
G1 X-12.278 Y-10.468 E46.41528
G1 X-12.278 Y-12.994 E46.4993
G1 X12.267 Y-12.994 E47.31567
G1 X12.267 Y-9.52 E47.43121
G1 X-4.042 Y7.483 E48.21483
G1 X-4.474 Y8.371 E48.24767
G1 X-4.231 Y9.635 E48.29048
G1 X-3.365 Y10.442 E48.32985
G1 X-2.624 Y10.601 E48.35506
G1 X10.65 Y10.601 E48.79656
G1 X10.65 Y13.086 E48.87921
G1 X-11.664 Y13.086 E49.62137
G1 X-11.664 Y9.837 E49.72944
G1 X4.821 Y-7.35 E50.52152
G1 X5.253 Y-8.238 E50.55437
G0 F4800 X4.835 Y-8.293
G1 F600 X4.642 Y-9.298 E50.5884
G1 X3.952 Y-9.941 E50.61977
G1 X3.361 Y-10.068 E50.63988
G1 X-12.678 Y-10.068 E51.17334
G1 X-12.678 Y-13.394 E51.28396
G1 X12.667 Y-13.394 E52.12694
G1 X12.667 Y-9.359 E52.26114
G1 X-3.71 Y7.715 E53.04803
G1 X-4.056 Y8.426 E53.07433
G1 X-3.863 Y9.431 E53.10837
G1 X-3.173 Y10.074 E53.13974
G1 X-2.582 Y10.201 E53.15984
G1 X11.05 Y10.201 E53.61325
G1 X11.05 Y13.486 E53.72251
G1 X-12.064 Y13.486 E54.49128
G1 X-12.064 Y9.676 E54.618
G1 X4.489 Y-7.582 E55.41336
G1 X4.835 Y-8.293 E55.43966
G0 F4800 X4.417 Y-8.348
G1 F600 X4.274 Y-9.094 E55.46492
G1 X3.76 Y-9.573 E55.48829
G1 X3.318 Y-9.668 E55.50332
G1 X-13.078 Y-9.668 E56.04866
G1 X-13.078 Y-13.794 E56.18589
G1 X13.067 Y-13.794 E57.05548
G1 X13.067 Y-9.198 E57.20834
G1 X-3.378 Y7.947 E57.9985
G1 X-3.638 Y8.481 E58.01825
G1 X-3.495 Y9.227 E58.04351
G1 X-2.981 Y9.706 E58.06688
G1 X-2.539 Y9.801 E58.08192
G1 X11.45 Y9.801 E58.5472
G1 X11.45 Y13.886 E58.68306
G1 X-12.464 Y13.886 E59.47845
G1 X-12.464 Y9.515 E59.62383
G1 X4.157 Y-7.814 E60.42245
G1 X4.417 Y-8.348 E60.44221
G0 F4800 X-5.887 Y6.704
G1 F600 X-6.564 Y8.096 E60.49369
G1 X-6.071 Y10.655 E60.58037
G1 X-5.609 Y11.086 E60.60138
G1 X-9.664 Y11.086 E60.73625
G1 X-9.664 Y10.642 E60.75102
G1 X-5.887 Y6.704 E60.9325
G0 F4800 X-6.921 Y8.36
G1 F600 X-6.472 Y10.686 E61.01129
G1 X-9.152 Y10.686 E61.10043
G1 X-6.921 Y8.36 E61.20763
G0 F4800 X-7.167 Y9.195
G1 F600 X-6.957 Y10.286 E61.24458
G1 X-8.214 Y10.286 E61.28639
G1 X-7.167 Y9.195 E61.33668
G0 F4800 X-7.064 Y9.057
;TYPE:SKIN
G1 F600 X-7.208 Y8.913 E61.34007
G0 F4800 X-7.07 Y8.768
G1 F600 X-7.007 Y8.831 E61.34155
G0 F4800 X-6.747 Y8.243
G1 F600 X-6.938 Y8.052 E61.34604
G0 F4800 X-6.799 Y7.908
G1 F600 X-6.71 Y7.997 E61.34814
G0 F4800 X-7.341 Y9.628
G1 F600 X-7.242 Y9.728 E61.35048
G0 F4800 X-7.48 Y9.772
G1 F600 X-7.173 Y10.079 E61.3577
G0 F4800 X-7.426 Y10.11
G1 F600 X-7.619 Y9.917 E61.36224
G0 F4800 X-7.756 Y10.062
G1 F600 X-7.708 Y10.11 E61.36336
G0 F4800 X-8.391 Y10.275
G1 F600 X-8.456 Y10.211 E61.36488
G0 F4800 X-8.594 Y10.355
G1 F600 X-8.44 Y10.509 E61.3685
G0 F4800 X-9.272 Y10.808
G1 F600 X-9.431 Y10.65 E61.37223
G0 F4800 X-9.489 Y10.875
G1 F600 X-9.454 Y10.909 E61.37304
G0 F4800 X-6.165 Y10.805
G1 F600 X-6.107 Y10.862 E61.37439
G0 F4800 X-5.484 Y11.203
G1 F600 X-5.377 Y11.31 E61.37691
G0 F4800 X-5.106 Y11.298
G1 F600 X-5.404 Y11 E61.38392
G0 F4800 X-4.401 Y11.437
G1 F600 X-4.128 Y11.71 E61.39034
G0 F4800 X-4.411 Y11.71
G1 F600 X-4.481 Y11.64 E61.39199
G0 F4800 X-5.578 Y6.583
G1 F600 X-5.836 Y6.325 E61.39805
G0 F4800 X-5.697 Y6.181
G1 F600 X-5.471 Y6.407 E61.40337
G0 F4800 X-5.332 Y6.263
G1 F600 X-5.559 Y6.036 E61.40871
G0 F4800 X-5.421 Y5.892
G1 F600 X-5.194 Y6.119 E61.41405
G0 F4800 X-5.055 Y5.975
G1 F600 X-5.282 Y5.748 E61.41939
G0 F4800 X-5.144 Y5.603
G1 F600 X-4.917 Y5.83 E61.42472
G0 F4800 X-4.779 Y5.685
G1 F600 X-5.005 Y5.459 E61.43004
G0 F4800 X-4.867 Y5.315
G1 F600 X-4.64 Y5.541 E61.43537
G0 F4800 X-4.502 Y5.397
G1 F600 X-4.729 Y5.17 E61.44071
G0 F4800 X-4.59 Y5.026
G1 F600 X-4.363 Y5.253 E61.44604
G0 F4800 X-4.224 Y5.108
G1 F600 X-4.451 Y4.881 E61.45138
G0 F4800 X-4.313 Y4.737
G1 F600 X-4.087 Y4.963 E61.4567
G0 F4800 X-3.948 Y4.819
G1 F600 X-4.174 Y4.593 E61.46201
G0 F4800 X-4.036 Y4.449
