;FLAVOR:Marlin
;TIME:1490
;Filament used: 2.43726m
;Layer height: 0.2
;MINX:-53.607
;MINY:-50.812
;MINZ:0.2
;MAXX:54.478
;MAXY:60.862
;MAXZ:3.6
;POSTPROCESSED
;Generated with Cura_SteamEngine 4.8.0
M140 S60
M105
M190 S60
M104 S195
M105
M109 S195
M82 ;absolute extrusion mode
G28 ;Home
G1 Z15.0 F6000 ;Move the platform down 15mm
;Prime the extruder
G92 E0
G1 F200 E3
G92 E0
G92 E0
G92 E0
G1 F1500 E-6.5
;LAYER_COUNT:18
;LAYER:0
M107
G0 F3600 X-24.998 Y9.65 Z0.2
;TYPE:SKIRT
G1 F1500 E0
G1 F1800 X-26.18 Y7.165 E0.16784
G1 X-27.431 Y4.716 E0.33556
G1 X-28.729 Y2.343 E0.50053
G1 X-30.115 Y-0.029 E0.66809
G1 X-31.558 Y-2.345 E0.83452
G1 X-33.07 Y-4.627 E1.00148
G1 X-34.655 Y-6.876 E1.16929
G1 X-36.269 Y-9.036 E1.33375
G1 X-37.973 Y-11.187 E1.50112
G1 X-39.758 Y-13.312 E1.67038
G1 X-41.512 Y-15.293 E1.83176
G1 X-41.8 Y-15.667 E1.86055
G1 X-42.082 Y-16.197 E1.89717
G1 X-42.151 Y-16.366 E1.9083
G1 X-42.361 Y-16.904 E1.94353
G1 X-53.19 Y-45.718 E3.82094
G1 X-53.414 Y-46.344 E3.86149
G1 X-53.55 Y-46.842 E3.89298
G1 X-53.607 Y-47.354 E3.9244
G1 X-53.584 Y-47.87 E3.9559
G1 X-53.483 Y-48.375 E3.98731
G1 X-53.304 Y-48.859 E4.01879
G1 X-53.052 Y-49.309 E4.05025
G1 X-52.734 Y-49.715 E4.0817
G1 X-52.358 Y-50.068 E4.11315
G1 X-51.931 Y-50.357 E4.1446
G1 X-51.465 Y-50.578 E4.17606
G1 X-50.97 Y-50.724 E4.20753
G1 X-50.339 Y-50.795 E4.24626
G1 X-49.388 Y-50.812 E4.30428
G1 X-41.491 Y-50.812 E4.78592
G1 X-40.785 Y-50.802 E4.82899
G1 X-40.303 Y-50.783 E4.85841
G1 X-38.174 Y-50.663 E4.98846
G1 X-35.431 Y-50.586 E5.15583
G1 X-32.72 Y-50.586 E5.32118
G1 X-29.954 Y-50.665 E5.48995
G1 X-28.36 Y-50.758 E5.58733
G1 X-27.462 Y-50.799 E5.64216
G1 X-26.617 Y-50.812 E5.6937
G1 X-18.296 Y-50.812 E6.20121
G1 X-17.592 Y-50.802 E6.24416
G1 X-17.03 Y-50.746 E6.2786
G1 X-16.858 Y-50.714 E6.28927
G1 X-14.174 Y-50.255 E6.45535
G1 X-11.457 Y-49.869 E6.62273
G1 X-8.733 Y-49.56 E6.78993
G1 X-6.029 Y-49.331 E6.95544
G1 X-3.287 Y-49.177 E7.12295
G1 X-.542 Y-49.1 E7.29043
G1 X2.169 Y-49.1 E7.45578
G1 X4.912 Y-49.179 E7.62315
G1 X7.657 Y-49.335 E7.79084
G1 X10.356 Y-49.565 E7.95605
G1 X13.083 Y-49.875 E8.12345
G1 X15.799 Y-50.263 E8.29078
G1 X16.551 Y-50.394 E8.33734
G1 X16.645 Y-50.403 E8.3431
G1 X17.928 Y-50.613 E8.42239
G1 X18.406 Y-50.656 E8.45166
G1 X19.411 Y-50.674 E8.51297
G1 X27.311 Y-50.674 E8.9948
G1 X28.016 Y-50.664 E9.0378
G1 X28.494 Y-50.645 E9.06698
G1 X30.615 Y-50.525 E9.19655
G1 X33.356 Y-50.448 E9.36379
G1 X36.066 Y-50.448 E9.52908
G1 X38.833 Y-50.527 E9.69791
G1 X40.447 Y-50.621 E9.79652
G1 X41.306 Y-50.66 E9.84896
G1 X42.186 Y-50.674 E9.90264
G1 X50.504 Y-50.674 E10.40997
G1 X51.192 Y-50.665 E10.45193
G1 X51.705 Y-50.618 E10.48335
G1 X52.205 Y-50.493 E10.51478
G1 X52.68 Y-50.291 E10.54627
G1 X53.119 Y-50.019 E10.57776
G1 X53.509 Y-49.683 E10.60916
G1 X53.844 Y-49.29 E10.64066
G1 X54.113 Y-48.85 E10.67211
G1 X54.312 Y-48.374 E10.70358
G1 X54.434 Y-47.873 E10.73503
G1 X54.478 Y-47.36 E10.76643
G1 X54.442 Y-46.845 E10.79792
G1 X54.285 Y-46.217 E10.8374
G1 X53.983 Y-45.373 E10.89207
G1 X43.26 Y-16.837 E12.75134
G1 X42.986 Y-16.136 E12.79725
G1 X42.762 Y-15.671 E12.82873
G1 X42.403 Y-15.169 E12.86637
G1 X41.862 Y-14.544 E12.91679
G1 X40.077 Y-12.419 E13.08605
G1 X38.364 Y-10.26 E13.25414
G1 X36.744 Y-8.094 E13.41911
G1 X35.154 Y-5.838 E13.58745
G1 X33.641 Y-3.557 E13.75439
G1 X32.205 Y-1.251 E13.92008
G1 X30.825 Y1.109 E14.08682
G1 X29.503 Y3.523 E14.25469
G1 X28.274 Y5.93 E14.41952
G1 X27.085 Y8.427 E14.5882
G1 X25.993 Y10.901 E14.75314
G1 X24.951 Y13.452 E14.92121
G1 X23.991 Y16.006 E15.08762
G1 X23.108 Y18.575 E15.25331
G1 X22.283 Y21.216 E15.42206
G1 X21.547 Y23.828 E15.58757
G1 X20.73 Y27.127 E15.79486
G1 X20.479 Y28.223 E15.86344
G1 X20.37 Y28.596 E15.88714
G1 X20.038 Y29.528 E15.94748
G1 X9.325 Y58.039 E17.80511
G1 X9.053 Y58.735 E17.85069
G1 X8.828 Y59.199 E17.88214
G1 X8.535 Y59.624 E17.91362
G1 X8.179 Y59.997 E17.94507
G1 X7.771 Y60.312 E17.97651
G1 X7.318 Y60.559 E18.00798
G1 X6.833 Y60.734 E18.03943
G1 X6.326 Y60.832 E18.07092
G1 X5.45 Y60.862 E18.12438
G1 X-3.49 Y60.862 E18.66964
G1 X-4.189 Y60.853 E18.71228
G1 X-4.703 Y60.806 E18.74376
G1 X-5.203 Y60.681 E18.77519
G1 X-5.678 Y60.48 E18.80665
G1 X-6.116 Y60.208 E18.8381
G1 X-6.507 Y59.871 E18.86958
G1 X-6.841 Y59.479 E18.90099
G1 X-7.111 Y59.039 E18.93248
G1 X-7.292 Y58.627 E18.95992
G1 X-7.506 Y58.075 E18.99603
G1 X-18.317 Y29.308 E20.87038
G1 X-18.549 Y28.667 E20.91196
G1 X-18.659 Y28.298 E20.93544
G1 X-18.787 Y27.755 E20.96947
G1 X-19.463 Y25.065 E21.13864
G1 X-20.208 Y22.415 E21.30653
G1 X-21.018 Y19.821 E21.47227
G1 X-21.914 Y17.208 E21.64075
G1 X-22.86 Y14.691 E21.80475
G1 X-23.909 Y12.118 E21.97422
G1 X-24.998 Y9.65 E22.13875
G1 F1500 E15.63875
;MESH:A.stl(1)
G0 F3600 X-9.915 Y3.982
G0 X-8.366 Y3.399
G0 X-4.784 Y-4.621
G0 X4.066 Y-4.698
G0 X4.066 Y-4.598
;TYPE:WALL-INNER
G1 F1500 E22.13875
G1 F1800 X-4.308 Y-4.598 E22.64949
G1 X-4.309 Y-4.598 E22.64956
G1 X-4.752 Y-4.598 E22.67657
G1 X-4.623 Y-4.174 E22.69274
G1 X-.874 Y8.166 E23.47934
G1 X0.592 Y8.166 E23.56876
G1 X4.381 Y-4.173 E24.35601
G1 X4.511 Y-4.598 E24.38312
G1 X4.067 Y-4.598 E24.39931
G1 X4.066 Y-4.598 E24.39937
G0 F3600 X3.618 Y-3.938
;TYPE:WALL-OUTER
G1 F1800 X-3.862 Y-3.938 E24.85559
G1 X-.385 Y7.506 E25.58508
G1 X0.104 Y7.506 E25.6149
G1 X3.618 Y-3.938 E26.34505
G0 F3600 X3.418 Y-3.938
G0 X3.418 Y-4.664
G0 X3.418 Y-4.698
G0 X-6.229 Y-9.025
G0 X-6.17 Y-9.105
;TYPE:WALL-INNER
G1 F1800 X5.829 Y-9.105 E27.07688
G1 X7.33 Y-14.057 E27.39248
G1 X14.398 Y-14.057 E27.82357
G1 X14.399 Y-14.057 E27.82363
G1 X14.873 Y-14.057 E27.85254
G1 X14.706 Y-13.613 E27.86959
G1 X4.344 Y13.962 E29.66624
G1 X-4.396 Y13.962 E30.19931
G1 X-14.761 Y-13.613 E31.99603
G1 X-14.928 Y-14.057 E32.02496
G1 X-14.454 Y-14.057 E32.042
G1 X-14.453 Y-14.057 E32.04206
G1 X-7.632 Y-14.057 E32.45808
G1 X-6.17 Y-9.105 E32.773
G0 F3600 X-5.677 Y-9.765
;TYPE:WALL-OUTER
G1 F1800 X5.339 Y-9.765 E33.44488
G1 X6.84 Y-14.717 E33.76047
G1 X15.35 Y-14.717 E34.27951
G1 X15.351 Y-14.717 E34.27957
G1 X15.826 Y-14.717 E34.30854
G1 X15.659 Y-14.272 E34.32561
G1 X4.801 Y14.622 E36.20822
G1 X-4.853 Y14.622 E36.79703
G1 X-15.714 Y-14.272 E38.6797
G1 X-15.881 Y-14.717 E38.70869
G1 X-15.406 Y-14.717 E38.72575
G1 X-15.405 Y-14.717 E38.72581
G1 X-7.139 Y-14.717 E39.22997
G1 X-5.677 Y-9.765 E39.54489
G0 F3600 X-5.477 Y-9.765
G0 X-5.477 Y-9.039
G0 X-5.477 Y-9.005
G0 X-9.601 Y-9.182
;TYPE:SKIN
G1 F1800 X-10.205 Y-10.787 E39.64948
G1 X-10.075 Y-10.787 E39.65741
G1 X-9.601 Y-9.182 E39.75948
G0 F3600 X-9.582 Y-11.447
G1 F1800 X-8.12 Y-6.495 E40.0744
G1 X-8.055 Y-6.495 E40.07836
G1 X-2.823 Y10.726 E41.1761
G1 X-11.158 Y-11.447 E42.62085
G1 X-9.582 Y-11.447 E42.71697
G0 F3600 X-6.641 Y-8.475
G1 F1800 X6.297 Y-8.475 E43.50608
G1 X7.797 Y-13.427 E43.82166
G1 X13.962 Y-13.427 E44.19767
G1 X3.907 Y13.332 E45.94115
G1 X-3.959 Y13.332 E46.42091
G1 X-14.017 Y-13.427 E48.16446
G1 X-8.103 Y-13.427 E48.52516
G1 X-6.641 Y-8.475 E48.84008
G0 F3600 X-7.134 Y-7.815
G1 F1800 X6.787 Y-7.815 E49.68914
G1 X8.287 Y-12.767 E50.00472
G1 X13.009 Y-12.767 E50.29272
G1 X3.45 Y12.672 E51.9502
G1 X-3.502 Y12.672 E52.37421
G1 X-13.064 Y-12.767 E54.03175
G1 X-8.596 Y-12.767 E54.30426
G1 X-7.134 Y-7.815 E54.61918
G0 F3600 X-7.627 Y-7.155
G1 F1800 X7.277 Y-7.155 E55.52819
G1 X8.777 Y-12.107 E55.84378
G1 X12.056 Y-12.107 E56.04377
G1 X2.993 Y12.012 E57.61524
G1 X-3.045 Y12.012 E57.98351
G1 X-12.111 Y-12.107 E59.55505
G1 X-9.089 Y-12.107 E59.73936
G1 X-7.627 Y-7.155 E60.05428
G0 F3600 X-7.382 Y-6.548
G1 F1800 X-2.319 Y10.116 E61.11651
G1 X2.034 Y10.116 E61.38201
G1 X7.148 Y-6.548 E62.44515
G1 X-7.382 Y-6.548 E63.33135
G0 F3600 X-6.492 Y-5.888
G1 F1800 X-1.83 Y9.456 E64.30945
G1 X1.546 Y9.456 E64.51535
G1 X6.255 Y-5.888 E65.49428
G1 X-6.492 Y-5.888 E66.27174
G0 F3600 X-5.602 Y-5.228
G1 F1800 X-1.341 Y8.796 E67.16569
G1 X1.058 Y8.796 E67.31201
G1 X1.211 Y8.296 E67.3439
G1 X5.363 Y-5.228 E68.20675
G1 X-5.602 Y-5.228 E68.87552
G0 F3600 X7.983 Y-7.208
G1 F1800 X9.267 Y-11.447 E69.14566
G1 X11.103 Y-11.447 E69.25764
G1 X2.536 Y11.352 E70.74311
G1 X-2.588 Y11.352 E71.05563
G1 X-2.804 Y10.776 E71.09315
G1 X2.522 Y10.776 E71.41799
G1 X8.041 Y-7.208 E72.56534
G1 X7.983 Y-7.208 E72.56888
G0 F3600 X8.404 Y-6.141
G1 F1800 X8.934 Y-7.868 E72.67906
G1 X8.873 Y-7.868 E72.68278
G1 X9.757 Y-10.787 E72.8688
G1 X10.15 Y-10.787 E72.89277
G1 X8.404 Y-6.141 E73.19549
G0 F3600 X8.4 Y-5.824
;TYPE:SKIN
G1 F1800 X8.4 Y-5.149 E73.2142
G0 F3600 X7.8 Y-5.35
G1 F1800 X7.8 Y-3.552 E73.26404
G0 F3600 X7.2 Y-3.394
G1 F1800 X7.2 Y-1.955 E73.30394
G0 F3600 X6.9 Y-2.417
G1 F1800 X6.9 Y-1.157 E73.33887
G0 F3600 X6.6 Y-1.439
G1 F1800 X6.6 Y-.358 E73.36884
G0 F3600 X6.3 Y-.462
G1 F1800 X6.3 Y0.44 E73.39385
G0 F3600 X6 Y0.516
G1 F1800 X6 Y1.238 E73.41386
G0 F3600 X5.7 Y1.493
G1 F1800 X5.7 Y2.037 E73.42894
G0 F3600 X5.4 Y2.471
G1 F1800 X5.4 Y2.835 E73.43903
G0 F3600 X5.1 Y3.448
G1 F1800 X5.1 Y3.56 E73.44214
G0 F3600 X7.5 Y-2.754
G1 F1800 X7.5 Y-4.372 E73.487
G0 F3600 X8.1 Y-4.35
G1 F1800 X8.1 Y-5.927 E73.53072
G0 F3600 X-4.784 Y-4.621
G0 X-6.9 Y-1.609
G1 F1800 X-6.9 Y-1.015 E73.54718
G0 F3600 X-6.6 Y-.622
G1 F1800 X-6.6 Y-.217 E73.55841
G0 F3600 X-6.3 Y0.366
G1 F1800 X-6.3 Y0.582 E73.5644
G0 F3600 X-7.2 Y-1.813
G1 F1800 X-7.2 Y-2.596 E73.58611
G0 F3600 X-7.5 Y-2.611
G1 F1800 X-7.5 Y-3.583 E73.61305
G0 F3600 X-7.8 Y-3.41
G1 F1800 X-7.8 Y-4.57 E73.64521
G0 F3600 X-8.1 Y-4.208
G1 F1800 X-8.1 Y-5.558 E73.68264
G0 F3600 X-8.4 Y-5.006
G1 F1800 X-8.4 Y-6.332 E73.7194
G0 F3600 X-8.7 Y-5.804
G1 F1800 X-8.7 Y-7.347 E73.76218
G0 F3600 X-9.3 Y-7.401
G1 F1800 X-9.3 Y-8.967 E73.80559
G0 F3600 X-9.6 Y-8.867
G1 F1800 X-9.6 Y-8.199 E73.82411
G0 F3600 X-9 Y-8.363
G1 F1800 X-9 Y-6.603 E73.8729
G1 F1500 E67.3729
;MESH:A.stl(2)
G0 F3600 X-.897 Y8.198
G0 X4.333 Y13.946
G0 X4.333 Y15.617
G0 X4.333 Y31.82
G0 X4.333 Y33.495
G0 X4.995 Y37.882
G0 X4.995 Y37.982
;TYPE:WALL-INNER
G1 F1500 E73.8729
G1 F1800 X-3.38 Y37.982 E74.38371
G1 X-3.381 Y37.982 E74.38377
G1 X-3.824 Y37.982 E74.41079
G1 X-3.695 Y38.406 E74.42696
G1 X0.054 Y50.746 E75.21356
G1 X1.52 Y50.746 E75.30297
G1 X5.31 Y38.407 E76.09024
G1 X5.44 Y37.982 E76.11735
G1 X4.996 Y37.982 E76.13354
G1 X4.995 Y37.982 E76.1336
G0 F3600 X4.547 Y38.642
;TYPE:WALL-OUTER
G1 F1800 X-2.934 Y38.642 E76.58988
G1 X0.543 Y50.086 E77.31937
G1 X1.032 Y50.086 E77.34919
G1 X4.547 Y38.642 E78.07936
G0 F3600 X4.347 Y38.642
G0 X4.347 Y37.916
G0 X4.347 Y37.882
G0 X-5.301 Y33.555
G0 X-5.242 Y33.475
;TYPE:WALL-INNER
G1 F1800 X6.758 Y33.475 E78.81125
G1 X8.258 Y28.522 E79.12689
G1 X15.326 Y28.522 E79.55798
G1 X15.327 Y28.522 E79.55804
G1 X15.801 Y28.522 E79.58695
G1 X15.634 Y28.966 E79.604
G1 X5.272 Y56.542 E81.40071
G1 X-3.468 Y56.542 E81.93378
G1 X-13.832 Y28.966 E83.73053
G1 X-13.999 Y28.522 E83.75947
G1 X-13.525 Y28.522 E83.7765
G1 X-13.524 Y28.522 E83.77656
G1 X-6.703 Y28.522 E84.19258
G1 X-5.242 Y33.475 E84.50754
G0 F3600 X-4.749 Y32.815
;TYPE:WALL-OUTER
G1 F1800 X6.268 Y32.815 E85.17948
G1 X7.768 Y27.862 E85.49512
G1 X16.278 Y27.862 E86.01416
G1 X16.279 Y27.862 E86.01422
G1 X16.754 Y27.862 E86.04319
G1 X16.587 Y28.307 E86.06026
G1 X5.729 Y57.202 E87.94292
G1 X-3.925 Y57.202 E88.53173
G1 X-14.785 Y28.307 E90.41444
G1 X-14.952 Y27.862 E90.44343
G1 X-14.477 Y27.862 E90.46049
G1 X-14.476 Y27.862 E90.46055
G1 X-6.21 Y27.862 E90.96471
G1 X-4.749 Y32.815 E91.27967
G0 F3600 X-4.549 Y32.815
G0 X-4.549 Y33.541
G0 X-4.549 Y33.575
G0 X-8.677 Y33.384
;TYPE:SKIN
G1 F1800 X-9.276 Y31.792 E91.38341
G1 X-9.147 Y31.792 E91.39128
G1 X-8.677 Y33.384 E91.49252
G0 F3600 X-8.654 Y31.132
G1 F1800 X-7.192 Y36.085 E91.80749
G1 X-7.127 Y36.085 E91.81146
G1 X-1.895 Y53.305 E92.90914
G1 X-10.229 Y31.132 E94.35387
G1 X-8.654 Y31.132 E94.44993
G0 F3600 X-5.713 Y34.105
G1 F1800 X7.226 Y34.105 E95.23909
G1 X8.726 Y29.152 E95.55473
G1 X14.89 Y29.152 E95.93068
G1 X4.835 Y55.912 E97.67423
G1 X-3.031 Y55.912 E98.15398
G1 X-13.088 Y29.152 E99.89757
G1 X-7.175 Y29.152 E100.25821
G1 X-5.713 Y34.105 E100.57318
G0 F3600 X-6.206 Y34.765
G1 F1800 X7.716 Y34.765 E101.42231
G1 X9.216 Y29.812 E101.73794
G1 X13.937 Y29.812 E102.02588
G1 X4.378 Y55.252 E103.68342
G1 X-2.574 Y55.252 E104.10743
G1 X-12.135 Y29.812 E105.76501
G1 X-7.668 Y29.812 E106.03746
G1 X-6.206 Y34.765 E106.35244
G0 F3600 X-6.699 Y35.425
G1 F1800 X8.206 Y35.425 E107.26151
G1 X9.706 Y30.472 E107.57715
G1 X12.984 Y30.472 E107.77708
G1 X3.921 Y54.592 E109.34861
G1 X-2.117 Y54.592 E109.71688
G1 X-11.182 Y30.472 E111.28845
G1 X-8.161 Y30.472 E111.47271
G1 X-6.699 Y35.425 E111.78768
G0 F3600 X-6.454 Y36.032
G1 F1800 X-1.391 Y52.696 E112.84992
G1 X2.962 Y52.696 E113.11541
G1 X8.077 Y36.032 E114.17857
G1 X-6.454 Y36.032 E115.06484
G0 F3600 X-5.564 Y36.692
G1 F1800 X-.902 Y52.036 E116.04293
G1 X2.474 Y52.036 E116.24884
G1 X7.184 Y36.692 E117.22779
G1 X-5.564 Y36.692 E118.0053
G0 F3600 X-4.674 Y37.352
G1 F1800 X-.413 Y51.376 E118.89925
G1 X1.986 Y51.376 E119.04557
G1 X2.139 Y50.876 E119.07746
G1 X6.292 Y37.352 E119.94033
G1 X-4.674 Y37.352 E120.60916
G0 F3600 X8.912 Y35.372
G1 F1800 X10.196 Y31.132 E120.87936
G1 X12.031 Y31.132 E120.99128
G1 X3.464 Y53.932 E122.4768
G1 X-1.66 Y53.932 E122.78932
G1 X-1.876 Y53.356 E122.82684
G1 X3.45 Y53.356 E123.15168
G1 X8.97 Y35.372 E124.29906
G1 X8.912 Y35.372 E124.30259
G0 F3600 X9.338 Y36.422
G1 F1800 X9.863 Y34.712 E124.41169
G1 X9.802 Y34.712 E124.41541
G1 X10.686 Y31.792 E124.60149
G1 X11.078 Y31.792 E124.6254
G1 X9.338 Y36.422 E124.92707
G0 F3600 X9.3 Y36.727
;TYPE:SKIN
G1 F1800 X9.3 Y37.505 E124.94864
G0 F3600 X8.7 Y37.324
G1 F1800 X8.7 Y39.102 E124.99793
G0 F3600 X8.1 Y39.279
G1 F1800 X8.1 Y40.699 E125.0373
G0 F3600 X7.8 Y40.257
G1 F1800 X7.8 Y41.498 E125.0717
G0 F3600 X7.5 Y41.235
G1 F1800 X7.5 Y42.296 E125.10112
G0 F3600 X7.2 Y42.212
G1 F1800 X7.2 Y43.095 E125.1256
G0 F3600 X6.9 Y43.19
G1 F1800 X6.9 Y43.893 E125.14509
G0 F3600 X6.6 Y44.167
G1 F1800 X6.6 Y44.692 E125.15964
G0 F3600 X6.3 Y45.145
G1 F1800 X6.3 Y45.49 E125.16921
G0 F3600 X8.4 Y39.901
G1 F1800 X8.4 Y38.302 E125.21354
G0 F3600 X9 Y38.303
G1 F1800 X9 Y36.625 E125.26006
G0 F3600 X-3.856 Y37.959
G0 X-6 Y40.879
G1 F1800 X-6 Y41.488 E125.27694
G0 F3600 X-5.7 Y41.866
G1 F1800 X-5.7 Y42.287 E125.28861
G0 F3600 X-5.4 Y42.853
G1 F1800 X-5.4 Y43.085 E125.29504
G0 F3600 X-6.3 Y40.69
G1 F1800 X-6.3 Y39.892 E125.31717
G0 F3600 X-6.6 Y39.892
G1 F1800 X-6.6 Y38.905 E125.34453
G0 F3600 X-6.9 Y39.093
G1 F1800 X-6.9 Y37.917 E125.37713
G0 F3600 X-7.2 Y38.295
G1 F1800 X-7.2 Y36.93 E125.41497
G0 F3600 X-7.5 Y37.497
G1 F1800 X-7.5 Y36.153 E125.45223
G0 F3600 X-7.8 Y36.698
G1 F1800 X-7.8 Y35.138 E125.49548
G0 F3600 X-8.4 Y35.101
G1 F1800 X-8.4 Y33.607 E125.5369
G0 F3600 X-8.7 Y33.707
G1 F1800 X-8.7 Y34.303 E125.55343
G0 F3600 X-8.1 Y34.122
G1 F1800 X-8.1 Y35.9 E125.60272
G1 F1500 E119.10272
;MESH:A.stl(3)
G0 F3600 X-6.714 Y28.538
G0 X-5.114 Y28.065
G0 X5.485 Y15.609
G0 X28.915 Y-17.761
G0 X30.479 Y-18.35
G0 X35.479 Y-24.098
G0 X39.407 Y-36.918
G0 X38.93 Y-36.895
;TYPE:WALL-INNER
G1 F1500 E125.60272
G1 F1800 X30.556 Y-36.895 E126.11346
G1 X30.555 Y-36.895 E126.11352
G1 X30.112 Y-36.895 E126.14054
G1 X30.241 Y-36.471 E126.15671
G1 X33.99 Y-24.13 E126.94337
G1 X35.456 Y-24.13 E127.03278
G1 X39.245 Y-36.47 E127.82009
G1 X39.375 Y-36.895 E127.8472
G1 X38.931 Y-36.895 E127.86339
G1 X38.93 Y-36.895 E127.86345
G0 F3600 X38.482 Y-36.235
;TYPE:WALL-OUTER
G1 F1800 X31.002 Y-36.235 E128.31967
G1 X34.479 Y-24.79 E129.04922
G1 X34.968 Y-24.79 E129.07904
G1 X38.482 Y-36.235 E129.80925
G0 F3600 X38.282 Y-36.235
G0 X38.282 Y-36.961
G0 X38.282 Y-36.995
G0 X28.635 Y-41.322
