;FLAVOR:Marlin
;TIME:1786
;Filament used: 3.0202m
;Layer height: 0.2
;MINX:-53.964
;MINY:-48.351
;MINZ:0.2
;MAXX:19.467
;MAXY:49.66
;MAXZ:3.6
;POSTPROCESSED
;Generated with Cura_SteamEngine 4.8.0
M140 S60
M105
M190 S60
M104 S195
M105
M109 S195
M82 ;absolute extrusion mode
G28 ;Home
G1 Z15.0 F6000 ;Move the platform down 15mm
;Prime the extruder
G92 E0
G1 F200 E3
G92 E0
G92 E0
G92 E0
G1 F1500 E-6.5
;LAYER_COUNT:18
;LAYER:0
M107
G0 F3600 X18.38 Y-1.08 Z0.2
;TYPE:SKIRT
G1 F1500 E0
G1 F1800 X18.38 Y15.936 E1.13218
G1 X18.458 Y18.679 E1.31476
G1 X18.613 Y21.418 E1.49729
G1 X18.847 Y24.165 E1.68073
G1 X19.025 Y25.811 E1.79088
G1 X19.13 Y26.711 E1.85117
G1 X19.386 Y29.318 E2.02547
G1 X19.429 Y29.827 E2.05945
G1 X19.44 Y30.04 E2.07364
G1 X19.467 Y31.354 E2.16109
G1 X19.467 Y45.61 E3.10963
G1 X19.457 Y46.337 E3.158
G1 X19.41 Y46.853 E3.19248
G1 X19.284 Y47.356 E3.22698
G1 X19.082 Y47.833 E3.26145
G1 X18.81 Y48.274 E3.29592
G1 X18.473 Y48.667 E3.33037
G1 X18.079 Y49.004 E3.36486
G1 X17.639 Y49.276 E3.39928
G1 X17.161 Y49.478 E3.43381
G1 X16.659 Y49.604 E3.46825
G1 X15.871 Y49.659 E3.5208
G1 X-13.234 Y49.66 E5.45733
G1 X-13.935 Y49.65 E5.50398
G1 X-14.451 Y49.602 E5.53846
G1 X-14.953 Y49.476 E5.5729
G1 X-15.43 Y49.274 E5.60736
G1 X-15.871 Y49.002 E5.64184
G1 X-16.264 Y48.665 E5.67629
G1 X-16.669 Y48.174 E5.71863
G1 X-17.459 Y47.006 E5.81245
G1 X-17.595 Y46.8 E5.82888
G1 X-19.163 Y44.556 E6.01102
G1 X-20.815 Y42.329 E6.19552
G1 X-22.486 Y40.206 E6.37528
G1 X-24.229 Y38.115 E6.5564
G1 X-26.054 Y36.047 E6.73992
G1 X-27.909 Y34.06 E6.92078
G1 X-29.833 Y32.116 E7.10277
G1 X-31.812 Y30.223 E7.28498
G1 X-33.863 Y28.372 E7.4688
G1 X-35.919 Y26.619 E7.64858
G1 X-38.057 Y24.897 E7.83123
G1 X-40.215 Y23.258 E8.01154
G1 X-42.446 Y21.661 E8.19409
G1 X-44.705 Y20.137 E8.3754
G1 X-47.02 Y18.67 E8.55775
G1 X-49.387 Y17.264 E8.74093
G1 X-51.702 Y15.972 E8.91733
G1 X-52.196 Y15.704 E8.95472
G1 X-52.631 Y15.423 E8.98918
G1 X-53.018 Y15.078 E9.02368
G1 X-53.347 Y14.678 E9.05814
G1 X-53.61 Y14.232 E9.09259
G1 X-53.802 Y13.75 E9.12711
G1 X-53.917 Y13.245 E9.16157
G1 X-53.962 Y12.532 E9.2091
G1 X-53.964 Y12.428 E9.21602
G1 X-53.964 Y-3.937 E10.30489
G1 X-53.953 Y-4.52 E10.34368
G1 X-53.896 Y-5.75 E10.42561
G1 X-53.86 Y-6.281 E10.46102
G1 X-53.809 Y-6.908 E10.50288
G1 X-53.691 Y-7.622 E10.55103
G1 X-53.498 Y-8.487 E10.61
G1 X-53.318 Y-9.231 E10.66093
G1 X-53.107 Y-9.853 E10.70463
G1 X-52.956 Y-10.209 E10.73036
G1 X-52.734 Y-10.716 E10.76719
G1 X-52.449 Y-11.346 E10.81319
G1 X-52.165 Y-11.852 E10.8518
G1 X-51.819 Y-12.346 E10.89193
G1 X-51.558 Y-12.703 E10.92135
G1 X-51.172 Y-13.216 E10.96407
G1 X-50.779 Y-13.653 E11.00317
G1 X-50.051 Y-14.332 E11.06941
G1 X-49.96 Y-14.414 E11.07756
G1 X-49.546 Y-14.773 E11.11402
G1 X-49.072 Y-15.116 E11.15295
G1 X-48.281 Y-15.59 E11.21431
G1 X-48.184 Y-15.646 E11.22176
G1 X-46.752 Y-16.44 E11.3307
G1 X-46.004 Y-16.842 E11.38721
G1 X-43.591 Y-18.228 E11.57236
G1 X-41.291 Y-19.637 E11.75182
G1 X-38.992 Y-21.136 E11.93443
G1 X-36.741 Y-22.698 E12.11673
G1 X-34.557 Y-24.305 E12.29714
G1 X-32.405 Y-25.986 E12.47884
G1 X-30.273 Y-27.749 E12.66291
G1 X-28.234 Y-29.536 E12.8433
G1 X-26.241 Y-31.383 E13.0241
G1 X-24.272 Y-33.317 E13.20774
G1 X-22.389 Y-35.273 E13.38839
G1 X-20.533 Y-37.312 E13.57184
G1 X-18.752 Y-39.386 E13.75373
G1 X-17.037 Y-41.5 E13.93486
G1 X-15.662 Y-43.285 E14.08477
G1 X-15.29 Y-43.694 E14.12156
G1 X-14.563 Y-44.371 E14.18766
G1 X-14.474 Y-44.451 E14.19562
G1 X-14.06 Y-44.81 E14.23208
G1 X-13.586 Y-45.153 E14.27101
G1 X-12.795 Y-45.627 E14.33236
G1 X-12.7 Y-45.682 E14.33967
G1 X-12.205 Y-45.957 E14.37734
G1 X-11.716 Y-46.179 E14.41308
G1 X-11.376 Y-46.3 E14.43709
G1 X-10.76 Y-46.494 E14.48006
G1 X-10.183 Y-46.666 E14.52012
G1 X-9.606 Y-46.784 E14.55931
G1 X-8.655 Y-46.893 E14.623
G1 X-8.545 Y-46.904 E14.63035
G1 X-7.908 Y-46.956 E14.67288
G1 X-7.013 Y-47.003 E14.73251
G1 X-5.744 Y-47.052 E14.817
G1 X-3.035 Y-47.234 E14.99766
G1 X-.282 Y-47.496 E15.18166
G1 X2.392 Y-47.828 E15.36094
G1 X3.25 Y-47.955 E15.41865
G1 X5.225 Y-48.238 E15.5514
G1 X5.87 Y-48.323 E15.59469
G1 X6.387 Y-48.351 E15.62914
G1 X6.651 Y-48.335 E15.64674
G1 X7.727 Y-48.224 E15.71871
G1 X8.299 Y-48.153 E15.75706
G1 X8.96 Y-48.064 E15.80144
G1 X9.467 Y-47.955 E15.83594
G1 X9.727 Y-47.866 E15.85423
G1 X10.801 Y-47.449 E15.93088
G1 X11.174 Y-47.297 E15.95768
G1 X11.822 Y-47.02 E16.00457
G1 X12.281 Y-46.78 E16.03903
G1 X12.497 Y-46.633 E16.05642
G1 X13.383 Y-45.978 E16.12973
G1 X13.723 Y-45.716 E16.15829
G1 X14.26 Y-45.291 E16.20385
G1 X14.64 Y-44.939 E16.23832
G1 X14.81 Y-44.741 E16.25568
G1 X15.481 Y-43.892 E16.32768
G1 X15.741 Y-43.548 E16.35637
G1 X16.188 Y-42.942 E16.40648
G1 X16.568 Y-42.281 E16.45721
G1 X16.723 Y-41.919 E16.48341
G1 X16.957 Y-41.333 E16.52539
G1 X17.2 Y-40.697 E16.57069
G1 X17.396 Y-39.985 E16.61983
G1 X17.417 Y-39.886 E16.62656
G1 X17.638 Y-38.756 E16.70317
G1 X17.749 Y-38.142 E16.74469
G1 X17.78 Y-37.935 E16.75861
G1 X17.906 Y-36.859 E16.8307
G1 X18.165 Y-34.224 E17.00686
G1 X18.215 Y-33.547 E17.05203
G1 X18.242 Y-32.228 E17.13981
G1 X18.242 Y-17.938 E18.09061
G1 X18.229 Y-17.135 E18.14404
G1 X18.21 Y-16.7 E18.17302
G1 X18.099 Y-14.729 E18.30437
G1 X18.02 Y-11.982 E18.48722
G1 X18.02 Y-9.271 E18.66759
G1 X18.097 Y-6.523 E18.85051
G1 X18.347 Y-2.57 E19.11405
G1 X18.353 Y-2.426 E19.12364
G1 X18.38 Y-1.08 E19.21321
G1 F1500 E12.71321
;MESH:B.stl(3)
G0 F3600 X13.92 Y-1.08
G0 X9.682 Y5.625
G0 X-10.052 Y5.667
G0 X-9.982 Y5.597
;TYPE:WALL-INNER
G1 F1500 E19.21321
G1 F1800 X-2.133 Y5.597 E19.73545
G1 X-2.133 Y0.431 E20.07918
G1 X-2.344 Y-1.649 E20.21828
G1 X-3.108 Y-3.255 E20.33662
G1 X-4.453 Y-4.194 E20.44576
G1 X-6.125 Y-4.479 E20.55861
G1 X-7.72 Y-4.189 E20.66648
G1 X-9.022 Y-3.246 E20.77344
G1 X-9.774 Y-1.664 E20.88999
G1 X-9.982 Y0.369 E21.02596
G1 X-9.982 Y5.597 E21.37381
G0 F3600 X-10.052 Y5.667
G0 X-9.262 Y4.877
;TYPE:WALL-OUTER
G1 F1800 X-2.853 Y4.877 E21.80024
G1 X-2.853 Y0.467 E22.09366
G1 X-3.048 Y-1.452 E22.222
G1 X-3.676 Y-2.774 E22.31938
G1 X-4.733 Y-3.511 E22.40512
G1 X-6.121 Y-3.748 E22.49881
G1 X-7.43 Y-3.51 E22.58733
G1 X-8.451 Y-2.771 E22.67119
G1 X-9.07 Y-1.467 E22.76724
G1 X-9.262 Y0.406 E22.89251
G1 X-9.262 Y4.877 E23.18999
G0 F3600 X-9.062 Y4.877
G0 X-9.062 Y5.669
G0 X-9.062 Y5.697
G0 X1.346 Y5.667
G0 X1.416 Y5.597
;TYPE:WALL-INNER
G1 F1800 X9.654 Y5.597 E23.73812
G1 X9.654 Y-.267 E24.12828
G1 X9.417 Y-2.549 E24.28093
G1 X8.583 Y-4.295 E24.40968
G1 X7.174 Y-5.338 E24.52632
G1 X5.437 Y-5.67 E24.64398
G1 X3.781 Y-5.334 E24.75641
G1 X2.432 Y-4.286 E24.87007
G1 X1.641 Y-2.543 E24.99743
G1 X1.416 Y-.243 E25.15119
G1 X1.416 Y5.597 E25.53976
G0 F3600 X1.346 Y5.667
G0 X2.136 Y4.877
;TYPE:WALL-OUTER
G1 F1800 X8.934 Y4.877 E25.99207
G1 X8.934 Y-.23 E26.33187
G1 X8.714 Y-2.351 E26.47375
G1 X8.011 Y-3.823 E26.58229
G1 X6.878 Y-4.662 E26.67609
G1 X5.441 Y-4.936 E26.77343
G1 X4.089 Y-4.662 E26.86521
G1 X3.014 Y-3.827 E26.95578
G1 X2.346 Y-2.354 E27.0634
G1 X2.136 Y-.208 E27.20686
G1 X2.136 Y4.877 E27.5452
G0 F3600 X2.336 Y4.877
G0 X2.336 Y5.669
G0 X2.336 Y5.697
G0 X-1.671 Y-6.387
G0 X-1.619 Y-6.472
;TYPE:WALL-INNER
G1 F1800 X-.184 Y-6.525 E27.64074
G1 X1.081 Y-9.883 E27.8795
G1 X1.685 Y-10.771 E27.95096
G1 X2.418 Y-11.496 E28.01955
G1 X3.245 Y-12.043 E28.08553
G1 X4.159 Y-12.43 E28.15157
G1 X6.5 Y-12.77 E28.30896
G1 X8.425 Y-12.535 E28.43799
G1 X10.138 Y-11.831 E28.56122
G1 X11.576 Y-10.723 E28.68201
G1 X12.681 Y-9.269 E28.80352
G1 X13.171 Y-8.039 E28.89161
G1 X13.541 Y-6.135 E29.02066
G1 X13.94 Y-2.079 E29.29184
G1 X13.94 Y12.789 E30.28109
G1 X-13.9 Y12.789 E32.13346
G1 X-13.9 Y-3.459 E33.21453
G1 X-13.774 Y-5.367 E33.34176
G1 X-13.412 Y-6.982 E33.45188
G1 X-12.828 Y-8.318 E33.54889
G1 X-12.029 Y-9.413 E33.63908
G1 X-11.055 Y-10.284 E33.72602
G1 X-9.993 Y-10.892 E33.80745
G1 X-8.817 Y-11.259 E33.88941
G1 X-7.549 Y-11.379 E33.97416
G1 X-5.366 Y-11.014 E34.12142
G1 X-4.495 Y-10.601 E34.18556
G1 X-3.695 Y-10.02 E34.25135
G1 X-2.731 Y-8.866 E34.35139
G1 X-1.619 Y-6.472 E34.52703
G0 F3600 X-1.168 Y-7.209
;TYPE:WALL-OUTER
G1 F1800 X-.689 Y-7.227 E34.55892
G1 X-.588 Y-7.495 E34.57797
G1 X0.436 Y-10.215 E34.77135
G1 X1.132 Y-11.237 E34.85362
G1 X1.957 Y-12.054 E34.93088
G1 X2.906 Y-12.682 E35.00659
G1 X3.965 Y-13.13 E35.0831
G1 X6.491 Y-13.497 E35.25293
G1 X8.609 Y-13.238 E35.39491
G1 X10.501 Y-12.46 E35.53102
G1 X12.091 Y-11.236 E35.66453
G1 X13.314 Y-9.626 E35.79905
G1 X13.865 Y-8.244 E35.89805
G1 X14.255 Y-6.236 E36.03415
G1 X14.66 Y-2.119 E36.3094
G1 X14.66 Y13.509 E37.34922
G1 X-14.62 Y13.509 E39.29739
G1 X-14.62 Y-3.476 E40.42751
G1 X-14.488 Y-5.477 E40.56094
G1 X-14.1 Y-7.205 E40.67877
G1 X-13.457 Y-8.678 E40.78571
G1 X-12.564 Y-9.901 E40.88647
G1 X-11.478 Y-10.871 E40.98335
G1 X-10.284 Y-11.555 E41.07491
G1 X-8.958 Y-11.969 E41.16734
G1 X-7.524 Y-12.105 E41.26318
G1 X-5.147 Y-11.707 E41.42353
G1 X-4.129 Y-11.225 E41.49848
G1 X-3.196 Y-10.547 E41.57521
G1 X-2.119 Y-9.258 E41.68698
G1 X-1.288 Y-7.469 E41.81822
G1 X-1.168 Y-7.209 E41.83433
G0 F3600 X-.968 Y-7.216
G0 X-.94 Y-6.424
G0 X-.94 Y-6.396
G0 X7.519 Y-9.049
;TYPE:SKIN
G1 F1800 X8.17 Y-8.781 E41.88118
G1 X6.326 Y-9.135 E42.00611
G1 X6.545 Y-9.166 E42.02082
G1 X7.519 Y-9.049 E42.0861
G0 F3600 X7.702 Y-9.752
G1 F1800 X8.702 Y-9.341 E42.15803
G1 X9.534 Y-8.699 E42.22796
G1 X10.178 Y-7.852 E42.29875
G1 X10.421 Y-7.238 E42.34269
G1 X10.594 Y-6.35 E42.40288
G1 X8.348 Y-8.014 E42.58887
G1 X5.421 Y-8.575 E42.78716
G1 X3.487 Y-8.182 E42.91847
G1 X3.63 Y-8.564 E42.94561
G1 X3.887 Y-8.941 E42.97597
G1 X4.224 Y-9.274 E43.00749
G1 X4.591 Y-9.516 E43.03674
G1 X4.931 Y-9.66 E43.06131
G1 X6.535 Y-9.893 E43.16915
G1 X7.702 Y-9.752 E43.24737
G0 F3600 X7.885 Y-10.455
G1 F1800 X9.065 Y-9.97 E43.33225
G1 X10.048 Y-9.212 E43.41484
G1 X10.811 Y-8.207 E43.4988
G1 X11.116 Y-7.44 E43.55372
G1 X11.431 Y-5.823 E43.66333
G1 X11.81 Y-1.972 E43.9208
G1 X11.81 Y10.659 E44.76121
G1 X-11.77 Y10.659 E46.33013
G1 X-11.77 Y7.727 E46.52522
G1 X11.784 Y7.727 E48.0924
G1 X11.784 Y-.377 E48.63161
G1 X11.497 Y-3.135 E48.81611
G1 X10.275 Y-5.691 E49.00461
G1 X8.051 Y-7.338 E49.18875
G1 X5.425 Y-7.841 E49.36665
G1 X2.87 Y-7.322 E49.54012
G1 X2.196 Y-6.799 E49.59688
G1 X2.987 Y-8.899 E49.74619
G1 X3.328 Y-9.401 E49.78657
G1 X3.768 Y-9.836 E49.82773
G1 X4.251 Y-10.154 E49.86621
G1 X4.736 Y-10.36 E49.90127
G1 X6.526 Y-10.62 E50.02162
G1 X7.885 Y-10.455 E50.11271
G0 F3600 X8.068 Y-11.158
G1 F1800 X9.428 Y-10.599 E50.21054
G1 X10.563 Y-9.724 E50.3059
G1 X11.444 Y-8.565 E50.40276
G1 X11.811 Y-7.641 E50.46891
G1 X12.145 Y-5.926 E50.58517
G1 X12.53 Y-2.013 E50.84678
G1 X12.53 Y11.379 E51.73783
G1 X-12.49 Y11.379 E53.40256
G1 X-12.49 Y-3.433 E54.38809
G1 X-12.376 Y-5.159 E54.50318
G1 X-12.067 Y-6.541 E54.5974
G1 X-11.599 Y-7.609 E54.67499
G1 X-10.976 Y-8.463 E54.74532
G1 X-10.224 Y-9.136 E54.81247
G1 X-9.427 Y-9.592 E54.87356
G1 X-8.54 Y-9.869 E54.93539
G1 X-7.596 Y-9.957 E54.99847
G1 X-5.792 Y-9.657 E55.12015
G1 X-5.221 Y-9.385 E55.16223
G1 X-4.663 Y-8.981 E55.20807
G1 X-3.931 Y-8.105 E55.28403
G1 X-2.504 Y-5.028 E55.5097
G1 X0.805 Y-5.15 E55.73002
G1 X2.343 Y-9.232 E56.02026
G1 X2.771 Y-9.863 E56.07099
G1 X3.314 Y-10.399 E56.12176
G1 X3.908 Y-10.791 E56.16911
G1 X4.542 Y-11.06 E56.21493
G1 X6.517 Y-11.347 E56.34772
G1 X8.068 Y-11.158 E56.45168
G0 F3600 X8.251 Y-11.861
G1 F1800 X9.791 Y-11.228 E56.56246
G1 X11.078 Y-10.236 E56.67058
G1 X12.076 Y-8.923 E56.78032
G1 X12.506 Y-7.843 E56.85766
G1 X12.859 Y-6.03 E56.98056
G1 X13.25 Y-2.052 E57.24651
G1 X13.25 Y12.099 E58.18806
G1 X-13.21 Y12.099 E59.9486
G1 X-13.21 Y-3.45 E60.98317
G1 X-13.09 Y-5.267 E61.10433
G1 X-12.754 Y-6.767 E61.20661
G1 X-12.228 Y-7.968 E61.29384
G1 X-11.512 Y-8.95 E61.37471
G1 X-10.648 Y-9.723 E61.45184
G1 X-9.719 Y-10.255 E61.52307
G1 X-8.68 Y-10.579 E61.59549
G1 X-7.571 Y-10.683 E61.6696
G1 X-5.574 Y-10.35 E61.80431
G1 X-4.852 Y-10.007 E61.85749
G1 X-4.167 Y-9.511 E61.91376
G1 X-3.318 Y-8.494 E62.00191
G1 X-2.052 Y-5.765 E62.20207
G1 X0.3 Y-5.852 E62.35867
G1 X1.698 Y-9.564 E62.62259
G1 X2.216 Y-10.326 E62.68389
G1 X2.857 Y-10.959 E62.74383
G1 X3.569 Y-11.43 E62.80063
G1 X4.348 Y-11.76 E62.85693
G1 X6.508 Y-12.074 E63.00215
G1 X8.251 Y-11.861 E63.11899
G0 F3600 X7.754 Y-6.662
G1 F1800 X5.429 Y-7.107 E63.27649
G1 X3.178 Y-6.65 E63.42932
G1 X1.292 Y-5.187 E63.58814
G1 X0.261 Y-2.913 E63.75426
G1 X0.006 Y-.312 E63.92815
G1 X0.006 Y7.007 E64.41513
G1 X11.064 Y7.007 E65.15088
G1 X11.064 Y-.34 E65.63972
G1 X10.794 Y-2.937 E65.81345
G1 X9.703 Y-5.219 E65.98174
G1 X7.754 Y-6.662 E66.1431
G0 F3600 X7.458 Y-5.986
G1 F1800 X5.433 Y-6.373 E66.28027
G1 X3.486 Y-5.978 E66.41246
G1 X1.874 Y-4.727 E66.54822
G1 X0.966 Y-2.724 E66.69455
G1 X0.726 Y-.277 E66.85814
G1 X0.726 Y6.287 E67.29488
G1 X10.344 Y6.287 E67.93483
G1 X10.344 Y-.303 E68.3733
G1 X10.091 Y-2.739 E68.53625
G1 X9.131 Y-4.747 E68.68434
G1 X7.458 Y-5.986 E68.82286
G0 F3600 X5.437 Y-5.71
G0 X0.147 Y-4.405
G1 F1800 X-.444 Y-3.102 E68.91805
G1 X-.484 Y-2.698 E68.94507
G1 X-1.273 Y-4.353 E69.06706
G1 X0.147 Y-4.405 E69.1616
G0 F3600 X-1.996 Y-4.198
G1 F1800 X-3.905 Y-5.531 E69.31652
G1 X-6.133 Y-5.911 E69.4669
G1 X-8.288 Y-5.519 E69.61264
G1 X-10.141 Y-4.177 E69.76487
G1 X-11.153 Y-2.049 E69.92165
G1 X-11.392 Y0.297 E70.07855
G1 X-11.392 Y7.007 E70.52501
G1 X-.723 Y7.007 E71.23488
G1 X-.723 Y0.36 E71.67715
G1 X-.965 Y-2.034 E71.83725
G1 X-1.996 Y-4.198 E71.99674
G0 F3600 X-2.564 Y-3.717
G1 F1800 X-4.185 Y-4.848 E72.12825
G1 X-6.129 Y-5.18 E72.25947
G1 X-7.998 Y-4.84 E72.38586
G1 X-9.57 Y-3.702 E72.51499
G1 X-10.449 Y-1.852 E72.65127
G1 X-10.672 Y0.334 E72.79747
G1 X-10.672 Y6.287 E73.19356
G1 X-1.443 Y6.287 E73.80762
G1 X-1.443 Y0.396 E74.19958
G1 X-1.669 Y-1.837 E74.34892
G1 X-2.564 Y-3.717 E74.48746
G0 F3600 X-3.867 Y-6.255
G1 F1800 X-6.137 Y-6.642 E74.64067
G1 X-8.578 Y-6.198 E74.80575
G1 X-10.712 Y-4.652 E74.98108
G1 X-11.77 Y-2.429 E75.14489
G1 X-11.77 Y-3.416 E75.21056
G1 X-11.662 Y-5.051 E75.31958
G1 X-11.378 Y-6.319 E75.40604
G1 X-10.972 Y-7.246 E75.47338
G1 X-10.44 Y-7.976 E75.53348
G1 X-9.8 Y-8.549 E75.59064
G1 X-9.136 Y-8.929 E75.64154
G1 X-8.399 Y-9.159 E75.69291
G1 X-7.621 Y-9.231 E75.74489
G1 X-6.011 Y-8.964 E75.85348
G1 X-5.588 Y-8.762 E75.88467
G1 X-5.158 Y-8.451 E75.91998
G1 X-4.544 Y-7.716 E75.9837
G1 X-3.867 Y-6.255 E76.09084
G0 F3600 X-5.096 Y-7.195
G1 F1800 X-6.141 Y-7.373 E76.16137
G1 X-8.868 Y-6.877 E76.34579
G1 X-10.834 Y-5.452 E76.50735
G1 X-10.691 Y-6.093 E76.55105
G1 X-10.343 Y-6.887 E76.60873
G1 X-9.901 Y-7.492 E76.65858
G1 X-9.379 Y-7.96 E76.70523
G1 X-8.844 Y-8.266 E76.74624
G1 X-8.259 Y-8.449 E76.78702
G1 X-7.646 Y-8.506 E76.82798
G1 X-6.231 Y-8.271 E76.92342
G1 X-5.955 Y-8.139 E76.94378
G1 X-5.657 Y-7.924 E76.96822
G1 X-5.156 Y-7.325 E77.02018
G1 X-5.096 Y-7.195 E77.02971
G0 F3600 X1.388 Y5.625
G0 X11.09 Y8.447
G1 F1800 X11.09 Y9.939 E77.12898
G1 X-11.05 Y9.939 E78.60209
G1 X-11.05 Y8.447 E78.70136
G1 X11.09 Y8.447 E80.17446
G0 F3600 X10.37 Y9.167
G1 F1800 X10.37 Y9.219 E80.17792
G1 X-10.33 Y9.219 E81.55522
G1 X-10.33 Y9.167 E81.55868
G1 X10.37 Y9.167 E82.93597
G0 F3600 X11.1 Y-4.765
;TYPE:SKIN
G1 F1800 X11.1 Y-5.668 E82.96101
G0 F3600 X10.8 Y-5.393
G1 F1800 X10.8 Y-6.09 E82.98033
G0 F3600 X9.9 Y-7.293
G1 F1800 X9.9 Y-7.615 E82.98926
G0 F3600 X9.6 Y-7.515
G1 F1800 X9.6 Y-8.04 E83.00381
G0 F3600 X9.3 Y-7.738
G1 F1800 X9.3 Y-8.434 E83.02311
G0 F3600 X9 Y-8.674
G1 F1800 X9 Y-7.96 E83.0429
G0 F3600 X8.7 Y-8.183
G1 F1800 X8.7 Y-8.907 E83.06297
G0 F3600 X6 Y-9.276
G1 F1800 X6 Y-9.468 E83.0683
G0 F3600 X5.7 Y-9.424
G1 F1800 X5.7 Y-8.873 E83.08357
G0 F3600 X5.4 Y-8.923
