;FLAVOR:Marlin
;TIME:1365
;Filament used: 2.23969m
;Layer height: 0.2
;MINX:-39.022
;MINY:-41.812
;MINZ:0.2
;MAXX:38.722
;MAXY:41.334
;MAXZ:3.6
;POSTPROCESSED
;Generated with Cura_SteamEngine 4.8.0
M140 S50
M105
M190 S50
M104 S195
M105
M109 S195
M82 ;absolute extrusion mode
G28 ;Home
G1 Z15.0 F6000 ;Move the platform down 15mm
;Prime the extruder
G92 E0
G1 F200 E3
G92 E0
G92 E0
G92 E0
G1 F1500 E-6.5
;LAYER_COUNT:18
;LAYER:0
M107
G0 F3600 X-36.484 Y1.455 Z0.2
;TYPE:SKIRT
G1 F1500 E0
G1 F1800 X-36.563 Y-1.29 E0.15226
G1 X-36.719 Y-4.037 E0.30482
G1 X-36.949 Y-6.729 E0.45463
G1 X-37.262 Y-9.474 E0.60781
G1 X-37.648 Y-12.184 E0.75959
G1 X-38.109 Y-14.865 E0.91043
G1 X-38.448 Y-16.511 E1.00361
G1 X-38.722 Y-17.911 E1.0827
G1 X-38.779 Y-18.336 E1.10648
G1 X-38.829 Y-18.943 E1.14025
G1 X-38.983 Y-21.131 E1.26187
G1 X-39.019 Y-21.755 E1.29652
G1 X-39.022 Y-22.057 E1.31327
G1 X-38.983 Y-23.178 E1.37546
G1 X-38.927 Y-24.228 E1.43376
G1 X-38.884 Y-24.862 E1.469
G1 X-38.853 Y-25.146 E1.48484
G1 X-38.7 Y-26.127 E1.53989
G1 X-38.528 Y-27.105 E1.59495
G1 X-38.406 Y-27.741 E1.63086
G1 X-38.319 Y-28.089 E1.65074
G1 X-38.109 Y-28.771 E1.69031
G1 X-37.803 Y-29.71 E1.74507
G1 X-37.585 Y-30.347 E1.7824
G1 X-37.343 Y-30.908 E1.81628
G1 X-37.173 Y-31.25 E1.83745
G1 X-36.705 Y-32.157 E1.89404
G1 X-36.399 Y-32.731 E1.93011
G1 X-36.205 Y-33.051 E1.95086
G1 X-35.723 Y-33.75 E1.99794
G1 X-35.338 Y-34.288 E2.03462
G1 X-34.951 Y-34.814 E2.07083
G1 X-34.579 Y-35.255 E2.10282
G1 X-33.897 Y-35.991 E2.15845
G1 X-33.428 Y-36.482 E2.1961
G1 X-33.154 Y-36.739 E2.21693
G1 X-32.423 Y-37.346 E2.26961
G1 X-32.17 Y-37.548 E2.28756
G1 X-31.652 Y-37.951 E2.32395
G1 X-31.151 Y-38.281 E2.35722
G1 X-30.855 Y-38.453 E2.3762
G1 X-30.323 Y-38.754 E2.41009
G1 X-29.721 Y-39.083 E2.44813
G1 X-29.053 Y-39.378 E2.48862
G1 X-28.962 Y-39.414 E2.49404
G1 X-28.213 Y-39.694 E2.53838
G1 X-27.712 Y-39.874 E2.5679
G1 X-27.416 Y-39.964 E2.58505
G1 X-26.217 Y-40.271 E2.65368
G1 X-25.975 Y-40.328 E2.66746
G1 X-25.374 Y-40.461 E2.70159
G1 X-24.986 Y-40.523 E2.72338
G1 X-23.873 Y-40.632 E2.78539
G1 X-21.096 Y-40.854 E2.93985
G1 X-20.352 Y-40.902 E2.98119
G1 X-19.726 Y-40.894 E3.0159
G1 X-19.616 Y-40.887 E3.02201
G1 X-16.89 Y-40.671 E3.17364
G1 X-16.066 Y-40.593 E3.21953
G1 X-15.472 Y-40.52 E3.25271
G1 X-13.806 Y-40.293 E3.34594
G1 X-11.097 Y-40 E3.49702
G1 X-8.363 Y-39.783 E3.64909
G1 X-5.619 Y-39.643 E3.80143
G1 X-2.904 Y-39.581 E3.95201
G1 X-.159 Y-39.596 E4.10421
G1 X2.553 Y-39.688 E4.25467
G1 X5.296 Y-39.859 E4.40705
G1 X8.031 Y-40.107 E4.55932
G1 X10.764 Y-40.432 E4.71193
G1 X13.419 Y-40.825 E4.86074
G1 X16.1 Y-41.299 E5.0117
G1 X16.853 Y-41.429 E5.05407
G1 X17.963 Y-41.538 E5.11591
G1 X20.853 Y-41.77 E5.27667
G1 X21.497 Y-41.812 E5.31245
G1 X22.26 Y-41.795 E5.35477
G1 X25.038 Y-41.575 E5.50928
G1 X25.654 Y-41.517 E5.54359
G1 X26.22 Y-41.414 E5.57548
G1 X27.199 Y-41.144 E5.63179
G1 X28.656 Y-40.714 E5.71602
G1 X29.323 Y-40.508 E5.75473
G1 X30.017 Y-40.202 E5.79678
G1 X30.662 Y-39.824 E5.83824
G1 X31.939 Y-39.052 E5.92097
G1 X32.498 Y-38.702 E5.95754
G1 X32.991 Y-38.324 E5.99199
G1 X33.484 Y-37.842 E6.03022
G1 X34.635 Y-36.669 E6.12134
G1 X35.103 Y-36.178 E6.15895
G1 X35.502 Y-35.667 E6.19489
G1 X35.75 Y-35.272 E6.22076
G1 X36.769 Y-33.552 E6.3316
G1 X37.068 Y-33.031 E6.36491
G1 X37.312 Y-32.504 E6.39711
G1 X37.718 Y-31.37 E6.4639
G1 X38.226 Y-29.856 E6.55244
G1 X38.436 Y-29.199 E6.59069
G1 X38.554 Y-28.699 E6.61917
G1 X38.588 Y-28.018 E6.65698
G1 X38.564 Y-27.581 E6.68124
G1 X38.424 Y-25.648 E6.7887
G1 X38.302 Y-22.901 E6.94116
G1 X38.258 Y-20.143 E7.09411
G1 X38.298 Y-17.992 E7.21339
G1 X38.307 Y-16.865 E7.27588
G1 X38.245 Y-16.16 E7.31512
G1 X37.901 Y-13.84 E7.44517
G1 X37.57 Y-11.073 E7.59968
G1 X37.329 Y-8.421 E7.74733
G1 X37.154 Y-5.626 E7.90261
G1 X37.061 Y-2.917 E8.0529
G1 X37.044 Y-.171 E8.20516
G1 X37.106 Y2.542 E8.35563
G1 X37.245 Y5.286 E8.50797
G1 X37.462 Y8.03 E8.66059
G1 X37.75 Y10.713 E8.81021
G1 X38.124 Y13.452 E8.96348
G1 X38.677 Y16.784 E9.15076
G1 X38.71 Y17.041 E9.16513
G1 X38.722 Y17.564 E9.19413
G1 X38.695 Y18.016 E9.21924
G1 X38.557 Y19.929 E9.32558
G1 X38.436 Y22.675 E9.47799
G1 X38.393 Y25.434 E9.63098
G1 X38.433 Y27.595 E9.75082
G1 X38.442 Y28.672 E9.81054
G1 X38.406 Y29.185 E9.83906
G1 X38.226 Y29.875 E9.87859
G1 X37.873 Y30.8 E9.93349
G1 X37.559 Y31.58 E9.98011
G1 X37.295 Y32.212 E10.01809
G1 X37.133 Y32.546 E10.03867
G1 X36.783 Y33.173 E10.07849
G1 X36.363 Y33.902 E10.12513
G1 X35.99 Y34.53 E10.16563
G1 X35.658 Y35.003 E10.19768
G1 X35.591 Y35.089 E10.20372
G1 X34.84 Y36.016 E10.26987
G1 X34.408 Y36.531 E10.30714
G1 X34.073 Y36.876 E10.3338
G1 X33.267 Y37.592 E10.39358
G1 X32.976 Y37.84 E10.41478
G1 X32.428 Y38.294 E10.45424
G1 X31.947 Y38.629 E10.48674
G1 X31.452 Y38.918 E10.51852
G1 X30.744 Y39.317 E10.56358
G1 X30.205 Y39.612 E10.59765
G1 X29.763 Y39.813 E10.62457
G1 X28.669 Y40.216 E10.68922
G1 X28.192 Y40.38 E10.71718
G1 X27.588 Y40.578 E10.75243
G1 X27.217 Y40.676 E10.7737
G1 X26.096 Y40.903 E10.83712
G1 X25.347 Y41.037 E10.87931
G1 X24.757 Y41.135 E10.91247
G1 X24.458 Y41.171 E10.92917
G1 X23.246 Y41.259 E10.99655
G1 X22.275 Y41.31 E11.05046
G1 X21.681 Y41.334 E11.08342
G1 X21.375 Y41.332 E11.10039
G1 X20.127 Y41.266 E11.16968
G1 X18.426 Y41.141 E11.26425
G1 X17.709 Y41.078 E11.30416
G1 X17.436 Y41.043 E11.31942
G1 X16.834 Y40.939 E11.3533
G1 X14.107 Y40.504 E11.50641
G1 X11.412 Y40.153 E11.6571
G1 X8.686 Y39.877 E11.80902
G1 X5.974 Y39.678 E11.9598
G1 X3.233 Y39.555 E12.11193
G1 X0.483 Y39.51 E12.26443
G1 X-2.265 Y39.543 E12.41681
G1 X-4.972 Y39.651 E12.56702
G1 X-7.679 Y39.837 E12.71747
G1 X-10.454 Y40.106 E12.87205
G1 X-13.128 Y40.442 E13.02148
G1 X-15.565 Y40.815 E13.15818
G1 X-16.253 Y40.929 E13.19685
G1 X-16.55 Y40.964 E13.21343
G1 X-17.772 Y41.053 E13.28136
G1 X-18.75 Y41.106 E13.33567
G1 X-19.343 Y41.129 E13.36858
G1 X-19.643 Y41.127 E13.38521
G1 X-20.859 Y41.062 E13.45273
G1 X-22.618 Y40.934 E13.55052
G1 X-23.28 Y40.877 E13.58736
G1 X-23.749 Y40.802 E13.61369
G1 X-24.548 Y40.615 E13.65919
G1 X-26.204 Y40.201 E13.75384
G1 X-26.818 Y40.04 E13.78903
G1 X-27.364 Y39.844 E13.8212
G1 X-28.249 Y39.435 E13.87526
G1 X-29.459 Y38.852 E13.94973
G1 X-30.094 Y38.533 E13.98913
G1 X-30.636 Y38.191 E14.02466
G1 X-31.211 Y37.744 E14.06505
G1 X-32.309 Y36.865 E14.14303
G1 X-32.874 Y36.399 E14.18364
G1 X-33.334 Y35.935 E14.21987
G1 X-33.918 Y35.217 E14.27118
G1 X-34.73 Y34.178 E14.3443
G1 X-35.149 Y33.627 E14.38268
G1 X-35.491 Y33.071 E14.41887
G1 X-35.811 Y32.41 E14.45959
G1 X-36.476 Y30.988 E14.54663
G1 X-36.762 Y30.354 E14.5852
G1 X-36.95 Y29.817 E14.61675
G1 X-37.167 Y28.974 E14.66501
G1 X-37.549 Y27.39 E14.75536
G1 X-37.722 Y26.623 E14.79895
G1 X-37.799 Y26.113 E14.82755
G1 X-37.845 Y25.554 E14.85865
G1 X-38.004 Y23.292 E14.98438
G1 X-38.038 Y22.689 E15.01787
G1 X-38.041 Y22.391 E15.03439
G1 X-38.002 Y21.265 E15.09686
G1 X-37.947 Y20.216 E15.1551
G1 X-37.904 Y19.579 E15.1905
G1 X-37.871 Y19.291 E15.20658
G1 X-37.637 Y17.794 E15.29059
G1 X-37.253 Y15.091 E15.44197
G1 X-36.945 Y12.364 E15.59413
G1 X-36.715 Y9.656 E15.74482
G1 X-36.561 Y6.914 E15.8971
G1 X-36.484 Y4.168 E16.04941
G1 X-36.484 Y1.455 E16.19984
G1 F1500 E9.69984
;MESH:C.stl(2)
G0 F3600 X-30.115 Y9.41
G0 X-29.124 Y10.646
G0 X-26.077 Y26.135
G0 X-25.63 Y27.651
G0 X-24.985 Y28.899
G0 X-23.91 Y30.179
G0 X-22.593 Y31.115
G0 X-21.067 Y31.672
G0 X-19.369 Y31.854
G0 X-17.832 Y31.687
G0 X-16.425 Y31.18
G0 X-15.321 Y30.441
G0 X-14.104 Y29.255
G0 X-14.187 Y29.2
;TYPE:WALL-INNER
G1 F1500 E16.19984
G1 F1800 X-13.528 Y27.732 E16.28906
G1 X-7.437 Y29.087 E16.63504
G1 X-7.094 Y29.163 E16.65452
G1 X-7.225 Y29.489 E16.66658
G1 X-7.567 Y30.342 E16.71753
G1 X-8.599 Y32.134 E16.83219
G1 X-9.814 Y33.626 E16.93888
G1 X-11.203 Y34.815 E17.04026
G1 X-12.824 Y35.731 E17.14349
G1 X-14.767 Y36.401 E17.25745
G1 X-17.009 Y36.807 E17.38379
G1 X-19.592 Y36.944 E17.5272
G1 X-22.866 Y36.706 E17.70922
G1 X-25.71 Y35.996 E17.87175
G1 X-28.133 Y34.83 E18.02084
G1 X-30.153 Y33.213 E18.16431
G1 X-31.759 Y31.16 E18.30883
G1 X-32.914 Y28.692 E18.45992
G1 X-33.618 Y25.776 E18.62624
G1 X-33.856 Y22.399 E18.81395
G1 X-33.721 Y19.843 E18.95587
G1 X-33.319 Y17.538 E19.08561
G1 X-32.658 Y15.505 E19.20414
G1 X-31.737 Y13.714 E19.3158
G1 X-30.631 Y12.161 E19.42152
G1 X-29.429 Y10.865 E19.51952
G1 X-28.143 Y9.835 E19.61088
G1 X-26.78 Y9.065 E19.69768
G1 X-25.233 Y8.487 E19.78925
G1 X-23.467 Y8.07 E19.88986
G1 X-19.164 Y7.726 E20.12921
G1 X-15.654 Y8.004 E20.32443
G1 X-12.892 Y8.819 E20.4841
G1 X-10.687 Y10.152 E20.62697
G1 X-8.875 Y11.999 E20.77043
G1 X-7.454 Y14.397 E20.92499
G1 X-6.824 Y16.273 E21.03471
G1 X-6.726 Y16.564 E21.05174
G1 X-7.02 Y16.653 E21.06267
G1 X-13.113 Y18.495 E21.4156
G1 X-13.679 Y16.719 E21.51896
G1 X-14.989 Y14.678 E21.65343
G1 X-15.933 Y13.867 E21.72243
G1 X-17.08 Y13.287 E21.7937
G1 X-19.666 Y12.875 E21.93889
G1 X-21.164 Y13.009 E22.02228
G1 X-22.495 Y13.412 E22.09939
G1 X-23.668 Y14.099 E22.17476
G1 X-24.667 Y15.07 E22.25201
G1 X-25.444 Y16.383 E22.3366
G1 X-25.977 Y18.088 E22.43565
G1 X-26.371 Y22.468 E22.67949
G1 X-26.038 Y26.128 E22.88326
G1 X-25.593 Y27.637 E22.97049
G1 X-24.952 Y28.877 E23.04789
G1 X-23.883 Y30.15 E23.14006
G1 X-22.575 Y31.08 E23.22905
G1 X-21.058 Y31.634 E23.31859
G1 X-19.369 Y31.814 E23.41277
G1 X-17.84 Y31.649 E23.49804
G1 X-16.443 Y31.145 E23.58039
G1 X-15.224 Y30.328 E23.66175
G1 X-14.187 Y29.2 E23.74671
G0 F3600 X-14.695 Y28.866
;TYPE:WALL-OUTER
G1 F1800 X-13.875 Y27.04 E23.8577
G1 X-6.617 Y28.655 E24.26997
G1 X-6.273 Y28.731 E24.2895
G1 X-6.404 Y29.058 E24.30159
G1 X-7.024 Y30.601 E24.39379
G1 X-8.103 Y32.476 E24.51374
G1 X-9.383 Y34.047 E24.6261
G1 X-10.855 Y35.307 E24.73353
G1 X-12.578 Y36.281 E24.84327
G1 X-14.613 Y36.983 E24.96263
G1 X-16.941 Y37.404 E25.0938
G1 X-19.596 Y37.545 E25.24122
G1 X-22.962 Y37.3 E25.42835
G1 X-25.917 Y36.563 E25.59721
G1 X-28.453 Y35.342 E25.75328
G1 X-30.582 Y33.637 E25.90451
G1 X-32.273 Y31.477 E26.05661
G1 X-33.483 Y28.89 E26.21497
G1 X-34.214 Y25.864 E26.38757
G1 X-34.457 Y22.409 E26.57961
G1 X-34.318 Y19.775 E26.72586
G1 X-33.902 Y17.391 E26.86005
G1 X-33.215 Y15.276 E26.98335
G1 X-32.249 Y13.399 E27.1004
G1 X-31.098 Y11.782 E27.21045
G1 X-29.84 Y10.426 E27.313
G1 X-28.481 Y9.337 E27.40956
G1 X-27.032 Y8.519 E27.50183
G1 X-25.407 Y7.911 E27.59803
G1 X-23.561 Y7.476 E27.70318
G1 X-19.165 Y7.124 E27.94771
G1 X-15.545 Y7.411 E28.14905
G1 X-12.646 Y8.267 E28.31665
G1 X-10.314 Y9.676 E28.46773
G1 X-8.395 Y11.632 E28.61966
G1 X-6.905 Y14.147 E28.78174
G1 X-6.058 Y16.667 E28.92915
G1 X-5.96 Y16.959 E28.94623
G1 X-6.255 Y17.048 E28.95718
G1 X-13.505 Y19.24 E29.37714
G1 X-14.227 Y16.977 E29.50885
G1 X-15.447 Y15.076 E29.63409
G1 X-16.269 Y14.37 E29.69417
G1 X-17.267 Y13.865 E29.75619
G1 X-19.687 Y13.479 E29.89207
G1 X-21.049 Y13.601 E29.96789
G1 X-22.253 Y13.966 E30.03764
G1 X-23.302 Y14.58 E30.10504
G1 X-24.191 Y15.444 E30.17378
G1 X-24.892 Y16.629 E30.25012
G1 X-25.385 Y18.206 E30.34173
G1 X-25.769 Y22.468 E30.579
G1 X-25.446 Y26.015 E30.77648
G1 X-25.034 Y27.412 E30.85724
G1 X-24.45 Y28.542 E30.92777
G1 X-23.473 Y29.705 E31.01198
G1 X-22.293 Y30.544 E31.09226
G1 X-20.921 Y31.045 E31.17325
G1 X-19.369 Y31.211 E31.25979
G1 X-17.976 Y31.06 E31.33748
G1 X-16.716 Y30.606 E31.41174
G1 X-15.617 Y29.869 E31.48511
G1 X-14.695 Y28.866 E31.56065
G0 F3600 X-14.614 Y28.684
G0 X-14.012 Y28.955
G0 X-13.976 Y28.971
G0 X-15.198 Y30.358
G0 X-16.425 Y31.18
G0 X-17.832 Y31.687
G0 X-19.369 Y31.854
G0 X-21.067 Y31.672
G0 X-22.593 Y31.115
G0 X-23.91 Y30.179
G0 X-24.985 Y28.899
G0 X-25.507 Y27.889
G0 X-29.499 Y17.386
;TYPE:SKIN
G1 F1800 X-29.953 Y22.468 E31.84355
G1 X-29.56 Y26.801 E32.08479
G1 X-29.052 Y28.526 E32.1845
G1 X-29.529 Y27.507 E32.24688
G1 X-30.075 Y25.242 E32.37607
G1 X-30.279 Y22.36 E32.53626
G1 X-30.168 Y20.245 E32.65369
G1 X-29.846 Y18.4 E32.75754
G1 X-29.353 Y16.887 E32.84577
G1 X-29.327 Y16.836 E32.84894
G1 X-29.499 Y17.386 E32.8809
G0 F3600 X-28.907 Y17.504
G1 F1800 X-29.351 Y22.468 E33.15723
G1 X-28.968 Y26.688 E33.39218
G1 X-28.361 Y28.75 E33.51136
G1 X-27.437 Y30.535 E33.62281
G1 X-25.913 Y32.348 E33.75413
G1 X-24.818 Y33.129 E33.8287
G1 X-26.546 Y32.299 E33.935
G1 X-28.021 Y31.118 E34.03976
G1 X-29.217 Y29.588 E34.14744
G1 X-30.098 Y27.706 E34.26266
G1 X-30.669 Y25.335 E34.39788
G1 X-30.88 Y22.362 E34.56314
G1 X-30.765 Y20.177 E34.68446
G1 X-30.43 Y18.257 E34.79252
G1 X-29.907 Y16.652 E34.88612
G1 X-29.194 Y15.264 E34.97264
G1 X-28.322 Y14.04 E35.05597
G1 X-27.4 Y13.047 E35.1311
G1 X-26.476 Y12.304 E35.19684
G1 X-25.536 Y11.774 E35.25668
G1 X-27.023 Y13.214 E35.37145
G1 X-28.176 Y15.168 E35.49725
G1 X-28.907 Y17.504 E35.63297
G0 F3600 X-28.315 Y17.622
G1 F1800 X-28.749 Y22.468 E35.90273
G1 X-28.376 Y26.575 E36.13139
G1 X-27.802 Y28.525 E36.2441
G1 X-26.935 Y30.2 E36.34868
G1 X-25.503 Y31.904 E36.47209
G1 X-23.689 Y33.197 E36.59561
G1 X-21.599 Y33.96 E36.71897
G1 X-19.369 Y34.197 E36.84331
G1 X-17.303 Y33.975 E36.95852
G1 X-15.365 Y33.275 E37.07278
G1 X-13.671 Y32.14 E37.18584
G1 X-12.184 Y30.523 E37.30764
G1 X-12.158 Y30.466 E37.31111
G1 X-10.582 Y30.817 E37.40064
G1 X-11.514 Y31.961 E37.48245
G1 X-12.576 Y32.87 E37.55996
G1 X-13.797 Y33.559 E37.6377
G1 X-15.375 Y34.105 E37.73028
G1 X-17.273 Y34.448 E37.83723
G1 X-19.585 Y34.569 E37.96559
G1 X-22.485 Y34.36 E38.12681
G1 X-24.899 Y33.756 E38.26478
G1 X-26.866 Y32.811 E38.38578
G1 X-28.453 Y31.54 E38.49851
G1 X-29.729 Y29.908 E38.61338
G1 X-30.667 Y27.904 E38.73606
G1 X-31.265 Y25.423 E38.87756
G1 X-31.481 Y22.372 E39.04716
G1 X-31.362 Y20.109 E39.1728
G1 X-31.014 Y18.114 E39.28509
G1 X-30.461 Y16.417 E39.38405
G1 X-29.708 Y14.951 E39.47543
G1 X-28.789 Y13.661 E39.56325
G1 X-27.809 Y12.605 E39.64314
G1 X-26.817 Y11.808 E39.71369
G1 X-25.763 Y11.213 E39.7808
G1 X-24.554 Y10.763 E39.85233
G1 X-23.091 Y10.416 E39.9357
G1 X-19.16 Y10.104 E40.15434
G1 X-16.091 Y10.346 E40.32504
G1 X-13.856 Y11.005 E40.45424
G1 X-12.166 Y12.027 E40.56374
G1 X-10.77 Y13.45 E40.67427
G1 X-9.834 Y15.029 E40.77605
G1 X-11.604 Y15.564 E40.87857
G1 X-13.18 Y13.106 E41.04047
G1 X-14.606 Y11.881 E41.1447
G1 X-16.341 Y11.004 E41.2525
G1 X-19.584 Y10.489 E41.43456
G1 X-21.618 Y10.671 E41.54779
G1 X-23.451 Y11.224 E41.65395
G1 X-25.114 Y12.2 E41.76086
G1 X-26.547 Y13.589 E41.87152
G1 X-27.624 Y15.413 E41.98897
G1 X-28.315 Y17.622 E42.1173
G0 F3600 X-27.723 Y17.74
G1 F1800 X-28.147 Y22.468 E42.38051
G1 X-27.784 Y26.462 E42.60287
G1 X-27.243 Y28.3 E42.70911
G1 X-26.433 Y29.865 E42.80681
G1 X-25.093 Y31.46 E42.92232
G1 X-23.407 Y32.661 E43.0371
G1 X-21.462 Y33.371 E43.1519
G1 X-19.369 Y33.594 E43.26861
G1 X-17.439 Y33.386 E43.37624
G1 X-15.638 Y32.736 E43.4824
G1 X-14.064 Y31.681 E43.58747
G1 X-12.691 Y30.188 E43.69993
G1 X-12.505 Y29.774 E43.7251
G1 X-9.649 Y30.409 E43.88732
G1 X-10.068 Y31.136 E43.93384
G1 X-11.083 Y32.382 E44.02295
G1 X-12.228 Y33.362 E44.10652
G1 X-13.551 Y34.109 E44.19076
G1 X-15.221 Y34.686 E44.28872
G1 X-17.205 Y35.045 E44.40052
G1 X-19.589 Y35.17 E44.53288
G1 X-22.581 Y34.954 E44.69921
G1 X-25.106 Y34.323 E44.84352
G1 X-27.186 Y33.323 E44.97148
G1 X-28.883 Y31.964 E45.09203
G1 X-30.243 Y30.224 E45.21448
G1 X-31.236 Y28.104 E45.34428
G1 X-31.861 Y25.511 E45.49217
G1 X-32.082 Y22.383 E45.66604
G1 X-31.959 Y20.041 E45.79608
G1 X-31.598 Y17.971 E45.91259
G1 X-31.015 Y16.182 E46.01691
G1 X-30.222 Y14.638 E46.11315
G1 X-29.256 Y13.282 E46.20547
G1 X-28.218 Y12.163 E46.2901
G1 X-27.154 Y11.309 E46.36574
G1 X-26.022 Y10.67 E46.43782
G1 X-24.725 Y10.187 E46.51456
G1 X-23.186 Y9.822 E46.60226
G1 X-19.161 Y9.502 E46.82613
G1 X-15.978 Y9.753 E47.00317
