;FLAVOR:Marlin
;TIME:1441
;Filament used: 2.32948m
;Layer height: 0.2
;MINX:-38.743
;MINY:-43.965
;MINZ:0.2
;MAXX:40.506
;MAXY:41.101
;MAXZ:3.6
;POSTPROCESSED
;Generated with Cura_SteamEngine 4.9.1
M140 S60
M105
M190 S60
M104 S195
M105
M109 S195
M82 ;absolute extrusion mode
G28 ;Home
G1 Z15.0 F6000 ;Move the platform down 15mm
;Prime the extruder
G92 E0
G1 F200 E3
G92 E0
G92 E0
G92 E0
G1 F1500 E-6.5
;LAYER_COUNT:18
;LAYER:0
M107
G0 F3600 X-35.716 Y-1.663 Z0.2
;TYPE:SKIRT
G1 F1500 E0
G1 F1800 X-35.649 Y-4.411 E0.16765
G1 X-35.661 Y-7.157 E0.33514
G1 X-35.748 Y-9.868 E0.50057
G1 X-35.914 Y-12.601 E0.66757
G1 X-36.159 Y-15.349 E0.83584
G1 X-36.475 Y-18.038 E1.00097
G1 X-36.867 Y-20.714 E1.16592
G1 X-37.065 Y-21.948 E1.24215
G1 X-37.099 Y-22.243 E1.26026
G1 X-37.17 Y-23.271 E1.32311
G1 X-37.227 Y-24.343 E1.38859
G1 X-37.252 Y-25.003 E1.42887
G1 X-37.25 Y-25.3 E1.44698
G1 X-37.193 Y-26.396 E1.51392
G1 X-37.057 Y-28.319 E1.6315
G1 X-36.998 Y-29.011 E1.67386
G1 X-36.927 Y-29.469 E1.70213
G1 X-36.763 Y-30.183 E1.74681
G1 X-36.345 Y-31.921 E1.85583
G1 X-36.169 Y-32.607 E1.89903
G1 X-35.98 Y-33.145 E1.93381
G1 X-35.622 Y-33.939 E1.98693
G1 X-35.013 Y-35.242 E2.07465
G1 X-34.693 Y-35.901 E2.11933
G1 X-34.348 Y-36.461 E2.15945
G1 X-33.923 Y-37.02 E2.20228
G1 X-33.014 Y-38.181 E2.29221
G1 X-32.578 Y-38.722 E2.33459
G1 X-32.11 Y-39.196 E2.37522
G1 X-31.398 Y-39.786 E2.43162
G1 X-30.405 Y-40.579 E2.50912
G1 X-29.833 Y-41.024 E2.55332
G1 X-29.275 Y-41.375 E2.59353
G1 X-28.582 Y-41.721 E2.64077
G1 X-27.195 Y-42.389 E2.73467
G1 X-26.628 Y-42.653 E2.77281
G1 X-26.079 Y-42.852 E2.80843
G1 X-25.175 Y-43.092 E2.86548
G1 X-23.609 Y-43.482 E2.96391
G1 X-22.956 Y-43.635 E3.00481
G1 X-22.488 Y-43.71 E3.03372
G1 X-21.7 Y-43.779 E3.08196
G1 X-19.656 Y-43.928 E3.20696
G1 X-19.109 Y-43.961 E3.24038
G1 X-18.798 Y-43.965 E3.25935
G1 X-17.549 Y-43.923 E3.33558
G1 X-16.581 Y-43.872 E3.3947
G1 X-15.985 Y-43.832 E3.43113
G1 X-15.681 Y-43.797 E3.44979
G1 X-14.519 Y-43.61 E3.52158
G1 X-13.749 Y-43.471 E3.5693
G1 X-12.812 Y-43.288 E3.62753
G1 X-10.06 Y-42.791 E3.79809
G1 X-7.376 Y-42.384 E3.96366
G1 X-4.656 Y-42.05 E4.13081
G1 X-1.955 Y-41.796 E4.29627
G1 X0.79 Y-41.615 E4.46405
G1 X3.531 Y-41.514 E4.63135
G1 X6.277 Y-41.488 E4.79884
G1 X8.989 Y-41.541 E4.96428
G1 X11.727 Y-41.671 E5.13146
G1 X14.435 Y-41.877 E5.2971
G1 X17.177 Y-42.164 E5.46525
G1 X18.955 Y-42.399 E5.57464
G1 X19.438 Y-42.454 E5.60429
G1 X20.286 Y-42.528 E5.6562
G1 X22.229 Y-42.67 E5.77502
G1 X22.86 Y-42.707 E5.81358
G1 X23.163 Y-42.711 E5.83206
G1 X24.404 Y-42.67 E5.90779
G1 X25.371 Y-42.619 E5.96685
G1 X25.967 Y-42.579 E6.00328
G1 X26.27 Y-42.544 E6.02189
G1 X27.444 Y-42.356 E6.0944
G1 X28.194 Y-42.22 E6.14089
G1 X28.785 Y-42.105 E6.17761
G1 X29.173 Y-42.005 E6.20205
G1 X30.296 Y-41.641 E6.27405
G1 X30.769 Y-41.478 E6.30457
G1 X31.368 Y-41.262 E6.3434
G1 X31.816 Y-41.062 E6.37333
G1 X32.873 Y-40.492 E6.44657
G1 X33.185 Y-40.314 E6.46848
G1 X33.776 Y-39.967 E6.51028
G1 X34.224 Y-39.654 E6.54361
G1 X34.64 Y-39.308 E6.57661
G1 X35.252 Y-38.784 E6.62575
G1 X35.763 Y-38.334 E6.66728
G1 X36.102 Y-37.989 E6.69678
G1 X36.753 Y-37.22 E6.75823
G1 X37.052 Y-36.852 E6.78715
G1 X37.52 Y-36.262 E6.83308
G1 X37.829 Y-35.807 E6.86663
G1 X38.066 Y-35.405 E6.89509
G1 X38.563 Y-34.541 E6.95588
G1 X38.918 Y-33.904 E7.00036
G1 X39.081 Y-33.567 E7.02319
G1 X39.359 Y-32.901 E7.06721
G1 X39.741 Y-31.949 E7.12977
G1 X40.003 Y-31.271 E7.17411
G1 X40.151 Y-30.777 E7.20556
G1 X40.221 Y-30.266 E7.23702
G1 X40.217 Y-29.652 E7.27447
G1 X40.18 Y-26.916 E7.44135
G1 X40.22 Y-24.167 E7.60904
G1 X40.335 Y-21.454 E7.77466
G1 X40.453 Y-19.671 E7.88364
G1 X40.506 Y-18.963 E7.92694
G1 X40.504 Y-18.447 E7.95841
G1 X40.422 Y-17.933 E7.99016
G1 X40.145 Y-16.785 E8.06219
G1 X40.008 Y-16.247 E8.09605
G1 X39.406 Y-13.574 E8.26316
G1 X38.872 Y-10.85 E8.43246
G1 X38.434 Y-8.202 E8.59616
G1 X38.058 Y-5.469 E8.76442
G1 X37.765 Y-2.77 E8.93001
G1 X37.548 Y-0.069 E9.09527
G1 X37.404 Y2.709 E9.26494
G1 X37.34 Y5.422 E9.43045
G1 X37.354 Y8.164 E9.59769
G1 X37.444 Y10.871 E9.76289
G1 X37.686 Y14.543 E9.98733
G1 X37.794 Y15.824 E10.06574
G1 X37.796 Y16.517 E10.10801
G1 X37.758 Y19.251 E10.27477
G1 X37.797 Y21.997 E10.44227
G1 X37.912 Y24.713 E10.60807
G1 X38.029 Y26.484 E10.71632
G1 X38.083 Y27.203 E10.7603
G1 X38.081 Y27.718 E10.79171
G1 X37.947 Y28.424 E10.83554
G1 X37.81 Y28.869 E10.86394
G1 X37.079 Y31.045 E11.00394
G1 X36.874 Y31.629 E11.04169
G1 X36.63 Y32.166 E11.07767
G1 X36.053 Y33.185 E11.14909
G1 X35.39 Y34.302 E11.22831
G1 X35.028 Y34.894 E11.27064
G1 X34.621 Y35.429 E11.31164
G1 X34.254 Y35.821 E11.34439
G1 X33.071 Y37.025 E11.44734
G1 X32.56 Y37.531 E11.4912
G1 X32.099 Y37.912 E11.52767
G1 X31.902 Y38.043 E11.5421
G1 X31.458 Y38.319 E11.57399
G1 X30.076 Y39.153 E11.67244
G1 X29.523 Y39.478 E11.71156
G1 X28.828 Y39.786 E11.75792
G1 X28.032 Y40.034 E11.80878
G1 X26.43 Y40.506 E11.91064
G1 X25.806 Y40.681 E11.95016
G1 X25.235 Y40.789 E11.98561
G1 X24.18 Y40.893 E12.05026
G1 X22.146 Y41.053 E12.1747
G1 X21.393 Y41.101 E12.22072
G1 X20.729 Y41.09 E12.26123
G1 X20.624 Y41.084 E12.26764
G1 X17.142 Y40.806 E12.48069
G1 X16.429 Y40.739 E12.52437
G1 X16.24 Y40.716 E12.53598
G1 X15.558 Y40.612 E12.57806
G1 X14.006 Y40.355 E12.674
G1 X11.326 Y39.988 E12.83899
G1 X8.558 Y39.689 E13.00879
G1 X5.889 Y39.476 E13.1721
G1 X3.11 Y39.333 E13.34181
G1 X0.403 Y39.272 E13.50696
G1 X-2.343 Y39.287 E13.67444
G1 X-5.051 Y39.378 E13.8397
G1 X-7.83 Y39.551 E14.00953
G1 X-10.498 Y39.792 E14.17291
G1 X-13.229 Y40.118 E14.34066
G1 X-15.448 Y40.444 E14.47746
G1 X-15.606 Y40.463 E14.48716
G1 X-16.856 Y40.586 E14.56377
G1 X-18.873 Y40.745 E14.68717
G1 X-19.627 Y40.793 E14.73325
G1 X-20.29 Y40.782 E14.77369
G1 X-20.395 Y40.776 E14.78011
G1 X-23.879 Y40.498 E14.99328
G1 X-24.524 Y40.437 E15.03279
G1 X-24.911 Y40.377 E15.05668
G1 X-25.948 Y40.153 E15.12138
G1 X-26.269 Y40.078 E15.14149
G1 X-26.841 Y39.935 E15.17745
G1 X-27.135 Y39.846 E15.19618
G1 X-28.256 Y39.453 E15.26864
G1 X-28.365 Y39.413 E15.27572
G1 X-29.036 Y39.151 E15.31965
G1 X-29.633 Y38.861 E15.36013
G1 X-29.721 Y38.814 E15.36622
G1 X-30.378 Y38.444 E15.41221
G1 X-31.007 Y38.075 E15.45668
G1 X-31.46 Y37.762 E15.49027
G1 X-31.546 Y37.696 E15.49688
G1 X-32.266 Y37.122 E15.55304
G1 X-32.802 Y36.681 E15.59537
G1 X-33.091 Y36.413 E15.61941
G1 X-33.714 Y35.762 E15.67437
G1 X-34.002 Y35.451 E15.70022
G1 X-34.459 Y34.944 E15.74185
G1 X-34.813 Y34.499 E15.77653
G1 X-34.878 Y34.411 E15.78321
G1 X-35.488 Y33.556 E15.84727
G1 X-35.905 Y32.953 E15.89198
G1 X-36.106 Y32.623 E15.91555
G1 X-36.484 Y31.912 E15.96466
G1 X-36.819 Y31.259 E16.00942
G1 X-37.139 Y30.613 E16.05339
G1 X-37.377 Y30.017 E16.09253
G1 X-37.818 Y28.668 E16.1791
G1 X-38.043 Y27.939 E16.22563
G1 X-38.134 Y27.572 E16.24869
G1 X-38.266 Y26.866 E16.2925
G1 X-38.452 Y25.802 E16.35838
G1 X-38.556 Y25.154 E16.3984
G1 X-38.59 Y24.86 E16.41645
G1 X-38.661 Y23.836 E16.47906
G1 X-38.719 Y22.732 E16.54649
G1 X-38.743 Y22.121 E16.58378
G1 X-38.742 Y21.818 E16.60226
G1 X-38.685 Y20.733 E16.66853
G1 X-38.547 Y18.788 E16.78745
G1 X-38.492 Y18.14 E16.82712
G1 X-38.398 Y17.553 E16.86338
G1 X-38.143 Y16.432 E16.9335
G1 X-37.737 Y14.619 E17.04681
G1 X-37.198 Y11.875 E17.21737
G1 X-36.755 Y9.225 E17.38124
G1 X-36.375 Y6.476 E17.5505
G1 X-36.079 Y3.776 E17.71616
G1 X-35.858 Y1.044 E17.88333
G1 X-35.716 Y-1.663 E18.04866
G1 F1500 E11.54866
;MESH:C.stl(3)
G0 F3600 X-12.852 Y7.139
G0 X6.022 Y15.251
G0 X7.539 Y15.959
G0 X15.58 Y29.624
G0 X16.603 Y30.616
G0 X17.802 Y31.318
G0 X19.161 Y31.732
G0 X20.688 Y31.868
G0 X23.309 Y31.449
G0 X24.488 Y30.853
G0 X25.361 Y30.105
G0 X26.841 Y27.973
G0 X26.751 Y27.931
;TYPE:WALL-INNER
G1 F1500 E18.04866
G1 F1800 X27.294 Y26.229 E18.15763
G1 X33.184 Y28.009 E18.53291
G1 X33.508 Y28.107 E18.55356
G1 X33.401 Y28.428 E18.56679
G1 X32.814 Y30.177 E18.67931
G1 X31.402 Y32.558 E18.84815
G1 X29.602 Y34.393 E19.00492
G1 X27.425 Y35.709 E19.16008
G1 X24.677 Y36.519 E19.33481
G1 X21.185 Y36.796 E19.54846
G1 X16.889 Y36.453 E19.81131
G1 X15.146 Y36.042 E19.92054
G1 X13.614 Y35.469 E20.0203
G1 X12.254 Y34.7 E20.11559
G1 X10.98 Y33.68 E20.21513
G1 X9.792 Y32.398 E20.32173
G1 X8.687 Y30.848 E20.43783
G1 X7.776 Y29.075 E20.5594
G1 X7.117 Y27.045 E20.68958
G1 X6.718 Y24.765 E20.83075
G1 X6.583 Y22.204 E20.98717
G1 X6.819 Y18.858 E21.19175
G1 X7.521 Y15.953 E21.37403
G1 X8.668 Y13.5 E21.53919
G1 X10.261 Y11.464 E21.69686
G1 X12.266 Y9.859 E21.8535
G1 X14.671 Y8.701 E22.01631
G1 X17.494 Y7.997 E22.19376
G1 X20.758 Y7.758 E22.39337
G1 X23.327 Y7.895 E22.55027
G1 X25.563 Y8.299 E22.68886
G1 X27.49 Y8.963 E22.81317
G1 X29.093 Y9.87 E22.92551
G1 X30.472 Y11.052 E23.03628
G1 X31.675 Y12.528 E23.15242
G1 X32.704 Y14.315 E23.27819
G1 X32.99 Y15.025 E23.32487
G1 X33.134 Y15.385 E23.34852
G1 X32.756 Y15.469 E23.36314
G1 X26.873 Y16.778 E23.73072
G1 X26.237 Y15.361 E23.82545
G1 X25.184 Y14.216 E23.92033
G1 X23.947 Y13.386 E24.01119
G1 X22.529 Y12.875 E24.10312
G1 X20.98 Y12.707 E24.19815
G1 X19.27 Y12.89 E24.30304
G1 X17.732 Y13.452 E24.40291
G1 X16.404 Y14.395 E24.50225
G1 X15.321 Y15.686 E24.60502
G1 X14.672 Y16.941 E24.6912
G1 X14.222 Y18.469 E24.78835
G1 X13.888 Y22.145 E25.01348
G1 X14.283 Y26.542 E25.28274
G1 X14.822 Y28.266 E25.3929
G1 X15.611 Y29.6 E25.48743
G1 X16.627 Y30.585 E25.57374
G1 X17.818 Y31.282 E25.65791
G1 X19.168 Y31.693 E25.74398
G1 X20.687 Y31.829 E25.83699
G1 X23.297 Y31.411 E25.99821
G1 X24.466 Y30.82 E26.0781
G1 X25.428 Y29.995 E26.1554
G1 X26.751 Y27.931 E26.30492
G0 F3600 X26.149 Y27.648
;TYPE:WALL-OUTER
G1 F1800 X26.863 Y25.409 E26.44826
G1 X34.026 Y27.574 E26.90466
G1 X34.351 Y27.672 E26.92536
G1 X34.243 Y27.994 E26.93864
G1 X33.417 Y30.454 E27.09691
G1 X31.931 Y32.961 E27.27465
G1 X30.014 Y34.915 E27.44161
G1 X27.693 Y36.318 E27.60702
G1 X24.798 Y37.172 E27.79111
G1 X21.184 Y37.458 E28.01223
G1 X16.791 Y37.107 E28.28101
G1 X14.952 Y36.674 E28.39625
G1 X13.33 Y36.067 E28.50187
G1 X11.884 Y35.25 E28.60317
G1 X10.529 Y34.164 E28.70908
G1 X9.278 Y32.815 E28.82129
G1 X8.123 Y31.194 E28.94269
G1 X7.164 Y29.329 E29.07059
G1 X6.475 Y27.207 E29.20667
G1 X6.061 Y24.839 E29.35329
G1 X5.922 Y22.204 E29.51422
G1 X6.165 Y18.752 E29.72529
G1 X6.894 Y15.734 E29.91465
G1 X8.102 Y13.152 E30.08851
G1 X9.786 Y10.999 E30.25523
G1 X11.915 Y9.295 E30.42155
G1 X14.444 Y8.078 E30.59272
G1 X17.39 Y7.343 E30.77791
G1 X20.753 Y7.097 E30.98357
G1 X23.4 Y7.238 E31.14525
G1 X25.734 Y7.66 E31.28991
G1 X27.76 Y8.358 E31.4206
G1 X29.473 Y9.327 E31.54064
G1 X30.949 Y10.592 E31.6592
G1 X32.219 Y12.15 E31.7818
G1 X33.298 Y14.024 E31.91369
G1 X33.891 Y15.5 E32.0107
G1 X34.035 Y15.86 E32.03435
G1 X33.657 Y15.944 E32.04897
G1 X26.491 Y17.539 E32.49673
G1 X25.679 Y15.729 E32.61772
G1 X24.751 Y14.72 E32.70133
G1 X23.647 Y13.979 E32.78243
G1 X22.38 Y13.523 E32.86456
G1 X20.98 Y13.371 E32.95044
G1 X19.421 Y13.538 E33.04607
G1 X18.042 Y14.042 E33.13562
G1 X16.855 Y14.884 E33.22438
G1 X15.874 Y16.054 E33.31751
G1 X15.287 Y17.188 E33.39539
G1 X14.873 Y18.593 E33.48472
G1 X14.551 Y22.145 E33.70225
G1 X14.934 Y26.413 E33.96361
G1 X15.429 Y27.996 E34.06477
G1 X16.134 Y29.188 E34.14924
G1 X17.029 Y30.056 E34.22528
G1 X18.084 Y30.673 E34.29982
G1 X19.295 Y31.042 E34.37703
G1 X20.664 Y31.164 E34.46086
G1 X23.091 Y30.776 E34.61077
G1 X24.097 Y30.267 E34.67953
G1 X24.925 Y29.557 E34.74606
G1 X26.149 Y27.648 E34.88437
G0 F3600 X26.209 Y27.458
G0 X26.9 Y27.679
G0 X26.932 Y27.69
G0 X25.458 Y30.021
G0 X24.488 Y30.853
G0 X23.309 Y31.449
G0 X20.688 Y31.868
G0 X19.161 Y31.732
G0 X17.802 Y31.318
G0 X16.603 Y30.616
G0 X15.58 Y29.624
G0 X14.786 Y28.282
G0 X14.299 Y26.723
G0 X12.582 Y13.863
;TYPE:SKIN
G1 F1800 X11.624 Y15.717 E35.01165
G1 X10.996 Y17.855 E35.14756
G1 X10.604 Y22.145 E35.4103
G1 X11.057 Y27.182 E35.71875
G1 X11.814 Y29.604 E35.87352
G1 X11.496 Y29.158 E35.90693
G1 X10.804 Y27.813 E35.99918
G1 X10.299 Y26.253 E36.09919
G1 X9.974 Y24.399 E36.21399
G1 X9.859 Y22.199 E36.34836
G1 X10.059 Y19.369 E36.52139
G1 X10.622 Y17.043 E36.66735
G1 X11.471 Y15.225 E36.78973
G1 X12.604 Y13.778 E36.90182
G1 X12.755 Y13.657 E36.91362
G1 X12.582 Y13.863 E36.93003
G0 F3600 X13.135 Y14.231
G1 F1800 X12.239 Y15.964 E37.04902
G1 X11.647 Y17.979 E37.17711
G1 X11.267 Y22.145 E37.43226
G1 X11.708 Y27.053 E37.73281
G1 X12.421 Y29.334 E37.87857
G1 X13.543 Y31.229 E38.01288
G1 X15.037 Y32.678 E38.13982
G1 X16.766 Y33.69 E38.26201
G1 X17.369 Y33.873 E38.30045
G1 X17.287 Y33.867 E38.30546
G1 X15.908 Y33.542 E38.39187
G1 X14.731 Y33.101 E38.46853
G1 X13.712 Y32.525 E38.53993
G1 X12.758 Y31.763 E38.61439
G1 X11.819 Y30.747 E38.69877
G1 X10.929 Y29.499 E38.79226
G1 X10.193 Y28.068 E38.89041
G1 X9.657 Y26.413 E38.99651
G1 X9.317 Y24.474 E39.11658
G1 X9.198 Y22.199 E39.25552
G1 X9.405 Y19.269 E39.43467
G1 X9.997 Y16.822 E39.58822
G1 X10.906 Y14.876 E39.71922
G1 X12.131 Y13.311 E39.84044
G1 X13.667 Y12.08 E39.96049
G1 X15.565 Y11.166 E40.08898
G1 X17.907 Y10.583 E40.23618
G1 X17.994 Y10.576 E40.2415
G1 X16.506 Y11.12 E40.33813
G1 X14.62 Y12.461 E40.47928
G1 X13.135 Y14.231 E40.62019
G0 F3600 X13.688 Y14.599
G1 F1800 X12.854 Y16.211 E40.73089
G1 X12.298 Y18.103 E40.85117
G1 X11.93 Y22.145 E41.09871
G1 X12.359 Y26.924 E41.39136
G1 X13.028 Y29.064 E41.52811
G1 X14.066 Y30.817 E41.65237
G1 X15.439 Y32.149 E41.76904
G1 X17.032 Y33.081 E41.88161
G1 X18.793 Y33.617 E41.99388
G1 X20.756 Y33.793 E42.11408
G1 X23.906 Y33.288 E42.30866
G1 X25.557 Y32.453 E42.4215
G1 X26.915 Y31.289 E42.53059
G1 X28.531 Y28.768 E42.71323
G1 X28.568 Y28.652 E42.72065
G1 X31.014 Y29.39 E42.87648
G1 X29.844 Y31.361 E43.01628
G1 X28.399 Y32.835 E43.14217
G1 X27.758 Y33.197 E43.18707
G1 X27.758 Y33.23 E43.18909
G1 X26.634 Y33.909 E43.26918
G1 X24.319 Y34.591 E43.41637
G1 X21.185 Y34.84 E43.60812
G1 X17.186 Y34.521 E43.8528
G1 X15.716 Y34.174 E43.94492
G1 X14.447 Y33.699 E44.02756
G1 X13.346 Y33.077 E44.10469
G1 X12.308 Y32.247 E44.18575
G1 X11.306 Y31.164 E44.27574
G1 X10.362 Y29.84 E44.37492
G1 X9.582 Y28.323 E44.47895
G1 X9.015 Y26.573 E44.59115
G1 X8.66 Y24.549 E44.71648
G1 X8.537 Y22.199 E44.86001
G1 X8.751 Y19.168 E45.04533
G1 X9.372 Y16.601 E45.20641
G1 X10.341 Y14.527 E45.34603
G1 X11.658 Y12.844 E45.47638
G1 X13.313 Y11.518 E45.60572
G1 X15.338 Y10.543 E45.7428
G1 X17.803 Y9.929 E45.89773
G1 X20.764 Y9.712 E46.07881
G1 X23.113 Y9.837 E46.22228
G1 X25.062 Y10.19 E46.34309
G1 X26.687 Y10.749 E46.4479
G1 X27.965 Y11.472 E46.53746
G1 X29.075 Y12.424 E46.62665
G1 X30.063 Y13.635 E46.72197
G1 X30.286 Y14.022 E46.74921
G1 X28.001 Y14.53 E46.89198
G1 X27.886 Y14.274 E46.9091
G1 X26.463 Y12.727 E47.0373
G1 X24.834 Y11.633 E47.15698
G1 X22.971 Y10.961 E47.27777
G1 X20.98 Y10.745 E47.39992
G1 X18.825 Y10.976 E47.53211
G1 X16.816 Y11.709 E47.66254
G1 X15.071 Y12.95 E47.79314
G1 X13.688 Y14.599 E47.9244
G0 F3600 X14.241 Y14.967
G1 F1800 X13.469 Y16.458 E48.02681
G1 X12.949 Y18.227 E48.13927
G1 X12.593 Y22.145 E48.37921
G1 X13.01 Y26.795 E48.66396
G1 X13.635 Y28.794 E48.7917
G1 X14.589 Y30.405 E48.9059
G1 X15.841 Y31.62 E49.0123
G1 X17.298 Y32.472 E49.11525
G1 X18.92 Y32.966 E49.21866
G1 X20.733 Y33.128 E49.32968
G1 X23.7 Y32.653 E49.51294
G1 X25.188 Y31.9 E49.61466
G1 X26.412 Y30.851 E49.71298
G1 X27.929 Y28.485 E49.8844
G1 X28.137 Y27.832 E49.92619
G1 X31.863 Y28.957 E50.16358
G1 X31.636 Y29.635 E50.20719
G1 X30.37 Y31.767 E50.35842
G1 X28.805 Y33.363 E50.49475
G1 X28.418 Y33.602 E50.52249
G1 X26.903 Y34.518 E50.63047
G1 X24.438 Y35.244 E50.7872
G1 X21.185 Y35.502 E50.98623
G1 X17.087 Y35.175 E51.23697
G1 X15.522 Y34.806 E51.33504
G1 X14.163 Y34.297 E51.42355
