;FLAVOR:Marlin
;TIME:1553
;Filament used: 2.67187m
;Layer height: 0.2
;MINX:-40.733
;MINY:-43.68
;MINZ:0.2
;MAXX:41.814
;MAXY:44.247
;MAXZ:3.6
;POSTPROCESSED
;Generated with Cura_SteamEngine 4.8.0
M140 S50
M105
M190 S50
M104 S195
M105
M109 S195
M82 ;absolute extrusion mode
G28 ;Home
G1 Z15.0 F6000 ;Move the platform down 15mm
;Prime the extruder
G92 E0
G1 F200 E3
G92 E0
G92 E0
G92 E0
G1 F1500 E-6.5
;LAYER_COUNT:18
;LAYER:0
M107
G0 F3600 X39.065 Y0.552 Z0.2
;TYPE:SKIRT
G1 F1500 E0
G1 F1800 X39.192 Y3.265 E0.15059
G1 X39.397 Y6.002 E0.30277
G1 X39.679 Y8.737 E0.45522
G1 X40.039 Y11.458 E0.60741
G1 X40.472 Y14.146 E0.75837
G1 X40.98 Y16.82 E0.90929
G1 X41.18 Y17.712 E0.95997
G1 X41.192 Y17.799 E0.96484
G1 X41.48 Y19.159 E1.04192
G1 X41.558 Y19.757 E1.07536
G1 X41.577 Y20.005 E1.08915
G1 X41.781 Y23.178 E1.26545
G1 X41.813 Y23.809 E1.30048
G1 X41.814 Y24.112 E1.31728
G1 X41.764 Y25.316 E1.38409
G1 X41.685 Y26.6 E1.45542
G1 X41.63 Y27.33 E1.49601
G1 X41.55 Y27.892 E1.52749
G1 X41.486 Y28.237 E1.54694
G1 X41.163 Y29.886 E1.64011
G1 X41.015 Y30.588 E1.67989
G1 X40.867 Y31.097 E1.70928
G1 X40.708 Y31.544 E1.73559
G1 X40.148 Y33.042 E1.82426
G1 X39.915 Y33.639 E1.8598
G1 X39.663 Y34.149 E1.89134
G1 X39.151 Y34.993 E1.94607
G1 X38.561 Y35.927 E2.00733
G1 X38.189 Y36.498 E2.04511
G1 X37.775 Y37.012 E2.08171
G1 X37.164 Y37.632 E2.12997
G1 X36.372 Y38.413 E2.19165
G1 X35.843 Y38.919 E2.23223
G1 X35.342 Y39.313 E2.26757
G1 X34.877 Y39.601 E2.2979
G1 X33.493 Y40.414 E2.3869
G1 X32.908 Y40.746 E2.4242
G1 X32.389 Y40.984 E2.45585
G1 X32.177 Y41.055 E2.46825
G1 X31.597 Y41.23 E2.50184
G1 X29.9 Y41.715 E2.5997
G1 X29.273 Y41.885 E2.63572
G1 X28.712 Y41.986 E2.66733
G1 X27.779 Y42.072 E2.71928
G1 X25.613 Y42.234 E2.83971
G1 X24.783 Y42.283 E2.88581
G1 X24.236 Y42.293 E2.91615
G1 X11.587 Y42.293 E3.61749
G1 X10.89 Y42.283 E3.65614
G1 X10.392 Y42.246 E3.68383
G1 X7.644 Y42.013 E3.83674
G1 X4.899 Y41.859 E3.98918
G1 X2.154 Y41.782 E4.14145
G1 X-.559 Y41.782 E4.29187
G1 X-3.304 Y41.861 E4.44414
G1 X-6.048 Y42.017 E4.59653
G1 X-8.754 Y42.249 E4.74712
G1 X-11.481 Y42.559 E4.89929
G1 X-14.199 Y42.946 E5.05152
G1 X-16.871 Y43.405 E5.20184
G1 X-19.118 Y43.851 E5.32886
G1 X-19.641 Y43.939 E5.35827
G1 X-20.553 Y44.023 E5.40905
G1 X-22.74 Y44.187 E5.53065
G1 X-23.557 Y44.235 E5.57603
G1 X-24.114 Y44.247 E5.60692
G1 X-36.769 Y44.247 E6.3086
G1 X-37.467 Y44.238 E6.3473
G1 X-37.978 Y44.191 E6.37575
G1 X-38.476 Y44.066 E6.40422
G1 X-38.948 Y43.865 E6.43267
G1 X-39.384 Y43.593 E6.46116
G1 X-39.772 Y43.257 E6.48962
G1 X-40.103 Y42.865 E6.51807
G1 X-40.37 Y42.426 E6.54656
G1 X-40.565 Y41.951 E6.57503
G1 X-40.684 Y41.452 E6.60347
G1 X-40.732 Y40.694 E6.64558
G1 X-40.733 Y11.607 E8.25836
G1 X-40.723 Y10.909 E8.29706
G1 X-40.707 Y10.633 E8.31239
G1 X-40.591 Y9.453 E8.37814
G1 X-40.36 Y6.736 E8.52933
G1 X-40.206 Y3.997 E8.68144
G1 X-40.128 Y1.248 E8.83392
G1 X-40.128 Y-1.464 E8.98429
G1 X-40.206 Y-4.208 E9.1365
G1 X-40.364 Y-6.985 E9.29072
G1 X-40.479 Y-8.444 E9.37187
G1 X-40.561 Y-9.385 E9.42424
G1 X-40.581 Y-9.899 E9.45276
G1 X-40.582 Y-39.006 E11.06665
G1 X-40.573 Y-39.695 E11.10486
G1 X-40.526 Y-40.206 E11.13331
G1 X-40.401 Y-40.704 E11.16178
G1 X-40.2 Y-41.177 E11.19027
G1 X-39.928 Y-41.612 E11.21872
G1 X-39.592 Y-42 E11.24718
G1 X-39.199 Y-42.331 E11.27567
G1 X-38.76 Y-42.598 E11.30416
G1 X-38.285 Y-42.793 E11.33263
G1 X-37.786 Y-42.912 E11.36107
G1 X-37.044 Y-42.96 E11.4023
G1 X-24.17 Y-42.961 E12.11612
G1 X-23.363 Y-42.948 E12.16087
G1 X-22.714 Y-42.909 E12.19692
G1 X-21.273 Y-42.795 E12.27707
G1 X-20.507 Y-42.724 E12.31972
G1 X-19.881 Y-42.648 E12.35469
G1 X-17.178 Y-42.359 E12.50541
G1 X-14.44 Y-42.146 E12.65769
G1 X-11.691 Y-42.009 E12.8103
G1 X-8.981 Y-41.951 E12.96059
G1 X-6.232 Y-41.97 E13.11302
G1 X-3.491 Y-42.066 E13.26509
G1 X-.779 Y-42.239 E13.41577
G1 X1.96 Y-42.491 E13.56828
G1 X4.644 Y-42.814 E13.71817
G1 X7.368 Y-43.221 E13.87088
G1 X8.296 Y-43.388 E13.92316
G1 X8.402 Y-43.399 E13.92907
G1 X9.707 Y-43.623 E14.00249
G1 X10.492 Y-43.679 E14.04613
G1 X23.367 Y-43.68 E14.76
G1 X24.174 Y-43.667 E14.80475
G1 X24.783 Y-43.631 E14.83858
G1 X26.21 Y-43.519 E14.91794
G1 X26.944 Y-43.452 E14.95881
G1 X27.514 Y-43.363 E14.9908
G1 X27.618 Y-43.343 E14.99667
G1 X29.62 Y-42.921 E15.11011
G1 X30.283 Y-42.77 E15.14782
G1 X31.024 Y-42.522 E15.19114
G1 X31.112 Y-42.488 E15.19637
G1 X32.313 Y-41.991 E15.26844
G1 X33.015 Y-41.689 E15.31081
G1 X33.592 Y-41.37 E15.34737
G1 X34.028 Y-41.06 E15.37703
G1 X35.166 Y-40.219 E15.45549
G1 X35.723 Y-39.794 E15.49434
G1 X36.151 Y-39.403 E15.52648
G1 X36.569 Y-38.935 E15.56127
G1 X37.529 Y-37.823 E15.64273
G1 X37.979 Y-37.287 E15.68153
G1 X38.304 Y-36.825 E15.71285
G1 X38.595 Y-36.308 E15.74575
G1 X39.361 Y-34.88 E15.8356
G1 X39.683 Y-34.262 E15.87424
G1 X39.927 Y-33.65 E15.91077
G1 X40.049 Y-33.222 E15.93544
G1 X40.623 Y-30.989 E16.06328
G1 X40.785 Y-30.321 E16.10139
G1 X40.886 Y-29.606 E16.14143
G1 X40.91 Y-29.287 E16.15917
G1 X41.109 Y-26.198 E16.3308
G1 X41.141 Y-25.567 E16.36583
G1 X41.142 Y-25.265 E16.38257
G1 X41.092 Y-24.052 E16.44989
G1 X41.013 Y-22.777 E16.52072
G1 X40.956 Y-22.035 E16.56198
G1 X40.885 Y-21.522 E16.5907
G1 X40.339 Y-18.518 E16.75999
G1 X39.927 Y-15.822 E16.91121
G1 X39.589 Y-13.094 E17.06362
G1 X39.332 Y-10.392 E17.21411
G1 X39.149 Y-7.655 E17.36621
G1 X39.043 Y-4.906 E17.51875
G1 X39.016 Y-2.167 E17.67062
G1 X39.065 Y0.552 E17.82141
G1 F1500 E11.32141
;MESH:D.stl(1)
G0 F3600 X9.602 Y-9.727
G0 X-9.219 Y-21.385
G0 X-10.774 Y-21.688
G0 X-19.794 Y-31.944
G0 X-21.162 Y-33.05
G0 X-23.09 Y-33.615
G0 X-25.211 Y-33.752
G0 X-28.982 Y-33.817
G0 X-28.912 Y-33.747
;TYPE:WALL-INNER
G1 F1500 E17.82141
G1 F1800 X-28.912 Y-15.555 E18.83009
G1 X-25.669 Y-15.555 E19.0099
G1 X-23.894 Y-15.672 E19.10854
G1 X-22.311 Y-16.04 E19.19865
G1 X-20.956 Y-16.683 E19.28181
G1 X-19.856 Y-17.617 E19.36182
G1 X-19.044 Y-18.892 E19.44563
G1 X-18.499 Y-20.511 E19.54035
G1 X-18.187 Y-22.456 E19.64957
G1 X-18.086 Y-24.749 E19.77684
G1 X-18.267 Y-27.981 E19.95632
G1 X-18.843 Y-30.301 E20.08886
G1 X-19.824 Y-31.918 E20.19373
G1 X-21.18 Y-33.015 E20.29044
G1 X-23.096 Y-33.576 E20.40113
G1 X-25.71 Y-33.747 E20.54638
G1 X-28.912 Y-33.747 E20.72392
G0 F3600 X-28.312 Y-33.147
;TYPE:WALL-OUTER
G1 F1800 X-28.312 Y-16.155 E21.66607
G1 X-25.689 Y-16.155 E21.81151
G1 X-23.982 Y-16.267 E21.90636
G1 X-22.51 Y-16.61 E21.99016
G1 X-21.284 Y-17.191 E22.06539
G1 X-20.313 Y-18.016 E22.13603
G1 X-19.589 Y-19.153 E22.21077
G1 X-19.084 Y-20.655 E22.29863
G1 X-18.785 Y-22.517 E22.4032
G1 X-18.687 Y-24.745 E22.52685
G1 X-18.863 Y-27.891 E22.70156
G1 X-19.403 Y-30.068 E22.82593
G1 X-20.283 Y-31.517 E22.91992
G1 X-21.464 Y-32.473 E23.00417
G1 X-23.201 Y-32.982 E23.10453
G1 X-25.73 Y-33.147 E23.24506
G1 X-28.312 Y-33.147 E23.38822
G0 F3600 X-28.312 Y-32.947
G0 X-28.972 Y-32.947
G0 X-29.012 Y-32.947
G0 X-21.038 Y-38.466
G0 X-21.024 Y-38.564
;TYPE:WALL-INNER
G1 F1800 X-18.246 Y-37.977 E23.54565
G1 X-16.274 Y-37.162 E23.66396
G1 X-14.424 Y-35.793 E23.79157
G1 X-12.825 Y-33.942 E23.92719
G1 X-11.617 Y-31.69 E24.06889
G1 X-10.842 Y-28.682 E24.24112
G1 X-10.577 Y-24.559 E24.4702
G1 X-10.755 Y-21.686 E24.6298
G1 X-11.282 Y-18.994 E24.7819
G1 X-12.186 Y-16.575 E24.92508
G1 X-13.492 Y-14.508 E25.06065
G1 X-15.194 Y-12.832 E25.19309
G1 X-17.289 Y-11.599 E25.32788
G1 X-19.99 Y-10.827 E25.48364
G1 X-23.537 Y-10.561 E25.68086
G1 X-36.382 Y-10.561 E26.39307
G1 X-36.382 Y-38.761 E27.95667
G1 X-23.541 Y-38.761 E28.66866
G1 X-21.024 Y-38.564 E28.80864
G0 F3600 X-20.937 Y-39.159
;TYPE:WALL-OUTER
G1 F1800 X-18.07 Y-38.553 E28.97112
G1 X-15.975 Y-37.687 E29.09681
G1 X-14.014 Y-36.236 E29.23207
G1 X-12.326 Y-34.282 E29.37524
G1 X-11.054 Y-31.911 E29.52443
G1 X-10.247 Y-28.776 E29.70392
G1 X-9.976 Y-24.559 E29.93823
G1 X-10.158 Y-21.61 E30.10205
G1 X-10.702 Y-18.831 E30.25906
G1 X-11.645 Y-16.309 E30.40835
G1 X-13.022 Y-14.129 E30.55132
G1 X-14.826 Y-12.352 E30.69172
G1 X-17.052 Y-11.043 E30.8349
G1 X-19.882 Y-10.234 E30.9981
G1 X-23.519 Y-9.961 E31.20033
G1 X-36.982 Y-9.961 E31.94681
G1 X-36.982 Y-39.361 E33.57694
G1 X-23.52 Y-39.361 E34.32336
G1 X-20.937 Y-39.159 E34.46702
G0 F3600 X-20.742 Y-39.118
G0 X-20.879 Y-38.473
G0 X-20.887 Y-38.434
G0 X-14.966 Y-30.379
;TYPE:SKIN
G1 F1800 X-14.381 Y-28.118 E34.59651
G1 X-14.152 Y-24.557 E34.79437
G1 X-14.306 Y-22.144 E34.92843
G1 X-14.732 Y-19.962 E35.0517
G1 X-15.4 Y-18.168 E35.15784
G1 X-15.66 Y-17.758 E35.18476
G1 X-15.019 Y-19.654 E35.29573
G1 X-14.629 Y-22.094 E35.43274
G1 X-14.511 Y-24.773 E35.58143
G1 X-14.721 Y-28.516 E35.78929
G1 X-15.375 Y-31.141 E35.93929
G1 X-14.966 Y-30.379 E35.98724
G0 F3600 X-14.404 Y-30.601
G1 F1800 X-13.786 Y-28.212 E36.12406
G1 X-13.551 Y-24.557 E36.32714
G1 X-13.709 Y-22.068 E36.46542
G1 X-14.152 Y-19.802 E36.59344
G1 X-14.861 Y-17.898 E36.70609
G1 X-15.816 Y-16.389 E36.80511
G1 X-17.017 Y-15.206 E36.89858
G1 X-18.472 Y-14.349 E36.99221
G1 X-19.671 Y-14.007 E37.06134
G1 X-19.332 Y-14.168 E37.08215
G1 X-17.592 Y-15.643 E37.20863
G1 X-16.346 Y-17.601 E37.33731
G1 X-15.604 Y-19.798 E37.46589
G1 X-15.227 Y-22.155 E37.59823
G1 X-15.112 Y-24.769 E37.74331
G1 X-15.317 Y-28.426 E37.9464
G1 X-16.071 Y-31.455 E38.11947
G1 X-17.553 Y-33.902 E38.27809
G1 X-19.015 Y-35.084 E38.38234
G1 X-17.751 Y-34.561 E38.45818
G1 X-16.454 Y-33.601 E38.54765
G1 X-15.291 Y-32.255 E38.64628
G1 X-14.404 Y-30.601 E38.75035
G0 F3600 X-13.841 Y-30.822
G1 F1800 X-13.191 Y-28.306 E38.89443
G1 X-12.95 Y-24.558 E39.10268
G1 X-13.112 Y-21.992 E39.24523
G1 X-13.572 Y-19.642 E39.37801
G1 X-14.322 Y-17.628 E39.49717
G1 X-15.346 Y-16.009 E39.60338
G1 X-16.647 Y-14.728 E39.70462
G1 X-18.235 Y-13.793 E39.8068
G1 X-20.415 Y-13.17 E39.93251
G1 X-23.607 Y-12.931 E40.10999
G1 X-34.012 Y-12.931 E40.68691
G1 X-34.012 Y-36.391 E41.98769
G1 X-23.624 Y-36.391 E42.56367
G1 X-21.371 Y-36.214 E42.68898
G1 X-18.94 Y-35.702 E42.82673
G1 X-17.452 Y-35.086 E42.91602
G1 X-16.044 Y-34.044 E43.01314
G1 X-14.792 Y-32.595 E43.11932
G1 X-13.841 Y-30.822 E43.23088
G0 F3600 X-13.278 Y-31.043
G1 F1800 X-12.596 Y-28.4 E43.38222
G1 X-12.349 Y-24.559 E43.59563
G1 X-12.515 Y-21.916 E43.74247
G1 X-12.992 Y-19.479 E43.88015
G1 X-13.782 Y-17.36 E44.00555
G1 X-14.876 Y-15.629 E44.11909
G1 X-16.278 Y-14.249 E44.22816
G1 X-17.996 Y-13.237 E44.33872
G1 X-20.307 Y-12.577 E44.47198
G1 X-23.589 Y-12.331 E44.65446
G1 X-34.612 Y-12.331 E45.26565
G1 X-34.612 Y-36.991 E46.63297
G1 X-23.602 Y-36.991 E47.24343
G1 X-21.284 Y-36.809 E47.37235
G1 X-18.765 Y-36.278 E47.51509
G1 X-17.153 Y-35.611 E47.61182
G1 X-15.634 Y-34.487 E47.7166
G1 X-14.293 Y-32.935 E47.83032
G1 X-13.278 Y-31.043 E47.94937
G0 F3600 X-12.715 Y-31.262
G1 F1800 X-12.001 Y-28.494 E48.10787
G1 X-11.748 Y-24.559 E48.3265
G1 X-11.918 Y-21.839 E48.47761
G1 X-12.412 Y-19.316 E48.62016
G1 X-13.241 Y-17.094 E48.75166
G1 X-14.408 Y-15.247 E48.8728
G1 X-15.909 Y-13.77 E48.98956
G1 X-17.757 Y-12.681 E49.10849
G1 X-20.199 Y-11.984 E49.2493
G1 X-23.571 Y-11.731 E49.43679
G1 X-35.212 Y-11.731 E50.08225
G1 X-35.212 Y-37.591 E51.5161
G1 X-23.58 Y-37.591 E52.16105
G1 X-21.197 Y-37.404 E52.29359
G1 X-18.59 Y-36.854 E52.44132
G1 X-16.854 Y-36.136 E52.54548
G1 X-15.224 Y-34.93 E52.65791
G1 X-13.795 Y-33.277 E52.77906
G1 X-12.715 Y-31.262 E52.90582
G0 F3600 X-12.152 Y-31.481
G1 F1800 X-11.406 Y-28.588 E53.07148
G1 X-11.147 Y-24.559 E53.29533
G1 X-11.321 Y-21.763 E53.45066
G1 X-11.832 Y-19.153 E53.59812
G1 X-12.7 Y-16.828 E53.73573
G1 X-13.94 Y-14.865 E53.86447
G1 X-15.54 Y-13.291 E53.98891
G1 X-17.518 Y-12.125 E54.11622
G1 X-20.091 Y-11.391 E54.26458
G1 X-23.553 Y-11.131 E54.45708
G1 X-35.812 Y-11.131 E55.1368
G1 X-35.812 Y-38.191 E56.63718
G1 X-23.559 Y-38.191 E57.31657
G1 X-21.11 Y-37.999 E57.45278
G1 X-18.415 Y-37.43 E57.6055
G1 X-16.555 Y-36.661 E57.7171
G1 X-14.814 Y-35.373 E57.83717
G1 X-13.297 Y-33.618 E57.9658
G1 X-12.152 Y-31.481 E58.10022
G0 F3600 X-16.631 Y-31.222
G1 F1800 X-18.012 Y-33.501 E58.24797
G1 X-20.058 Y-35.156 E58.39389
G1 X-22.681 Y-35.922 E58.5454
G1 X-25.631 Y-36.117 E58.70932
G1 X-31.282 Y-36.117 E59.02265
G1 X-31.282 Y-13.185 E60.29415
G1 X-25.59 Y-13.185 E60.60976
G1 X-23.546 Y-13.321 E60.72334
G1 X-21.526 Y-13.789 E60.83831
G1 X-19.66 Y-14.676 E60.95287
G1 X-18.049 Y-16.042 E61.06998
G1 X-16.891 Y-17.862 E61.18959
G1 X-16.189 Y-19.942 E61.31131
G1 X-15.825 Y-22.216 E61.439
G1 X-15.713 Y-24.765 E61.58047
G1 X-15.913 Y-28.336 E61.77878
G1 X-16.631 Y-31.222 E61.94367
G0 F3600 X-17.191 Y-30.989
G1 F1800 X-18.471 Y-33.1 E62.08056
G1 X-20.342 Y-34.614 E62.21401
G1 X-22.786 Y-35.328 E62.35518
G1 X-25.651 Y-35.517 E62.51438
G1 X-30.682 Y-35.517 E62.79334
G1 X-30.682 Y-13.785 E63.9983
G1 X-25.61 Y-13.785 E64.27953
G1 X-23.634 Y-13.916 E64.38933
G1 X-21.725 Y-14.359 E64.49799
G1 X-19.988 Y-15.184 E64.60461
G1 X-18.506 Y-16.441 E64.71236
G1 X-17.436 Y-18.123 E64.82289
G1 X-16.774 Y-20.086 E64.93776
G1 X-16.423 Y-22.277 E65.06079
G1 X-16.314 Y-24.761 E65.19865
G1 X-16.509 Y-28.246 E65.39219
G1 X-17.191 Y-30.989 E65.54891
G0 F3600 X-17.751 Y-30.756
G1 F1800 X-18.93 Y-32.699 E65.67492
G1 X-20.626 Y-34.072 E65.79591
G1 X-22.891 Y-34.734 E65.92675
G1 X-25.671 Y-34.917 E66.08123
G1 X-30.082 Y-34.917 E66.3258
G1 X-30.082 Y-14.385 E67.46423
G1 X-25.63 Y-14.385 E67.71108
G1 X-23.722 Y-14.511 E67.81711
G1 X-21.924 Y-14.929 E67.91946
G1 X-20.316 Y-15.692 E68.01814
G1 X-18.963 Y-16.84 E68.11653
G1 X-17.981 Y-18.384 E68.21799
G1 X-17.359 Y-20.23 E68.32599
G1 X-17.021 Y-22.338 E68.44437
G1 X-16.915 Y-24.757 E68.57862
G1 X-17.105 Y-28.156 E68.76738
G1 X-17.751 Y-30.756 E68.91592
G0 F3600 X-18.311 Y-30.523
G1 F1800 X-19.389 Y-32.298 E69.03107
G1 X-20.91 Y-33.53 E69.1396
G1 X-22.996 Y-34.14 E69.26011
G1 X-25.691 Y-34.317 E69.40986
G1 X-29.482 Y-34.317 E69.62005
G1 X-29.482 Y-14.985 E70.69195
G1 X-25.65 Y-14.985 E70.90442
G1 X-23.81 Y-15.106 E71.00666
G1 X-22.123 Y-15.499 E71.10271
G1 X-20.644 Y-16.2 E71.19346
G1 X-19.421 Y-17.239 E71.28243
G1 X-18.526 Y-18.645 E71.37485
G1 X-17.944 Y-20.374 E71.476
G1 X-17.619 Y-22.399 E71.58972
G1 X-17.516 Y-24.753 E71.72036
G1 X-17.701 Y-28.066 E71.90434
G1 X-18.311 Y-30.523 E72.04471
G0 F3600 X-19.794 Y-31.944
G0 X-21.162 Y-33.05
G0 X-22.254 Y-33.369
G0 X-31.882 Y-35.791
G1 F1800 X-31.882 Y-13.531 E73.27895
G1 X-33.412 Y-13.531 E73.36379
G1 X-33.412 Y-35.791 E74.59803
G1 X-31.882 Y-35.791 E74.68286
G0 F3600 X-32.482 Y-35.191
G1 F1800 X-32.482 Y-14.131 E75.85057
G1 X-32.812 Y-14.131 E75.86887
G1 X-32.812 Y-35.191 E77.03657
G1 X-32.482 Y-35.191 E77.05487
G0 F3600 X-21.3 Y-35.816
;TYPE:SKIN
G1 F1800 X-21.3 Y-35.907 E77.05739
G0 F3600 X-21 Y-35.844
G1 F1800 X-21 Y-35.729 E77.06058
G0 F3600 X-20.7 Y-35.781
G1 F1800 X-20.7 Y-35.641 E77.06446
G0 F3600 X-20.4 Y-35.718
G1 F1800 X-20.4 Y-35.554 E77.06901
G0 F3600 X-20.1 Y-35.466
G1 F1800 X-20.1 Y-35.655 E77.07425
G0 F3600 X-19.8 Y-35.592
G1 F1800 X-19.8 Y-35.315 E77.08193
G0 F3600 X-19.5 Y-35.529
G1 F1800 X-19.5 Y-35.072 E77.0946
G0 F3600 X-19.2 Y-35.301
G1 F1800 X-19.2 Y-35.466 E77.09917
G0 F3600 X-16.8 Y-33.503
G1 F1800 X-16.8 Y-33.21 E77.10729
G0 F3600 X-16.5 Y-33.218
G1 F1800 X-16.5 Y-32.714 E77.12127
G0 F3600 X-16.2 Y-32.871
G1 F1800 X-16.2 Y-32.218 E77.13937
G0 F3600 X-15.9 Y-32.524
G1 F1800 X-15.9 Y-31.722 E77.1616
G0 F3600 X-15.6 Y-31.343
G1 F1800 X-15.6 Y-32.177 E77.18473
G0 F3600 X-15.3 Y-31.666
G1 F1800 X-15.3 Y-31.459 E77.19046
G0 F3600 X-15.9 Y-17.573
G1 F1800 X-15.9 Y-16.787 E77.21225
G0 F3600 X-16.2 Y-16.409
G1 F1800 X-16.2 Y-17.299 E77.23693
G0 F3600 X-16.5 Y-16.828
G1 F1800 X-16.5 Y-16.114 E77.25672
G0 F3600 X-16.8 Y-16.356
G1 F1800 X-16.8 Y-15.819 E77.27161
G0 F3600 X-17.1 Y-15.885
