;FLAVOR:Marlin
;TIME:1553
;Filament used: 2.67187m
;Layer height: 0.2
;MINX:-40.733
;MINY:-43.68
;MINZ:0.2
;MAXX:41.814
;MAXY:44.247
;MAXZ:3.6
;POSTPROCESSED
;Generated with Cura_SteamEngine 4.8.0
M140 S60
M105
M190 S50
M104 S195
M105
M109 S195
M82 ;absolute extrusion mode
G28 ;Home
G1 Z15.0 F6000 ;Move the platform down 15mm
;Prime the extruder
G92 E1974.27484
G1 F200 E1977.27484
G92 E1974.27484
G92 E1974.27484
G92 E1974.27484
G1 F300 Z4.2
G1 F9000 X-28.912 Y-15.556
G1 F300 Z3.2 ; move back down to resume height
G1 F1500 ; restore extrusion feedrate
;LAYER:15
;TYPE:WALL-INNER
;MESH:D.stl(1)
G1 F1500 E1974.27484
G1 F3600 X-28.912 Y-15.556 E1975.28347
G1 X-25.669 Y-15.555 E1975.46328
G1 X-23.894 Y-15.672 E1975.56191
G1 X-22.311 Y-16.04 E1975.65203
G1 X-20.956 Y-16.683 E1975.73519
G1 X-19.855 Y-17.617 E1975.81524
G1 X-19.045 Y-18.892 E1975.89899
G1 X-18.5 Y-20.51 E1975.99366
G1 X-18.188 Y-22.455 E1976.10288
G1 X-18.087 Y-24.747 E1976.23009
G1 X-18.266 Y-27.98 E1976.40962
G1 X-18.842 Y-30.3 E1976.54216
G1 X-19.823 Y-31.917 E1976.64703
G1 X-21.18 Y-33.015 E1976.74382
G1 X-23.096 Y-33.576 E1976.85451
G1 X-25.71 Y-33.747 E1976.99976
G1 X-28.912 Y-33.747 E1977.1773
G0 F7200 X-28.312 Y-33.147
;TYPE:WALL-OUTER
G1 F1800 X-28.312 Y-16.156 E1978.11939
G1 X-25.689 Y-16.155 E1978.26483
G1 X-23.982 Y-16.267 E1978.35968
G1 X-22.51 Y-16.61 E1978.44349
G1 X-21.284 Y-17.191 E1978.51871
G1 X-20.313 Y-18.016 E1978.58936
G1 X-19.59 Y-19.152 E1978.66402
G1 X-19.085 Y-20.654 E1978.75188
G1 X-18.786 Y-22.516 E1978.85645
G1 X-18.688 Y-24.744 E1978.9801
G1 X-18.862 Y-27.89 E1979.1548
G1 X-19.402 Y-30.067 E1979.27917
G1 X-20.282 Y-31.516 E1979.37317
G1 X-21.464 Y-32.473 E1979.45749
G1 X-23.201 Y-32.982 E1979.55785
G1 X-25.73 Y-33.147 E1979.69837
G1 X-28.312 Y-33.147 E1979.84154
G0 F7200 X-28.312 Y-32.947
G0 X-28.972 Y-32.947
G0 X-29.012 Y-32.947
G0 X-21.038 Y-38.466
G0 X-21.024 Y-38.564
;TYPE:WALL-INNER
G1 F3600 X-18.246 Y-37.977 E1979.99897
G1 X-16.274 Y-37.162 E1980.11728
G1 X-14.424 Y-35.793 E1980.24489
G1 X-12.826 Y-33.943 E1980.38043
G1 X-11.618 Y-31.691 E1980.52213
G1 X-10.843 Y-28.683 E1980.69436
G1 X-10.578 Y-24.56 E1980.92344
G1 X-10.754 Y-21.687 E1981.08303
G1 X-11.281 Y-18.995 E1981.23513
G1 X-12.185 Y-16.576 E1981.37832
G1 X-13.491 Y-14.509 E1981.51388
G1 X-15.194 Y-12.832 E1981.64641
G1 X-17.289 Y-11.599 E1981.78119
G1 X-19.99 Y-10.827 E1981.93695
G1 X-23.537 Y-10.561 E1982.13417
G1 X-36.382 Y-10.561 E1982.84638
G1 X-36.382 Y-38.76 E1984.40992
G1 X-23.541 Y-38.761 E1985.12191
G1 X-21.024 Y-38.564 E1985.2619
G0 F7200 X-20.937 Y-39.159
;TYPE:WALL-OUTER
G1 F1800 X-18.07 Y-38.553 E1985.42438
G1 X-15.975 Y-37.687 E1985.55007
G1 X-14.014 Y-36.236 E1985.68533
G1 X-12.327 Y-34.283 E1985.82842
G1 X-11.055 Y-31.912 E1985.97761
G1 X-10.248 Y-28.777 E1986.1571
G1 X-9.977 Y-24.56 E1986.3914
G1 X-10.157 Y-21.611 E1986.55522
G1 X-10.701 Y-18.832 E1986.71223
G1 X-11.644 Y-16.31 E1986.86152
G1 X-13.021 Y-14.13 E1987.00449
G1 X-14.826 Y-12.352 E1987.14497
G1 X-17.052 Y-11.043 E1987.28816
G1 X-19.882 Y-10.234 E1987.45135
G1 X-23.519 Y-9.961 E1987.65358
G1 X-36.982 Y-9.961 E1988.40006
G1 X-36.982 Y-39.36 E1990.03014
G1 X-23.52 Y-39.361 E1990.77656
G1 X-20.937 Y-39.159 E1990.92021
G0 F7200 X-20.742 Y-39.118
G0 X-20.879 Y-38.473
G0 X-21.115 Y-37.98
;TYPE:SKIN
G1 F1800 X-18.417 Y-37.409 E1991.07312
G1 X-16.564 Y-36.643 E1991.1843
G1 X-14.829 Y-35.36 E1991.30394
G1 X-13.316 Y-33.608 E1991.4323
G1 X-12.173 Y-31.477 E1991.56638
G1 X-11.427 Y-28.583 E1991.73208
G1 X-11.168 Y-24.56 E1991.95561
G1 X-11.339 Y-21.77 E1992.11059
G1 X-11.85 Y-19.159 E1992.25811
G1 X-12.718 Y-16.838 E1992.39551
G1 X-13.954 Y-14.88 E1992.52389
G1 X-15.555 Y-13.305 E1992.64842
G1 X-17.525 Y-12.144 E1992.77521
G1 X-20.094 Y-11.411 E1992.92333
G1 X-23.555 Y-11.151 E1993.11577
G1 X-35.792 Y-11.151 E1993.79427
G1 X-35.792 Y-38.17 E1995.29239
G1 X-23.561 Y-38.171 E1995.97056
G1 X-21.115 Y-37.98 E1996.10659
G0 F7200 X-22.992 Y-34.16
G1 F1800 X-25.691 Y-34.337 E1996.25656
G1 X-29.502 Y-34.337 E1996.46787
G1 X-29.502 Y-14.966 E1997.54193
G1 X-25.65 Y-14.965 E1997.75551
G1 X-23.807 Y-15.086 E1997.85791
G1 X-22.116 Y-15.48 E1997.95419
G1 X-20.633 Y-16.183 E1998.04518
G1 X-19.405 Y-17.225 E1998.13448
G1 X-18.508 Y-18.636 E1998.22719
G1 X-17.925 Y-20.368 E1998.32852
G1 X-17.6 Y-22.396 E1998.4424
G1 X-17.497 Y-24.751 E1998.5731
G1 X-17.68 Y-28.068 E1998.75729
G1 X-18.291 Y-30.53 E1998.89795
G1 X-19.372 Y-32.311 E1999.01346
G1 X-20.901 Y-33.548 E1999.12251
G1 X-22.992 Y-34.16 E1999.24331
G0 F7200 X-22.276 Y-37.8
G1 F1800 X-35.522 Y-37.8 E1999.97776
G0 F7200 X-35.522 Y-37.2
G1 F1800 X-18.729 Y-37.2 E2000.90887
G1 X-18.579 Y-37.2
G0 F7200 X-17.166 Y-36.6
G1 F1800 X-35.522 Y-36.6 E2001.92665
G0 F7200 X-35.522 Y-36
G1 F1800 X-16.146 Y-36 E2003.00099
G0 F7200 X-15.335 Y-35.4
G1 F1800 X-35.522 Y-35.4 E2004.12029
G0 F7200 X-35.522 Y-34.8
G1 F1800 X-14.7 Y-34.8 E2005.2748
G0 F7200 X-14.182 Y-34.2
G1 F1800 X-22.167 Y-34.2 E2005.71754
G1 X-22.317 Y-34.2
G0 F7200 X-20.535 Y-33.6
G1 F1800 X-13.664 Y-33.6 E2006.09851
G0 F7200 X-13.294 Y-33
G1 F1800 X-19.794 Y-33 E2006.45892
G0 F7200 X-19.111 Y-32.4
G1 F1800 X-12.973 Y-32.4 E2006.79925
G0 F7200 X-12.651 Y-31.8
G1 F1800 X-18.746 Y-31.8 E2007.1372
G0 F7200 X-18.382 Y-31.2
G1 F1800 X-12.38 Y-31.2 E2007.46999
G0 F7200 X-12.225 Y-30.6
G1 F1800 X-18.029 Y-30.6 E2007.7918
G0 F7200 X-17.88 Y-30
G1 F1800 X-12.07 Y-30 E2008.11394
G0 F7200 X-11.915 Y-29.4
G1 F1800 X-17.732 Y-29.4 E2008.43648
G0 F7200 X-17.584 Y-28.8
G1 F1800 X-11.761 Y-28.8 E2008.75934
G0 F7200 X-11.671 Y-28.2
G1 F1800 X-17.435 Y-28.2 E2009.07894
G0 F7200 X-17.384 Y-27.6
G1 F1800 X-11.632 Y-27.6 E2009.39787
G0 F7200 X-11.594 Y-27
G1 F1800 X-17.351 Y-27 E2009.71707
G0 F7200 X-17.318 Y-26.4
G1 F1800 X-11.555 Y-26.4 E2010.03661
G0 F7200 X-11.516 Y-25.8
G1 F1800 X-17.285 Y-25.8 E2010.35648
G0 F7200 X-17.252 Y-25.2
G1 F1800 X-11.478 Y-25.2 E2010.67663
G0 F7200 X-11.439 Y-24.6
G1 F1800 X-17.233 Y-24.6 E2010.99789
G0 F7200 X-17.259 Y-24
G1 F1800 X-11.472 Y-24 E2011.31876
G0 F7200 X-11.509 Y-23.4
G1 F1800 X-17.286 Y-23.4 E2011.63907
G0 F7200 X-17.312 Y-22.8
G1 F1800 X-11.545 Y-22.8 E2011.95883
G0 F7200 X-11.582 Y-22.2
G1 F1800 X-17.358 Y-22.2 E2012.27909
G0 F7200 X-17.454 Y-21.6
G1 F1800 X-11.647 Y-21.6 E2012.60107
G0 F7200 X-11.764 Y-21
G1 F1800 X-17.55 Y-21 E2012.92189
G0 F7200 X-17.647 Y-20.4
G1 F1800 X-11.881 Y-20.4 E2013.24159
G0 F7200 X-11.999 Y-19.8
G1 F1800 X-17.831 Y-19.8 E2013.56496
G0 F7200 X-18.033 Y-19.2
G1 F1800 X-12.123 Y-19.2 E2013.89265
G0 F7200 X-12.347 Y-18.6
G1 F1800 X-18.234 Y-18.6 E2014.21906
G0 F7200 X-18.591 Y-18
G1 F1800 X-12.571 Y-18 E2014.55285
G0 F7200 X-12.796 Y-17.4
G1 F1800 X-18.973 Y-17.4 E2014.89534
G0 F7200 X-19.487 Y-16.8
G1 F1800 X-13.061 Y-16.8 E2015.25164
G0 F7200 X-13.44 Y-16.2
G1 F1800 X-20.195 Y-16.2 E2015.62619
G0 F7200 X-21.231 Y-15.6
G1 F1800 X-13.818 Y-15.6 E2016.03721
G0 F7200 X-14.215 Y-15
G1 F1800 X-22.98 Y-15 E2016.5232
G1 X-23.13 Y-15
G0 F7200 X-19.008 Y-12
G1 F1800 X-35.522 Y-12 E2017.43885
G0 F7200 X-35.522 Y-12.6
G1 F1800 X-17.28 Y-12.6 E2018.4503
G0 F7200 X-16.262 Y-13.2
G1 F1800 X-35.522 Y-13.2 E2019.51821
G0 F7200 X-35.522 Y-13.8
G1 F1800 X-15.436 Y-13.8 E2020.63191
G0 F7200 X-14.826 Y-14.4
G1 F1800 X-35.522 Y-14.4 E2021.77943
G0 F7200 X-35.522 Y-15
G1 F1800 X-29.772 Y-15 E2022.09825
G0 F7200 X-29.772 Y-15.6
G1 F1800 X-35.522 Y-15.6 E2022.41707
G0 F7200 X-35.522 Y-16.2
G1 F1800 X-29.772 Y-16.2 E2022.73589
G0 F7200 X-29.772 Y-16.8
G1 F1800 X-35.522 Y-16.8 E2023.0547
G0 F7200 X-35.522 Y-17.4
G1 F1800 X-29.772 Y-17.4 E2023.37352
G0 F7200 X-29.772 Y-18
G1 F1800 X-35.522 Y-18 E2023.69234
G0 F7200 X-35.522 Y-18.6
G1 F1800 X-29.772 Y-18.6 E2024.01116
G0 F7200 X-29.772 Y-19.2
G1 F1800 X-35.522 Y-19.2 E2024.32998
G0 F7200 X-35.522 Y-19.8
G1 F1800 X-29.772 Y-19.8 E2024.64879
G0 F7200 X-29.772 Y-20.4
G1 F1800 X-35.522 Y-20.4 E2024.96761
G0 F7200 X-35.522 Y-21
G1 F1800 X-29.772 Y-21 E2025.28643
G0 F7200 X-29.772 Y-21.6
G1 F1800 X-35.522 Y-21.6 E2025.60525
G0 F7200 X-35.522 Y-22.2
G1 F1800 X-29.772 Y-22.2 E2025.92407
G0 F7200 X-29.772 Y-22.8
G1 F1800 X-35.522 Y-22.8 E2026.24289
G0 F7200 X-35.522 Y-23.4
G1 F1800 X-29.772 Y-23.4 E2026.5617
G0 F7200 X-29.772 Y-24
G1 F1800 X-35.522 Y-24 E2026.88052
G0 F7200 X-35.522 Y-24.6
G1 F1800 X-29.772 Y-24.6 E2027.19934
G0 F7200 X-29.772 Y-25.2
G1 F1800 X-35.522 Y-25.2 E2027.51816
G0 F7200 X-35.522 Y-25.8
G1 F1800 X-29.772 Y-25.8 E2027.83698
G0 F7200 X-29.772 Y-26.4
G1 F1800 X-35.522 Y-26.4 E2028.15579
G0 F7200 X-35.522 Y-27
G1 F1800 X-29.772 Y-27 E2028.47461
G0 F7200 X-29.772 Y-27.6
G1 F1800 X-35.522 Y-27.6 E2028.79343
G0 F7200 X-35.522 Y-28.2
G1 F1800 X-29.772 Y-28.2 E2029.11225
G0 F7200 X-29.772 Y-28.8
G1 F1800 X-35.522 Y-28.8 E2029.43107
G0 F7200 X-35.522 Y-29.4
G1 F1800 X-29.772 Y-29.4 E2029.74989
G0 F7200 X-29.771 Y-30
G1 F1800 X-35.522 Y-30 E2030.06876
G0 F7200 X-35.522 Y-30.6
G1 F1800 X-29.771 Y-30.6 E2030.38763
G0 F7200 X-29.771 Y-31.2
G1 F1800 X-35.522 Y-31.2 E2030.70651
G0 F7200 X-35.522 Y-31.8
G1 F1800 X-29.771 Y-31.8 E2031.02538
G0 F7200 X-29.771 Y-32.4
G1 F1800 X-35.522 Y-32.4 E2031.34425
G0 F7200 X-35.522 Y-33
G1 F1800 X-29.771 Y-33 E2031.66313
G0 F7200 X-29.771 Y-33.6
G1 F1800 X-35.522 Y-33.6 E2031.982
G0 F7200 X-35.522 Y-34.2
G1 F1800 X-29.771 Y-34.2 E2032.30087
G1 X-29.621 Y-34.2
G1 F1500 E2025.80087
;MESH:D.stl
G0 F7200 X-23.09 Y-33.615
G0 X-11.636 Y-31.684
G0 X-10.102 Y-32.079
G0 X9.59 Y-31.684
G0 X11.175 Y-31.684
G0 X18.555 Y-34.536
G0 X18.625 Y-34.466
;TYPE:WALL-INNER
G1 F1500 E2032.30087
G1 F3600 X18.625 Y-16.275 E2033.3095
G1 X21.868 Y-16.274 E2033.48932
G1 X23.643 Y-16.391 E2033.58795
G1 X25.226 Y-16.759 E2033.67806
G1 X26.581 Y-17.402 E2033.76122
G1 X27.682 Y-18.336 E2033.84127
G1 X28.492 Y-19.611 E2033.92503
G1 X29.037 Y-21.229 E2034.01969
G1 X29.349 Y-23.174 E2034.12892
G1 X29.45 Y-25.466 E2034.25612
G1 X29.271 Y-28.699 E2034.43566
G1 X28.695 Y-31.019 E2034.5682
G1 X27.714 Y-32.636 E2034.67307
G1 X26.357 Y-33.734 E2034.76985
G1 X24.441 Y-34.296 E2034.88056
G1 X21.826 Y-34.466 E2035.02586
G1 X18.625 Y-34.466 E2035.20335
G0 F7200 X19.225 Y-33.866
;TYPE:WALL-OUTER
G1 F1800 X19.225 Y-16.875 E2036.14544
G1 X21.848 Y-16.874 E2036.29088
G1 X23.555 Y-16.986 E2036.38573
G1 X25.027 Y-17.329 E2036.46953
G1 X26.253 Y-17.91 E2036.54476
G1 X27.224 Y-18.735 E2036.6154
G1 X27.947 Y-19.871 E2036.69007
G1 X28.452 Y-21.373 E2036.77793
G1 X28.751 Y-23.235 E2036.88249
G1 X28.849 Y-25.463 E2037.00615
G1 X28.675 Y-28.609 E2037.18085
G1 X28.135 Y-30.786 E2037.30521
G1 X27.255 Y-32.235 E2037.39921
G1 X26.073 Y-33.192 E2037.48354
G1 X24.336 Y-33.702 E2037.58391
G1 X21.807 Y-33.866 E2037.72443
G1 X19.225 Y-33.866 E2037.8676
G0 F7200 X19.225 Y-33.666
G0 X18.565 Y-33.666
G0 X18.525 Y-33.666
G0 X26.499 Y-39.186
G0 X26.513 Y-39.284
;TYPE:WALL-INNER
G1 F3600 X29.291 Y-38.697 E2038.02503
G1 X31.265 Y-37.88 E2038.14348
G1 X33.111 Y-36.515 E2038.27078
G1 X34.711 Y-34.662 E2038.40653
G1 X35.919 Y-32.41 E2038.54822
G1 X36.694 Y-29.402 E2038.72045
G1 X36.959 Y-25.279 E2038.94953
G1 X36.783 Y-22.406 E2039.10913
G1 X36.256 Y-19.714 E2039.26122
G1 X35.354 Y-17.298 E2039.40421
G1 X34.045 Y-15.226 E2039.5401
G1 X32.343 Y-13.551 E2039.67251
G1 X30.248 Y-12.318 E2039.8073
G1 X27.549 Y-11.547 E2039.96293
G1 X23.999 Y-11.28 E2040.16032
G1 X11.155 Y-11.28 E2040.87248
G1 X11.155 Y-39.479 E2042.43602
G1 X23.996 Y-39.48 E2043.14801
G1 X26.513 Y-39.284 E2043.28799
G0 F7200 X26.6 Y-39.879
;TYPE:WALL-OUTER
G1 F1800 X29.467 Y-39.273 E2043.45047
G1 X31.564 Y-38.405 E2043.57631
G1 X33.521 Y-36.958 E2043.71126
G1 X35.21 Y-35.002 E2043.85455
G1 X36.482 Y-32.631 E2044.00374
G1 X37.289 Y-29.496 E2044.18323
G1 X37.56 Y-25.279 E2044.41753
G1 X37.38 Y-22.33 E2044.58135
G1 X36.836 Y-19.551 E2044.73836
G1 X35.894 Y-17.029 E2044.88763
G1 X34.516 Y-14.849 E2045.03063
G1 X32.711 Y-13.071 E2045.17111
G1 X30.485 Y-11.762 E2045.31429
G1 X27.657 Y-10.954 E2045.47737
G1 X24.017 Y-10.68 E2045.67976
G1 X10.555 Y-10.68 E2046.42619
G1 X10.555 Y-40.079 E2048.05626
G1 X24.017 Y-40.08 E2048.80269
G1 X26.6 Y-39.879 E2048.94634
G0 F7200 X26.795 Y-39.838
G0 X26.658 Y-39.193
G0 X26.422 Y-38.7
;TYPE:SKIN
G1 F1800 X29.12 Y-38.129 E2049.09925
G1 X30.975 Y-37.361 E2049.21057
G1 X32.706 Y-36.082 E2049.3299
G1 X34.221 Y-34.327 E2049.45845
G1 X35.364 Y-32.196 E2049.59253
G1 X36.11 Y-29.302 E2049.75824
G1 X36.369 Y-25.279 E2049.98176
G1 X36.198 Y-22.489 E2050.13675
G1 X35.686 Y-19.875 E2050.28444
G1 X34.822 Y-17.562 E2050.42134
G1 X33.582 Y-15.597 E2050.55018
G1 X31.982 Y-14.024 E2050.67458
G1 X30.012 Y-12.863 E2050.80137
G1 X27.445 Y-12.131 E2050.94938
G1 X23.981 Y-11.87 E2051.14199
G1 X11.745 Y-11.87 E2051.82043
G1 X11.745 Y-38.889 E2053.31855
G1 X23.976 Y-38.89 E2053.99671
G1 X26.422 Y-38.7 E2054.13275
G0 F7200 X24.545 Y-34.88
G1 F1800 X21.845 Y-35.056 E2054.28277
G1 X18.035 Y-35.056 E2054.49402
G1 X18.035 Y-15.685 E2055.56808
G1 X21.887 Y-15.684 E2055.78166
G1 X23.73 Y-15.805 E2055.88407
G1 X25.421 Y-16.199 E2055.98034
G1 X26.904 Y-16.902 E2056.07134
G1 X28.132 Y-17.944 E2056.16063
G1 X29.029 Y-19.355 E2056.25334
G1 X29.612 Y-21.087 E2056.35467
G1 X29.937 Y-23.115 E2056.46855
G1 X30.04 Y-25.47 E2056.59925
G1 X29.857 Y-28.787 E2056.78345
G1 X29.246 Y-31.249 E2056.9241
G1 X28.165 Y-33.03 E2057.03961
G1 X26.636 Y-34.267 E2057.14866
G1 X24.545 Y-34.88 E2057.26948
G0 F7200 X26.537 Y-38.4
G1 F1800 X12.014 Y-38.4 E2058.07473
G0 F7200 X12.014 Y-37.8
G1 F1800 X29.209 Y-37.8 E2059.02814
G1 X29.359 Y-37.8
G0 F7200 X30.657 Y-37.2
G1 F1800 X12.014 Y-37.2 E2060.06183
G0 F7200 X12.014 Y-36.6
G1 F1800 X31.551 Y-36.6 E2061.14509
G0 F7200 X32.363 Y-36
G1 F1800 X12.014 Y-36 E2062.27337
G0 F7200 X12.014 Y-35.4
G1 F1800 X32.939 Y-35.4 E2063.43359
G0 F7200 X33.457 Y-34.8
G1 F1800 X25.776 Y-34.8 E2063.85948
G1 X25.626 Y-34.8
G0 F7200 X27.147 Y-34.2
G1 F1800 X33.975 Y-34.2 E2064.23807
G0 F7200 X34.306 Y-33.6
G1 F1800 X27.888 Y-33.6 E2064.59392
G0 F7200 X28.497 Y-33
G1 F1800 X34.627 Y-33 E2064.93381
G0 F7200 X34.949 Y-32.399
G1 F1800 X28.861 Y-32.4 E2065.27137
G0 F7200 X29.225 Y-31.8
G1 F1800 X35.187 Y-31.799 E2065.60194
G0 F7200 X35.342 Y-31.199
G1 F1800 X29.535 Y-31.2 E2065.92392
G0 F7200 X29.684 Y-30.6
G1 F1800 X35.496 Y-30.599 E2066.24618
G0 F7200 X35.651 Y-29.999
G1 F1800 X29.834 Y-29.999 E2066.56871
G0 F7200 X29.983 Y-29.399
G1 F1800 X35.806 Y-29.399 E2066.89158
G0 F7200 X35.873 Y-28.799
G1 F1800 X30.126 Y-28.799 E2067.21023
G0 F7200 X30.159 Y-28.199
G1 F1800 X35.911 Y-28.199 E2067.52916
G0 F7200 X35.95 Y-27.599
G1 F1800 X30.192 Y-27.599 E2067.84842
G0 F7200 X30.225 Y-26.999
G1 F1800 X35.989 Y-26.999 E2068.16801
G0 F7200 X36.027 Y-26.399
G1 F1800 X30.258 Y-26.399 E2068.48789
G0 F7200 X30.291 Y-25.799
G1 F1800 X36.066 Y-25.799 E2068.80809
G0 F7200 X36.094 Y-25.199
G1 F1800 X30.299 Y-25.199 E2069.1294
G0 F7200 X30.272 Y-24.599
G1 F1800 X36.057 Y-24.599 E2069.45016
G0 F7200 X36.02 Y-23.999
G1 F1800 X30.246 Y-23.999 E2069.77031
G0 F7200 X30.22 Y-23.399
G1 F1800 X35.983 Y-23.399 E2070.08985
G0 F7200 X35.946 Y-22.799
G1 F1800 X30.16 Y-22.799 E2070.41066
G0 F7200 X30.064 Y-22.199
G1 F1800 X35.866 Y-22.199 E2070.73237
G0 F7200 X35.749 Y-21.599
G1 F1800 X29.968 Y-21.599 E2071.0529
G0 F7200 X29.868 Y-20.999
G1 F1800 X35.631 Y-20.999 E2071.37244
G0 F7200 X35.513 Y-20.399
G1 F1800 X29.666 Y-20.4 E2071.69664
G0 F7200 X29.464 Y-19.8
G1 F1800 X35.369 Y-19.799 E2072.02405
G0 F7200 X35.145 Y-19.199
G1 F1800 X29.251 Y-19.2 E2072.35085
G0 F7200 X28.87 Y-18.6
G1 F1800 X34.921 Y-18.599 E2072.68636
G0 F7200 X34.697 Y-17.999
G1 F1800 X28.489 Y-18 E2073.03057
G0 F7200 X27.909 Y-17.4
