;FLAVOR:Marlin
;TIME:1512
;Filament used: 2.50005m
;Layer height: 0.2
;MINX:-37.912
;MINY:-43.246
;MINZ:0.2
;MAXX:38.114
;MAXY:44.3
;MAXZ:3.6
;POSTPROCESSED
;Generated with Cura_SteamEngine 4.8.0
M140 S60
M105
M190 S50
M104 S195
M105
M109 S195
M82 ;absolute extrusion mode
G28 ;Home
G1 Z15.0 F6000 ;Move the platform down 15mm
;Prime the extruder
G92 E0
G1 F200 E3
G92 E0
G92 E0
G92 E0
G1 F1500 E-6.5
;LAYER_COUNT:18
;LAYER:0
M107
G0 F3600 X-37.162 Y-.827 Z0.2
;TYPE:SKIRT
G1 F1500 E0
G1 F1800 X-37.162 Y-3.54 E0.15043
G1 X-37.241 Y-6.301 E0.30358
G1 X-37.314 Y-7.736 E0.38325
G1 X-37.397 Y-9.193 E0.46416
G1 X-37.408 Y-9.635 E0.48868
G1 X-37.408 Y-15.051 E0.78898
G1 X-37.398 Y-15.758 E0.82818
G1 X-37.345 Y-17.034 E0.89899
G1 X-37.332 Y-17.256 E0.91132
G1 X-37.251 Y-20.025 E1.06492
G1 X-37.247 Y-22.738 E1.21535
G1 X-37.322 Y-25.485 E1.36772
G1 X-37.473 Y-28.195 E1.51821
G1 X-37.706 Y-30.984 E1.67339
G1 X-37.826 Y-32.113 E1.73634
G1 X-37.857 Y-32.756 E1.77203
G1 X-37.858 Y-38.664 E2.09961
G1 X-37.849 Y-39.34 E2.1371
G1 X-37.802 Y-39.851 E2.16555
G1 X-37.676 Y-40.349 E2.19403
G1 X-37.475 Y-40.821 E2.22248
G1 X-37.203 Y-41.257 E2.25097
G1 X-36.867 Y-41.645 E2.27943
G1 X-36.475 Y-41.976 E2.30788
G1 X-36.036 Y-42.242 E2.33634
G1 X-35.561 Y-42.437 E2.36481
G1 X-35.061 Y-42.556 E2.39331
G1 X-34.32 Y-42.604 E2.43448
G1 X-9.925 Y-42.605 E3.7871
G1 X-9.22 Y-42.595 E3.82619
G1 X-7.98 Y-42.543 E3.89501
G1 X-7.388 Y-42.51 E3.92788
G1 X-4.636 Y-42.432 E4.08053
G1 X-1.925 Y-42.432 E4.23085
G1 X0.821 Y-42.51 E4.38317
G1 X3.565 Y-42.665 E4.53555
G1 X6.268 Y-42.895 E4.68597
G1 X7.743 Y-43.063 E4.76828
G1 X7.855 Y-43.067 E4.77449
G1 X9.157 Y-43.216 E4.84716
G1 X9.758 Y-43.245 E4.88052
G1 X34.154 Y-43.246 E6.2332
G1 X34.852 Y-43.236 E6.2719
G1 X35.364 Y-43.188 E6.30041
G1 X35.861 Y-43.062 E6.32884
G1 X36.333 Y-42.861 E6.35729
G1 X36.769 Y-42.588 E6.38581
G1 X37.156 Y-42.252 E6.41423
G1 X37.487 Y-41.859 E6.44272
G1 X37.753 Y-41.42 E6.47118
G1 X37.947 Y-40.944 E6.49968
G1 X38.066 Y-40.445 E6.52812
G1 X38.113 Y-39.709 E6.56901
G1 X38.114 Y-10.606 E8.18268
G1 X38.104 Y-9.909 E8.22133
G1 X38.088 Y-9.634 E8.2366
G1 X37.992 Y-8.654 E8.2912
G1 X37.762 Y-5.937 E8.44239
G1 X37.609 Y-3.201 E8.59433
G1 X37.532 Y-.451 E8.74686
G1 X37.532 Y2.262 E8.89729
G1 X37.611 Y5.007 E9.04955
G1 X37.767 Y7.748 E9.20178
G1 X37.909 Y9.306 E9.28852
G1 X37.912 Y9.507 E9.29967
G1 X38.016 Y10.717 E9.36701
G1 X38.036 Y11.23 E9.39547
G1 X38.038 Y11.33 E9.40102
G1 X38.038 Y40.309 E11.00781
G1 X38.028 Y41.036 E11.04812
G1 X37.981 Y41.548 E11.07663
G1 X37.855 Y42.045 E11.10506
G1 X37.654 Y42.518 E11.13355
G1 X37.381 Y42.953 E11.16203
G1 X37.045 Y43.341 E11.19049
G1 X36.652 Y43.672 E11.21898
G1 X36.213 Y43.938 E11.24744
G1 X35.738 Y44.133 E11.27591
G1 X35.239 Y44.251 E11.30434
G1 X34.501 Y44.299 E11.34535
G1 X10.551 Y44.3 E12.67329
G1 X9.833 Y44.289 E12.71311
G1 X9.465 Y44.262 E12.73357
G1 X8.3 Y44.113 E12.79869
G1 X7.817 Y44.044 E12.82574
G1 X5.1 Y43.736 E12.97735
G1 X2.393 Y43.505 E13.12799
G1 X-.351 Y43.35 E13.28038
G1 X-3.096 Y43.272 E13.43264
G1 X-5.808 Y43.272 E13.58302
G1 X-8.585 Y43.351 E13.73705
G1 X-8.881 Y43.365 E13.75348
G1 X-9.55 Y43.385 E13.79059
G1 X-33.502 Y43.386 E15.11865
G1 X-34.2 Y43.376 E15.15736
G1 X-34.712 Y43.328 E15.18587
G1 X-35.209 Y43.202 E15.2143
G1 X-35.681 Y43.001 E15.24274
G1 X-36.117 Y42.728 E15.27127
G1 X-36.504 Y42.392 E15.29968
G1 X-36.835 Y41.999 E15.32817
G1 X-37.101 Y41.56 E15.35663
G1 X-37.295 Y41.084 E15.38513
G1 X-37.414 Y40.585 E15.41358
G1 X-37.461 Y39.827 E15.45569
G1 X-37.462 Y34.341 E15.75987
G1 X-37.452 Y33.635 E15.79902
G1 X-37.393 Y32.237 E15.8766
G1 X-37.384 Y32.077 E15.88549
G1 X-37.304 Y29.312 E16.03886
G1 X-37.302 Y26.598 E16.18934
G1 X-37.378 Y23.857 E16.34138
G1 X-37.532 Y21.108 E16.49404
G1 X-37.762 Y18.385 E16.64556
G1 X-37.88 Y17.278 E16.70729
G1 X-37.911 Y16.635 E16.74298
G1 X-37.912 Y10.746 E17.06951
G1 X-37.902 Y10.049 E17.10816
G1 X-37.84 Y9.291 E17.15033
G1 X-37.621 Y7.359 E17.25813
G1 X-37.393 Y4.667 E17.40793
G1 X-37.239 Y1.918 E17.56059
G1 X-37.162 Y-.827 E17.71285
G1 F1500 E11.21285
;MESH:E.stl
G0 F3600 X-33.194 Y-8.641
G0 X-33.194 Y-10.22
G0 X-17.586 Y-14.741
G0 X-17.656 Y-14.811
;TYPE:WALL-INNER
G1 F1500 E17.71285
G1 F1800 X-17.656 Y-21.379 E18.07703
G1 X-32.083 Y-21.379 E18.87696
G1 X-32.083 Y-25.697 E19.11637
G1 X-17.656 Y-25.697 E19.9163
G1 X-17.656 Y-33.411 E20.34402
G1 X-33.658 Y-33.411 E21.23128
G1 X-33.658 Y-38.405 E21.50818
G1 X-10.165 Y-38.405 E22.81078
G1 X-10.165 Y-10.206 E24.37432
G1 X-33.208 Y-10.206 E25.65198
G1 X-33.208 Y-14.811 E25.90731
G1 X-17.656 Y-14.811 E26.76962
G0 F3600 X-18.256 Y-15.411
;TYPE:WALL-OUTER
G1 F1800 X-18.256 Y-20.779 E27.06726
G1 X-32.683 Y-20.779 E27.86718
G1 X-32.683 Y-26.297 E28.17314
G1 X-18.256 Y-26.297 E28.97307
G1 X-18.256 Y-32.811 E29.33425
G1 X-34.258 Y-32.811 E30.2215
G1 X-34.258 Y-39.005 E30.56494
G1 X-9.565 Y-39.005 E31.93408
G1 X-9.565 Y-9.606 E33.56416
G1 X-33.808 Y-9.606 E34.90835
G1 X-33.808 Y-15.411 E35.23022
G1 X-18.256 Y-15.411 E36.09253
G0 F3600 X-18.256 Y-15.611
G0 X-17.596 Y-15.611
G0 X-17.556 Y-15.611
G0 X-13.735 Y-13.776
;TYPE:SKIN
G1 F1800 X-14.086 Y-13.776 E36.11199
G1 X-14.086 Y-34.835 E37.27964
G1 X-13.735 Y-34.835 E37.2991
G1 X-13.735 Y-13.776 E38.46675
G0 F3600 X-13.135 Y-13.176
G1 F1800 X-14.686 Y-13.176 E38.55275
G1 X-14.686 Y-35.435 E39.78694
G1 X-13.135 Y-35.435 E39.87293
G1 X-13.135 Y-13.176 E41.10712
G0 F3600 X-12.535 Y-12.576
G1 F1800 X-15.286 Y-12.576 E41.25965
G1 X-15.286 Y-35.781 E42.54629
G1 X-31.288 Y-35.781 E43.43355
G1 X-31.288 Y-36.035 E43.44763
G1 X-12.535 Y-36.035 E44.48742
G1 X-12.535 Y-12.576 E45.78815
G0 F3600 X-15.886 Y-13.041
G1 F1800 X-15.886 Y-23.149 E46.3486
G1 X-30.313 Y-23.149 E47.14853
G1 X-30.313 Y-23.927 E47.19167
G1 X-15.886 Y-23.927 E47.9916
G1 X-15.886 Y-35.181 E48.61559
G1 X-31.888 Y-35.181 E49.50285
G1 X-31.888 Y-36.635 E49.58347
G1 X-11.935 Y-36.635 E50.6898
G1 X-11.935 Y-11.976 E52.05705
G1 X-31.438 Y-11.976 E53.13843
G1 X-31.438 Y-13.041 E53.19748
G1 X-15.886 Y-13.041 E54.05979
G0 F3600 X-16.486 Y-13.641
G1 F1800 X-16.486 Y-22.549 E54.5537
G1 X-30.913 Y-22.549 E55.35363
G1 X-30.913 Y-24.527 E55.46331
G1 X-16.486 Y-24.527 E56.26324
G1 X-16.486 Y-34.581 E56.8207
G1 X-32.488 Y-34.581 E57.70795
G1 X-32.488 Y-37.235 E57.85511
G1 X-11.335 Y-37.235 E59.02797
G1 X-11.335 Y-11.376 E60.46177
G1 X-32.038 Y-11.376 E61.60968
G1 X-32.038 Y-13.641 E61.73526
G1 X-16.486 Y-13.641 E62.59757
G0 F3600 X-17.086 Y-14.241
G1 F1800 X-17.086 Y-21.949 E63.02495
G1 X-31.513 Y-21.949 E63.82488
G1 X-31.513 Y-25.127 E64.00109
G1 X-17.086 Y-25.127 E64.80102
G1 X-17.086 Y-33.981 E65.29194
G1 X-33.088 Y-33.981 E66.1792
G1 X-33.088 Y-37.835 E66.39289
G1 X-10.735 Y-37.835 E67.63229
G1 X-10.735 Y-10.776 E69.13262
G1 X-32.638 Y-10.776 E70.34707
G1 X-32.638 Y-14.241 E70.53919
G1 X-17.086 Y-14.241 E71.4015
G0 F3600 X-17.1 Y-12.756
;TYPE:SKIN
G1 F1800 X-17.1 Y-12.261 E71.41522
G0 F3600 X-16.8 Y-12.261
G1 F1800 X-16.8 Y-12.756 E71.42894
G0 F3600 X-16.5 Y-12.756
G1 F1800 X-16.5 Y-12.261 E71.44267
G0 F3600 X-16.2 Y-12.261
G1 F1800 X-16.2 Y-12.756 E71.45639
G0 F3600 X-15.9 Y-12.756
G1 F1800 X-15.9 Y-12.261 E71.47011
G0 F3600 X-15.6 Y-12.261
G1 F1800 X-15.6 Y-12.756 E71.48384
G0 F3600 X-17.4 Y-12.756
G1 F1800 X-17.4 Y-12.261 E71.49756
G0 F3600 X-17.7 Y-12.261
G1 F1800 X-17.7 Y-12.756 E71.51128
G0 F3600 X-18 Y-12.756
G1 F1800 X-18 Y-12.261 E71.525
G0 F3600 X-18.3 Y-12.261
G1 F1800 X-18.3 Y-12.756 E71.53873
G0 F3600 X-18.6 Y-12.756
G1 F1800 X-18.6 Y-12.261 E71.55245
G0 F3600 X-18.9 Y-12.261
G1 F1800 X-18.9 Y-12.756 E71.56617
G0 F3600 X-19.2 Y-12.756
G1 F1800 X-19.2 Y-12.261 E71.5799
G0 F3600 X-19.5 Y-12.261
G1 F1800 X-19.5 Y-12.756 E71.59362
G0 F3600 X-19.8 Y-12.756
G1 F1800 X-19.8 Y-12.261 E71.60734
G0 F3600 X-20.1 Y-12.261
G1 F1800 X-20.1 Y-12.756 E71.62107
G0 F3600 X-20.4 Y-12.756
G1 F1800 X-20.4 Y-12.261 E71.63479
G0 F3600 X-20.7 Y-12.261
G1 F1800 X-20.7 Y-12.756 E71.64851
G0 F3600 X-21 Y-12.756
G1 F1800 X-21 Y-12.261 E71.66224
G0 F3600 X-21.3 Y-12.261
G1 F1800 X-21.3 Y-12.756 E71.67596
G0 F3600 X-21.6 Y-12.756
G1 F1800 X-21.6 Y-12.261 E71.68968
G0 F3600 X-21.9 Y-12.261
G1 F1800 X-21.9 Y-12.756 E71.7034
G0 F3600 X-22.2 Y-12.756
G1 F1800 X-22.2 Y-12.261 E71.71713
G0 F3600 X-22.5 Y-12.261
G1 F1800 X-22.5 Y-12.756 E71.73085
G0 F3600 X-22.8 Y-12.756
G1 F1800 X-22.8 Y-12.261 E71.74457
G0 F3600 X-23.1 Y-12.261
G1 F1800 X-23.1 Y-12.756 E71.7583
G0 F3600 X-23.4 Y-12.756
G1 F1800 X-23.4 Y-12.261 E71.77202
G0 F3600 X-23.7 Y-12.261
G1 F1800 X-23.7 Y-12.756 E71.78574
G0 F3600 X-24 Y-12.756
G1 F1800 X-24 Y-12.261 E71.79947
G0 F3600 X-24.3 Y-12.261
G1 F1800 X-24.3 Y-12.756 E71.81319
G0 F3600 X-24.6 Y-12.756
G1 F1800 X-24.6 Y-12.261 E71.82691
G0 F3600 X-24.9 Y-12.261
G1 F1800 X-24.9 Y-12.756 E71.84063
G0 F3600 X-25.2 Y-12.756
G1 F1800 X-25.2 Y-12.261 E71.85436
G0 F3600 X-25.5 Y-12.261
G1 F1800 X-25.5 Y-12.756 E71.86808
G0 F3600 X-25.8 Y-12.756
G1 F1800 X-25.8 Y-12.261 E71.8818
G0 F3600 X-26.1 Y-12.261
G1 F1800 X-26.1 Y-12.756 E71.89553
G0 F3600 X-26.4 Y-12.756
G1 F1800 X-26.4 Y-12.261 E71.90925
G0 F3600 X-26.7 Y-12.261
G1 F1800 X-26.7 Y-12.756 E71.92297
G0 F3600 X-27 Y-12.756
G1 F1800 X-27 Y-12.261 E71.9367
G0 F3600 X-27.3 Y-12.261
G1 F1800 X-27.3 Y-12.756 E71.95042
G0 F3600 X-27.6 Y-12.756
G1 F1800 X-27.6 Y-12.261 E71.96414
G0 F3600 X-27.9 Y-12.261
G1 F1800 X-27.9 Y-12.756 E71.97787
G0 F3600 X-28.2 Y-12.756
G1 F1800 X-28.2 Y-12.261 E71.99159
G0 F3600 X-28.5 Y-12.261
G1 F1800 X-28.5 Y-12.756 E72.00531
G0 F3600 X-28.8 Y-12.756
G1 F1800 X-28.8 Y-12.261 E72.01903
G0 F3600 X-29.1 Y-12.261
G1 F1800 X-29.1 Y-12.756 E72.03276
G0 F3600 X-29.4 Y-12.756
G1 F1800 X-29.4 Y-12.261 E72.04648
G0 F3600 X-29.7 Y-12.261
G1 F1800 X-29.7 Y-12.756 E72.0602
G0 F3600 X-30 Y-12.756
G1 F1800 X-30 Y-12.261 E72.07393
G0 F3600 X-30.3 Y-12.261
G1 F1800 X-30.3 Y-12.756 E72.08765
G0 F3600 X-30.6 Y-12.756
G1 F1800 X-30.6 Y-12.261 E72.10137
G0 F3600 X-30.9 Y-12.261
G1 F1800 X-30.9 Y-12.756 E72.1151
G0 F3600 X-17.628 Y-14.783
G0 X-17.628 Y-21.407
G0 X-30 Y-23.434
G1 F1800 X-30 Y-23.642 E72.12086
G0 F3600 X-29.7 Y-23.642
G1 F1800 X-29.7 Y-23.434 E72.12663
G0 F3600 X-29.4 Y-23.434
G1 F1800 X-29.4 Y-23.642 E72.13239
G0 F3600 X-29.1 Y-23.642
G1 F1800 X-29.1 Y-23.434 E72.13816
G0 F3600 X-28.8 Y-23.434
G1 F1800 X-28.8 Y-23.642 E72.14393
G0 F3600 X-28.5 Y-23.642
G1 F1800 X-28.5 Y-23.434 E72.14969
G0 F3600 X-28.2 Y-23.434
G1 F1800 X-28.2 Y-23.642 E72.15546
G0 F3600 X-27.9 Y-23.642
G1 F1800 X-27.9 Y-23.434 E72.16123
G0 F3600 X-27.6 Y-23.434
G1 F1800 X-27.6 Y-23.642 E72.16699
G0 F3600 X-27.3 Y-23.642
G1 F1800 X-27.3 Y-23.434 E72.17276
G0 F3600 X-27 Y-23.434
G1 F1800 X-27 Y-23.642 E72.17853
G0 F3600 X-26.7 Y-23.642
G1 F1800 X-26.7 Y-23.434 E72.18429
G0 F3600 X-26.4 Y-23.434
G1 F1800 X-26.4 Y-23.642 E72.19006
G0 F3600 X-26.1 Y-23.642
G1 F1800 X-26.1 Y-23.434 E72.19583
G0 F3600 X-25.8 Y-23.434
G1 F1800 X-25.8 Y-23.642 E72.20159
G0 F3600 X-25.5 Y-23.642
G1 F1800 X-25.5 Y-23.434 E72.20736
G0 F3600 X-25.2 Y-23.434
G1 F1800 X-25.2 Y-23.642 E72.21313
G0 F3600 X-24.9 Y-23.642
G1 F1800 X-24.9 Y-23.434 E72.21889
G0 F3600 X-24.6 Y-23.434
G1 F1800 X-24.6 Y-23.642 E72.22466
G0 F3600 X-24.3 Y-23.642
G1 F1800 X-24.3 Y-23.434 E72.23042
G0 F3600 X-24 Y-23.434
G1 F1800 X-24 Y-23.642 E72.23619
G0 F3600 X-23.7 Y-23.642
G1 F1800 X-23.7 Y-23.434 E72.24196
G0 F3600 X-23.4 Y-23.434
G1 F1800 X-23.4 Y-23.642 E72.24772
G0 F3600 X-23.1 Y-23.642
G1 F1800 X-23.1 Y-23.434 E72.25349
G0 F3600 X-22.8 Y-23.434
G1 F1800 X-22.8 Y-23.642 E72.25926
G0 F3600 X-22.5 Y-23.642
G1 F1800 X-22.5 Y-23.434 E72.26502
G0 F3600 X-22.2 Y-23.434
G1 F1800 X-22.2 Y-23.642 E72.27079
G0 F3600 X-21.9 Y-23.642
G1 F1800 X-21.9 Y-23.434 E72.27656
G0 F3600 X-21.6 Y-23.434
G1 F1800 X-21.6 Y-23.642 E72.28232
G0 F3600 X-21.3 Y-23.642
G1 F1800 X-21.3 Y-23.434 E72.28809
G0 F3600 X-21 Y-23.434
G1 F1800 X-21 Y-23.642 E72.29386
G0 F3600 X-20.7 Y-23.642
G1 F1800 X-20.7 Y-23.434 E72.29962
G0 F3600 X-20.4 Y-23.434
G1 F1800 X-20.4 Y-23.642 E72.30539
G0 F3600 X-20.1 Y-23.642
G1 F1800 X-20.1 Y-23.434 E72.31115
G0 F3600 X-19.8 Y-23.434
G1 F1800 X-19.8 Y-23.642 E72.31692
G0 F3600 X-19.5 Y-23.642
G1 F1800 X-19.5 Y-23.434 E72.32269
G0 F3600 X-19.2 Y-23.434
G1 F1800 X-19.2 Y-23.642 E72.32845
G0 F3600 X-18.9 Y-23.642
G1 F1800 X-18.9 Y-23.434 E72.33422
G0 F3600 X-18.6 Y-23.434
G1 F1800 X-18.6 Y-23.642 E72.33999
G0 F3600 X-18.3 Y-23.642
G1 F1800 X-18.3 Y-23.434 E72.34575
G0 F3600 X-18 Y-23.434
G1 F1800 X-18 Y-23.642 E72.35152
G0 F3600 X-17.7 Y-23.642
G1 F1800 X-17.7 Y-23.434 E72.35729
G0 F3600 X-17.4 Y-23.434
G1 F1800 X-17.4 Y-23.642 E72.36305
G0 F3600 X-17.1 Y-23.642
G1 F1800 X-17.1 Y-23.434 E72.36882
G0 F3600 X-16.8 Y-23.434
G1 F1800 X-16.8 Y-23.642 E72.37459
G0 F3600 X-16.5 Y-23.642
G1 F1800 X-16.5 Y-23.434 E72.38035
G0 F3600 X-16.2 Y-23.434
G1 F1800 X-16.2 Y-23.642 E72.38612
G0 F3600 X-15.9 Y-23.642
G1 F1800 X-15.9 Y-23.434 E72.39189
G0 F3600 X-15.6 Y-23.434
G1 F1800 X-15.6 Y-23.642 E72.39765
G1 F1500 E65.89765
;MESH:E.stl(3)
G0 F3600 X-10.185 Y-15.381
G0 X-8.6 Y-15.381
G0 X9.306 Y-15.381
G0 X10.891 Y-15.381
G0 X26.493 Y-15.381
G0 X26.423 Y-15.451
;TYPE:WALL-INNER
G1 F1500 E72.39765
G1 F1800 X26.423 Y-22.019 E72.76183
G1 X11.996 Y-22.019 E73.56175
G1 X11.996 Y-26.338 E73.80123
G1 X26.423 Y-26.338 E74.60116
G1 X26.423 Y-34.052 E75.02887
G1 X10.421 Y-34.052 E75.91613
G1 X10.421 Y-39.046 E76.19303
G1 X33.914 Y-39.046 E77.49564
G1 X33.914 Y-10.846 E79.05923
G1 X10.871 Y-10.846 E80.33689
G1 X10.871 Y-15.451 E80.59222
G1 X26.423 Y-15.451 E81.45453
G0 F3600 X25.823 Y-16.051
;TYPE:WALL-OUTER
G1 F1800 X25.823 Y-21.419 E81.75216
G1 X11.396 Y-21.419 E82.55209
G1 X11.396 Y-26.938 E82.8581
G1 X25.823 Y-26.938 E83.65803
G1 X25.823 Y-33.452 E84.01921
G1 X9.821 Y-33.452 E84.90647
G1 X9.821 Y-39.646 E85.2499
G1 X34.514 Y-39.646 E86.61905
G1 X34.514 Y-10.246 E88.24918
G1 X10.271 Y-10.246 E89.59337
G1 X10.271 Y-16.051 E89.91524
G1 X25.823 Y-16.051 E90.77755
G0 F3600 X25.823 Y-16.251
G0 X26.483 Y-16.251
G0 X26.523 Y-16.251
G0 X30.344 Y-14.416
;TYPE:SKIN
G1 F1800 X29.993 Y-14.416 E90.79701
G1 X29.993 Y-35.476 E91.96471
G1 X30.344 Y-35.476 E91.98418
G1 X30.344 Y-14.416 E93.15188
G0 F3600 X30.944 Y-13.816
G1 F1800 X29.393 Y-13.816 E93.23788
G1 X29.393 Y-36.076 E94.47212
G1 X30.944 Y-36.076 E94.55812
G1 X30.944 Y-13.816 E95.79236
G0 F3600 X31.544 Y-13.216
G1 F1800 X28.793 Y-13.216 E95.94489
G1 X28.793 Y-36.422 E97.23159
G1 X12.791 Y-36.422 E98.11885
G1 X12.791 Y-36.676 E98.13293
G1 X31.544 Y-36.676 E99.17272
G1 X31.544 Y-13.216 E100.4735
G0 F3600 X28.193 Y-13.681
G1 F1800 X28.193 Y-23.789 E101.03395
G1 X13.766 Y-23.789 E101.83388
G1 X13.766 Y-24.568 E101.87707
G1 X28.193 Y-24.568 E102.677
G1 X28.193 Y-35.822 E103.301
G1 X12.191 Y-35.822 E104.18826
G1 X12.191 Y-37.276 E104.26888
G1 X32.144 Y-37.276 E105.3752
G1 X32.144 Y-12.616 E106.74252
G1 X12.641 Y-12.616 E107.82389
G1 X12.641 Y-13.681 E107.88294
G1 X28.193 Y-13.681 E108.74525
G0 F3600 X27.593 Y-14.281
G1 F1800 X27.593 Y-23.189 E109.23917
G1 X13.166 Y-23.189 E110.0391
G1 X13.166 Y-25.168 E110.14883
G1 X27.593 Y-25.168 E110.94875
G1 X27.593 Y-35.222 E111.50621
G1 X11.591 Y-35.222 E112.39347
G1 X11.591 Y-37.876 E112.54063
G1 X32.744 Y-37.876 E113.71349
G1 X32.744 Y-12.016 E115.14734
G1 X12.041 Y-12.016 E116.29525
G1 X12.041 Y-14.281 E116.42084
G1 X27.593 Y-14.281 E117.28314
G0 F3600 X26.993 Y-14.881
G1 F1800 X26.993 Y-22.589 E117.71053
G1 X12.566 Y-22.589 E118.51045
G1 X12.566 Y-25.768 E118.68672
G1 X26.993 Y-25.768 E119.48665
G1 X26.993 Y-34.622 E119.97757
G1 X10.991 Y-34.622 E120.86483
