;FLAVOR:Marlin
;TIME:1191
;Filament used: 1.94589m
;Layer height: 0.2
;MINX:-28.205
;MINY:-38.159
;MINZ:0.2
;MAXX:38.704
;MAXY:46.395
;MAXZ:3.6
;POSTPROCESSED
;Generated with Cura_SteamEngine 4.8.0
M140 S60
M105
M190 S50
M104 S195
M105
M109 S195
M82 ;absolute extrusion mode
G28 ;Home
G1 Z15.0 F6000 ;Move the platform down 15mm
;Prime the extruder
G92 E0
G1 F200 E3
G92 E0
G92 E0
G92 E0
G1 F1500 E-6.5
;LAYER_COUNT:18
;LAYER:0
M107
G0 F3600 X-26.274 Y4.849 Z0.2
;TYPE:SKIRT
G1 F1500 E0
G1 F1800 X-26.741 Y2.116 E0.15373
G1 X-27.266 Y-.511 E0.30227
G1 X-27.898 Y-3.256 E0.45845
G1 X-28.056 Y-3.88 E0.49414
G1 X-28.109 Y-4.107 E0.50707
G1 X-28.194 Y-4.758 E0.54347
G1 X-28.205 Y-5.189 E0.56738
G1 X-28.205 Y-10.649 E0.87012
G1 X-28.194 Y-11.355 E0.90927
G1 X-28.121 Y-11.995 E0.94498
G1 X-27.915 Y-12.954 E0.99937
G1 X-27.701 Y-13.884 E1.05228
G1 X-27.165 Y-16.565 E1.20387
G1 X-26.699 Y-19.291 E1.35721
G1 X-26.318 Y-21.97 E1.50725
G1 X-26.188 Y-22.988 E1.56415
G1 X-26.155 Y-23.198 E1.57594
G1 X-26.022 Y-23.694 E1.60441
G1 X-25.815 Y-24.163 E1.63284
G1 X-25.536 Y-24.595 E1.66135
G1 X-25.125 Y-25.043 E1.69506
G1 X-24.503 Y-25.606 E1.74158
G1 X-22.485 Y-27.487 E1.89454
G1 X-20.532 Y-29.414 E2.04667
G1 X-18.653 Y-31.375 E2.19725
G1 X-16.798 Y-33.425 E2.35055
G1 X-15.027 Y-35.498 E2.50172
G1 X-14.46 Y-36.198 E2.55167
G1 X-13.838 Y-36.949 E2.60574
G1 X-13.481 Y-37.318 E2.63421
G1 X-12.985 Y-37.68 E2.66825
G1 X-12.525 Y-37.909 E2.69674
G1 X-12.036 Y-38.064 E2.72519
G1 X-11.379 Y-38.149 E2.76192
G1 X-10.966 Y-38.159 E2.78483
G1 X-2.645 Y-38.159 E3.2462
G1 X-1.944 Y-38.149 E3.28507
G1 X-1.321 Y-38.08 E3.31982
G1 X1.598 Y-37.495 E3.48489
G1 X4.321 Y-37.029 E3.63807
G1 X6.992 Y-36.65 E3.78765
G1 X9.733 Y-36.339 E3.9406
G1 X12.429 Y-36.111 E4.09062
G1 X15.178 Y-35.957 E4.24328
G1 X17.922 Y-35.88 E4.39549
G1 X20.671 Y-35.882 E4.54791
G1 X22.042 Y-35.912 E4.62395
G1 X22.517 Y-35.924 E4.65029
G1 X30.853 Y-35.924 E5.11249
G1 X31.551 Y-35.914 E5.1512
G1 X32.063 Y-35.866 E5.17971
G1 X32.56 Y-35.74 E5.20814
G1 X33.032 Y-35.539 E5.23659
G1 X33.468 Y-35.266 E5.26511
G1 X33.855 Y-34.93 E5.29353
G1 X34.186 Y-34.537 E5.32202
G1 X34.452 Y-34.098 E5.35048
G1 X34.646 Y-33.622 E5.37898
G1 X34.765 Y-33.123 E5.40742
G1 X34.812 Y-32.387 E5.44831
G1 X34.813 Y-14.543 E6.4377
G1 X34.853 Y-11.749 E6.59264
G1 X34.968 Y-9.038 E6.74309
G1 X35.162 Y-6.295 E6.89556
G1 X35.432 Y-3.567 E7.04755
G1 X35.777 Y-.875 E7.19804
G1 X36.205 Y1.849 E7.35093
G1 X36.701 Y4.517 E7.50139
G1 X37.279 Y7.202 E7.65368
G1 X37.923 Y9.833 E7.80386
G1 X38.469 Y11.813 E7.91775
G1 X38.586 Y12.259 E7.94331
G1 X38.692 Y12.996 E7.9846
G1 X38.704 Y13.425 E8.00839
G1 X38.704 Y42.396 E9.61474
G1 X38.695 Y43.127 E9.65527
G1 X38.649 Y43.638 E9.68372
G1 X38.524 Y44.136 E9.71219
G1 X38.323 Y44.608 E9.74063
G1 X38.051 Y45.044 E9.76913
G1 X37.715 Y45.433 E9.79763
G1 X37.323 Y45.764 E9.82608
G1 X36.885 Y46.031 E9.85452
G1 X36.41 Y46.226 E9.88299
G1 X35.91 Y46.345 E9.91149
G1 X35.166 Y46.394 E9.95283
G1 X13.144 Y46.395 E11.17387
G1 X12.447 Y46.385 E11.21252
G1 X12.172 Y46.369 E11.2278
G1 X11.001 Y46.254 E11.29304
G1 X10.436 Y46.19 E11.32456
G1 X7.723 Y45.959 E11.47554
G1 X4.983 Y45.805 E11.6277
G1 X2.229 Y45.727 E11.78046
G1 X0.182 Y45.72 E11.89396
G1 X-.501 Y45.725 E11.93183
G1 X-22.481 Y45.725 E13.15055
G1 X-23.179 Y45.715 E13.18925
G1 X-23.691 Y45.667 E13.21777
G1 X-24.188 Y45.541 E13.2462
G1 X-24.66 Y45.34 E13.27464
G1 X-25.096 Y45.067 E13.30316
G1 X-25.483 Y44.731 E13.33158
G1 X-25.814 Y44.338 E13.36007
G1 X-26.08 Y43.899 E13.38853
G1 X-26.274 Y43.423 E13.41703
G1 X-26.393 Y42.924 E13.44548
G1 X-26.44 Y42.172 E13.48725
G1 X-26.441 Y36.635 E13.79426
G1 X-26.43 Y35.929 E13.83341
G1 X-26.39 Y35.47 E13.85896
G1 X-26.292 Y34.843 E13.89414
G1 X-25.9 Y32.092 E14.04822
G1 X-25.59 Y29.365 E14.2004
G1 X-25.358 Y26.659 E14.35098
G1 X-25.202 Y23.915 E14.50338
G1 X-25.123 Y21.169 E14.6557
G1 X-25.123 Y18.456 E14.80612
G1 X-25.2 Y15.71 E14.95844
G1 X-25.354 Y12.966 E15.11082
G1 X-25.584 Y10.259 E15.26146
G1 X-25.892 Y7.533 E15.41357
G1 X-26.274 Y4.849 E15.56389
G1 F1500 E9.06389
;MESH:F.stl(2)
G0 F3600 X-23.991 Y-4.194
G0 X-23.991 Y-5.773
G0 X-10.326 Y-10.335
G0 X-10.396 Y-10.405
;TYPE:WALL-INNER
G1 F1500 E15.56389
G1 F1800 X-10.396 Y-17.444 E15.95417
G1 X-22.02 Y-17.444 E16.59869
G1 X-22.02 Y-21.701 E16.83472
G1 X-10.396 Y-21.701 E17.47923
G1 X-10.396 Y-33.959 E18.1589
G1 X-2.885 Y-33.959 E18.57536
G1 X-2.885 Y-5.759 E20.13895
G1 X-24.005 Y-5.759 E21.30999
G1 X-24.005 Y-10.405 E21.56759
G1 X-10.396 Y-10.405 E22.32216
G0 F3600 X-10.996 Y-11.005
;TYPE:WALL-OUTER
G1 F1800 X-10.996 Y-16.844 E22.64592
G1 X-22.62 Y-16.844 E23.29043
G1 X-22.62 Y-22.301 E23.593
G1 X-10.996 Y-22.301 E24.23751
G1 X-10.996 Y-34.559 E24.91718
G1 X-2.285 Y-34.559 E25.40017
G1 X-2.285 Y-5.159 E27.0303
G1 X-24.605 Y-5.159 E28.26787
G1 X-24.605 Y-11.005 E28.59201
G1 X-10.996 Y-11.005 E29.34659
G0 F3600 X-10.996 Y-11.205
G0 X-10.336 Y-11.205
G0 X-10.296 Y-11.205
G0 X-6.455 Y-9.329
;TYPE:SKIN
G1 F1800 X-6.826 Y-9.329 E29.36716
G1 X-6.826 Y-30.389 E30.53486
G1 X-6.455 Y-30.389 E30.55544
G1 X-6.455 Y-9.329 E31.72314
G0 F3600 X-5.855 Y-8.729
G1 F1800 X-7.426 Y-8.729 E31.81025
G1 X-7.426 Y-30.989 E33.04449
G1 X-5.855 Y-30.989 E33.1316
G1 X-5.855 Y-8.729 E34.36584
G0 F3600 X-5.255 Y-8.129
G1 F1800 X-8.026 Y-8.129 E34.51948
G1 X-8.026 Y-31.589 E35.82026
G1 X-5.255 Y-31.589 E35.9739
G1 X-5.255 Y-8.129 E37.27468
G0 F3600 X-8.626 Y-8.635
G1 F1800 X-8.626 Y-19.214 E37.86125
G1 X-20.25 Y-19.214 E38.50576
G1 X-20.25 Y-19.931 E38.54552
G1 X-8.626 Y-19.931 E39.19003
G1 X-8.626 Y-32.189 E39.86969
G1 X-4.655 Y-32.189 E40.08987
G1 X-4.655 Y-7.529 E41.45719
G1 X-22.235 Y-7.529 E42.43194
G1 X-22.235 Y-8.635 E42.49326
G1 X-8.626 Y-8.635 E43.24784
G0 F3600 X-9.226 Y-9.235
G1 F1800 X-9.226 Y-18.614 E43.76787
G1 X-20.85 Y-18.614 E44.41238
G1 X-20.85 Y-20.531 E44.51867
G1 X-9.226 Y-20.531 E45.16318
G1 X-9.226 Y-32.789 E45.84285
G1 X-4.055 Y-32.789 E46.12956
G1 X-4.055 Y-6.929 E47.56341
G1 X-22.835 Y-6.929 E48.6047
G1 X-22.835 Y-9.235 E48.73256
G1 X-9.226 Y-9.235 E49.48713
G0 F3600 X-9.826 Y-9.835
G1 F1800 X-9.826 Y-18.014 E49.94063
G1 X-21.45 Y-18.014 E50.58514
G1 X-21.45 Y-21.131 E50.75797
G1 X-9.826 Y-21.131 E51.40248
G1 X-9.826 Y-33.389 E52.08215
G1 X-3.455 Y-33.389 E52.4354
G1 X-3.455 Y-6.329 E53.93578
G1 X-23.435 Y-6.329 E55.04361
G1 X-23.435 Y-9.835 E55.238
G1 X-9.826 Y-9.835 E55.99258
G0 F3600 X-9.9 Y-8.35
;TYPE:SKIN
G1 F1800 X-9.9 Y-7.814 E56.00744
G0 F3600 X-10.2 Y-7.814
G1 F1800 X-10.2 Y-8.35 E56.0223
G0 F3600 X-10.5 Y-8.35
G1 F1800 X-10.5 Y-7.814 E56.03716
G0 F3600 X-10.8 Y-7.814
G1 F1800 X-10.8 Y-8.35 E56.05202
G0 F3600 X-11.1 Y-8.35
G1 F1800 X-11.1 Y-7.814 E56.06688
G0 F3600 X-11.4 Y-7.814
G1 F1800 X-11.4 Y-8.35 E56.08174
G0 F3600 X-11.7 Y-8.35
G1 F1800 X-11.7 Y-7.814 E56.0966
G0 F3600 X-12 Y-7.814
G1 F1800 X-12 Y-8.35 E56.11145
G0 F3600 X-12.3 Y-8.35
G1 F1800 X-12.3 Y-7.814 E56.12631
G0 F3600 X-12.6 Y-7.814
G1 F1800 X-12.6 Y-8.35 E56.14117
G0 F3600 X-12.9 Y-8.35
G1 F1800 X-12.9 Y-7.814 E56.15603
G0 F3600 X-13.2 Y-7.814
G1 F1800 X-13.2 Y-8.35 E56.17089
G0 F3600 X-13.5 Y-8.35
G1 F1800 X-13.5 Y-7.814 E56.18575
G0 F3600 X-13.8 Y-7.814
G1 F1800 X-13.8 Y-8.35 E56.20061
G0 F3600 X-14.1 Y-8.35
G1 F1800 X-14.1 Y-7.814 E56.21547
G0 F3600 X-14.4 Y-7.814
G1 F1800 X-14.4 Y-8.35 E56.23033
G0 F3600 X-14.7 Y-8.35
G1 F1800 X-14.7 Y-7.814 E56.24519
G0 F3600 X-15 Y-7.814
G1 F1800 X-15 Y-8.35 E56.26005
G0 F3600 X-15.3 Y-8.35
G1 F1800 X-15.3 Y-7.814 E56.27491
G0 F3600 X-15.6 Y-7.814
G1 F1800 X-15.6 Y-8.35 E56.28977
G0 F3600 X-15.9 Y-8.35
G1 F1800 X-15.9 Y-7.814 E56.30463
G0 F3600 X-16.2 Y-7.814
G1 F1800 X-16.2 Y-8.35 E56.31949
G0 F3600 X-16.5 Y-8.35
G1 F1800 X-16.5 Y-7.814 E56.33435
G0 F3600 X-16.8 Y-7.814
G1 F1800 X-16.8 Y-8.35 E56.34921
G0 F3600 X-17.1 Y-8.35
G1 F1800 X-17.1 Y-7.814 E56.36407
G0 F3600 X-17.4 Y-7.814
G1 F1800 X-17.4 Y-8.35 E56.37893
G0 F3600 X-17.7 Y-8.35
G1 F1800 X-17.7 Y-7.814 E56.39379
G0 F3600 X-18 Y-7.814
G1 F1800 X-18 Y-8.35 E56.40865
G0 F3600 X-18.3 Y-8.35
G1 F1800 X-18.3 Y-7.814 E56.42351
G0 F3600 X-18.6 Y-7.814
G1 F1800 X-18.6 Y-8.35 E56.43837
G0 F3600 X-18.9 Y-8.35
G1 F1800 X-18.9 Y-7.814 E56.45323
G0 F3600 X-19.2 Y-7.814
G1 F1800 X-19.2 Y-8.35 E56.46809
G0 F3600 X-19.5 Y-8.35
G1 F1800 X-19.5 Y-7.814 E56.48295
G0 F3600 X-19.8 Y-7.814
G1 F1800 X-19.8 Y-8.35 E56.49781
G0 F3600 X-20.1 Y-8.35
G1 F1800 X-20.1 Y-7.814 E56.51267
G0 F3600 X-20.4 Y-7.814
G1 F1800 X-20.4 Y-8.35 E56.52753
G0 F3600 X-20.7 Y-8.35
G1 F1800 X-20.7 Y-7.814 E56.54239
G0 F3600 X-21 Y-7.814
G1 F1800 X-21 Y-8.35 E56.55725
G0 F3600 X-21.3 Y-8.35
G1 F1800 X-21.3 Y-7.814 E56.57211
G0 F3600 X-21.6 Y-7.814
G1 F1800 X-21.6 Y-8.35 E56.58697
G0 F3600 X-21.9 Y-8.35
G1 F1800 X-21.9 Y-7.814 E56.60182
G0 F3600 X-10.368 Y-10.377
G0 X-10.368 Y-17.472
G0 X-19.8 Y-19.499
G1 F1800 X-19.8 Y-19.646 E56.6059
G0 F3600 X-19.5 Y-19.646
G1 F1800 X-19.5 Y-19.499 E56.60998
G0 F3600 X-19.2 Y-19.499
G1 F1800 X-19.2 Y-19.646 E56.61405
G0 F3600 X-18.9 Y-19.646
G1 F1800 X-18.9 Y-19.499 E56.61813
G0 F3600 X-18.6 Y-19.499
G1 F1800 X-18.6 Y-19.646 E56.6222
G0 F3600 X-18.3 Y-19.646
G1 F1800 X-18.3 Y-19.499 E56.62628
G0 F3600 X-18 Y-19.499
G1 F1800 X-18 Y-19.646 E56.63035
G0 F3600 X-17.7 Y-19.646
G1 F1800 X-17.7 Y-19.499 E56.63443
G0 F3600 X-17.4 Y-19.499
G1 F1800 X-17.4 Y-19.646 E56.6385
G0 F3600 X-17.1 Y-19.646
G1 F1800 X-17.1 Y-19.499 E56.64258
G0 F3600 X-16.8 Y-19.499
G1 F1800 X-16.8 Y-19.646 E56.64665
G0 F3600 X-16.5 Y-19.646
G1 F1800 X-16.5 Y-19.499 E56.65073
G0 F3600 X-16.2 Y-19.499
G1 F1800 X-16.2 Y-19.646 E56.6548
G0 F3600 X-15.9 Y-19.646
G1 F1800 X-15.9 Y-19.499 E56.65888
G0 F3600 X-15.6 Y-19.499
G1 F1800 X-15.6 Y-19.646 E56.66295
G0 F3600 X-15.3 Y-19.646
G1 F1800 X-15.3 Y-19.499 E56.66703
G0 F3600 X-15 Y-19.499
G1 F1800 X-15 Y-19.646 E56.67111
G0 F3600 X-14.7 Y-19.646
G1 F1800 X-14.7 Y-19.499 E56.67518
G0 F3600 X-14.4 Y-19.499
G1 F1800 X-14.4 Y-19.646 E56.67926
G0 F3600 X-14.1 Y-19.646
G1 F1800 X-14.1 Y-19.499 E56.68333
G0 F3600 X-13.8 Y-19.499
G1 F1800 X-13.8 Y-19.646 E56.68741
G0 F3600 X-13.5 Y-19.646
G1 F1800 X-13.5 Y-19.499 E56.69148
G0 F3600 X-13.2 Y-19.499
G1 F1800 X-13.2 Y-19.646 E56.69556
G0 F3600 X-12.9 Y-19.646
G1 F1800 X-12.9 Y-19.499 E56.69963
G0 F3600 X-12.6 Y-19.499
G1 F1800 X-12.6 Y-19.646 E56.70371
G0 F3600 X-12.3 Y-19.646
G1 F1800 X-12.3 Y-19.499 E56.70778
G0 F3600 X-12 Y-19.499
G1 F1800 X-12 Y-19.646 E56.71186
G0 F3600 X-11.7 Y-19.646
G1 F1800 X-11.7 Y-19.499 E56.71593
G0 F3600 X-11.4 Y-19.499
G1 F1800 X-11.4 Y-19.646 E56.72001
G0 F3600 X-11.1 Y-19.646
G1 F1800 X-11.1 Y-19.499 E56.72408
G0 F3600 X-10.8 Y-19.499
G1 F1800 X-10.8 Y-19.646 E56.72816
G0 F3600 X-10.5 Y-19.646
G1 F1800 X-10.5 Y-19.499 E56.73224
G0 F3600 X-10.2 Y-19.499
G1 F1800 X-10.2 Y-19.646 E56.73631
G0 F3600 X-9.9 Y-19.646
G1 F1800 X-9.9 Y-19.499 E56.74039
G0 F3600 X-9.6 Y-19.499
G1 F1800 X-9.6 Y-19.646 E56.74446
G0 F3600 X-9.3 Y-19.646
G1 F1800 X-9.3 Y-19.499 E56.74854
G0 F3600 X-9 Y-19.499
G1 F1800 X-9 Y-19.646 E56.75261
G0 F3600 X-8.7 Y-19.646
G1 F1800 X-8.7 Y-19.499 E56.75669
G0 F3600 X-8.4 Y-19.499
G1 F1800 X-8.4 Y-19.646 E56.76076
G0 F3600 X-8.4 Y-8.35
G1 F1800 X-8.4 Y-7.814 E56.77562
G0 F3600 X-8.7 Y-7.814
G1 F1800 X-8.7 Y-8.35 E56.79048
G0 F3600 X-9 Y-8.35
G1 F1800 X-9 Y-7.814 E56.80534
G0 F3600 X-9.3 Y-7.814
G1 F1800 X-9.3 Y-8.35 E56.8202
G0 F3600 X-9.6 Y-8.35
G1 F1800 X-9.6 Y-7.814 E56.83506
G1 F1500 E50.33506
;MESH:F.stl(1)
G0 F3600 X-2.905 Y-8.1
G0 X-1.32 Y-8.1
G0 X7.929 Y-8.1
G0 X9.514 Y-8.1
G0 X23.172 Y-8.1
G0 X23.102 Y-8.17
;TYPE:WALL-INNER
G1 F1500 E56.83506
G1 F1800 X23.102 Y-15.209 E57.22535
G1 X11.479 Y-15.209 E57.86981
G1 X11.479 Y-19.466 E58.10584
G1 X23.102 Y-19.466 E58.7503
G1 X23.102 Y-31.724 E59.42996
G1 X30.613 Y-31.724 E59.84642
G1 X30.613 Y-3.524 E61.41002
G1 X9.494 Y-3.524 E62.581
G1 X9.494 Y-8.17 E62.8386
G1 X23.102 Y-8.17 E63.59312
G0 F3600 X22.502 Y-8.77
;TYPE:WALL-OUTER
G1 F1800 X22.502 Y-14.609 E63.91687
G1 X10.879 Y-14.609 E64.56133
G1 X10.879 Y-20.066 E64.8639
G1 X22.502 Y-20.066 E65.50836
G1 X22.502 Y-32.324 E66.18802
G1 X31.213 Y-32.324 E66.67102
G1 X31.213 Y-2.924 E68.30115
G1 X8.894 Y-2.924 E69.53866
G1 X8.894 Y-8.77 E69.8628
G1 X22.502 Y-8.77 E70.61732
G0 F3600 X22.502 Y-8.97
G0 X23.162 Y-8.97
G0 X23.202 Y-8.97
G0 X27.043 Y-7.094
;TYPE:SKIN
G1 F1800 X26.672 Y-7.094 E70.63789
G1 X26.672 Y-28.154 E71.8056
G1 X27.043 Y-28.154 E71.82617
G1 X27.043 Y-7.094 E72.99387
G0 F3600 X27.643 Y-6.494
G1 F1800 X26.072 Y-6.494 E73.08098
G1 X26.072 Y-28.754 E74.31522
G1 X27.643 Y-28.754 E74.40233
G1 X27.643 Y-6.494 E75.63657
G0 F3600 X28.243 Y-5.894
G1 F1800 X25.472 Y-5.894 E75.79021
G1 X25.472 Y-29.354 E77.09099
G1 X28.243 Y-29.354 E77.24463
G1 X28.243 Y-5.894 E78.54541
G0 F3600 X24.872 Y-6.4
G1 F1800 X24.872 Y-16.979 E79.13198
G1 X13.249 Y-16.979 E79.77644
G1 X13.249 Y-17.696 E79.81619
G1 X24.872 Y-17.696 E80.46065
G1 X24.872 Y-29.954 E81.14031
G1 X28.843 Y-29.954 E81.36049
G1 X28.843 Y-5.294 E82.72781
G1 X11.264 Y-5.294 E83.7025
G1 X11.264 Y-6.4 E83.76383
G1 X24.872 Y-6.4 E84.51835
G0 F3600 X24.272 Y-7
G1 F1800 X24.272 Y-16.379 E85.03838
G1 X12.649 Y-16.379 E85.68284
G1 X12.649 Y-18.296 E85.78913
G1 X24.272 Y-18.296 E86.43358
G1 X24.272 Y-30.554 E87.11325
G1 X29.443 Y-30.554 E87.39996
G1 X29.443 Y-4.694 E88.83381
G1 X10.664 Y-4.694 E89.87505
G1 X10.664 Y-7 E90.0029
G1 X24.272 Y-7 E90.75742
G0 F3600 X23.672 Y-7.6
G1 F1800 X23.672 Y-15.779 E91.21092
G1 X12.049 Y-15.779 E91.85538
G1 X12.049 Y-18.896 E92.0282
G1 X23.672 Y-18.896 E92.67266
G1 X23.672 Y-31.154 E93.35233
G1 X30.043 Y-31.154 E93.70558
G1 X30.043 Y-4.094 E95.20596
G1 X10.064 Y-4.094 E96.31373
G1 X10.064 Y-7.6 E96.50813
G1 X23.672 Y-7.6 E97.26264
G0 F3600 X23.7 Y-6.115
;TYPE:SKIN
G1 F1800 X23.7 Y-5.579 E97.2775
G0 F3600 X23.4 Y-5.579
G1 F1800 X23.4 Y-6.115 E97.29236
G0 F3600 X23.1 Y-6.115
G1 F1800 X23.1 Y-5.579 E97.30722
G0 F3600 X22.8 Y-5.579
G1 F1800 X22.8 Y-6.115 E97.32208
G0 F3600 X22.5 Y-6.115
G1 F1800 X22.5 Y-5.579 E97.33694
G0 F3600 X22.2 Y-5.579
G1 F1800 X22.2 Y-6.115 E97.3518
G0 F3600 X21.9 Y-6.115
G1 F1800 X21.9 Y-5.579 E97.36666
G0 F3600 X21.6 Y-5.579
G1 F1800 X21.6 Y-6.115 E97.38152
G0 F3600 X21.3 Y-6.115
G1 F1800 X21.3 Y-5.579 E97.39638
G0 F3600 X21 Y-5.579
G1 F1800 X21 Y-6.115 E97.41124
G0 F3600 X20.7 Y-6.115
G1 F1800 X20.7 Y-5.579 E97.4261
G0 F3600 X20.4 Y-5.579
G1 F1800 X20.4 Y-6.115 E97.44096
G0 F3600 X20.1 Y-6.115
G1 F1800 X20.1 Y-5.579 E97.45582
G0 F3600 X19.8 Y-5.579
G1 F1800 X19.8 Y-6.115 E97.47068
G0 F3600 X19.5 Y-6.115
G1 F1800 X19.5 Y-5.579 E97.48554
G0 F3600 X19.2 Y-5.579
G1 F1800 X19.2 Y-6.115 E97.5004
G0 F3600 X18.9 Y-6.115
G1 F1800 X18.9 Y-5.579 E97.51526
G0 F3600 X18.6 Y-5.579
G1 F1800 X18.6 Y-6.115 E97.53012
G0 F3600 X18.3 Y-6.115
G1 F1800 X18.3 Y-5.579 E97.54498
G0 F3600 X18 Y-5.579
G1 F1800 X18 Y-6.115 E97.55984
G0 F3600 X17.7 Y-6.115
G1 F1800 X17.7 Y-5.579 E97.5747
G0 F3600 X17.4 Y-5.579
G1 F1800 X17.4 Y-6.115 E97.58956
G0 F3600 X17.1 Y-6.115
G1 F1800 X17.1 Y-5.579 E97.60442
G0 F3600 X16.8 Y-5.579
G1 F1800 X16.8 Y-6.115 E97.61928
G0 F3600 X16.5 Y-6.115
G1 F1800 X16.5 Y-5.579 E97.63414
G0 F3600 X16.2 Y-5.579
G1 F1800 X16.2 Y-6.115 E97.649
G0 F3600 X15.9 Y-6.115
G1 F1800 X15.9 Y-5.579 E97.66386
G0 F3600 X15.6 Y-5.579
G1 F1800 X15.6 Y-6.115 E97.67872
G0 F3600 X15.3 Y-6.115
G1 F1800 X15.3 Y-5.579 E97.69357
G0 F3600 X15 Y-5.579
G1 F1800 X15 Y-6.115 E97.70843
G0 F3600 X14.7 Y-6.115
G1 F1800 X14.7 Y-5.579 E97.72329
G0 F3600 X14.4 Y-5.579
G1 F1800 X14.4 Y-6.115 E97.73815
G0 F3600 X14.1 Y-6.115
G1 F1800 X14.1 Y-5.579 E97.75301
