;FLAVOR:Marlin
;TIME:1667
;Filament used: 2.69118m
;Layer height: 0.2
;MINX:-42.109
;MINY:-41.007
;MINZ:0.2
;MAXX:42.666
;MAXY:43.248
;MAXZ:3.6
;POSTPROCESSED
;Generated with Cura_SteamEngine 4.8.0
M140 S50
M105
M190 S50
M104 S195
M105
M109 S195
M82 ;absolute extrusion mode
G28 ;Home
G1 Z15.0 F6000 ;Move the platform down 15mm
;Prime the extruder
G92 E0
G1 F200 E3
G92 E0
G92 E0
G92 E0
G1 F1500 E-6.5
;LAYER_COUNT:18
;LAYER:0
M107
G0 F3600 X-1.549 Y-38.632 Z0.2
;TYPE:SKIRT
G1 F1500 E0
G1 F1800 X1.201 Y-38.655 E0.15248
G1 X3.944 Y-38.754 E0.30467
G1 X6.652 Y-38.929 E0.45514
G1 X9.388 Y-39.184 E0.60749
G1 X12.118 Y-39.516 E0.75998
G1 X14.789 Y-39.919 E0.90975
G1 X18.515 Y-40.608 E1.11985
G1 X19.208 Y-40.726 E1.15883
G1 X20.341 Y-40.818 E1.22186
G1 X22.72 Y-40.968 E1.35403
G1 X23.456 Y-41.003 E1.39488
G1 X23.636 Y-41.007 E1.40486
G1 X24.227 Y-40.992 E1.43764
G1 X25.574 Y-40.932 E1.5124
G1 X26.338 Y-40.887 E1.55484
G1 X26.899 Y-40.827 E1.58612
G1 X28.257 Y-40.625 E1.66225
G1 X28.898 Y-40.521 E1.69825
G1 X29.192 Y-40.46 E1.7149
G1 X30.193 Y-40.201 E1.77223
G1 X30.759 Y-40.044 E1.8048
G1 X31.391 Y-39.86 E1.84129
G1 X31.755 Y-39.731 E1.86271
G1 X32.591 Y-39.377 E1.91305
G1 X32.975 Y-39.207 E1.93633
G1 X33.68 Y-38.884 E1.97933
G1 X34.298 Y-38.537 E2.01863
G1 X34.391 Y-38.479 E2.0247
G1 X35.15 Y-37.989 E2.07479
G1 X35.628 Y-37.672 E2.1066
G1 X35.944 Y-37.434 E2.12853
G1 X36.87 Y-36.645 E2.19598
G1 X36.99 Y-36.538 E2.2049
G1 X37.445 Y-36.121 E2.23912
G1 X37.716 Y-35.841 E2.26073
G1 X38.509 Y-34.919 E2.32816
G1 X38.629 Y-34.772 E2.33868
G1 X39.048 Y-34.249 E2.37583
G1 X39.269 Y-33.939 E2.39694
G1 X39.777 Y-33.128 E2.45
G1 X39.986 Y-32.783 E2.47237
G1 X40.362 Y-32.141 E2.51362
G1 X40.616 Y-31.634 E2.54506
G1 X40.768 Y-31.293 E2.56576
G1 X41.092 Y-30.543 E2.61106
G1 X41.369 Y-29.882 E2.6508
G1 X41.581 Y-29.26 E2.68724
G1 X41.906 Y-28.14 E2.7519
G1 X42.069 Y-27.544 E2.78616
G1 X42.133 Y-27.263 E2.80214
G1 X42.311 Y-26.281 E2.85747
G1 X42.417 Y-25.631 E2.89399
G1 X42.517 Y-24.954 E2.93194
G1 X42.552 Y-24.608 E2.95122
G1 X42.59 Y-24.018 E2.984
G1 X42.639 Y-23.043 E3.03813
G1 X42.666 Y-22.324 E3.07802
G1 X42.646 Y-21.525 E3.12234
G1 X42.582 Y-20.328 E3.1888
G1 X42.536 Y-19.638 E3.22715
G1 X42.504 Y-19.352 E3.2431
G1 X42.37 Y-18.494 E3.29125
G1 X42.249 Y-17.787 E3.33102
G1 X42.104 Y-17.004 E3.37518
G1 X41.961 Y-16.44 E3.40744
G1 X41.276 Y-13.803 E3.5585
G1 X40.65 Y-11.089 E3.71294
G1 X40.129 Y-8.47 E3.861
G1 X39.662 Y-5.744 E4.01435
G1 X39.279 Y-3.046 E4.16544
G1 X38.971 Y-.324 E4.31733
G1 X38.741 Y2.383 E4.46796
G1 X38.587 Y5.125 E4.62024
G1 X38.51 Y7.872 E4.77261
G1 X38.51 Y10.585 E4.92304
G1 X38.589 Y13.33 E5.0753
G1 X38.745 Y16.073 E5.22764
G1 X38.98 Y18.815 E5.38023
G1 X39.179 Y20.635 E5.48174
G1 X39.323 Y21.851 E5.54964
G1 X39.34 Y22.049 E5.56066
G1 X39.378 Y22.639 E5.59344
G1 X39.427 Y23.614 E5.64757
G1 X39.454 Y24.333 E5.68746
G1 X39.434 Y25.132 E5.73178
G1 X39.37 Y26.329 E5.79824
G1 X39.324 Y27.019 E5.83658
G1 X39.292 Y27.305 E5.85254
G1 X39.158 Y28.163 E5.90069
G1 X39.037 Y28.871 E5.94052
G1 X38.893 Y29.647 E5.98428
G1 X38.747 Y30.22 E6.01706
G1 X38.721 Y30.31 E6.02226
G1 X38.363 Y31.475 E6.08983
G1 X38.168 Y32.078 E6.12497
G1 X37.994 Y32.527 E6.15167
G1 X37.741 Y33.085 E6.18564
G1 X37.393 Y33.829 E6.23118
G1 X37.126 Y34.381 E6.26518
G1 X36.937 Y34.719 E6.28666
G1 X36.408 Y35.547 E6.34114
G1 X36.11 Y35.996 E6.37102
G1 X35.718 Y36.568 E6.40946
G1 X35.288 Y37.097 E6.44726
G1 X34.522 Y37.933 E6.51013
G1 X34.026 Y38.458 E6.55018
G1 X33.457 Y38.963 E6.59236
G1 X32.62 Y39.628 E6.65163
G1 X32.105 Y40.025 E6.68769
G1 X31.782 Y40.244 E6.70933
G1 X30.847 Y40.802 E6.7697
G1 X30.425 Y41.042 E6.79662
G1 X29.873 Y41.347 E6.83158
G1 X29.523 Y41.515 E6.85311
G1 X28.5 Y41.932 E6.91436
G1 X27.673 Y42.237 E6.96324
G1 X27.183 Y42.382 E6.99157
G1 X26.771 Y42.485 E7.01512
G1 X26.044 Y42.656 E7.05653
G1 X25.433 Y42.792 E7.09123
G1 X25.041 Y42.855 E7.11325
G1 X23.872 Y42.97 E7.17838
G1 X20.951 Y43.199 E7.34084
G1 X20.202 Y43.247 E7.38245
G1 X19.674 Y43.248 E7.41173
G1 X19.362 Y43.236 E7.42904
G1 X16.135 Y43.068 E7.60821
G1 X15.433 Y43.021 E7.64722
G1 X14.91 Y42.947 E7.6765
G1 X14.403 Y42.842 E7.70521
G1 X12.008 Y42.32 E7.84112
G1 X11.867 Y42.298 E7.84904
G1 X10.05 Y41.908 E7.95208
G1 X7.391 Y41.417 E8.102
G1 X4.661 Y40.991 E8.2552
G1 X1.945 Y40.646 E8.40701
G1 X-.757 Y40.38 E8.55755
G1 X-3.5 Y40.189 E8.71001
G1 X-6.21 Y40.077 E8.8604
G1 X-8.956 Y40.041 E9.01267
G1 X-11.702 Y40.082 E9.16494
G1 X-14.419 Y40.201 E9.31573
G1 X-18.419 Y40.514 E9.5382
G1 X-20.533 Y40.722 E9.65598
G1 X-23.496 Y40.954 E9.82077
G1 X-24.221 Y41 E9.86105
G1 X-24.747 Y41.001 E9.89021
G1 X-25.063 Y40.989 E9.90775
G1 X-28.304 Y40.82 E10.08769
G1 X-28.996 Y40.773 E10.12615
G1 X-29.571 Y40.689 E10.15837
G1 X-30.04 Y40.592 E10.18493
G1 X-31.893 Y40.188 E10.29008
G1 X-32.601 Y40.023 E10.33039
G1 X-33.305 Y39.772 E10.37183
G1 X-34.016 Y39.423 E10.41575
G1 X-35.049 Y38.896 E10.48005
G1 X-35.643 Y38.581 E10.51733
G1 X-36.255 Y38.163 E10.55842
G1 X-36.933 Y37.576 E10.60814
G1 X-37.689 Y36.899 E10.66441
G1 X-38.184 Y36.442 E10.70177
G1 X-38.666 Y35.884 E10.74265
G1 X-39.114 Y35.23 E10.7866
G1 X-39.79 Y34.212 E10.85436
G1 X-40.145 Y33.659 E10.8908
G1 X-40.403 Y33.172 E10.92135
G1 X-40.626 Y32.627 E10.954
G1 X-41.259 Y30.983 E11.05168
G1 X-41.488 Y30.358 E11.08859
G1 X-41.626 Y29.864 E11.11703
G1 X-41.681 Y29.454 E11.13997
G1 X-41.769 Y28.2 E11.20967
G1 X-42.001 Y25.453 E11.36252
G1 X-42.065 Y24.853 E11.39598
G1 X-42.108 Y24.077 E11.43907
G1 X-42.109 Y12.179 E12.09877
G1 X-42.098 Y11.472 E12.13798
G1 X-42.077 Y11.15 E12.15587
G1 X-41.978 Y10.635 E12.18495
G1 X-41.803 Y10.002 E12.22136
G1 X-41.12 Y7.373 E12.37197
G1 X-40.492 Y4.65 E12.52692
G1 X-39.971 Y2.032 E12.67492
G1 X-39.504 Y-.694 E12.82827
G1 X-39.121 Y-3.392 E12.97937
G1 X-38.813 Y-6.115 E13.13131
G1 X-38.583 Y-8.822 E13.28195
G1 X-38.429 Y-11.564 E13.43422
G1 X-38.352 Y-14.31 E13.58654
G1 X-38.352 Y-17.055 E13.73874
G1 X-38.384 Y-18.474 E13.81744
G1 X-38.413 Y-19.462 E13.87224
G1 X-38.414 Y-31.36 E14.53194
G1 X-38.404 Y-32.055 E14.57048
G1 X-38.356 Y-32.567 E14.599
G1 X-38.23 Y-33.064 E14.62743
G1 X-38.029 Y-33.537 E14.65592
G1 X-37.756 Y-33.972 E14.6844
G1 X-37.419 Y-34.359 E14.71285
G1 X-36.868 Y-34.797 E14.75188
G1 X-36.082 Y-35.294 E14.80344
G1 X-33.566 Y-36.823 E14.96668
G1 X-32.895 Y-37.218 E15.00986
G1 X-32.564 Y-37.388 E15.03049
G1 X-31.916 Y-37.677 E15.06983
G1 X-29.753 Y-38.606 E15.20035
G1 X-29.104 Y-38.874 E15.23929
G1 X-28.48 Y-39.069 E15.27554
G1 X-28.035 Y-39.172 E15.30086
G1 X-25.729 Y-39.678 E15.43176
G1 X-25.131 Y-39.801 E15.46561
G1 X-24.738 Y-39.858 E15.48763
G1 X-23.598 Y-39.951 E15.55105
G1 X-21.219 Y-40.101 E15.68322
G1 X-20.483 Y-40.136 E15.72408
G1 X-19.712 Y-40.125 E15.76683
G1 X-18.365 Y-40.065 E15.84159
G1 X-17.601 Y-40.02 E15.88403
G1 X-17.039 Y-39.959 E15.91537
G1 X-15.203 Y-39.687 E16.01828
G1 X-12.441 Y-39.317 E16.17279
G1 X-9.709 Y-39.028 E16.32512
G1 X-7.005 Y-38.82 E16.47549
G1 X-4.26 Y-38.687 E16.62787
G1 X-1.549 Y-38.632 E16.77822
G1 F1500 E10.27822
;MESH:G.stl(2)
G0 F3600 X-9.547 Y-34.453
G0 X-10.598 Y-33.27
G0 X-22.452 Y-31.099
G0 X-24.068 Y-30.722
G0 X-27.923 Y-28.886
G0 X-27.96 Y-24.502
G0 X-27.89 Y-24.572
;TYPE:WALL-INNER
G1 F1500 E16.77822
G1 F1800 X-21.689 Y-24.572 E17.12204
G1 X-21.689 Y-20.13 E17.36833
G1 X-34.214 Y-20.13 E18.0628
G1 X-34.214 Y-31.514 E18.69401
G1 X-30.824 Y-33.574 E18.91395
G1 X-27.562 Y-34.976 E19.11082
G1 X-24.256 Y-35.703 E19.29851
G1 X-20.332 Y-35.949 E19.51651
G1 X-17.877 Y-35.839 E19.65276
G1 X-15.678 Y-35.512 E19.77603
G1 X-13.741 Y-34.975 E19.88748
G1 X-12.063 Y-34.235 E19.98917
G1 X-10.586 Y-33.285 E20.08654
G1 X-9.296 Y-32.138 E20.18225
G1 X-8.168 Y-30.77 E20.28056
G1 X-7.217 Y-29.196 E20.38253
G1 X-6.449 Y-27.427 E20.48946
G1 X-5.903 Y-25.541 E20.59832
G1 X-5.573 Y-23.514 E20.71219
G1 X-5.463 Y-21.34 E20.83289
G1 X-5.584 Y-19.059 E20.95954
G1 X-5.945 Y-16.956 E21.07785
G1 X-6.542 Y-15.019 E21.19024
G1 X-7.377 Y-13.231 E21.29965
G1 X-8.427 Y-11.646 E21.40507
G1 X-9.702 Y-10.258 E21.50957
G1 X-11.19 Y-9.078 E21.61487
G1 X-12.91 Y-8.094 E21.72474
G1 X-14.44 Y-7.507 E21.8156
G1 X-16.24 Y-7.081 E21.91816
G1 X-20.736 Y-6.728 E22.16822
G1 X-24.957 Y-6.946 E22.40257
G1 X-27.86 Y-7.581 E22.56734
G1 X-29.912 Y-8.624 E22.69497
G1 X-31.571 Y-10.111 E22.8185
G1 X-32.88 Y-12.082 E22.94969
G1 X-33.344 Y-13.288 E23.02134
G1 X-33.473 Y-13.625 E23.04134
G1 X-33.118 Y-13.687 E23.05361
G1 X-33.117 Y-13.688 E23.05369
G1 X-26.268 Y-14.91 E23.43944
G1 X-25.756 Y-13.879 E23.50327
G1 X-24.403 Y-12.56 E23.60803
G1 X-22.632 Y-11.764 E23.71569
G1 X-20.536 Y-11.511 E23.83275
G1 X-18.901 Y-11.66 E23.92378
G1 X-17.421 Y-12.115 E24.00964
G1 X-16.104 Y-12.881 E24.09411
G1 X-14.967 Y-13.952 E24.18072
G1 X-14.063 Y-15.339 E24.27252
G1 X-13.435 Y-17.027 E24.37238
G1 X-13.069 Y-18.992 E24.4832
G1 X-12.951 Y-21.235 E24.60774
G1 X-13.07 Y-23.599 E24.73898
G1 X-13.438 Y-25.646 E24.8543
G1 X-14.072 Y-27.383 E24.95683
G1 X-14.994 Y-28.783 E25.04978
G1 X-16.163 Y-29.845 E25.13735
G1 X-17.531 Y-30.596 E25.22388
G1 X-19.079 Y-31.039 E25.31315
G1 X-20.784 Y-31.184 E25.40803
G1 X-22.446 Y-31.06 E25.50044
G1 X-24.055 Y-30.685 E25.59204
G1 X-27.89 Y-28.865 E25.82741
G1 X-27.89 Y-24.572 E26.06544
G0 F3600 X-27.29 Y-25.172
;TYPE:WALL-OUTER
G1 F1800 X-21.089 Y-25.172 E26.40927
G1 X-21.089 Y-19.53 E26.7221
G1 X-34.814 Y-19.53 E27.4831
G1 X-34.814 Y-31.852 E28.16632
G1 X-31.104 Y-34.107 E28.40704
G1 X-27.745 Y-35.55 E28.60975
G1 X-24.339 Y-36.299 E28.80311
G1 X-20.343 Y-36.55 E29.02511
G1 X-17.82 Y-36.437 E29.16514
G1 X-15.551 Y-36.099 E29.29234
G1 X-13.537 Y-35.541 E29.40822
G1 X-11.775 Y-34.764 E29.51499
G1 X-10.225 Y-33.767 E29.61718
G1 X-8.861 Y-32.554 E29.71839
G1 X-7.681 Y-31.123 E29.82123
G1 X-6.678 Y-29.464 E29.92872
G1 X-5.886 Y-27.637 E30.03913
G1 X-5.317 Y-25.673 E30.1525
G1 X-4.976 Y-23.577 E30.27025
G1 X-4.862 Y-21.339 E30.3945
G1 X-4.987 Y-18.995 E30.52465
G1 X-5.361 Y-16.815 E30.64729
G1 X-5.982 Y-14.798 E30.7643
G1 X-6.85 Y-12.941 E30.87796
G1 X-7.955 Y-11.272 E30.98895
G1 X-9.291 Y-9.818 E31.09843
G1 X-10.854 Y-8.579 E31.20902
G1 X-12.65 Y-7.551 E31.32376
G1 X-14.264 Y-6.932 E31.41961
G1 X-16.145 Y-6.487 E31.52678
G1 X-20.728 Y-6.127 E31.78167
G1 X-25.037 Y-6.35 E32.02091
G1 X-28.065 Y-7.012 E32.19277
G1 X-30.253 Y-8.124 E32.32886
G1 X-32.029 Y-9.716 E32.4611
G1 X-33.416 Y-11.804 E32.60009
G1 X-34.164 Y-13.75 E32.71569
G1 X-34.294 Y-14.088 E32.73577
G1 X-33.937 Y-14.151 E32.74811
G1 X-25.931 Y-15.58 E33.19903
G1 X-25.264 Y-14.237 E33.28217
G1 X-24.06 Y-13.064 E33.37537
G1 X-22.469 Y-12.349 E33.47209
G1 X-20.527 Y-12.114 E33.58055
G1 X-19.018 Y-12.252 E33.66457
G1 X-17.663 Y-12.668 E33.74316
G1 X-16.465 Y-13.365 E33.82001
G1 X-15.431 Y-14.34 E33.89881
G1 X-14.602 Y-15.611 E33.98295
G1 X-14.015 Y-17.188 E34.07625
G1 X-13.666 Y-19.063 E34.182
G1 X-13.552 Y-21.236 E34.30265
G1 X-13.667 Y-23.531 E34.43006
G1 X-14.019 Y-25.489 E34.54036
G1 X-14.612 Y-27.112 E34.63617
G1 X-15.453 Y-28.39 E34.721
G1 X-16.514 Y-29.353 E34.80044
G1 X-17.761 Y-30.038 E34.87933
G1 X-19.188 Y-30.446 E34.96162
G1 X-20.787 Y-30.582 E35.0506
G1 X-22.355 Y-30.465 E35.13779
G1 X-23.856 Y-30.115 E35.22324
G1 X-27.29 Y-28.486 E35.43398
G1 X-27.29 Y-25.172 E35.61773
G0 F3600 X-27.09 Y-25.172
G0 X-27.09 Y-24.512
G0 X-27.09 Y-24.472
G0 X-27.923 Y-28.886
G0 X-24.068 Y-30.722
G0 X-22.452 Y-31.099
G0 X-20.784 Y-31.224
G0 X-19.072 Y-31.078
G0 X-17.516 Y-30.632
G0 X-9.815 Y-26.222
;TYPE:SKIN
G1 F1800 X-9.39 Y-24.748 E35.70279
G1 X-9.127 Y-23.146 E35.79281
G1 X-9.04 Y-21.349 E35.89256
G1 X-9.137 Y-19.449 E35.99805
G1 X-9.424 Y-17.788 E36.09151
G1 X-9.875 Y-16.327 E36.17629
G1 X-9.977 Y-16.107 E36.18973
G1 X-9.516 Y-18.569 E36.32862
G1 X-9.376 Y-21.23 E36.47636
G1 X-9.517 Y-24.005 E36.63043
G1 X-9.98 Y-26.581 E36.77555
G1 X-10.025 Y-26.705 E36.78286
G1 X-9.815 Y-26.222 E36.81206
G0 F3600 X-9.248 Y-26.424
G1 F1800 X-8.804 Y-24.884 E36.90093
G1 X-8.53 Y-23.211 E36.99493
G1 X-8.439 Y-21.347 E37.0984
G1 X-8.54 Y-19.383 E37.20744
G1 X-8.84 Y-17.648 E37.30507
G1 X-9.315 Y-16.106 E37.39453
G1 X-9.983 Y-14.673 E37.4822
G1 X-10.765 Y-13.493 E37.56069
G1 X-11.736 Y-12.436 E37.64027
G1 X-12.862 Y-11.542 E37.71999
G1 X-13.7 Y-11.064 E37.77348
G1 X-12.67 Y-12.032 E37.85185
G1 X-11.394 Y-13.996 E37.98171
G1 X-10.564 Y-16.231 E38.11391
G1 X-10.113 Y-18.64 E38.2498
G1 X-9.977 Y-21.231 E38.39366
G1 X-10.114 Y-23.936 E38.54383
G1 X-10.561 Y-26.424 E38.68399
G1 X-11.399 Y-28.729 E38.81998
G1 X-12.721 Y-30.729 E38.95291
G1 X-13.896 Y-31.798 E39.04099
G1 X-13.482 Y-31.615 E39.06609
G1 X-12.38 Y-30.906 E39.13874
G1 X-11.448 Y-30.078 E39.20787
G1 X-10.593 Y-29.041 E39.28239
G1 X-9.859 Y-27.826 E39.3611
G1 X-9.248 Y-26.424 E39.44589
G0 F3600 X-8.68 Y-26.622
G1 F1800 X-8.218 Y-25.02 E39.53834
G1 X-7.933 Y-23.276 E39.63632
G1 X-7.838 Y-21.345 E39.74352
G1 X-7.943 Y-19.317 E39.85611
G1 X-8.255 Y-17.508 E39.9579
G1 X-8.755 Y-15.885 E40.05206
G1 X-9.457 Y-14.38 E40.14414
G1 X-10.291 Y-13.122 E40.22783
G1 X-11.325 Y-11.996 E40.31259
G1 X-12.523 Y-11.045 E40.3974
G1 X-13.932 Y-10.241 E40.48735
G1 X-15.134 Y-9.779 E40.55875
G1 X-16.617 Y-9.427 E40.64326
G1 X-20.759 Y-9.103 E40.87362
G1 X-24.644 Y-9.302 E41.08932
G1 X-27.054 Y-9.83 E41.22611
G1 X-28.56 Y-10.595 E41.31977
G1 X-29.764 Y-11.676 E41.40949
G1 X-29.884 Y-11.857 E41.42153
G1 X-27.511 Y-12.28 E41.55518
G1 X-25.757 Y-10.569 E41.69104
G1 X-23.274 Y-9.454 E41.84196
G1 X-20.571 Y-9.129 E41.99291
G1 X-18.44 Y-9.322 E42.11155
G1 X-16.465 Y-9.93 E42.22613
G1 X-14.677 Y-10.969 E42.34079
G1 X-13.134 Y-12.42 E42.45823
G1 X-11.933 Y-14.267 E42.58039
G1 X-11.144 Y-16.392 E42.70607
G1 X-10.71 Y-18.711 E42.83688
G1 X-10.578 Y-21.232 E42.97685
G1 X-10.711 Y-23.868 E43.1232
G1 X-11.142 Y-26.267 E43.25834
G1 X-11.939 Y-28.457 E43.38756
G1 X-13.18 Y-30.336 E43.51242
G1 X-14.777 Y-31.788 E43.6321
G1 X-16.623 Y-32.8 E43.74882
G1 X-18.649 Y-33.381 E43.86568
G1 X-20.673 Y-33.554 E43.97832
G1 X-20.309 Y-33.576 E43.99854
G1 X-18.102 Y-33.477 E44.12103
G1 X-16.168 Y-33.188 E44.22946
G1 X-14.543 Y-32.739 E44.32293
G1 X-13.194 Y-32.144 E44.40468
G1 X-12.019 Y-31.388 E44.48215
G1 X-11.013 Y-30.494 E44.55677
G1 X-10.102 Y-29.389 E44.63618
G1 X-9.325 Y-28.103 E44.71949
G1 X-8.68 Y-26.622 E44.80906
G0 F3600 X-8.115 Y-26.825
G1 F1800 X-7.631 Y-25.151 E44.90567
G1 X-7.336 Y-23.341 E45.00736
G1 X-7.237 Y-21.344 E45.11822
G1 X-7.346 Y-19.251 E45.23443
G1 X-7.671 Y-17.368 E45.34038
G1 X-8.195 Y-15.667 E45.43907
G1 X-8.931 Y-14.088 E45.53566
G1 X-9.819 Y-12.748 E45.62479
G1 X-10.914 Y-11.556 E45.71454
G1 X-12.187 Y-10.546 E45.80464
G1 X-13.672 Y-9.698 E45.89946
G1 X-14.958 Y-9.204 E45.97584
G1 X-16.522 Y-8.833 E46.06496
G1 X-20.751 Y-8.502 E46.30017
G1 X-24.724 Y-8.706 E46.52075
G1 X-27.259 Y-9.261 E46.66463
G1 X-28.903 Y-10.096 E46.76687
G1 X-30.221 Y-11.279 E46.86507
G1 X-30.891 Y-12.287 E46.93218
G1 X-27.263 Y-12.934 E47.13651
G1 X-27.207 Y-12.822 E47.14346
G1 X-25.414 Y-11.073 E47.28234
G1 X-23.112 Y-10.039 E47.42226
G1 X-20.562 Y-9.732 E47.56467
G1 X-18.557 Y-9.914 E47.6763
G1 X-16.707 Y-10.483 E47.78362
G1 X-15.038 Y-11.453 E47.89065
G1 X-13.598 Y-12.808 E48.00028
G1 X-12.472 Y-14.538 E48.11473
G1 X-11.724 Y-16.553 E48.23391
G1 X-11.307 Y-18.782 E48.35964
G1 X-11.179 Y-21.233 E48.49573
G1 X-11.308 Y-23.8 E48.63824
G1 X-11.723 Y-26.11 E48.76837
G1 X-12.479 Y-28.185 E48.89082
G1 X-13.639 Y-29.943 E49.0076
G1 X-15.128 Y-31.296 E49.11916
G1 X-16.853 Y-32.242 E49.22824
G1 X-18.758 Y-32.788 E49.33812
G1 X-20.775 Y-32.96 E49.45036
G1 X-22.714 Y-32.815 E49.55817
