;FLAVOR:Marlin
;TIME:1575
;Filament used: 2.73817m
;Layer height: 0.2
;MINX:-41.74
;MINY:-43.771
;MINZ:0.2
;MAXX:42.405
;MAXY:43.347
;MAXZ:3.6
;POSTPROCESSED
;Generated with Cura_SteamEngine 4.8.0
M140 S60
M105
M190 S50
M104 S195
M105
M109 S195
M82 ;absolute extrusion mode
G28 ;Home
G1 Z15.0 F6000 ;Move the platform down 15mm
;Prime the extruder
G92 E0
G1 F200 E3
G92 E0
G92 E0
G92 E0
G1 F1500 E-6.5
;LAYER_COUNT:18
;LAYER:0
M107
G0 F3600 X-41.033 Y-.465 Z0.2
;TYPE:SKIRT
G1 F1500 E0
G1 F1800 X-41.033 Y-3.178 E0.15043
G1 X-41.11 Y-5.924 E0.30274
G1 X-41.265 Y-8.674 E0.45546
G1 X-41.377 Y-10.112 E0.53544
G1 X-41.396 Y-10.689 E0.56745
G1 X-41.396 Y-39.704 E2.17623
G1 X-41.387 Y-40.393 E2.21444
G1 X-41.34 Y-40.904 E2.24289
G1 X-41.215 Y-41.402 E2.27136
G1 X-41.014 Y-41.875 E2.29985
G1 X-40.742 Y-42.31 E2.3283
G1 X-40.406 Y-42.698 E2.35676
G1 X-40.013 Y-43.029 E2.38525
G1 X-39.574 Y-43.296 E2.41374
G1 X-39.099 Y-43.491 E2.44221
G1 X-38.6 Y-43.61 E2.47065
G1 X-37.858 Y-43.658 E2.51188
G1 X-29.444 Y-43.659 E2.97841
G1 X-28.751 Y-43.649 E3.01684
G1 X-27.851 Y-43.612 E3.06678
G1 X-25.059 Y-43.534 E3.22165
G1 X-22.346 Y-43.534 E3.37208
G1 X-19.587 Y-43.612 E3.52511
G1 X-19.005 Y-43.641 E3.55742
G1 X-18.421 Y-43.658 E3.58982
G1 X-10.045 Y-43.659 E4.05424
G1 X-9.348 Y-43.649 E4.09289
G1 X-9.164 Y-43.641 E4.1031
G1 X-8.36 Y-43.584 E4.14779
G1 X-7.12 Y-43.478 E4.2168
G1 X-4.376 Y-43.322 E4.36919
G1 X-1.628 Y-43.243 E4.52162
G1 X1.083 Y-43.241 E4.67193
G1 X3.828 Y-43.318 E4.82419
G1 X6.573 Y-43.472 E4.97664
G1 X9.329 Y-43.706 E5.13
G1 X9.98 Y-43.76 E5.16622
G1 X10.412 Y-43.771 E5.19018
G1 X18.734 Y-43.771 E5.6516
G1 X19.428 Y-43.761 E5.69009
G1 X20.327 Y-43.724 E5.73998
G1 X23.119 Y-43.646 E5.89484
G1 X25.833 Y-43.646 E6.04533
G1 X28.59 Y-43.724 E6.19825
G1 X29.173 Y-43.753 E6.23062
G1 X29.757 Y-43.77 E6.26301
G1 X38.133 Y-43.771 E6.72743
G1 X38.831 Y-43.761 E6.76614
G1 X39.343 Y-43.713 E6.79465
G1 X39.84 Y-43.587 E6.82308
G1 X40.312 Y-43.386 E6.85153
G1 X40.748 Y-43.113 E6.88005
G1 X41.135 Y-42.777 E6.90847
G1 X41.466 Y-42.384 E6.93696
G1 X41.732 Y-41.945 E6.96542
G1 X41.926 Y-41.469 E6.99392
G1 X42.045 Y-40.97 E7.02236
G1 X42.092 Y-40.24 E7.06292
G1 X42.093 Y-11.131 E8.67692
G1 X42.083 Y-10.425 E8.71607
G1 X42.075 Y-10.238 E8.72644
G1 X41.996 Y-9.125 E8.78831
G1 X41.841 Y-6.394 E8.93998
G1 X41.762 Y-3.648 E9.0923
G1 X41.762 Y-.935 E9.24273
G1 X41.839 Y1.811 E9.39504
G1 X41.993 Y4.555 E9.54743
G1 X42.224 Y7.274 E9.69873
G1 X42.376 Y8.693 E9.77786
G1 X42.403 Y9.275 E9.81016
G1 X42.405 Y9.375 E9.81571
G1 X42.405 Y38.354 E11.4225
G1 X42.395 Y39.081 E11.46281
G1 X42.348 Y39.593 E11.49132
G1 X42.222 Y40.09 E11.51975
G1 X42.021 Y40.563 E11.54824
G1 X41.748 Y40.998 E11.57672
G1 X41.412 Y41.386 E11.60518
G1 X41.019 Y41.717 E11.63367
G1 X40.58 Y41.983 E11.66213
G1 X40.105 Y42.178 E11.6906
G1 X39.606 Y42.296 E11.71903
G1 X38.868 Y42.344 E11.76004
G1 X30.453 Y42.345 E12.22662
G1 X29.76 Y42.335 E12.26505
G1 X28.86 Y42.298 E12.31499
G1 X26.068 Y42.22 E12.46986
G1 X23.355 Y42.22 E12.62029
G1 X20.59 Y42.298 E12.77366
G1 X20.007 Y42.327 E12.80602
G1 X19.433 Y42.344 E12.83786
G1 X11.056 Y42.345 E13.30234
G1 X10.335 Y42.335 E13.34232
G1 X9.419 Y42.297 E13.39315
G1 X6.627 Y42.218 E13.54802
G1 X3.915 Y42.218 E13.69839
G1 X1.169 Y42.296 E13.85071
G1 X-1.575 Y42.451 E14.0031
G1 X-4.278 Y42.681 E14.15351
G1 X-7.021 Y42.994 E14.30659
G1 X-8.445 Y43.187 E14.38627
G1 X-9.277 Y43.305 E14.43286
G1 X-9.967 Y43.346 E14.47119
G1 X-18.341 Y43.347 E14.9355
G1 X-19.034 Y43.337 E14.97392
G1 X-19.934 Y43.3 E15.02387
G1 X-22.726 Y43.222 E15.17874
G1 X-25.439 Y43.222 E15.32916
G1 X-28.204 Y43.3 E15.48253
G1 X-28.787 Y43.329 E15.5149
G1 X-29.361 Y43.346 E15.54674
G1 X-37.776 Y43.347 E16.01332
G1 X-38.474 Y43.338 E16.05203
G1 X-38.985 Y43.291 E16.08048
G1 X-39.483 Y43.166 E16.10895
G1 X-39.955 Y42.965 E16.13739
G1 X-40.391 Y42.693 E16.16589
G1 X-40.779 Y42.357 E16.19435
G1 X-41.11 Y41.965 E16.22279
G1 X-41.377 Y41.526 E16.25128
G1 X-41.572 Y41.051 E16.27975
G1 X-41.691 Y40.552 E16.3082
G1 X-41.739 Y39.794 E16.35031
G1 X-41.74 Y10.707 E17.96309
G1 X-41.73 Y10.01 E18.00174
G1 X-41.715 Y9.739 E18.01679
G1 X-41.633 Y8.896 E18.06375
G1 X-41.499 Y7.721 E18.12932
G1 X-41.268 Y5.024 E18.27941
G1 X-41.112 Y2.28 E18.4318
G1 X-41.033 Y-.465 E18.58406
G1 F1500 E12.08406
;MESH:H.stl(3)
G0 F3600 X9.73 Y9.959
G0 X11.309 Y9.959
G0 X18.737 Y20.471
G0 X30.764 Y25.94
G0 X30.694 Y26.01
;TYPE:WALL-INNER
G1 F1500 E18.58406
G1 F1800 X18.765 Y26.01 E19.24549
G1 X18.765 Y38.145 E19.91833
G1 X11.295 Y38.145 E20.33252
G1 X11.295 Y9.945 E21.89611
G1 X18.765 Y9.945 E22.3103
G1 X18.765 Y20.443 E22.89238
G1 X30.694 Y20.443 E23.5538
G1 X30.694 Y9.945 E24.13588
G1 X38.205 Y9.945 E24.55234
G1 X38.205 Y38.145 E26.11593
G1 X30.694 Y38.145 E26.53239
G1 X30.694 Y26.01 E27.20524
G0 F3600 X30.094 Y26.61
;TYPE:WALL-OUTER
G1 F1800 X19.365 Y26.61 E27.80012
G1 X19.365 Y38.745 E28.47297
G1 X10.695 Y38.745 E28.95369
G1 X10.695 Y9.345 E30.58382
G1 X19.365 Y9.345 E31.06455
G1 X19.365 Y19.843 E31.64662
G1 X30.094 Y19.843 E32.24151
G1 X30.094 Y9.345 E32.82359
G1 X38.805 Y9.345 E33.30659
G1 X38.805 Y38.745 E34.93672
G1 X30.094 Y38.745 E35.41971
G1 X30.094 Y26.61 E36.09256
G0 F3600 X29.894 Y26.61
G0 X29.894 Y25.95
G0 X29.894 Y25.91
G0 X18.737 Y25.982
G0 X15.195 Y34.575
;TYPE:SKIN
G1 F1800 X14.865 Y34.575 E36.11085
G1 X14.865 Y13.515 E37.27856
G1 X15.195 Y13.515 E37.29686
G1 X15.195 Y34.575 E38.46456
G0 F3600 X15.795 Y35.175
G1 F1800 X14.265 Y35.175 E38.5494
G1 X14.265 Y12.915 E39.78364
G1 X15.795 Y12.915 E39.86847
G1 X15.795 Y35.175 E41.10271
G0 F3600 X16.395 Y35.775
G1 F1800 X13.665 Y35.775 E41.25408
G1 X13.665 Y12.315 E42.55486
G1 X16.395 Y12.315 E42.70623
G1 X16.395 Y22.813 E43.28831
G1 X33.064 Y22.813 E44.21255
G1 X33.064 Y12.315 E44.79463
G1 X35.835 Y12.315 E44.94827
G1 X35.835 Y35.775 E46.24905
G1 X33.064 Y35.775 E46.40269
G1 X33.064 Y23.64 E47.07554
G1 X16.395 Y23.64 E47.99978
G1 X16.395 Y35.775 E48.67262
G0 F3600 X16.995 Y36.375
G1 F1800 X13.065 Y36.375 E48.89053
G1 X13.065 Y11.715 E50.25784
G1 X16.995 Y11.715 E50.47575
G1 X16.995 Y22.213 E51.05783
G1 X32.464 Y22.213 E51.91553
G1 X32.464 Y11.715 E52.49761
G1 X36.435 Y11.715 E52.71779
G1 X36.435 Y36.375 E54.0851
G1 X32.464 Y36.375 E54.30528
G1 X32.464 Y24.24 E54.97812
G1 X16.995 Y24.24 E55.83583
G1 X16.995 Y36.375 E56.50867
G0 F3600 X17.595 Y36.975
G1 F1800 X12.465 Y36.975 E56.79311
G1 X12.465 Y11.115 E58.22696
G1 X17.595 Y11.115 E58.51141
G1 X17.595 Y21.613 E59.09348
G1 X31.864 Y21.613 E59.88465
G1 X31.864 Y11.115 E60.46673
G1 X37.035 Y11.115 E60.75345
G1 X37.035 Y36.975 E62.1873
G1 X31.864 Y36.975 E62.47401
G1 X31.864 Y24.84 E63.14685
G1 X17.595 Y24.84 E63.93802
G1 X17.595 Y36.975 E64.61087
G0 F3600 X18.195 Y37.575
G1 F1800 X11.865 Y37.575 E64.96185
G1 X11.865 Y10.515 E66.46223
G1 X18.195 Y10.515 E66.81321
G1 X18.195 Y21.013 E67.39529
G1 X31.264 Y21.013 E68.11992
G1 X31.264 Y10.515 E68.702
G1 X37.635 Y10.515 E69.05525
G1 X37.635 Y37.575 E70.55563
G1 X31.264 Y37.575 E70.90888
G1 X31.264 Y25.44 E71.58173
G1 X18.195 Y25.44 E72.30636
G1 X18.195 Y37.575 E72.97921
G0 F3600 X18.737 Y25.982
G0 X30.722 Y25.982
G0 X33.664 Y35.175
G1 F1800 X33.664 Y12.915 E74.21345
G1 X35.235 Y12.915 E74.30056
G1 X35.235 Y35.175 E75.5348
G1 X33.664 Y35.175 E75.6219
G0 F3600 X34.264 Y34.575
G1 F1800 X34.264 Y13.515 E76.78961
G1 X34.635 Y13.515 E76.81018
G1 X34.635 Y34.575 E77.97789
G1 X34.264 Y34.575 E77.99846
G0 F3600 X33.3 Y23.355
;TYPE:SKIN
G1 F1800 X33.3 Y23.098 E78.00558
G0 F3600 X33 Y23.098
G1 F1800 X33 Y23.355 E78.01271
G0 F3600 X32.7 Y23.355
G1 F1800 X32.7 Y23.098 E78.01983
G0 F3600 X32.4 Y23.098
G1 F1800 X32.4 Y23.355 E78.02696
G0 F3600 X32.1 Y23.355
G1 F1800 X32.1 Y23.098 E78.03408
G0 F3600 X31.8 Y23.098
G1 F1800 X31.8 Y23.355 E78.04121
G0 F3600 X31.5 Y23.355
G1 F1800 X31.5 Y23.098 E78.04833
G0 F3600 X31.2 Y23.098
G1 F1800 X31.2 Y23.355 E78.05546
G0 F3600 X30.9 Y23.355
G1 F1800 X30.9 Y23.098 E78.06258
G0 F3600 X30.6 Y23.098
G1 F1800 X30.6 Y23.355 E78.06971
G0 F3600 X30.3 Y23.355
G1 F1800 X30.3 Y23.098 E78.07683
G0 F3600 X30 Y23.098
G1 F1800 X30 Y23.355 E78.08396
G0 F3600 X29.7 Y23.355
G1 F1800 X29.7 Y23.098 E78.09108
G0 F3600 X29.4 Y23.098
G1 F1800 X29.4 Y23.355 E78.09821
G0 F3600 X29.1 Y23.355
G1 F1800 X29.1 Y23.098 E78.10533
G0 F3600 X28.8 Y23.098
G1 F1800 X28.8 Y23.355 E78.11246
G0 F3600 X28.5 Y23.355
G1 F1800 X28.5 Y23.098 E78.11958
G0 F3600 X28.2 Y23.098
G1 F1800 X28.2 Y23.355 E78.12671
G0 F3600 X27.9 Y23.355
G1 F1800 X27.9 Y23.098 E78.13383
G0 F3600 X27.6 Y23.098
G1 F1800 X27.6 Y23.355 E78.14096
G0 F3600 X27.3 Y23.355
G1 F1800 X27.3 Y23.098 E78.14808
G0 F3600 X27 Y23.098
G1 F1800 X27 Y23.355 E78.15521
G0 F3600 X26.7 Y23.355
G1 F1800 X26.7 Y23.098 E78.16233
G0 F3600 X26.4 Y23.098
G1 F1800 X26.4 Y23.355 E78.16946
G0 F3600 X26.1 Y23.355
G1 F1800 X26.1 Y23.098 E78.17658
G0 F3600 X25.8 Y23.098
G1 F1800 X25.8 Y23.355 E78.1837
G0 F3600 X25.5 Y23.355
G1 F1800 X25.5 Y23.098 E78.19083
G0 F3600 X25.2 Y23.098
G1 F1800 X25.2 Y23.355 E78.19795
G0 F3600 X24.9 Y23.355
G1 F1800 X24.9 Y23.098 E78.20508
G0 F3600 X24.6 Y23.098
G1 F1800 X24.6 Y23.355 E78.2122
G0 F3600 X24.3 Y23.355
G1 F1800 X24.3 Y23.098 E78.21933
G0 F3600 X24 Y23.098
G1 F1800 X24 Y23.355 E78.22645
G0 F3600 X23.7 Y23.355
G1 F1800 X23.7 Y23.098 E78.23358
G0 F3600 X23.4 Y23.098
G1 F1800 X23.4 Y23.355 E78.2407
G0 F3600 X23.1 Y23.355
G1 F1800 X23.1 Y23.098 E78.24783
G0 F3600 X22.8 Y23.098
G1 F1800 X22.8 Y23.355 E78.25495
G0 F3600 X22.5 Y23.355
G1 F1800 X22.5 Y23.098 E78.26208
G0 F3600 X22.2 Y23.098
G1 F1800 X22.2 Y23.355 E78.2692
G0 F3600 X21.9 Y23.355
G1 F1800 X21.9 Y23.098 E78.27633
G0 F3600 X21.6 Y23.098
G1 F1800 X21.6 Y23.355 E78.28345
G0 F3600 X21.3 Y23.355
G1 F1800 X21.3 Y23.098 E78.29058
G0 F3600 X21 Y23.098
G1 F1800 X21 Y23.355 E78.2977
G0 F3600 X20.7 Y23.355
G1 F1800 X20.7 Y23.098 E78.30483
G0 F3600 X20.4 Y23.098
G1 F1800 X20.4 Y23.355 E78.31195
G0 F3600 X20.1 Y23.355
G1 F1800 X20.1 Y23.098 E78.31908
G0 F3600 X19.8 Y23.098
G1 F1800 X19.8 Y23.355 E78.3262
G0 F3600 X19.5 Y23.355
G1 F1800 X19.5 Y23.098 E78.33333
G0 F3600 X19.2 Y23.098
G1 F1800 X19.2 Y23.355 E78.34045
G0 F3600 X18.9 Y23.355
G1 F1800 X18.9 Y23.098 E78.34758
G0 F3600 X18.6 Y23.098
G1 F1800 X18.6 Y23.355 E78.3547
G0 F3600 X18.3 Y23.355
G1 F1800 X18.3 Y23.098 E78.36183
G0 F3600 X18 Y23.098
G1 F1800 X18 Y23.355 E78.36895
G0 F3600 X17.7 Y23.355
G1 F1800 X17.7 Y23.098 E78.37608
G0 F3600 X17.4 Y23.098
G1 F1800 X17.4 Y23.355 E78.3832
G0 F3600 X17.1 Y23.355
G1 F1800 X17.1 Y23.098 E78.39033
G0 F3600 X16.8 Y23.098
G1 F1800 X16.8 Y23.355 E78.39745
G0 F3600 X16.5 Y23.355
G1 F1800 X16.5 Y23.098 E78.40458
G0 F3600 X16.2 Y23.098
G1 F1800 X16.2 Y23.355 E78.4117
G1 F1500 E71.9117
;MESH:H.stl
G0 F3600 X11.315 Y28.579
G0 X9.73 Y28.579
G0 X-9.065 Y28.579
G0 X-10.65 Y28.579
G0 X-18.03 Y28.579
G0 X-18.1 Y28.649
;TYPE:WALL-INNER
G1 F1500 E78.4117
G1 F1800 X-30.029 Y28.649 E79.07312
G1 X-30.029 Y39.147 E79.6552
G1 X-37.54 Y39.147 E80.07166
G1 X-37.54 Y10.947 E81.63526
G1 X-30.029 Y10.947 E82.05172
G1 X-30.029 Y23.082 E82.72456
G1 X-18.1 Y23.082 E83.38599
G1 X-18.1 Y10.947 E84.05883
G1 X-10.63 Y10.947 E84.47302
G1 X-10.63 Y39.147 E86.03661
G1 X-18.1 Y39.147 E86.4508
G1 X-18.1 Y28.649 E87.03288
G0 F3600 X-18.7 Y29.249
;TYPE:WALL-OUTER
G1 F1800 X-29.429 Y29.249 E87.62776
G1 X-29.429 Y39.747 E88.20984
G1 X-38.14 Y39.747 E88.69284
G1 X-38.14 Y10.347 E90.32297
G1 X-29.429 Y10.347 E90.80596
G1 X-29.429 Y22.482 E91.47881
G1 X-18.7 Y22.482 E92.0737
G1 X-18.7 Y10.347 E92.74654
G1 X-10.03 Y10.347 E93.22726
G1 X-10.03 Y39.747 E94.85739
G1 X-18.7 Y39.747 E95.33812
G1 X-18.7 Y29.249 E95.9202
G0 F3600 X-18.9 Y29.249
G0 X-18.9 Y28.589
G0 X-18.9 Y28.549
G0 X-30.057 Y28.621
G0 X-33.599 Y35.577
;TYPE:SKIN
G1 F1800 X-33.97 Y35.577 E95.94077
G1 X-33.97 Y14.517 E97.10847
G1 X-33.599 Y14.517 E97.12904
G1 X-33.599 Y35.577 E98.29675
G0 F3600 X-32.999 Y36.177
G1 F1800 X-34.57 Y36.177 E98.38386
G1 X-34.57 Y13.917 E99.6181
G1 X-32.999 Y13.917 E99.70521
G1 X-32.999 Y36.177 E100.93945
G0 F3600 X-32.399 Y36.777
G1 F1800 X-35.17 Y36.777 E101.09309
G1 X-35.17 Y13.317 E102.39387
G1 X-32.399 Y13.317 E102.54751
G1 X-32.399 Y25.452 E103.22036
G1 X-15.73 Y25.452 E104.1446
G1 X-15.73 Y13.317 E104.81744
G1 X-13 Y13.317 E104.96881
G1 X-13 Y36.777 E106.26959
G1 X-15.73 Y36.777 E106.42096
G1 X-15.73 Y26.279 E107.00304
G1 X-32.399 Y26.279 E107.92728
G1 X-32.399 Y36.777 E108.50935
G0 F3600 X-31.799 Y37.377
G1 F1800 X-35.77 Y37.377 E108.72953
G1 X-35.77 Y12.717 E110.09685
G1 X-31.799 Y12.717 E110.31703
G1 X-31.799 Y24.852 E110.98987
G1 X-16.33 Y24.852 E111.84757
G1 X-16.33 Y12.717 E112.52042
G1 X-12.4 Y12.717 E112.73832
G1 X-12.4 Y37.377 E114.10564
G1 X-16.33 Y37.377 E114.32354
G1 X-16.33 Y26.879 E114.90562
G1 X-31.799 Y26.879 E115.76333
G1 X-31.799 Y37.377 E116.34541
G0 F3600 X-31.199 Y37.977
G1 F1800 X-36.37 Y37.977 E116.63212
G1 X-36.37 Y12.117 E118.06597
G1 X-31.199 Y12.117 E118.35268
G1 X-31.199 Y24.252 E119.02553
G1 X-16.93 Y24.252 E119.8167
G1 X-16.93 Y12.117 E120.48954
G1 X-11.8 Y12.117 E120.77398
G1 X-11.8 Y37.977 E122.20783
G1 X-16.93 Y37.977 E122.49227
G1 X-16.93 Y27.479 E123.07435
G1 X-31.199 Y27.479 E123.86552
G1 X-31.199 Y37.977 E124.4476
G0 F3600 X-30.599 Y38.577
G1 F1800 X-36.97 Y38.577 E124.80085
G1 X-36.97 Y11.517 E126.30124
G1 X-30.599 Y11.517 E126.65449
G1 X-30.599 Y23.652 E127.32733
G1 X-17.53 Y23.652 E128.05196
G1 X-17.53 Y11.517 E128.72481
G1 X-11.2 Y11.517 E129.07579
G1 X-11.2 Y38.577 E130.57617
G1 X-17.53 Y38.577 E130.92715
G1 X-17.53 Y28.079 E131.50923
G1 X-30.599 Y28.079 E132.23386
G1 X-30.599 Y38.577 E132.81594
G0 F3600 X-30.057 Y28.621
G0 X-18.072 Y28.621
G0 X-15.13 Y36.177
G1 F1800 X-15.13 Y13.917 E134.05018
G1 X-13.6 Y13.917 E134.13501
G1 X-13.6 Y36.177 E135.36926
G1 X-15.13 Y36.177 E135.45409
G0 F3600 X-14.53 Y35.577
G1 F1800 X-14.53 Y14.517 E136.6218
G1 X-14.2 Y14.517 E136.64009
G1 X-14.2 Y35.577 E137.8078
G1 X-14.53 Y35.577 E137.8261
G0 F3600 X-15.6 Y25.994
;TYPE:SKIN
G1 F1800 X-15.6 Y25.737 E137.83322
G0 F3600 X-15.9 Y25.737
G1 F1800 X-15.9 Y25.994 E137.84035
G0 F3600 X-16.2 Y25.994
G1 F1800 X-16.2 Y25.737 E137.84747
G0 F3600 X-16.5 Y25.737
G1 F1800 X-16.5 Y25.994 E137.8546
G0 F3600 X-16.8 Y25.994
G1 F1800 X-16.8 Y25.737 E137.86172
G0 F3600 X-17.1 Y25.737
G1 F1800 X-17.1 Y25.994 E137.86885
G0 F3600 X-17.4 Y25.994
G1 F1800 X-17.4 Y25.737 E137.87597
G0 F3600 X-17.7 Y25.737
G1 F1800 X-17.7 Y25.994 E137.8831
G0 F3600 X-18 Y25.994
G1 F1800 X-18 Y25.737 E137.89022
G0 F3600 X-18.3 Y25.737
G1 F1800 X-18.3 Y25.994 E137.89735
G0 F3600 X-18.6 Y25.994
G1 F1800 X-18.6 Y25.737 E137.90447
G0 F3600 X-18.9 Y25.737
G1 F1800 X-18.9 Y25.994 E137.9116
G0 F3600 X-19.2 Y25.994
G1 F1800 X-19.2 Y25.737 E137.91872
G0 F3600 X-19.5 Y25.737
G1 F1800 X-19.5 Y25.994 E137.92585
G0 F3600 X-19.8 Y25.994
G1 F1800 X-19.8 Y25.737 E137.93297
G0 F3600 X-20.1 Y25.737
G1 F1800 X-20.1 Y25.994 E137.9401
G0 F3600 X-20.4 Y25.994
G1 F1800 X-20.4 Y25.737 E137.94722
G0 F3600 X-20.7 Y25.737
G1 F1800 X-20.7 Y25.994 E137.95434
G0 F3600 X-21 Y25.994
G1 F1800 X-21 Y25.737 E137.96147
G0 F3600 X-21.3 Y25.737
G1 F1800 X-21.3 Y25.994 E137.96859
G0 F3600 X-21.6 Y25.994
G1 F1800 X-21.6 Y25.737 E137.97572
G0 F3600 X-21.9 Y25.737
G1 F1800 X-21.9 Y25.994 E137.98284
G0 F3600 X-22.2 Y25.994
G1 F1800 X-22.2 Y25.737 E137.98997
G0 F3600 X-22.5 Y25.737
G1 F1800 X-22.5 Y25.994 E137.99709
G0 F3600 X-22.8 Y25.994
G1 F1800 X-22.8 Y25.737 E138.00422
G0 F3600 X-23.1 Y25.737
G1 F1800 X-23.1 Y25.994 E138.01134
G0 F3600 X-23.4 Y25.994
G1 F1800 X-23.4 Y25.737 E138.01847
G0 F3600 X-23.7 Y25.737
