;FLAVOR:Marlin
;TIME:1344
;Filament used: 2.23206m
;Layer height: 0.2
;MINX:-35.965
;MINY:-43.962
;MINZ:0.2
;MAXX:36.064
;MAXY:42.928
;MAXZ:3.6
;POSTPROCESSED
;Generated with Cura_SteamEngine 4.9.1
M140 S60
M105
M190 S60
M104 S195
M105
M109 S195
M82 ;absolute extrusion mode
G28 ;Home
G1 Z15.0 F6000 ;Move the platform down 15mm
;Prime the extruder
G92 E0
G1 F200 E3
G92 E0
G92 E0
G92 E0
G1 F1500 E-6.5
;LAYER_COUNT:18
;LAYER:0
M107
G0 F3600 X-35.432 Y-1.259 Z0.2
;TYPE:SKIRT
G1 F1500 E0
G1 F1800 X-35.509 Y-4.006 E0.16761
G1 X-35.663 Y-6.742 E0.33475
G1 X-35.939 Y-9.995 E0.53386
G1 X-35.955 Y-10.195 E0.5461
G1 X-35.965 Y-10.612 E0.57154
G1 X-35.965 Y-17.217 E0.97439
G1 X-35.955 Y-17.924 E1.01751
G1 X-35.773 Y-21.116 E1.21251
G1 X-35.694 Y-23.863 E1.38013
G1 X-35.694 Y-26.574 E1.54547
G1 X-35.771 Y-29.317 E1.71284
G1 X-35.951 Y-32.498 E1.90716
G1 X-35.965 Y-33.012 E1.93852
G1 X-35.965 Y-39.648 E2.34326
G1 X-35.955 Y-40.318 E2.38413
G1 X-35.907 Y-40.831 E2.41556
G1 X-35.781 Y-41.331 E2.447
G1 X-35.579 Y-41.806 E2.47849
G1 X-35.306 Y-42.243 E2.50991
G1 X-34.969 Y-42.634 E2.5414
G1 X-34.575 Y-42.967 E2.57286
G1 X-34.135 Y-43.236 E2.60431
G1 X-33.659 Y-43.434 E2.63576
G1 X-33.157 Y-43.555 E2.66725
G1 X-32.399 Y-43.606 E2.71359
G1 X-10.604 Y-43.607 E4.04289
G1 X-9.903 Y-43.597 E4.08565
G1 X-9.715 Y-43.589 E4.09713
G1 X-8.554 Y-43.507 E4.16812
G1 X-5.801 Y-43.351 E4.33629
G1 X-3.054 Y-43.272 E4.50391
G1 X-.343 Y-43.272 E4.66925
G1 X2.4 Y-43.349 E4.83662
G1 X5.146 Y-43.504 E5.00437
G1 X7.866 Y-43.735 E5.17086
G1 X9.333 Y-43.892 E5.26085
G1 X9.959 Y-43.952 E5.2992
G1 X10.373 Y-43.962 E5.32446
G1 X32.075 Y-43.962 E6.64809
G1 X32.773 Y-43.952 E6.69067
G1 X33.286 Y-43.904 E6.72209
G1 X33.786 Y-43.778 E6.75354
G1 X34.261 Y-43.577 E6.785
G1 X34.699 Y-43.304 E6.81648
G1 X35.089 Y-42.967 E6.84792
G1 X35.423 Y-42.574 E6.87937
G1 X35.692 Y-42.134 E6.91083
G1 X35.89 Y-41.657 E6.94233
G1 X36.012 Y-41.156 E6.97378
G1 X36.063 Y-40.405 E7.01969
G1 X36.064 Y-33.691 E7.42918
G1 X36.054 Y-32.993 E7.47176
G1 X35.872 Y-29.793 E7.66725
G1 X35.793 Y-27.046 E7.83486
G1 X35.793 Y-24.335 E8.00021
G1 X35.87 Y-21.592 E8.16757
G1 X36.049 Y-18.419 E8.3614
G1 X36.064 Y-17.903 E8.39289
G1 X36.064 Y-11.291 E8.79616
G1 X36.054 Y-10.593 E8.83874
G1 X35.999 Y-9.917 E8.88011
G1 X35.765 Y-7.159 E9.04892
G1 X35.611 Y-4.417 E9.21643
G1 X35.534 Y-1.672 E9.38391
G1 X35.534 Y1.04 E9.54932
G1 X35.613 Y3.783 E9.71669
G1 X35.769 Y6.534 E9.88475
G1 X35.882 Y7.965 E9.9723
G1 X35.993 Y9.255 E10.05127
G1 X36.013 Y9.769 E10.08264
G1 X36.015 Y9.87 E10.0888
G1 X36.015 Y16.481 E10.49201
G1 X36.005 Y17.18 E10.53465
G1 X35.823 Y20.379 E10.73008
G1 X35.744 Y23.126 E10.89769
G1 X35.744 Y25.837 E11.06304
G1 X35.821 Y28.58 E11.2304
G1 X36 Y31.753 E11.42424
G1 X36.015 Y32.269 E11.45572
G1 X36.015 Y38.85 E11.8571
G1 X36.005 Y39.577 E11.90145
G1 X35.958 Y40.09 E11.93287
G1 X35.832 Y40.591 E11.96438
G1 X35.63 Y41.065 E11.9958
G1 X35.358 Y41.503 E12.02725
G1 X35.021 Y41.894 E12.05873
G1 X34.628 Y42.228 E12.09019
G1 X34.188 Y42.497 E12.12164
G1 X33.712 Y42.695 E12.15309
G1 X33.211 Y42.818 E12.18455
G1 X32.449 Y42.869 E12.23113
G1 X10.653 Y42.87 E13.5605
G1 X9.956 Y42.86 E13.60301
G1 X9.42 Y42.827 E13.63576
G1 X7.173 Y42.637 E13.7733
G1 X4.435 Y42.484 E13.94056
G1 X1.688 Y42.407 E14.10816
G1 X-1.022 Y42.409 E14.27345
G1 X-3.764 Y42.487 E14.44076
G1 X-6.505 Y42.645 E14.60821
G1 X-8.168 Y42.797 E14.71006
G1 X-8.342 Y42.799 E14.72068
G1 X-9.59 Y42.907 E14.79708
G1 X-10.101 Y42.927 E14.82827
G1 X-31.892 Y42.928 E16.15733
G1 X-32.59 Y42.919 E16.19991
G1 X-33.104 Y42.872 E16.23139
G1 X-33.604 Y42.747 E16.26282
G1 X-34.079 Y42.546 E16.29428
G1 X-34.517 Y42.274 E16.32572
G1 X-34.908 Y41.937 E16.35721
G1 X-35.242 Y41.545 E16.38862
G1 X-35.512 Y41.105 E16.4201
G1 X-35.71 Y40.629 E16.45155
G1 X-35.833 Y40.128 E16.48301
G1 X-35.885 Y39.346 E16.53081
G1 X-35.886 Y32.658 E16.93872
G1 X-35.876 Y31.952 E16.98178
G1 X-35.694 Y28.759 E17.17685
G1 X-35.615 Y26.012 E17.34446
G1 X-35.615 Y23.301 E17.50981
G1 X-35.692 Y20.558 E17.67717
G1 X-35.876 Y17.282 E17.87729
G1 X-35.886 Y16.869 E17.90249
G1 X-35.886 Y10.257 E18.30576
G1 X-35.876 Y9.559 E18.34834
G1 X-35.838 Y8.965 E18.38464
G1 X-35.666 Y6.936 E18.50884
G1 X-35.511 Y4.199 E18.67604
G1 X-35.432 Y1.452 E18.84365
G1 X-35.432 Y-1.259 E19.009
G1 F1500 E12.509
;MESH:I v2.stl(3)
G0 F3600 X-31.552 Y8.933
G0 X-31.552 Y10.602
G0 X-24.838 Y16.18
G0 X-17.625 Y33.058
G0 X-17.555 Y32.988
;TYPE:WALL-INNER
G1 F1500 E19.009
G1 F1800 X-10.855 Y32.988 E19.41764
G1 X-10.855 Y38.608 E19.76041
G1 X-31.566 Y38.608 E21.0236
G1 X-31.566 Y32.988 E21.36637
G1 X-24.866 Y32.988 E21.77502
G1 X-24.866 Y16.208 E22.79845
G1 X-31.566 Y16.208 E23.20709
G1 X-31.566 Y10.588 E23.54986
G1 X-10.855 Y10.588 E24.81305
G1 X-10.855 Y16.208 E25.15582
G1 X-17.555 Y16.208 E25.56447
G1 X-17.555 Y32.988 E26.5879
G0 F3600 X-16.895 Y32.328
;TYPE:WALL-OUTER
G1 F1800 X-10.195 Y32.328 E26.99654
G1 X-10.195 Y39.268 E27.41982
G1 X-32.226 Y39.268 E28.76352
G1 X-32.226 Y32.328 E29.1868
G1 X-25.526 Y32.328 E29.59544
G1 X-25.526 Y16.868 E30.53837
G1 X-32.226 Y16.868 E30.94701
G1 X-32.226 Y9.928 E31.37029
G1 X-10.195 Y9.928 E32.71399
G1 X-10.195 Y16.868 E33.13727
G1 X-16.895 Y16.868 E33.54591
G1 X-16.895 Y32.328 E34.48883
G0 F3600 X-16.695 Y32.328
G0 X-16.695 Y33.054
G0 X-16.695 Y33.088
G0 X-20.825 Y35.338
;TYPE:SKIN
G1 F1800 X-21.596 Y35.338 E34.53586
G1 X-21.596 Y13.858 E35.84595
G1 X-20.825 Y13.858 E35.89298
G1 X-20.825 Y35.338 E37.20307
G0 F3600 X-20.165 Y35.598
G1 F1800 X-13.465 Y35.598 E37.61171
G1 X-13.465 Y35.998 E37.63611
G1 X-28.956 Y35.998 E38.58092
G1 X-28.956 Y35.598 E38.60532
G1 X-22.256 Y35.598 E39.01396
G1 X-22.256 Y13.598 E40.35577
G1 X-28.956 Y13.598 E40.76441
G1 X-28.956 Y13.198 E40.78881
G1 X-13.465 Y13.198 E41.73362
G1 X-13.465 Y13.598 E41.75802
G1 X-20.165 Y13.598 E42.16666
G1 X-20.165 Y35.598 E43.50847
G0 F3600 X-19.505 Y34.938
G1 F1800 X-12.805 Y34.938 E43.91711
G1 X-12.805 Y36.658 E44.02202
G1 X-29.616 Y36.658 E45.04734
G1 X-29.616 Y34.938 E45.15225
G1 X-22.916 Y34.938 E45.56089
G1 X-22.916 Y14.258 E46.82219
G1 X-29.616 Y14.258 E47.23083
G1 X-29.616 Y12.538 E47.33574
G1 X-12.805 Y12.538 E48.36106
G1 X-12.805 Y14.258 E48.46597
G1 X-19.505 Y14.258 E48.87461
G1 X-19.505 Y34.938 E50.13591
G0 F3600 X-18.845 Y34.278
G1 F1800 X-12.145 Y34.278 E50.54455
G1 X-12.145 Y37.318 E50.72996
G1 X-30.276 Y37.318 E51.8358
G1 X-30.276 Y34.278 E52.02121
G1 X-23.576 Y34.278 E52.42985
G1 X-23.576 Y14.918 E53.61064
G1 X-30.276 Y14.918 E54.01929
G1 X-30.276 Y11.878 E54.2047
G1 X-12.145 Y11.878 E55.31053
G1 X-12.145 Y14.918 E55.49595
G1 X-18.845 Y14.918 E55.90459
G1 X-18.845 Y34.278 E57.08538
G0 F3600 X-18.185 Y33.618
G1 F1800 X-11.485 Y33.618 E57.49402
G1 X-11.485 Y37.978 E57.75994
G1 X-30.936 Y37.978 E58.94628
G1 X-30.936 Y33.618 E59.21221
G1 X-24.236 Y33.618 E59.62085
G1 X-24.236 Y15.578 E60.72113
G1 X-30.936 Y15.578 E61.12977
G1 X-30.936 Y11.218 E61.39569
G1 X-11.485 Y11.218 E62.58204
G1 X-11.485 Y15.578 E62.84796
G1 X-18.185 Y15.578 E63.2566
G1 X-18.185 Y33.618 E64.35688
G1 F1500 E57.85688
;MESH:I v2.stl(2)
G0 F3600 X-10.875 Y33
G0 X-9.2 Y33
G0 X9.329 Y33
G0 X11.004 Y33
G0 X24.925 Y33
G0 X24.995 Y32.93
;TYPE:WALL-INNER
G1 F1500 E64.35688
G1 F1800 X31.695 Y32.93 E64.76552
G1 X31.695 Y38.55 E65.1083
G1 X10.984 Y38.55 E66.37149
G1 X10.984 Y32.93 E66.71426
G1 X17.684 Y32.93 E67.1229
G1 X17.684 Y16.15 E68.14633
G1 X10.984 Y16.15 E68.55498
G1 X10.984 Y10.53 E68.89775
G1 X31.695 Y10.53 E70.16094
G1 X31.695 Y16.15 E70.50371
G1 X24.995 Y16.15 E70.91235
G1 X24.995 Y32.93 E71.93578
G0 F3600 X25.655 Y32.27
;TYPE:WALL-OUTER
G1 F1800 X32.355 Y32.27 E72.34443
G1 X32.355 Y39.21 E72.76771
G1 X10.324 Y39.21 E74.1114
G1 X10.324 Y32.27 E74.53468
G1 X17.024 Y32.27 E74.94333
G1 X17.024 Y16.81 E75.88625
G1 X10.324 Y16.81 E76.29489
G1 X10.324 Y9.87 E76.71817
G1 X32.355 Y9.87 E78.06187
G1 X32.355 Y16.81 E78.48515
G1 X25.655 Y16.81 E78.89379
G1 X25.655 Y32.27 E79.83672
G0 F3600 X25.855 Y32.27
G0 X25.855 Y32.996
G0 X25.855 Y33.03
G0 X21.725 Y35.28
;TYPE:SKIN
G1 F1800 X20.954 Y35.28 E79.88374
G1 X20.954 Y13.8 E81.19384
G1 X21.725 Y13.8 E81.24086
G1 X21.725 Y35.28 E82.55095
G0 F3600 X22.385 Y35.54
G1 F1800 X29.085 Y35.54 E82.95959
G1 X29.085 Y35.94 E82.98399
G1 X13.594 Y35.94 E83.92881
G1 X13.594 Y35.54 E83.9532
G1 X20.294 Y35.54 E84.36185
G1 X20.294 Y13.54 E85.70365
G1 X13.594 Y13.54 E86.1123
G1 X13.594 Y13.14 E86.13669
G1 X29.085 Y13.14 E87.08151
G1 X29.085 Y13.54 E87.10591
G1 X22.385 Y13.54 E87.51455
G1 X22.385 Y35.54 E88.85636
G0 F3600 X23.045 Y34.88
G1 F1800 X29.745 Y34.88 E89.265
G1 X29.745 Y36.6 E89.3699
G1 X12.934 Y36.6 E90.39523
G1 X12.934 Y34.88 E90.50013
G1 X19.634 Y34.88 E90.90877
G1 X19.634 Y14.2 E92.17007
G1 X12.934 Y14.2 E92.57872
G1 X12.934 Y12.48 E92.68362
G1 X29.745 Y12.48 E93.70895
G1 X29.745 Y14.2 E93.81385
G1 X23.045 Y14.2 E94.22249
G1 X23.045 Y34.88 E95.48379
G0 F3600 X23.705 Y34.22
G1 F1800 X30.405 Y34.22 E95.89243
G1 X30.405 Y37.26 E96.07785
G1 X12.274 Y37.26 E97.18368
G1 X12.274 Y34.22 E97.36909
G1 X18.974 Y34.22 E97.77774
G1 X18.974 Y14.86 E98.95853
G1 X12.274 Y14.86 E99.36717
G1 X12.274 Y11.82 E99.55258
G1 X30.405 Y11.82 E100.65842
G1 X30.405 Y14.86 E100.84383
G1 X23.705 Y14.86 E101.25247
G1 X23.705 Y34.22 E102.43326
G0 F3600 X24.365 Y33.56
G1 F1800 X31.065 Y33.56 E102.8419
G1 X31.065 Y37.92 E103.10783
G1 X11.614 Y37.92 E104.29417
G1 X11.614 Y33.56 E104.56009
G1 X18.314 Y33.56 E104.96873
G1 X18.314 Y15.52 E106.06901
G1 X11.614 Y15.52 E106.47766
G1 X11.614 Y11.16 E106.74358
G1 X31.065 Y11.16 E107.92992
G1 X31.065 Y15.52 E108.19584
G1 X24.365 Y15.52 E108.60448
G1 X24.365 Y33.56 E109.70477
G0 F3600 X21.3 Y34.965
;TYPE:SKIN
G1 F1800 X21.3 Y14.115 E110.2828
G1 F1500 E103.7828
;MESH:I v2.stl
G0 F3600 X24.974 Y10.55
G0 X24.974 Y8.875
G0 X24.974 Y-9.967
G0 X24.974 Y-11.642
G0 X24.974 Y-17.172
G0 X25.044 Y-17.242
;TYPE:WALL-INNER
G1 F1500 E110.2828
G1 F1800 X31.744 Y-17.242 E110.69144
G1 X31.744 Y-11.622 E111.03421
G1 X11.033 Y-11.622 E112.2974
G1 X11.033 Y-17.242 E112.64017
G1 X17.733 Y-17.242 E113.04881
G1 X17.733 Y-34.022 E114.07225
G1 X11.033 Y-34.022 E114.48089
G1 X11.033 Y-39.642 E114.82366
G1 X31.744 Y-39.642 E116.08685
G1 X31.744 Y-34.022 E116.42962
G1 X25.044 Y-34.022 E116.83826
G1 X25.044 Y-17.242 E117.8617
G0 F3600 X25.704 Y-17.902
;TYPE:WALL-OUTER
G1 F1800 X32.404 Y-17.902 E118.27034
G1 X32.404 Y-10.962 E118.69362
G1 X10.373 Y-10.962 E120.03732
G1 X10.373 Y-17.902 E120.4606
G1 X17.073 Y-17.902 E120.86924
G1 X17.073 Y-33.362 E121.81217
G1 X10.373 Y-33.362 E122.22081
G1 X10.373 Y-40.302 E122.64409
G1 X32.404 Y-40.302 E123.98779
G1 X32.404 Y-33.362 E124.41107
G1 X25.704 Y-33.362 E124.81971
G1 X25.704 Y-17.902 E125.76263
G0 F3600 X25.904 Y-17.902
G0 X25.904 Y-17.176
G0 X25.904 Y-17.142
G0 X21.774 Y-14.892
;TYPE:SKIN
G1 F1800 X21.003 Y-14.892 E125.80966
G1 X21.003 Y-36.372 E127.11975
G1 X21.774 Y-36.372 E127.16677
G1 X21.774 Y-14.892 E128.47687
G0 F3600 X22.434 Y-14.632
G1 F1800 X29.134 Y-14.632 E128.88551
G1 X29.134 Y-14.232 E128.90991
G1 X13.643 Y-14.232 E129.85472
G1 X13.643 Y-14.632 E129.87912
G1 X20.343 Y-14.632 E130.28776
G1 X20.343 Y-36.632 E131.62957
G1 X13.643 Y-36.632 E132.03821
G1 X13.643 Y-37.032 E132.06261
G1 X29.134 Y-37.032 E133.00742
G1 X29.134 Y-36.632 E133.03182
G1 X22.434 Y-36.632 E133.44046
G1 X22.434 Y-14.632 E134.78227
G0 F3600 X23.094 Y-15.292
G1 F1800 X29.794 Y-15.292 E135.19091
G1 X29.794 Y-13.572 E135.29582
G1 X12.983 Y-13.572 E136.32114
G1 X12.983 Y-15.292 E136.42605
G1 X19.683 Y-15.292 E136.83469
G1 X19.683 Y-35.972 E138.09599
G1 X12.983 Y-35.972 E138.50463
G1 X12.983 Y-37.692 E138.60954
G1 X29.794 Y-37.692 E139.63486
G1 X29.794 Y-35.972 E139.73976
G1 X23.094 Y-35.972 E140.14841
G1 X23.094 Y-15.292 E141.40971
G0 F3600 X23.754 Y-15.952
G1 F1800 X30.454 Y-15.952 E141.81835
G1 X30.454 Y-12.912 E142.00376
G1 X12.323 Y-12.912 E143.1096
G1 X12.323 Y-15.952 E143.29501
G1 X19.023 Y-15.952 E143.70365
G1 X19.023 Y-35.312 E144.88444
G1 X12.323 Y-35.312 E145.29308
G1 X12.323 Y-38.352 E145.4785
G1 X30.454 Y-38.352 E146.58433
G1 X30.454 Y-35.312 E146.76974
G1 X23.754 Y-35.312 E147.17839
G1 X23.754 Y-15.952 E148.35918
G0 F3600 X24.414 Y-16.612
G1 F1800 X31.114 Y-16.612 E148.76782
G1 X31.114 Y-12.252 E149.03374
G1 X11.663 Y-12.252 E150.22008
G1 X11.663 Y-16.612 E150.486
G1 X18.363 Y-16.612 E150.89465
G1 X18.363 Y-34.652 E151.99493
G1 X11.663 Y-34.652 E152.40357
G1 X11.663 Y-39.012 E152.66949
G1 X31.114 Y-39.012 E153.85583
G1 X31.114 Y-34.652 E154.12176
G1 X24.414 Y-34.652 E154.5304
G1 X24.414 Y-16.612 E155.63068
G1 F1500 E149.13068
;MESH:I v2.stl(1)
G0 F3600 X11.053 Y-16.817
G0 X9.378 Y-16.817
G0 X-9.279 Y-16.817
G0 X-10.954 Y-16.817
G0 X-17.704 Y-16.817
G0 X-17.634 Y-16.887
;TYPE:WALL-INNER
G1 F1500 E155.63068
G1 F1800 X-10.934 Y-16.887 E156.03932
G1 X-10.934 Y-11.267 E156.38209
G1 X-31.645 Y-11.267 E157.64529
G1 X-31.645 Y-16.887 E157.98806
G1 X-24.945 Y-16.887 E158.3967
G1 X-24.945 Y-33.667 E159.42013
G1 X-31.645 Y-33.667 E159.82877
G1 X-31.645 Y-39.287 E160.17154
G1 X-10.934 Y-39.287 E161.43474
G1 X-10.934 Y-33.667 E161.77751
G1 X-17.634 Y-33.667 E162.18615
G1 X-17.634 Y-16.887 E163.20958
G0 F3600 X-16.974 Y-17.547
;TYPE:WALL-OUTER
G1 F1800 X-10.274 Y-17.547 E163.61822
G1 X-10.274 Y-10.607 E164.0415
G1 X-32.305 Y-10.607 E165.3852
G1 X-32.305 Y-17.547 E165.80848
G1 X-25.605 Y-17.547 E166.21712
G1 X-25.605 Y-33.007 E167.16005
G1 X-32.305 Y-33.007 E167.56869
G1 X-32.305 Y-39.947 E167.99197
G1 X-10.274 Y-39.947 E169.33567
G1 X-10.274 Y-33.007 E169.75895
G1 X-16.974 Y-33.007 E170.16759
G1 X-16.974 Y-17.547 E171.11052
G0 F3600 X-16.774 Y-17.547
G0 X-16.774 Y-16.821
G0 X-16.774 Y-16.787
G0 X-20.904 Y-14.537
;TYPE:SKIN
G1 F1800 X-21.675 Y-14.537 E171.15754
G1 X-21.675 Y-36.017 E172.46763
G1 X-20.904 Y-36.017 E172.51466
G1 X-20.904 Y-14.537 E173.82475
G0 F3600 X-20.244 Y-14.277
G1 F1800 X-13.544 Y-14.277 E174.23339
G1 X-13.544 Y-13.877 E174.25779
G1 X-29.035 Y-13.877 E175.20261
G1 X-29.035 Y-14.277 E175.227
G1 X-22.335 Y-14.277 E175.63564
G1 X-22.335 Y-36.277 E176.97745
G1 X-29.035 Y-36.277 E177.38609
G1 X-29.035 Y-36.677 E177.41049
G1 X-13.544 Y-36.677 E178.35531
G1 X-13.544 Y-36.277 E178.3797
G1 X-20.244 Y-36.277 E178.78835
G1 X-20.244 Y-14.277 E180.13015
G0 F3600 X-19.584 Y-14.937
G1 F1800 X-12.884 Y-14.937 E180.5388
G1 X-12.884 Y-13.217 E180.6437
G1 X-29.695 Y-13.217 E181.66903
G1 X-29.695 Y-14.937 E181.77393
G1 X-22.995 Y-14.937 E182.18257
G1 X-22.995 Y-35.617 E183.44387
G1 X-29.695 Y-35.617 E183.85251
G1 X-29.695 Y-37.337 E183.95742
G1 X-12.884 Y-37.337 E184.98274
G1 X-12.884 Y-35.617 E185.08765
G1 X-19.584 Y-35.617 E185.49629
G1 X-19.584 Y-14.937 E186.75759
G0 F3600 X-18.924 Y-15.597
G1 F1800 X-12.224 Y-15.597 E187.16623
G1 X-12.224 Y-12.557 E187.35165
G1 X-30.355 Y-12.557 E188.45748
G1 X-30.355 Y-15.597 E188.64289
G1 X-23.655 Y-15.597 E189.05153
G1 X-23.655 Y-34.957 E190.23233
G1 X-30.355 Y-34.957 E190.64097
G1 X-30.355 Y-37.997 E190.82638
G1 X-12.224 Y-37.997 E191.93221
G1 X-12.224 Y-34.957 E192.11763
G1 X-18.924 Y-34.957 E192.52627
G1 X-18.924 Y-15.597 E193.70706
G0 F3600 X-18.264 Y-16.257
G1 F1800 X-11.564 Y-16.257 E194.1157
G1 X-11.564 Y-11.897 E194.38162
G1 X-31.015 Y-11.897 E195.56797
G1 X-31.015 Y-16.257 E195.83389
G1 X-24.315 Y-16.257 E196.24253
G1 X-24.315 Y-34.297 E197.34281
G1 X-31.015 Y-34.297 E197.75145
G1 X-31.015 Y-38.657 E198.01738
G1 X-11.564 Y-38.657 E199.20372
G1 X-11.564 Y-34.297 E199.46964
G1 X-18.264 Y-34.297 E199.87828
G1 X-18.264 Y-16.257 E200.97857
G0 F3600 X-21.3 Y-14.852
;TYPE:SKIN
