;FLAVOR:Marlin
;TIME:737
;Filament used: 1.26478m
;Layer height: 0.2
;MINX:-29.118
;MINY:-18.951
;MINZ:0.3
;MAXX:18.872
;MAXY:18.949
;MAXZ:3.7
;POSTPROCESSED
;Generated with Cura_SteamEngine 4.8.0
M140 S60
M105
M190 S60
M104 S195
M105
M109 S195
M82 ;absolute extrusion mode
G28 ;Home
G1 Z15.0 F6000 ;Move the platform down 15mm
;Prime the extruder
G92 E0
G1 F200 E3
G92 E0
G92 E0
G92 E0
G1 F1500 E-6.5
;LAYER_COUNT:18
;LAYER:0
M107
G0 F3600 X1.216 Y-18.851 Z0.3
;TYPE:SKIRT
G1 F1500 E0
G1 F1800 X3.997 Y-18.89 E0.23132
G1 X4.181 Y-18.897 E0.24663
G1 X6.011 Y-18.949 E0.3989
G1 X14.314 Y-18.949 E1.08946
G1 X15.013 Y-18.94 E1.1476
G1 X15.569 Y-18.893 E1.194
G1 X16.113 Y-18.767 E1.24045
G1 X16.633 Y-18.564 E1.28687
G1 X17.119 Y-18.29 E1.33327
G1 X17.561 Y-17.948 E1.37976
G1 X17.95 Y-17.548 E1.42616
G1 X18.277 Y-17.096 E1.47256
G1 X18.537 Y-16.601 E1.51906
G1 X18.723 Y-16.075 E1.56546
G1 X18.832 Y-15.528 E1.61185
G1 X18.87 Y-14.828 E1.67016
G1 X18.872 Y-14.719 E1.67922
G1 X18.872 Y14.263 E4.08966
G1 X18.863 Y14.99 E4.15013
G1 X18.816 Y15.547 E4.19662
G1 X18.69 Y16.09 E4.24298
G1 X18.488 Y16.611 E4.28945
G1 X18.214 Y17.097 E4.33585
G1 X17.873 Y17.539 E4.38228
G1 X17.472 Y17.928 E4.42875
G1 X17.02 Y18.255 E4.47515
G1 X16.526 Y18.515 E4.52158
G1 X16 Y18.702 E4.56801
G1 X15.453 Y18.811 E4.61439
G1 X14.751 Y18.849 E4.67287
G1 X14.642 Y18.851 E4.68193
G1 X9.084 Y18.851 E5.14419
G1 X6.294 Y18.89 E5.37626
G1 X4.402 Y18.947 E5.53369
G1 X4.288 Y18.949 E5.54317
G1 X-4.022 Y18.949 E6.23431
G1 X-4.826 Y18.936 E6.30119
G1 X-7.494 Y18.861 E6.52317
G1 X-8.894 Y18.851 E6.63962
G1 X-24.567 Y18.851 E7.94314
G1 X-25.265 Y18.841 E8.0012
G1 X-25.821 Y18.793 E8.04761
G1 X-26.365 Y18.666 E8.09407
G1 X-26.885 Y18.463 E8.1405
G1 X-27.37 Y18.187 E8.18691
G1 X-27.812 Y17.846 E8.23334
G1 X-28.2 Y17.444 E8.27981
G1 X-28.526 Y16.992 E8.32616
G1 X-28.785 Y16.497 E8.37262
G1 X-28.971 Y15.971 E8.41902
G1 X-29.079 Y15.423 E8.46548
G1 X-29.117 Y14.715 E8.52445
G1 X-29.118 Y-14.428 E10.94827
G1 X-29.109 Y-15.093 E11.00358
G1 X-29.061 Y-15.649 E11.05
G1 X-28.935 Y-16.193 E11.09644
G1 X-28.732 Y-16.713 E11.14287
G1 X-28.457 Y-17.199 E11.18931
G1 X-28.116 Y-17.64 E11.23567
G1 X-27.715 Y-18.029 E11.28214
G1 X-27.262 Y-18.356 E11.3286
G1 X-26.768 Y-18.615 E11.375
G1 X-26.242 Y-18.801 E11.4214
G1 X-25.694 Y-18.91 E11.46787
G1 X-24.997 Y-18.947 E11.52592
G1 X-24.889 Y-18.949 E11.5349
G1 X-15.913 Y-18.951 E12.28144
G1 X-14.85 Y-18.947 E12.36985
G1 X-14.597 Y-18.949 E12.39089
G1 X-6.278 Y-18.949 E13.08278
G1 X-5.473 Y-18.936 E13.14974
G1 X-2.806 Y-18.861 E13.37164
G1 X-1.406 Y-18.851 E13.48808
G1 X1.216 Y-18.851 E13.70615
G0 F3600 X1.224 Y-18.251
G1 F1800 X4.03 Y-18.291 E13.93955
G1 X4.199 Y-18.298 E13.95362
G1 X5.915 Y-18.348 E14.0964
G1 X14.306 Y-18.349 E14.79428
G1 X15.005 Y-18.34 E14.85242
G1 X15.517 Y-18.293 E14.89518
G1 X16.015 Y-18.168 E14.93789
G1 X16.487 Y-17.967 E14.98055
G1 X16.923 Y-17.695 E15.02329
G1 X17.311 Y-17.359 E15.06598
G1 X17.642 Y-16.967 E15.10865
G1 X17.909 Y-16.528 E15.15139
G1 X18.104 Y-16.053 E15.19409
G1 X18.223 Y-15.554 E15.23676
G1 X18.271 Y-14.811 E15.29868
G1 X18.272 Y14.256 E17.71618
G1 X18.263 Y14.983 E17.77665
G1 X18.216 Y15.494 E17.81933
G1 X18.091 Y15.992 E17.86203
G1 X17.891 Y16.465 E17.90475
G1 X17.619 Y16.9 E17.94742
G1 X17.283 Y17.289 E17.99017
G1 X16.891 Y17.62 E18.03284
G1 X16.452 Y17.887 E18.07557
G1 X15.978 Y18.082 E18.1182
G1 X15.478 Y18.202 E18.16097
G1 X14.734 Y18.25 E18.22297
G1 X9.076 Y18.251 E18.69355
G1 X6.261 Y18.291 E18.9277
G1 X6.122 Y18.297 E18.93927
G1 X4.385 Y18.348 E19.0838
G1 X-4.013 Y18.349 E19.78226
G1 X-4.809 Y18.337 E19.84847
G1 X-7.52 Y18.261 E20.07403
G1 X-8.889 Y18.251 E20.18789
G1 X-24.558 Y18.251 E21.49108
G1 X-25.256 Y18.241 E21.54914
G1 X-25.768 Y18.193 E21.59191
G1 X-26.265 Y18.067 E21.63455
G1 X-26.737 Y17.866 E21.67722
G1 X-27.173 Y17.593 E21.72001
G1 X-27.56 Y17.257 E21.76263
G1 X-27.891 Y16.864 E21.80536
G1 X-28.157 Y16.425 E21.84806
G1 X-28.351 Y15.949 E21.89081
G1 X-28.47 Y15.45 E21.93347
G1 X-28.517 Y14.698 E21.99614
G1 X-28.518 Y-14.42 E24.41788
G1 X-28.509 Y-15.085 E24.47319
G1 X-28.462 Y-15.596 E24.51587
G1 X-28.336 Y-16.094 E24.5586
G1 X-28.135 Y-16.566 E24.60126
G1 X-27.863 Y-17.001 E24.64393
G1 X-27.526 Y-17.389 E24.68668
G1 X-27.134 Y-17.72 E24.72935
G1 X-26.695 Y-17.987 E24.77208
G1 X-26.22 Y-18.181 E24.81475
G1 X-25.72 Y-18.3 E24.8575
G1 X-24.98 Y-18.348 E24.91918
G1 X-15.915 Y-18.351 E25.67311
G1 X-14.848 Y-18.347 E25.76186
G1 X-14.593 Y-18.349 E25.78306
G1 X-6.287 Y-18.349 E26.47387
G1 X-5.49 Y-18.337 E26.54017
G1 X-2.78 Y-18.261 E26.76565
G1 X-1.411 Y-18.251 E26.87951
G1 X1.224 Y-18.251 E27.09866
G1 F1500 E20.59866
;MESH:I.stl
G0 F3600 X1.224 Y-15.616
G0 X1.224 Y-14.031
G0 X3.648 Y14.079
G0 X3.718 Y14.149
;TYPE:WALL-INNER
G1 F1500 E27.09866
G1 F1800 X-3.772 Y14.149 E27.72161
G1 X-3.772 Y-14.051 E30.067
G1 X3.718 Y-14.051 E30.68994
G1 X3.718 Y14.149 E33.03533
G0 F3600 X4.318 Y14.749
;TYPE:WALL-OUTER
G1 F1800 X-4.372 Y14.749 E33.75808
G1 X-4.372 Y-14.651 E36.20328
G1 X4.318 Y-14.651 E36.92602
G1 X4.318 Y14.749 E39.37122
G0 F3600 X4.118 Y14.749
G0 X3.658 Y14.089
G0 X3.618 Y14.089
G0 X0.148 Y10.579
;TYPE:SKIN
G1 F1800 X-.202 Y10.579 E39.40033
G1 X-.202 Y-10.481 E41.15189
G1 X0.148 Y-10.481 E41.181
G1 X0.148 Y10.579 E42.93256
G0 F3600 X0.748 Y11.179
G1 F1800 X-.802 Y11.179 E43.06147
G1 X-.802 Y-11.081 E44.91283
G1 X0.748 Y-11.081 E45.04175
G1 X0.748 Y11.179 E46.89311
G0 F3600 X1.348 Y11.779
G1 F1800 X-1.402 Y11.779 E47.12183
G1 X-1.402 Y-11.681 E49.073
G1 X1.348 Y-11.681 E49.30171
G1 X1.348 Y11.779 E51.25288
G0 F3600 X1.948 Y12.379
G1 F1800 X-2.002 Y12.379 E51.5814
G1 X-2.002 Y-12.281 E53.63237
G1 X1.948 Y-12.281 E53.96089
G1 X1.948 Y12.379 E56.01186
G0 F3600 X2.548 Y12.979
G1 F1800 X-2.602 Y12.979 E56.44019
G1 X-2.602 Y-12.881 E58.59096
G1 X2.548 Y-12.881 E59.01929
G1 X2.548 Y12.979 E61.17006
G0 F3600 X3.148 Y13.579
G1 F1800 X-3.202 Y13.579 E61.69819
G1 X-3.202 Y-13.481 E63.94877
G1 X3.148 Y-13.481 E64.4769
G1 X3.148 Y13.579 E66.72748
G0 F3600 X3.118 Y13.549
G1 F1500 E60.22748
;MESH:I.stl(1)
G0 F3600 X-3.752 Y13.981
G0 X-6.548 Y13.981
G0 X-6.528 Y14.051
;TYPE:WALL-INNER
G1 F1500 E66.72748
G1 F1800 X-14.018 Y14.051 E67.35042
G1 X-14.018 Y-14.149 E69.69582
G1 X-6.528 Y-14.149 E70.31876
G1 X-6.528 Y14.051 E72.66415
G0 F3600 X-5.928 Y14.651
;TYPE:WALL-OUTER
G1 F1800 X-14.618 Y14.651 E73.3869
G1 X-14.618 Y-14.749 E75.8321
G1 X-5.928 Y-14.749 E76.55484
G1 X-5.928 Y14.651 E79.00004
G0 F3600 X-6.128 Y14.651
G0 X-6.588 Y13.991
G0 X-6.628 Y13.991
G0 X-10.098 Y10.481
;TYPE:SKIN
G1 F1800 X-10.448 Y10.481 E79.02915
G1 X-10.448 Y-10.579 E80.78071
G1 X-10.098 Y-10.579 E80.80982
G1 X-10.098 Y10.481 E82.56138
G0 F3600 X-9.498 Y11.081
G1 F1800 X-11.048 Y11.081 E82.69029
G1 X-11.048 Y-11.179 E84.54165
G1 X-9.498 Y-11.179 E84.67057
G1 X-9.498 Y11.081 E86.52193
G0 F3600 X-8.898 Y11.681
G1 F1800 X-11.648 Y11.681 E86.75065
G1 X-11.648 Y-11.779 E88.70181
G1 X-8.898 Y-11.779 E88.93053
G1 X-8.898 Y11.681 E90.8817
G0 F3600 X-8.298 Y12.281
G1 F1800 X-12.248 Y12.281 E91.21022
G1 X-12.248 Y-12.379 E93.26119
G1 X-8.298 Y-12.379 E93.58971
G1 X-8.298 Y12.281 E95.64068
G0 F3600 X-7.698 Y12.881
G1 F1800 X-12.848 Y12.881 E96.06901
G1 X-12.848 Y-12.979 E98.21978
G1 X-7.698 Y-12.979 E98.64811
G1 X-7.698 Y12.881 E100.79888
G0 F3600 X-7.098 Y13.481
G1 F1800 X-13.448 Y13.481 E101.32701
G1 X-13.448 Y-13.579 E103.57759
G1 X-7.098 Y-13.579 E104.10572
G1 X-7.098 Y13.481 E106.3563
G0 F3600 X-7.128 Y13.451
G1 F1500 E99.8563
;MESH:I.stl(3)
G0 F3600 X-13.998 Y13.981
G0 X-16.847 Y13.981
G0 X-16.827 Y14.051
;TYPE:WALL-INNER
G1 F1500 E106.3563
G1 F1800 X-24.318 Y14.051 E106.97933
G1 X-24.318 Y-14.149 E109.32472
G1 X-16.827 Y-14.149 E109.94774
G1 X-16.827 Y14.051 E112.29314
G0 F3600 X-16.227 Y14.651
;TYPE:WALL-OUTER
G1 F1800 X-24.918 Y14.651 E113.01597
G1 X-24.918 Y-14.749 E115.46116
G1 X-16.227 Y-14.749 E116.18399
G1 X-16.227 Y14.651 E118.62919
G0 F3600 X-16.427 Y14.651
G0 X-16.887 Y13.991
G0 X-16.927 Y13.991
G0 X-20.397 Y10.481
;TYPE:SKIN
G1 F1800 X-20.748 Y10.481 E118.65838
G1 X-20.748 Y-10.579 E120.40994
G1 X-20.397 Y-10.579 E120.43913
G1 X-20.397 Y10.481 E122.19069
G0 F3600 X-19.797 Y11.081
G1 F1800 X-21.348 Y11.081 E122.31969
G1 X-21.348 Y-11.179 E124.17105
G1 X-19.797 Y-11.179 E124.30005
G1 X-19.797 Y11.081 E126.15141
G0 F3600 X-19.197 Y11.681
G1 F1800 X-21.948 Y11.681 E126.38021
G1 X-21.948 Y-11.779 E128.33138
G1 X-19.197 Y-11.779 E128.56018
G1 X-19.197 Y11.681 E130.51135
G0 F3600 X-18.597 Y12.281
G1 F1800 X-22.548 Y12.281 E130.83995
G1 X-22.548 Y-12.379 E132.89092
G1 X-18.597 Y-12.379 E133.21953
G1 X-18.597 Y12.281 E135.2705
G0 F3600 X-17.997 Y12.881
G1 F1800 X-23.148 Y12.881 E135.69891
G1 X-23.148 Y-12.979 E137.84968
G1 X-17.997 Y-12.979 E138.27809
G1 X-17.997 Y12.881 E140.42887
G0 F3600 X-17.397 Y13.481
G1 F1800 X-23.748 Y13.481 E140.95708
G1 X-23.748 Y-13.579 E143.20766
G1 X-17.397 Y-13.579 E143.73587
G1 X-17.397 Y13.481 E145.98645
G0 F3600 X-17.427 Y13.451
G1 F1500 E139.48645
;MESH:I.stl(2)
G0 F3600 X-16.847 Y15.616
G0 X-5.325 Y15.702
G0 X5.271 Y15.702
G0 X6.602 Y15.616
G0 X6.602 Y13.981
G0 X14.002 Y13.981
G0 X14.072 Y14.051
;TYPE:WALL-INNER
G1 F1500 E145.98645
G1 F1800 X6.582 Y14.051 E146.60939
G1 X6.582 Y-14.149 E148.95478
G1 X14.072 Y-14.149 E149.57773
G1 X14.072 Y14.051 E151.92312
G0 F3600 X14.672 Y14.651
;TYPE:WALL-OUTER
G1 F1800 X5.982 Y14.651 E152.64587
G1 X5.982 Y-14.749 E155.09106
G1 X14.672 Y-14.749 E155.81381
G1 X14.672 Y14.651 E158.25901
G0 F3600 X14.472 Y14.651
G0 X14.012 Y13.991
G0 X13.972 Y13.991
G0 X10.502 Y10.481
;TYPE:SKIN
G1 F1800 X10.152 Y10.481 E158.28812
G1 X10.152 Y-10.579 E160.03968
G1 X10.502 Y-10.579 E160.06878
G1 X10.502 Y10.481 E161.82034
G0 F3600 X11.102 Y11.081
G1 F1800 X9.552 Y11.081 E161.94926
G1 X9.552 Y-11.179 E163.80062
G1 X11.102 Y-11.179 E163.92953
G1 X11.102 Y11.081 E165.7809
G0 F3600 X11.702 Y11.681
G1 F1800 X8.952 Y11.681 E166.00961
G1 X8.952 Y-11.779 E167.96078
G1 X11.702 Y-11.779 E168.1895
G1 X11.702 Y11.681 E170.14067
G0 F3600 X12.302 Y12.281
G1 F1800 X8.352 Y12.281 E170.46919
G1 X8.352 Y-12.379 E172.52016
G1 X12.302 Y-12.379 E172.84868
G1 X12.302 Y12.281 E174.89965
G0 F3600 X12.902 Y12.881
G1 F1800 X7.752 Y12.881 E175.32798
G1 X7.752 Y-12.979 E177.47875
G1 X12.902 Y-12.979 E177.90708
G1 X12.902 Y12.881 E180.05785
G0 F3600 X13.502 Y13.481
G1 F1800 X7.152 Y13.481 E180.58598
G1 X7.152 Y-13.579 E182.83656
G1 X13.502 Y-13.579 E183.36469
G1 X13.502 Y13.481 E185.61527
G0 F3600 X13.472 Y13.451
G1 F1500 E179.11527
;MESH:NONMESH
G0 F600 X13.472 Y13.451 Z0.5
G0 F3600 X6.596 Y14.037
G0 X3.698 Y14.037
G0 X3.718 Y14.149
;TIME_ELAPSED:82.205466
;LAYER:1
M106 S255
;TYPE:WALL-INNER
;MESH:I.stl
G1 F1500 E185.61527
G1 F2700 X-3.772 Y14.149 E186.03056
G1 X-3.772 Y-14.051 E187.59416
G1 X3.718 Y-14.051 E188.00945
G1 X3.718 Y14.149 E189.57305
G0 F5400 X4.318 Y14.749
;TYPE:WALL-OUTER
G1 F1800 X-4.372 Y14.749 E190.05488
G1 X-4.372 Y-14.651 E191.68501
G1 X4.318 Y-14.651 E192.16684
G1 X4.318 Y14.749 E193.79697
G0 F5400 X4.118 Y14.749
G0 X3.658 Y14.089
G0 X3.128 Y13.559
;TYPE:SKIN
G1 F1800 X-3.182 Y13.559 E194.14684
G1 X-3.182 Y-13.461 E195.64501
G1 X3.128 Y-13.461 E195.99488
G1 X3.128 Y13.559 E197.49304
G0 F5400 X2.857 Y13.2
G1 F1800 X-2.912 Y13.2 E197.81292
G0 F5400 X-2.912 Y12.6
G1 F1800 X2.857 Y12.6 E198.13279
G0 F5400 X2.857 Y12
G1 F1800 X-2.912 Y12 E198.45266
G0 F5400 X-2.912 Y11.4
G1 F1800 X2.857 Y11.4 E198.77253
G0 F5400 X2.857 Y10.8
G1 F1800 X-2.912 Y10.8 E199.0924
G0 F5400 X-2.912 Y10.2
G1 F1800 X2.857 Y10.2 E199.41227
G0 F5400 X2.857 Y9.6
G1 F1800 X-2.912 Y9.6 E199.73215
G0 F5400 X-2.912 Y9
G1 F1800 X2.857 Y9 E200.05202
G0 F5400 X2.857 Y8.4
G1 F1800 X-2.912 Y8.4 E200.37189
G0 F5400 X-2.912 Y7.8
G1 F1800 X2.857 Y7.8 E200.69176
G0 F5400 X2.857 Y7.2
G1 F1800 X-2.912 Y7.2 E201.01163
G0 F5400 X-2.912 Y6.6
G1 F1800 X2.857 Y6.6 E201.3315
G0 F5400 X2.857 Y6
G1 F1800 X-2.912 Y6 E201.65138
G0 F5400 X-2.912 Y5.4
G1 F1800 X2.857 Y5.4 E201.97125
G0 F5400 X2.857 Y4.8
G1 F1800 X-2.912 Y4.8 E202.29112
G0 F5400 X-2.912 Y4.2
G1 F1800 X2.857 Y4.2 E202.61099
G0 F5400 X2.858 Y3.6
G1 F1800 X-2.912 Y3.6 E202.93092
G0 F5400 X-2.912 Y3
G1 F1800 X2.858 Y3 E203.25085
G0 F5400 X2.858 Y2.4
G1 F1800 X-2.912 Y2.4 E203.57077
G0 F5400 X-2.912 Y1.799
G1 F1800 X2.858 Y1.8 E203.8907
G0 F5400 X2.858 Y1.2
G1 F1800 X-2.912 Y1.199 E204.21063
G0 F5400 X-2.912 Y0.599
G1 F1800 X2.858 Y0.6 E204.53055
G0 F5400 X2.858 Y0.00
G1 F1800 X-2.912 Y0.00 E204.85048
G0 F5400 X-2.912 Y-.6
G1 F1800 X2.858 Y-.599 E205.17041
G0 F5400 X2.858 Y-1.199
G1 F1800 X-2.912 Y-1.2 E205.49033
G0 F5400 X-2.912 Y-1.8
G1 F1800 X2.858 Y-1.799 E205.81026
G0 F5400 X2.858 Y-2.4
G1 F1800 X-2.912 Y-2.4 E206.13019
G0 F5400 X-2.912 Y-3
G1 F1800 X2.858 Y-3 E206.45012
G0 F5400 X2.858 Y-3.6
G1 F1800 X-2.912 Y-3.6 E206.77004
G0 F5400 X-2.911 Y-4.2
G1 F1800 X2.858 Y-4.2 E207.08991
G0 F5400 X2.858 Y-4.8
G1 F1800 X-2.911 Y-4.8 E207.40979
G0 F5400 X-2.911 Y-5.4
G1 F1800 X2.858 Y-5.4 E207.72966
G0 F5400 X2.858 Y-6
G1 F1800 X-2.911 Y-6 E208.04953
G0 F5400 X-2.911 Y-6.6
G1 F1800 X2.858 Y-6.6 E208.3694
G0 F5400 X2.858 Y-7.2
G1 F1800 X-2.911 Y-7.2 E208.68927
G0 F5400 X-2.911 Y-7.8
G1 F1800 X2.858 Y-7.8 E209.00914
G0 F5400 X2.858 Y-8.4
G1 F1800 X-2.911 Y-8.4 E209.32902
G0 F5400 X-2.911 Y-9
G1 F1800 X2.858 Y-9 E209.64889
G0 F5400 X2.858 Y-9.6
G1 F1800 X-2.911 Y-9.6 E209.96876
G0 F5400 X-2.911 Y-10.2
G1 F1800 X2.858 Y-10.2 E210.28863
G0 F5400 X2.858 Y-10.8
G1 F1800 X-2.911 Y-10.8 E210.6085
G0 F5400 X-2.911 Y-11.4
G1 F1800 X2.858 Y-11.4 E210.92837
G0 F5400 X2.858 Y-12
G1 F1800 X-2.911 Y-12 E211.24825
G0 F5400 X-2.911 Y-12.6
G1 F1800 X2.858 Y-12.6 E211.56812
G1 X3.008 Y-12.6
G1 F1500 E205.06812
;MESH:I.stl(1)
G0 F5400 X-3.752 Y13.981
G0 X-6.548 Y13.981
G0 X-6.528 Y14.051
;TYPE:WALL-INNER
G1 F1500 E211.56812
G1 F2700 X-14.018 Y14.051 E211.98341
G1 X-14.018 Y-14.149 E213.54701
G1 X-6.528 Y-14.149 E213.9623
G1 X-6.528 Y14.051 E215.5259
G0 F5400 X-5.928 Y14.651
;TYPE:WALL-OUTER
G1 F1800 X-14.618 Y14.651 E216.00773
G1 X-14.618 Y-14.749 E217.63786
G1 X-5.928 Y-14.749 E218.11969
G1 X-5.928 Y14.651 E219.74982
G0 F5400 X-6.128 Y14.651
G0 X-6.588 Y13.991
G0 X-7.118 Y13.461
;TYPE:SKIN
G1 F1800 X-13.428 Y13.461 E220.09969
G1 X-13.428 Y-13.559 E221.59786
G1 X-7.118 Y-13.559 E221.94773
G1 X-7.118 Y13.461 E223.4459
G0 F5400 X-7.387 Y12.6
G1 F1800 X-13.158 Y12.6 E223.76588
G0 F5400 X-13.158 Y12
G1 F1800 X-7.387 Y12 E224.08586
G0 F5400 X-7.387 Y11.4
G1 F1800 X-13.158 Y11.4 E224.40584
G0 F5400 X-13.158 Y10.8
G1 F1800 X-7.387 Y10.8 E224.72583
G0 F5400 X-7.387 Y10.2
G1 F1800 X-13.158 Y10.2 E225.04581
G0 F5400 X-13.158 Y9.6
G1 F1800 X-7.387 Y9.6 E225.36579
G0 F5400 X-7.387 Y9
G1 F1800 X-13.158 Y9 E225.68577
G0 F5400 X-13.158 Y8.4
G1 F1800 X-7.387 Y8.4 E226.00576
G0 F5400 X-7.387 Y7.8
G1 F1800 X-13.158 Y7.799 E226.32574
G0 F5400 X-13.158 Y7.199
G1 F1800 X-7.387 Y7.2 E226.64572
G0 F5400 X-7.387 Y6.6
G1 F1800 X-13.158 Y6.599 E226.9657
G0 F5400 X-13.158 Y5.999
G1 F1800 X-7.387 Y6 E227.28569
G0 F5400 X-7.387 Y5.4
G1 F1800 X-13.158 Y5.399 E227.60567
G0 F5400 X-13.158 Y4.799
G1 F1800 X-7.387 Y4.8 E227.92565
G0 F5400 X-7.387 Y4.2
G1 F1800 X-13.158 Y4.199 E228.24563
G0 F5400 X-13.158 Y3.599
G1 F1800 X-7.387 Y3.599 E228.56562
G0 F5400 X-7.387 Y2.999
G1 F1800 X-13.158 Y2.999 E228.8856
G0 F5400 X-13.158 Y2.399
G1 F1800 X-7.387 Y2.399 E229.20558
G0 F5400 X-7.387 Y1.799
G1 F1800 X-13.158 Y1.799 E229.52556
G0 F5400 X-13.158 Y1.199
G1 F1800 X-7.387 Y1.199 E229.84555
G0 F5400 X-7.387 Y0.599
G1 F1800 X-13.158 Y0.599 E230.16553
