;FLAVOR:Marlin
;TIME:1072
;Filament used: 1.75882m
;Layer height: 0.2
;MINX:-35.297
;MINY:-43.107
;MINZ:0.2
;MAXX:36.931
;MAXY:39.695
;MAXZ:3.6
;POSTPROCESSED
;Generated with Cura_SteamEngine 4.8.0
M140 S60
M105
M190 S60
M104 S195
M105
M109 S195
M82 ;absolute extrusion mode
G28 ;Home
G1 Z15.0 F6000 ;Move the platform down 15mm
;Prime the extruder
G92 E0
G1 F200 E3
G92 E0
G92 E0
G92 E0
G1 F1500 E-6.5
;LAYER_COUNT:18
;LAYER:0
M107
G0 F3600 X33.062 Y0.315 Z0.2
;TYPE:SKIRT
G1 F1500 E0
G1 F1800 X33.12 Y3.027 E0.15041
G1 X33.256 Y5.77 E0.30268
G1 X33.47 Y8.514 E0.45529
G1 X33.755 Y11.2 E0.60506
G1 X34.299 Y15.023 E0.81916
G1 X34.452 Y16.058 E0.87717
G1 X34.487 Y16.571 E0.90568
G1 X34.442 Y17.082 E0.93413
G1 X34.319 Y17.58 E0.96257
G1 X34.12 Y18.054 E0.99107
G1 X33.85 Y18.49 E1.01951
G1 X33.588 Y18.805 E1.04223
G1 X32.99 Y19.439 E1.09055
G1 X31.101 Y21.497 E1.24544
G1 X29.334 Y23.535 E1.395
G1 X27.568 Y25.69 E1.54948
G1 X25.904 Y27.842 E1.70031
G1 X24.292 Y30.054 E1.85208
G1 X22.759 Y32.29 E2.00239
G1 X21.276 Y34.585 E2.1539
G1 X19.446 Y37.633 E2.35102
G1 X19.21 Y38.041 E2.37716
G1 X18.919 Y38.464 E2.40562
G1 X18.565 Y38.836 E2.4341
G1 X18.159 Y39.149 E2.46252
G1 X17.708 Y39.396 E2.49103
G1 X17.225 Y39.569 E2.51948
G1 X16.721 Y39.666 E2.54794
G1 X16.125 Y39.694 E2.58102
G1 X7.728 Y39.695 E3.0466
G1 X7.01 Y39.684 E3.08642
G1 X6.36 Y39.621 E3.12263
G1 X4.182 Y39.311 E3.24461
G1 X1.454 Y39 E3.39685
G1 X-1.248 Y38.77 E3.54721
G1 X-3.994 Y38.614 E3.69971
G1 X-6.74 Y38.535 E3.85203
G1 X-9.452 Y38.535 E4.0024
G1 X-12.197 Y38.612 E4.15466
G1 X-14.942 Y38.766 E4.3071
G1 X-17.645 Y38.995 E4.45751
G1 X-20.395 Y39.308 E4.61097
G1 X-21.822 Y39.501 E4.69081
G1 X-22.623 Y39.594 E4.73553
G1 X-23.036 Y39.604 E4.75843
G1 X-31.333 Y39.604 E5.21847
G1 X-32.031 Y39.595 E5.25718
G1 X-32.542 Y39.548 E5.28563
G1 X-33.04 Y39.423 E5.3141
G1 X-33.512 Y39.222 E5.34254
G1 X-33.948 Y38.95 E5.37104
G1 X-34.336 Y38.614 E5.3995
G1 X-34.667 Y38.222 E5.42794
G1 X-34.934 Y37.783 E5.45643
G1 X-35.129 Y37.308 E5.4849
G1 X-35.248 Y36.809 E5.51335
G1 X-35.296 Y36.051 E5.55546
G1 X-35.297 Y20.665 E6.40856
G1 X-35.285 Y19.821 E6.45536
G1 X-35.263 Y19.249 E6.4871
G1 X-35.098 Y15.998 E6.66759
G1 X-35.052 Y15.275 E6.70776
G1 X-35.04 Y15.133 E6.71566
G1 X-34.749 Y12.417 E6.86712
G1 X-34.531 Y9.672 E7.0198
G1 X-34.394 Y6.93 E7.17202
G1 X-34.333 Y4.218 E7.32243
G1 X-34.351 Y1.469 E7.47486
G1 X-34.444 Y-1.24 E7.62515
G1 X-34.616 Y-3.994 E7.77815
G1 X-34.968 Y-7.655 E7.98207
G1 X-35.116 Y-8.944 E8.05401
G1 X-35.146 Y-9.545 E8.08738
G1 X-35.147 Y-24.947 E8.94137
G1 X-35.133 Y-25.874 E8.99277
G1 X-35.114 Y-26.354 E9.01941
G1 X-34.948 Y-29.618 E9.20062
G1 X-34.908 Y-30.241 E9.23523
G1 X-34.859 Y-30.634 E9.25719
G1 X-34.638 Y-31.816 E9.32387
G1 X-34.299 Y-33.452 E9.4165
G1 X-34.162 Y-34.064 E9.45128
G1 X-33.988 Y-34.612 E9.48316
G1 X-33.603 Y-35.536 E9.53866
G1 X-33.375 Y-36.038 E9.56923
G1 X-33.146 Y-36.453 E9.59551
G1 X-32.661 Y-37.201 E9.64494
G1 X-32.598 Y-37.295 E9.65121
G1 X-32.253 Y-37.789 E9.68462
G1 X-31.972 Y-38.139 E9.70951
G1 X-31.53 Y-38.616 E9.74557
G1 X-31.38 Y-38.774 E9.75765
G1 X-30.922 Y-39.241 E9.79392
G1 X-30.639 Y-39.498 E9.81511
G1 X-29.892 Y-40.101 E9.86834
G1 X-29.26 Y-40.581 E9.91234
G1 X-28.659 Y-40.961 E9.95177
G1 X-28.574 Y-41.01 E9.95721
G1 X-27.962 Y-41.348 E9.99597
G1 X-27.361 Y-41.67 E10.03378
G1 X-26.938 Y-41.86 E10.05949
G1 X-26.264 Y-42.106 E10.09927
G1 X-25.807 Y-42.265 E10.1261
G1 X-25.233 Y-42.456 E10.15964
G1 X-24.862 Y-42.556 E10.18095
G1 X-23.864 Y-42.763 E10.23746
G1 X-23.513 Y-42.828 E10.25725
G1 X-22.853 Y-42.943 E10.2944
G1 X-22.208 Y-43.011 E10.33036
G1 X-22.113 Y-43.018 E10.33564
G1 X-21.027 Y-43.079 E10.39595
G1 X-20.366 Y-43.107 E10.43264
G1 X-20.095 Y-43.107 E10.44766
G1 X-19.452 Y-43.071 E10.48337
G1 X-16.611 Y-42.854 E10.64135
G1 X-15.894 Y-42.79 E10.68127
G1 X-15.202 Y-42.669 E10.72022
G1 X-12.514 Y-42.155 E10.87196
G1 X-9.832 Y-41.72 E11.02261
G1 X-7.111 Y-41.358 E11.17481
G1 X-4.416 Y-41.077 E11.32505
G1 X-1.638 Y-40.867 E11.47952
G1 X1.073 Y-40.737 E11.63001
G1 X3.782 Y-40.685 E11.78024
G1 X6.528 Y-40.711 E11.9325
G1 X9.276 Y-40.814 E12.08498
G1 X12.021 Y-40.994 E12.23751
G1 X14.707 Y-41.247 E12.38709
G1 X18.061 Y-41.67 E12.57454
G1 X18.638 Y-41.752 E12.60685
G1 X19.191 Y-41.804 E12.63765
G1 X20.347 Y-41.869 E12.70184
G1 X21.01 Y-41.896 E12.73864
G1 X21.561 Y-41.883 E12.7692
G1 X21.875 Y-41.862 E12.78664
G1 X24.744 Y-41.644 E12.94618
G1 X25.472 Y-41.578 E12.98671
G1 X26.091 Y-41.461 E13.02164
G1 X26.738 Y-41.273 E13.059
G1 X28.529 Y-40.725 E13.16285
G1 X29.19 Y-40.511 E13.20137
G1 X29.665 Y-40.315 E13.22986
G1 X30.146 Y-40.029 E13.26089
G1 X30.41 Y-39.853 E13.27848
G1 X31.718 Y-38.959 E13.36633
G1 X32.277 Y-38.566 E13.40422
G1 X32.712 Y-38.199 E13.43577
G1 X33.056 Y-37.813 E13.46444
G1 X33.243 Y-37.583 E13.48088
G1 X34.223 Y-36.343 E13.56851
G1 X34.637 Y-35.805 E13.60615
G1 X34.997 Y-35.22 E13.64424
G1 X35.083 Y-35.033 E13.65565
G1 X35.332 Y-34.446 E13.691
G1 X35.915 Y-33.021 E13.77637
G1 X36.176 Y-32.359 E13.81583
G1 X36.354 Y-31.734 E13.85186
G1 X36.482 Y-31.018 E13.89219
G1 X36.792 Y-29.131 E13.99822
G1 X36.896 Y-28.425 E14.03779
G1 X36.931 Y-27.913 E14.06624
G1 X36.886 Y-27.401 E14.09474
G1 X36.724 Y-26.757 E14.13156
G1 X36 Y-24.052 E14.28682
G1 X35.366 Y-21.387 E14.43871
G1 X34.82 Y-18.754 E14.58781
G1 X34.336 Y-16.041 E14.74061
G1 X33.926 Y-13.31 E14.89373
G1 X33.602 Y-10.622 E15.04385
G1 X33.351 Y-7.889 E15.19602
G1 X33.178 Y-5.178 E15.34665
G1 X33.081 Y-2.433 E15.49894
G1 X33.062 Y0.315 E15.65131
G1 F1500 E9.15131
;MESH:J.stl(2)
G0 F3600 X31.251 Y12.998
G0 X29.785 Y13.598
G0 X30.081 Y15.719
G0 X30.161 Y15.778
;TYPE:WALL-INNER
G1 F1500 E15.65131
G1 F1800 X29.857 Y15.819 E15.66832
G1 X23.425 Y16.696 E16.02825
G1 X23.124 Y16.737 E16.0451
G1 X23.089 Y16.436 E16.0559
G1 X22.865 Y14.542 E16.16164
G1 X22.291 Y13.408 E16.23212
G1 X21.412 Y12.502 E16.30211
G1 X20.483 Y12.08 E16.35868
G1 X19.326 Y11.951 E16.42323
G1 X17.592 Y12.323 E16.52157
G1 X16.314 Y13.508 E16.6182
G1 X15.656 Y15.381 E16.72827
G1 X15.463 Y17.877 E16.86708
G1 X15.463 Y35.495 E17.84394
G1 X7.972 Y35.495 E18.25929
G1 X7.972 Y20.121 E19.11173
G1 X8.195 Y15.696 E19.35739
G1 X8.846 Y12.557 E19.53514
G1 X9.342 Y11.435 E19.60316
G1 X10.058 Y10.376 E19.67404
G1 X10.993 Y9.393 E19.74926
G1 X12.142 Y8.498 E19.83002
G1 X13.491 Y7.753 E19.91546
G1 X15.011 Y7.223 E20.00472
G1 X16.752 Y6.896 E20.10294
G1 X18.694 Y6.786 E20.21079
G1 X22.555 Y7.08 E20.42549
G1 X25.342 Y7.933 E20.58709
G1 X27.327 Y9.289 E20.72038
G1 X28.808 Y11.161 E20.85273
G1 X29.804 Y13.593 E20.99845
G1 X30.112 Y15.475 E21.10419
G1 X30.161 Y15.778 E21.1151
G0 F3600 X30.549 Y16.33
;TYPE:WALL-OUTER
G1 F1800 X30.548 Y16.331 E21.11518
G1 X22.902 Y17.374 E21.54305
G1 X22.6 Y17.415 E21.55995
G1 X22.565 Y17.113 E21.57079
G1 X22.282 Y14.718 E21.70451
G1 X21.797 Y13.76 E21.76405
G1 X21.061 Y13.001 E21.82267
G1 X20.322 Y12.666 E21.86766
G1 X19.356 Y12.558 E21.92155
G1 X17.879 Y12.875 E22.00531
G1 X16.831 Y13.847 E22.08457
G1 X16.248 Y15.506 E22.18207
G1 X16.063 Y17.9 E22.3152
G1 X16.063 Y36.095 E23.32405
G1 X7.372 Y36.095 E23.80594
G1 X7.372 Y20.111 E24.6922
G1 X7.599 Y15.615 E24.9418
G1 X8.271 Y12.373 E25.12538
G1 X8.814 Y11.146 E25.19978
G1 X9.591 Y9.996 E25.27673
G1 X10.586 Y8.95 E25.35678
G1 X11.81 Y7.996 E25.44283
G1 X13.245 Y7.204 E25.53371
G1 X14.86 Y6.64 E25.62856
G1 X16.676 Y6.299 E25.73101
G1 X18.698 Y6.185 E25.8433
G1 X22.67 Y6.487 E26.06417
G1 X25.604 Y7.385 E26.2343
G1 X27.742 Y8.846 E26.37788
G1 X29.33 Y10.854 E26.51982
G1 X30.385 Y13.43 E26.67417
G1 X30.804 Y15.987 E26.81784
G1 X30.853 Y16.29 E26.83485
G1 X30.549 Y16.33 E26.84574
G0 F3600 X30.548 Y16.331
G0 X30.351 Y16.357
G0 X30.093 Y15.732
G0 X30.088 Y15.687
G0 X20.493 Y12.042
G0 X19.324 Y11.912
G0 X17.749 Y12.25
G0 X12.134 Y14.638
;TYPE:SKIN
G1 F1800 X11.893 Y17.74 E27.01826
G1 X11.893 Y31.925 E27.80477
G1 X11.542 Y31.925 E27.82423
G1 X11.542 Y20.2 E28.47434
G1 X11.747 Y16.145 E28.69946
G1 X12.264 Y13.654 E28.84053
G1 X12.475 Y13.173 E28.86965
G1 X12.833 Y12.645 E28.90502
G1 X12.134 Y14.638 E29.02212
G0 F3600 X12.726 Y14.763
G1 F1800 X12.493 Y17.763 E29.18896
G1 X12.493 Y32.525 E30.00747
G1 X10.942 Y32.525 E30.09347
G1 X10.942 Y20.19 E30.7774
G1 X11.15 Y16.07 E31.00613
G1 X11.69 Y13.468 E31.15348
G1 X11.949 Y12.879 E31.18915
G1 X12.373 Y12.254 E31.23103
G1 X13.004 Y11.59 E31.28182
G1 X13.787 Y10.981 E31.33682
G1 X14.699 Y10.478 E31.39457
G1 X15.525 Y10.19 E31.44307
G1 X13.755 Y11.831 E31.5769
G1 X12.726 Y14.763 E31.74919
G0 F3600 X13.318 Y14.888
G1 F1800 X13.093 Y17.786 E31.91036
G1 X13.093 Y33.125 E32.76085
G1 X10.342 Y33.125 E32.91339
G1 X10.342 Y20.18 E33.63114
G1 X10.553 Y15.995 E33.86348
G1 X11.115 Y13.286 E34.01689
G1 X11.422 Y12.588 E34.05917
G1 X11.906 Y11.873 E34.10704
G1 X12.598 Y11.146 E34.16269
G1 X13.454 Y10.48 E34.22283
G1 X14.456 Y9.927 E34.28628
G1 X15.618 Y9.522 E34.35451
G1 X17.04 Y9.255 E34.43474
G1 X18.686 Y9.161 E34.52615
G1 X22.104 Y9.422 E34.71622
G1 X24.31 Y10.097 E34.84413
G1 X25.689 Y11.039 E34.93673
G1 X26.743 Y12.371 E35.03091
G1 X27.318 Y13.774 E35.11498
G1 X25.195 Y14.063 E35.23378
G1 X25.169 Y13.847 E35.24584
G1 X24.242 Y12.017 E35.35959
G1 X22.802 Y10.53 E35.47436
G1 X21.12 Y9.765 E35.57681
G1 X19.204 Y9.553 E35.6837
G1 X16.458 Y10.143 E35.83943
G1 X14.272 Y12.17 E36.00472
G1 X13.318 Y14.888 E36.16444
G0 F3600 X13.91 Y15.013
G1 F1800 X13.693 Y17.809 E36.31994
G1 X13.693 Y33.725 E37.20242
G1 X9.742 Y33.725 E37.42149
G1 X9.742 Y20.17 E38.17307
G1 X9.956 Y15.92 E38.40902
G1 X10.541 Y13.1 E38.56871
G1 X10.895 Y12.297 E38.61737
G1 X11.439 Y11.493 E38.67119
G1 X12.191 Y10.703 E38.73167
G1 X13.122 Y9.978 E38.79709
G1 X14.213 Y9.376 E38.86618
G1 X15.464 Y8.94 E38.93964
G1 X16.964 Y8.658 E39.02427
G1 X18.69 Y8.56 E39.12012
G1 X22.217 Y8.829 E39.31625
G1 X24.571 Y9.549 E39.45274
G1 X26.105 Y10.597 E39.55575
G1 X27.265 Y12.063 E39.6594
G1 X28.091 Y14.08 E39.78025
G1 X28.122 Y14.269 E39.79087
G1 X24.671 Y14.74 E39.98399
G1 X24.586 Y14.023 E40.02403
G1 X23.748 Y12.369 E40.12683
G1 X22.45 Y11.029 E40.23027
G1 X20.959 Y10.351 E40.32109
G1 X19.235 Y10.16 E40.41727
G1 X16.745 Y10.695 E40.55848
G1 X14.789 Y12.509 E40.70639
G1 X13.91 Y15.013 E40.85354
G0 F3600 X14.502 Y15.138
G1 F1800 X14.293 Y17.832 E41.00336
G1 X14.293 Y34.325 E41.91784
G1 X9.142 Y34.325 E42.20345
G1 X9.142 Y20.16 E42.98885
G1 X9.359 Y15.845 E43.2284
G1 X9.967 Y12.914 E43.39438
G1 X10.368 Y12.006 E43.44941
G1 X10.972 Y11.113 E43.50919
G1 X11.784 Y10.26 E43.57449
G1 X12.79 Y9.476 E43.64521
G1 X13.97 Y8.825 E43.71993
G1 X15.31 Y8.358 E43.79861
G1 X16.888 Y8.061 E43.88764
G1 X18.694 Y7.959 E43.98794
G1 X22.332 Y8.236 E44.19024
G1 X24.833 Y9.001 E44.33525
G1 X26.517 Y10.152 E44.44835
G1 X27.788 Y11.758 E44.56191
G1 X28.672 Y13.917 E44.69126
G1 X28.813 Y14.781 E44.7398
G1 X24.147 Y15.417 E45.00091
G1 X24.003 Y14.199 E45.06891
G1 X23.254 Y12.721 E45.16079
G1 X22.098 Y11.528 E45.25289
G1 X20.798 Y10.937 E45.33207
G1 X19.266 Y10.767 E45.41754
G1 X17.032 Y11.247 E45.54423
G1 X15.306 Y12.848 E45.67477
G1 X14.502 Y15.138 E45.80934
G0 F3600 X15.094 Y15.263
G1 F1800 X14.893 Y17.855 E45.95349
G1 X14.893 Y34.925 E46.89996
G1 X8.542 Y34.925 E47.2521
G1 X8.542 Y20.15 E48.07133
G1 X8.763 Y15.764 E48.31482
G1 X9.392 Y12.73 E48.48663
G1 X9.84 Y11.717 E48.54804
G1 X10.505 Y10.733 E48.61389
G1 X11.377 Y9.817 E48.68401
G1 X12.458 Y8.974 E48.76002
G1 X13.724 Y8.276 E48.84018
G1 X15.159 Y7.775 E48.92446
G1 X16.812 Y7.464 E49.01772
G1 X18.698 Y7.358 E49.12246
G1 X22.447 Y7.643 E49.33092
G1 X25.093 Y8.453 E49.48436
G1 X26.933 Y9.71 E49.60791
G1 X28.31 Y11.451 E49.73099
G1 X29.253 Y13.754 E49.86897
G1 X29.504 Y15.292 E49.95538
G1 X23.622 Y16.094 E50.28453
G1 X23.42 Y14.375 E50.3805
G1 X22.76 Y13.073 E50.46144
G1 X21.746 Y12.027 E50.54221
G1 X20.637 Y11.523 E50.60976
G1 X19.297 Y11.374 E50.68451
G1 X17.319 Y11.799 E50.79669
G1 X15.823 Y13.187 E50.90984
G1 X15.094 Y15.263 E51.03184
G0 F3600 X16.281 Y13.487
G0 X17.574 Y12.288
G0 X23.622 Y10.514
G1 F1800 X24.05 Y10.645 E51.05666
G1 X25.273 Y11.481 E51.1388
G1 X26.22 Y12.678 E51.22343
G1 X26.469 Y13.284 E51.25975
G1 X25.615 Y13.4 E51.30754
G1 X24.736 Y11.665 E51.41538
G1 X23.622 Y10.514 E51.50419
G0 F3600 X23.4 Y10.361
;TYPE:SKIN
G1 F1800 X23.4 Y10.117 E51.51096
G0 F3600 X23.1 Y10.025
G1 F1800 X23.1 Y10.428 E51.52213
G0 F3600 X22.8 Y10.215
G1 F1800 X22.8 Y9.933 E51.52995
G0 F3600 X22.5 Y9.841
G1 F1800 X22.5 Y10.079 E51.53655
G0 F3600 X22.2 Y9.942
G1 F1800 X22.2 Y9.749 E51.5419
G0 F3600 X21.9 Y9.692
G1 F1800 X21.9 Y9.806 E51.54506
G0 F3600 X25.2 Y11.89
G1 F1800 X25.2 Y11.95 E51.54672
G0 F3600 X25.5 Y12.227
G1 F1800 X25.5 Y12.542 E51.55545
G0 F3600 X25.8 Y12.606
G1 F1800 X25.8 Y13.089 E51.56884
G0 F3600 X17.7 Y9.585
G1 F1800 X17.7 Y9.502 E51.57115
G0 F3600 X17.4 Y9.519
G1 F1800 X17.4 Y9.65 E51.57478
G0 F3600 X17.1 Y9.714
G1 F1800 X17.1 Y9.535 E51.57974
G0 F3600 X16.8 Y9.589
G1 F1800 X16.8 Y9.778 E51.58498
G0 F3600 X16.5 Y9.842
G1 F1800 X16.5 Y9.646 E51.59041
G0 F3600 X16.2 Y9.702
G1 F1800 X16.2 Y9.993 E51.59848
G0 F3600 X15.9 Y9.758
G1 F1800 X15.9 Y10.272 E51.61273
G0 F3600 X13.5 Y11.565
G1 F1800 X13.5 Y11.699 E51.61645
G0 F3600 X13.2 Y11.799
G1 F1800 X13.2 Y12.528 E51.63666
G0 F3600 X12.9 Y12.376
G1 F1800 X12.9 Y12.112 E51.64398
G1 F1500 E45.14398
;MESH:J.stl(3)
G0 F3600 X8.214 Y15.698
G0 X6.632 Y15.619
G0 X-7.367 Y15.42
G0 X-8.924 Y15.676
G0 X-8.908 Y15.687
;TYPE:WALL-INNER
G1 F1500 E51.64398
G1 F1800 X-9.211 Y15.727 E51.66092
G1 X-9.212 Y15.728 E51.661
G1 X-15.644 Y16.605 E52.02093
G1 X-15.945 Y16.646 E52.03778
G1 X-15.98 Y16.345 E52.04858
G1 X-16.204 Y14.45 E52.15438
G1 X-16.778 Y13.317 E52.2248
G1 X-17.657 Y12.409 E52.29487
G1 X-18.588 Y11.988 E52.35153
G1 X-19.743 Y11.859 E52.41597
G1 X-21.477 Y12.231 E52.5143
G1 X-22.755 Y13.417 E52.61097
G1 X-23.413 Y15.29 E52.72104
G1 X-23.606 Y17.785 E52.8598
G1 X-23.606 Y35.404 E53.83671
G1 X-31.097 Y35.404 E54.25206
G1 X-31.097 Y20.03 E55.1045
G1 X-30.874 Y15.604 E55.35022
G1 X-30.223 Y12.466 E55.52791
G1 X-29.727 Y11.344 E55.59593
G1 X-29.011 Y10.284 E55.66686
G1 X-28.076 Y9.302 E55.74204
G1 X-26.927 Y8.407 E55.82279
G1 X-25.579 Y7.662 E55.90819
G1 X-24.058 Y7.131 E55.99752
G1 X-22.317 Y6.804 E56.09574
G1 X-20.376 Y6.694 E56.20353
G1 X-16.514 Y6.988 E56.41829
G1 X-13.727 Y7.842 E56.57991
G1 X-11.742 Y9.198 E56.7132
G1 X-10.262 Y11.069 E56.84547
G1 X-9.266 Y13.501 E56.99119
G1 X-8.957 Y15.385 E57.09704
G1 X-8.908 Y15.687 E57.10792
G0 F3600 X-8.52 Y16.239
;TYPE:WALL-OUTER
G1 F1800 X-8.521 Y16.24 E57.108
G1 X-16.167 Y17.282 E57.53586
G1 X-16.469 Y17.323 E57.55276
G1 X-16.504 Y17.021 E57.5636
G1 X-16.787 Y14.626 E57.69732
G1 X-17.272 Y13.669 E57.75681
G1 X-18.008 Y12.909 E57.81547
G1 X-18.749 Y12.574 E57.86056
G1 X-19.713 Y12.466 E57.91434
G1 X-21.19 Y12.783 E57.9981
G1 X-22.238 Y13.756 E58.07739
G1 X-22.821 Y15.415 E58.17489
G1 X-23.006 Y17.808 E58.30797
G1 X-23.006 Y36.004 E59.31688
G1 X-31.697 Y36.004 E59.79877
G1 X-31.697 Y20.02 E60.68502
G1 X-31.47 Y15.523 E60.93469
G1 X-30.798 Y12.282 E61.11821
G1 X-30.255 Y11.055 E61.19261
G1 X-29.478 Y9.904 E61.26961
G1 X-28.483 Y8.859 E61.34961
G1 X-27.259 Y7.905 E61.43566
G1 X-25.825 Y7.113 E61.52649
G1 X-24.209 Y6.548 E61.62141
G1 X-22.393 Y6.207 E61.72386
G1 X-20.372 Y6.093 E61.8361
G1 X-16.399 Y6.395 E62.05702
G1 X-13.465 Y7.294 E62.22717
G1 X-11.327 Y8.755 E62.37075
G1 X-9.74 Y10.762 E62.51262
G1 X-8.685 Y13.338 E62.66696
G1 X-8.265 Y15.896 E62.81069
G1 X-8.216 Y16.199 E62.82771
G1 X-8.52 Y16.239 E62.8386
G0 F3600 X-8.521 Y16.24
G0 X-8.718 Y16.266
G0 X-8.976 Y15.641
