;FLAVOR:Marlin
;TIME:1660
;Filament used: 2.83696m
;Layer height: 0.2
;MINX:-50.432
;MINY:-53.352
;MINZ:0.2
;MAXX:60.167
;MAXY:53.83
;MAXZ:3.6
;POSTPROCESSED
;Generated with Cura_SteamEngine 4.8.0
M140 S60
M105
M190 S60
M104 S195
M105
M109 S195
M82 ;absolute extrusion mode
G28 ;Home
G1 Z15.0 F6000 ;Move the platform down 15mm
;Prime the extruder
G92 E0
G1 F200 E3
G92 E0
G92 E0
G92 E0
G1 F1500 E-6.5
;LAYER_COUNT:18
;LAYER:0
M107
G0 F3600 X-32.772 Y31.878 Z0.2
;TYPE:SKIRT
G1 F1500 E0
G1 F1800 X-34.609 Y29.909 E0.14931
G1 X-36.534 Y27.959 E0.30124
G1 X-38.485 Y26.093 E0.45093
G1 X-40.528 Y24.245 E0.60367
G1 X-42.572 Y22.501 E0.75265
G1 X-44.708 Y20.778 E0.90482
G1 X-46.847 Y19.153 E1.05376
G1 X-48.589 Y17.903 E1.17264
G1 X-48.843 Y17.715 E1.19016
G1 X-49.267 Y17.351 E1.22115
G1 X-49.635 Y16.931 E1.25211
G1 X-49.938 Y16.463 E1.28302
G1 X-50.172 Y15.956 E1.31398
G1 X-50.331 Y15.421 E1.34493
G1 X-50.422 Y14.686 E1.38599
G1 X-50.432 Y14.25 E1.41017
G1 X-50.432 Y-14.763 E3.01885
G1 X-50.422 Y-15.465 E3.05778
G1 X-50.374 Y-16.021 E3.08872
G1 X-50.247 Y-16.564 E3.11964
G1 X-50.044 Y-17.084 E3.15059
G1 X-49.769 Y-17.57 E3.18155
G1 X-49.427 Y-18.011 E3.2125
G1 X-49.026 Y-18.399 E3.24343
G1 X-48.754 Y-18.607 E3.26242
G1 X-46.534 Y-20.157 E3.41254
G1 X-44.334 Y-21.785 E3.56429
G1 X-42.239 Y-23.43 E3.71198
G1 X-40.103 Y-25.208 E3.86608
G1 X-38.109 Y-26.965 E4.01344
G1 X-36.072 Y-28.864 E4.16785
G1 X-34.167 Y-30.743 E4.31621
G1 X-32.273 Y-32.721 E4.46806
G1 X-30.457 Y-34.73 E4.61821
G1 X-28.691 Y-36.796 E4.76891
G1 X-26.987 Y-38.907 E4.91933
G1 X-25.338 Y-41.074 E5.07032
G1 X-23.76 Y-43.275 E5.22048
G1 X-22.228 Y-45.543 E5.37224
G1 X-20.769 Y-47.841 E5.52316
G1 X-19.372 Y-50.186 E5.67451
G1 X-18.672 Y-51.396 E5.75202
G1 X-18.358 Y-51.858 E5.78299
G1 X-17.982 Y-52.27 E5.81392
G1 X-17.551 Y-52.625 E5.84488
G1 X-17.074 Y-52.914 E5.8758
G1 X-16.56 Y-53.132 E5.90676
G1 X-16.02 Y-53.275 E5.93773
G1 X-15.405 Y-53.341 E5.97203
G1 X-14.975 Y-53.352 E5.99588
G1 X-6.687 Y-53.352 E6.45542
G1 X-5.869 Y-53.339 E6.50078
G1 X-5.254 Y-53.312 E6.53491
G1 X-2.555 Y-53.237 E6.68462
G1 X0.156 Y-53.237 E6.83494
G1 X1.599 Y-53.287 E6.91499
G1 X4.735 Y-53.352 E7.08891
G1 X15.353 Y-53.352 E7.67764
G1 X16.055 Y-53.342 E7.71657
G1 X16.611 Y-53.294 E7.74751
G1 X17.154 Y-53.167 E7.77843
G1 X17.674 Y-52.964 E7.80939
G1 X18.16 Y-52.689 E7.84035
G1 X18.601 Y-52.347 E7.87129
G1 X18.989 Y-51.946 E7.90223
G1 X19.229 Y-51.628 E7.92432
G1 X19.796 Y-50.791 E7.98037
G1 X21.355 Y-48.557 E8.13142
G1 X22.97 Y-46.375 E8.28194
G1 X24.642 Y-44.247 E8.43199
G1 X26.406 Y-42.127 E8.58491
G1 X28.18 Y-40.113 E8.73372
G1 X30.044 Y-38.116 E8.88519
G1 X31.947 Y-36.189 E9.03536
G1 X33.914 Y-34.305 E9.18638
G1 X35.925 Y-32.486 E9.33673
G1 X38.004 Y-30.711 E9.4883
G1 X40.105 Y-29.015 E9.63801
G1 X42.264 Y-27.374 E9.78837
G1 X44.485 Y-25.78 E9.93995
G1 X46.742 Y-24.257 E10.09092
G1 X49.027 Y-22.807 E10.24097
G1 X51.389 Y-21.399 E10.39344
G1 X53.737 Y-20.089 E10.54252
G1 X56.162 Y-18.824 E10.69418
G1 X56.417 Y-18.7 E10.7099
G1 X57.53 Y-18.139 E10.77901
G1 X58.01 Y-17.852 E10.81002
G1 X58.443 Y-17.501 E10.84092
G1 X58.822 Y-17.091 E10.87188
G1 X59.138 Y-16.631 E10.90282
G1 X59.386 Y-16.13 E10.93382
G1 X59.559 Y-15.6 E10.96473
G1 X59.655 Y-15.05 E10.99569
G1 X59.652 Y-14.23 E11.04115
G1 X59.579 Y-13.576 E11.07764
G1 X59.379 Y-11.997 E11.16589
G1 X59.117 Y-9.32 E11.31503
G1 X58.927 Y-6.582 E11.46721
G1 X58.814 Y-3.867 E11.61788
G1 X58.78 Y-1.155 E11.76826
G1 X58.823 Y1.595 E11.92076
G1 X58.939 Y4.27 E12.06922
G1 X59.138 Y7.015 E12.22182
G1 X59.405 Y9.675 E12.37005
G1 X59.756 Y12.389 E12.52178
G1 X60.121 Y14.732 E12.65326
G1 X60.167 Y15.288 E12.68419
G1 X60.133 Y15.846 E12.71519
G1 X60.02 Y16.392 E12.74611
G1 X59.83 Y16.917 E12.77706
G1 X59.568 Y17.41 E12.80802
G1 X59.237 Y17.86 E12.83899
G1 X58.846 Y18.258 E12.86993
G1 X58.402 Y18.596 E12.90087
G1 X58.018 Y18.817 E12.92543
G1 X57.133 Y19.261 E12.98033
G1 X56.398 Y19.617 E13.02561
G1 X53.969 Y20.879 E13.17739
G1 X51.613 Y22.188 E13.32683
G1 X49.269 Y23.58 E13.47799
G1 X46.972 Y25.033 E13.62869
G1 X44.713 Y26.553 E13.77966
G1 X42.507 Y28.131 E13.93004
G1 X40.337 Y29.776 E14.08103
G1 X38.224 Y31.474 E14.23133
G1 X36.147 Y33.243 E14.3826
G1 X34.137 Y35.056 E14.53268
G1 X32.16 Y36.943 E14.68422
G1 X30.262 Y38.86 E14.8338
G1 X28.39 Y40.861 E14.98573
G1 X26.605 Y42.882 E15.13524
G1 X24.848 Y44.984 E15.28714
G1 X23.163 Y47.124 E15.43816
G1 X21.554 Y49.289 E15.58772
G1 X19.936 Y51.601 E15.74419
G1 X19.645 Y52.035 E15.77316
G1 X19.31 Y52.482 E15.80413
G1 X18.914 Y52.875 E15.83507
G1 X18.466 Y53.209 E15.86605
G1 X17.975 Y53.474 E15.89699
G1 X17.451 Y53.667 E15.92795
G1 X16.905 Y53.784 E15.95891
G1 X16.419 Y53.821 E15.98594
G1 X15.727 Y53.83 E16.02431
G1 X5.605 Y53.83 E16.58554
G1 X4.8 Y53.817 E16.63018
G1 X3.378 Y53.756 E16.7091
G1 X0.678 Y53.681 E16.85886
G1 X-2.071 Y53.681 E17.01128
G1 X-4.783 Y53.759 E17.16172
G1 X-5.938 Y53.815 E17.22583
G1 X-6.491 Y53.83 E17.25651
G1 X-14.78 Y53.83 E17.7161
G1 X-15.481 Y53.82 E17.75498
G1 X-16.037 Y53.772 E17.78592
G1 X-16.58 Y53.645 E17.81684
G1 X-17.1 Y53.442 E17.84779
G1 X-17.586 Y53.167 E17.87875
G1 X-18.027 Y52.825 E17.9097
G1 X-18.415 Y52.424 E17.94063
G1 X-18.83 Y51.821 E17.98122
G1 X-18.974 Y51.563 E17.9976
G1 X-20.091 Y49.501 E18.12763
G1 X-21.464 Y47.128 E18.27964
G1 X-22.873 Y44.847 E18.4283
G1 X-24.386 Y42.543 E18.58113
G1 X-25.927 Y40.338 E18.73029
G1 X-27.538 Y38.161 E18.88045
G1 X-29.247 Y35.988 E19.03374
G1 X-30.956 Y33.936 E19.18181
G1 X-32.772 Y31.878 E19.33399
G0 F3600 X-32.326 Y31.477
G1 F1800 X-34.184 Y29.484 E19.48507
G1 X-36.099 Y27.544 E19.63621
G1 X-38.091 Y25.64 E19.789
G1 X-40.123 Y23.802 E19.94092
G1 X-42.176 Y22.05 E20.09057
G1 X-44.335 Y20.309 E20.24435
G1 X-46.506 Y18.659 E20.39554
G1 X-48.232 Y17.42 E20.51335
G1 X-48.486 Y17.232 E20.53087
G1 X-48.874 Y16.896 E20.55933
G1 X-49.205 Y16.503 E20.58782
G1 X-49.471 Y16.064 E20.61628
G1 X-49.665 Y15.589 E20.64473
G1 X-49.783 Y15.089 E20.67321
G1 X-49.831 Y14.34 E20.71483
G1 X-49.832 Y-14.754 E22.32799
G1 X-49.822 Y-15.456 E22.36692
G1 X-49.774 Y-15.967 E22.39538
G1 X-49.648 Y-16.465 E22.42386
G1 X-49.447 Y-16.937 E22.45231
G1 X-49.174 Y-17.372 E22.48078
G1 X-48.838 Y-17.76 E22.50924
G1 X-48.411 Y-18.115 E22.54003
G1 X-46.182 Y-19.671 E22.69076
G1 X-43.995 Y-21.29 E22.84163
G1 X-41.834 Y-22.987 E22.99398
G1 X-39.728 Y-24.739 E23.14587
G1 X-37.673 Y-26.55 E23.29775
G1 X-35.683 Y-28.405 E23.44859
G1 X-33.741 Y-30.32 E23.59981
G1 X-31.836 Y-32.311 E23.7526
G1 X-30.013 Y-34.325 E23.90322
G1 X-28.229 Y-36.413 E24.0555
G1 X-26.515 Y-38.537 E24.20683
G1 X-24.849 Y-40.727 E24.3594
G1 X-23.264 Y-42.938 E24.51024
G1 X-21.73 Y-45.21 E24.66224
G1 X-20.262 Y-47.521 E24.81404
G1 X-18.831 Y-49.922 E24.96902
G1 X-18.152 Y-51.095 E25.04417
G1 X-17.862 Y-51.519 E25.07265
G1 X-17.509 Y-51.891 E25.10109
G1 X-17.102 Y-52.205 E25.12959
G1 X-16.652 Y-52.452 E25.15805
G1 X-16.169 Y-52.626 E25.18652
G1 X-15.664 Y-52.722 E25.21502
G1 X-15.067 Y-52.751 E25.24816
G1 X-6.695 Y-52.752 E25.71236
G1 X-5.987 Y-52.742 E25.75162
G1 X-5.327 Y-52.715 E25.78825
G1 X-2.536 Y-52.637 E25.94306
G1 X0.178 Y-52.637 E26.09354
G1 X1.612 Y-52.687 E26.1731
G1 X4.735 Y-52.752 E26.3463
G1 X15.344 Y-52.752 E26.93453
G1 X16.046 Y-52.742 E26.97346
G1 X16.557 Y-52.694 E27.00192
G1 X17.055 Y-52.568 E27.0304
G1 X17.527 Y-52.367 E27.05884
G1 X17.962 Y-52.094 E27.08732
G1 X18.35 Y-51.758 E27.11578
G1 X18.732 Y-51.292 E27.14919
G1 X19.295 Y-50.46 E27.20489
G1 X20.869 Y-48.205 E27.35737
G1 X22.492 Y-46.013 E27.50859
G1 X24.181 Y-43.863 E27.66019
G1 X25.937 Y-41.752 E27.81244
G1 X27.75 Y-39.695 E27.96447
G1 X29.602 Y-37.709 E28.11504
G1 X31.529 Y-35.758 E28.26708
G1 X33.51 Y-33.862 E28.41913
G1 X35.521 Y-32.042 E28.56951
G1 X37.643 Y-30.231 E28.72419
G1 X39.736 Y-28.542 E28.87332
G1 X41.917 Y-26.884 E29.02522
G1 X44.148 Y-25.283 E29.17748
G1 X46.393 Y-23.768 E29.32765
G1 X48.723 Y-22.289 E29.48067
G1 X51.072 Y-20.889 E29.63229
G1 X53.449 Y-19.562 E29.78323
G1 X55.876 Y-18.297 E29.93499
G1 X56.147 Y-18.164 E29.95172
G1 X57.26 Y-17.603 E30.02083
G1 X57.699 Y-17.337 E30.04929
G1 X58.092 Y-17.006 E30.07778
G1 X58.428 Y-16.618 E30.10624
G1 X58.701 Y-16.183 E30.13472
G1 X58.902 Y-15.71 E30.16321
G1 X59.028 Y-15.213 E30.19164
G1 X59.075 Y-14.701 E30.22015
G1 X59.055 Y-14.295 E30.24269
G1 X58.984 Y-13.651 E30.27861
G1 X58.782 Y-12.056 E30.36776
G1 X58.517 Y-9.353 E30.51835
G1 X58.327 Y-6.612 E30.67069
G1 X58.215 Y-3.898 E30.8213
G1 X58.18 Y-1.153 E30.97351
G1 X58.222 Y1.596 E31.12596
G1 X58.342 Y4.337 E31.27808
G1 X58.538 Y7.048 E31.42879
G1 X58.809 Y9.742 E31.57892
G1 X59.163 Y12.479 E31.73194
G1 X59.528 Y14.824 E31.86352
G1 X59.567 Y15.336 E31.892
G1 X59.526 Y15.848 E31.92048
G1 X59.407 Y16.347 E31.94892
G1 X59.211 Y16.822 E31.97741
G1 X58.945 Y17.261 E32.00587
G1 X58.613 Y17.653 E32.03435
G1 X58.225 Y17.989 E32.06281
G1 X57.748 Y18.281 E32.09382
G1 X56.871 Y18.721 E32.14823
G1 X56.114 Y19.088 E32.19487
G1 X53.726 Y20.328 E32.34406
G1 X51.282 Y21.686 E32.49909
G1 X48.966 Y23.062 E32.64846
G1 X46.641 Y24.533 E32.80101
G1 X44.377 Y26.056 E32.9523
G1 X42.161 Y27.641 E33.10336
G1 X39.948 Y29.319 E33.25735
G1 X37.846 Y31.008 E33.40686
G1 X35.764 Y32.782 E33.55853
G1 X33.726 Y34.619 E33.71066
G1 X31.744 Y36.511 E33.86258
G1 X29.822 Y38.453 E34.01408
G1 X27.943 Y40.461 E34.16656
G1 X26.137 Y42.505 E34.3178
G1 X24.388 Y44.598 E34.46903
G1 X22.703 Y46.738 E34.62005
G1 X21.069 Y48.936 E34.77191
G1 X19.445 Y51.257 E34.92898
G1 X19.018 Y51.881 E34.9709
G1 X18.717 Y52.239 E34.99684
G1 X18.329 Y52.575 E35.02529
G1 X17.894 Y52.847 E35.05374
G1 X17.421 Y53.048 E35.08224
G1 X16.924 Y53.174 E35.11066
G1 X16.411 Y53.221 E35.13923
G1 X15.719 Y53.23 E35.1776
G1 X5.614 Y53.23 E35.73789
G1 X4.917 Y53.22 E35.77654
G1 X3.45 Y53.159 E35.85795
G1 X0.659 Y53.081 E36.01276
G1 X-2.054 Y53.081 E36.16319
G1 X-4.827 Y53.16 E36.317
G1 X-5.956 Y53.216 E36.37968
G1 X-6.491 Y53.23 E36.40935
G1 X-14.771 Y53.23 E36.86845
G1 X-15.472 Y53.22 E36.90732
G1 X-15.983 Y53.172 E36.93578
G1 X-16.481 Y53.046 E36.96427
G1 X-16.953 Y52.845 E36.99271
G1 X-17.388 Y52.572 E37.02119
G1 X-17.776 Y52.236 E37.04964
G1 X-18.107 Y51.843 E37.07813
G1 X-18.427 Y51.313 E37.11246
G1 X-19.558 Y49.224 E37.24418
G1 X-20.94 Y46.836 E37.39716
G1 X-22.382 Y44.502 E37.54928
G1 X-23.881 Y42.22 E37.70066
G1 X-25.441 Y39.986 E37.85174
G1 X-27.073 Y37.782 E38.0038
G1 X-28.772 Y35.621 E38.15622
G1 X-30.503 Y33.543 E38.30618
G1 X-32.326 Y31.477 E38.45895
G1 F1500 E31.95895
;MESH:K.stl
G0 F3600 X-36.6 Y7.531
G0 X-37.88 Y7.019
G0 X-32.539 Y1.016
;TYPE:WALL-INNER
G1 F1500 E38.45895
G1 F1800 X-38.162 Y6.906 E38.91046
G1 X-38.162 Y13.686 E39.28638
G1 X-45.632 Y13.686 E39.70057
G1 X-45.632 Y-14.514 E41.26417
G1 X-38.162 Y-14.514 E41.67835
G1 X-38.162 Y-3.45 E42.29181
G1 X-36.986 Y-3.015 E42.36134
G1 X-27.137 Y-14.514 E43.20082
G1 X-18.05 Y-14.514 E43.70466
G1 X-18.049 Y-14.514 E43.70472
G1 X-17.344 Y-14.514 E43.74381
G1 X-17.834 Y-14.007 E43.76491
G1 X-27.301 Y-4.214 E44.52014
G1 X-16.616 Y13.231 E45.65442
G1 X-16.338 Y13.686 E45.68398
G1 X-16.871 Y13.686 E45.70066
G1 X-16.872 Y13.686 E45.70071
G1 X-25.597 Y13.686 E46.18449
G1 X-32.057 Y1.086 E46.96958
G1 X-32.249 Y0.712 E46.99289
G1 X-32.539 Y1.016 E47.00669
G0 F3600 X-32.398 Y1.737
;TYPE:WALL-OUTER
G1 F1800 X-32.689 Y2.042 E47.03006
G1 X-37.562 Y7.146 E47.42133
G1 X-37.562 Y14.286 E47.81722
G1 X-46.232 Y14.286 E48.29794
G1 X-46.232 Y-15.114 E49.92808
G1 X-37.562 Y-15.114 E50.4088
G1 X-37.562 Y-4.115 E51.01866
G1 X-37.562 Y-3.868 E51.03235
G1 X-37.17 Y-3.723 E51.05553
G1 X-37.01 Y-3.91 E51.06722
G1 X-27.413 Y-15.114 E51.88519
G1 X-16.637 Y-15.114 E52.48268
G1 X-16.636 Y-15.114 E52.48273
G1 X-15.93 Y-15.114 E52.52188
G1 X-16.421 Y-14.606 E52.54302
G1 X-26.547 Y-4.131 E53.35083
G1 X-15.546 Y13.83 E54.51866
G1 X-15.267 Y14.286 E54.54831
G1 X-15.801 Y14.286 E54.565
G1 X-15.802 Y14.286 E54.56505
G1 X-25.964 Y14.286 E55.1285
G1 X-32.206 Y2.112 E55.88706
G1 X-32.398 Y1.737 E55.90089
G0 F3600 X-32.536 Y1.881
G0 X-33.012 Y1.426
G0 X-39.316 Y1.21
;TYPE:SKIN
G1 F1800 X-40.862 Y2.829 E56.02501
G1 X-40.862 Y0.639 E56.14644
G1 X-39.316 Y1.21 E56.23782
G0 F3600 X-38.252 Y0.963
G1 F1800 X-41.462 Y4.326 E56.4956
G1 X-41.462 Y-.223 E56.74783
G1 X-38.252 Y0.963 E56.93757
G0 F3600 X-37.188 Y0.717
G1 F1800 X-41.732 Y5.478 E57.30249
G1 X-41.732 Y10.116 E57.55965
G1 X-42.062 Y10.116 E57.57794
G1 X-42.062 Y-10.944 E58.74565
G1 X-41.732 Y-10.944 E58.76395
G1 X-41.732 Y-.963 E59.31736
G1 X-37.188 Y0.717 E59.58598
G0 F3600 X-35.498 Y-.185
G1 F1800 X-25.771 Y-11.544 E60.41516
G1 X-24.345 Y-11.544 E60.49423
G1 X-31.033 Y-4.624 E61.02783
G1 X-21.64 Y10.716 E62.02517
G1 X-23.781 Y10.716 E62.14388
G1 X-31.512 Y-4.361 E63.08334
G1 X-35.498 Y-.185 E63.40344
G0 F3600 X-38.732 Y-3.053
G1 F1800 X-36.811 Y-2.343 E63.51699
G1 X-26.875 Y-13.944 E64.36391
G1 X-18.689 Y-13.944 E64.81779
G1 X-28.017 Y-4.292 E65.56204
G1 X-24.554 Y1.362 E65.92967
G1 X-24.062 Y2.166 E65.98193
G1 X-17.356 Y13.116 E66.69388
G1 X-25.249 Y13.116 E67.13152
G1 X-32.108 Y-.261 E67.96505
G1 X-38.732 Y6.678 E68.49695
G1 X-38.732 Y13.116 E68.85392
G1 X-45.062 Y13.116 E69.2049
G1 X-45.062 Y-13.944 E70.70528
G1 X-38.732 Y-13.944 E71.05626
G1 X-38.732 Y-3.053 E71.66013
G0 F3600 X-39.332 Y-2.635
G1 F1800 X-36.627 Y-1.635 E71.82003
G1 X-26.599 Y-13.344 E72.67481
G1 X-20.103 Y-13.344 E73.03499
G1 X-28.771 Y-4.375 E73.72658
G1 X-18.427 Y12.516 E74.8248
G1 X-24.882 Y12.516 E75.1827
G1 X-31.959 Y-1.286 E76.04272
G1 X-39.332 Y6.438 E76.63478
G1 X-39.332 Y12.516 E76.97178
G1 X-44.462 Y12.516 E77.25622
G1 X-44.462 Y-13.344 E78.69007
G1 X-39.332 Y-13.344 E78.97452
G1 X-39.332 Y-2.635 E79.56829
G0 F3600 X-39.932 Y-2.217
G1 F1800 X-36.443 Y-.927 E79.77455
G1 X-26.323 Y-12.744 E80.63719
G1 X-21.517 Y-12.744 E80.90367
G1 X-29.525 Y-4.458 E81.5426
G1 X-19.498 Y11.916 E82.60718
G1 X-24.515 Y11.916 E82.88536
G1 X-31.81 Y-2.311 E83.77186
G1 X-39.932 Y6.198 E84.42408
G1 X-39.932 Y11.916 E84.74112
G1 X-43.862 Y11.916 E84.95903
G1 X-43.862 Y-12.744 E86.32634
G1 X-39.932 Y-12.744 E86.54425
G1 X-39.932 Y-2.217 E87.12793
G0 F3600 X-40.532 Y-1.799
G1 F1800 X-36.259 Y-.219 E87.38054
G1 X-26.047 Y-12.144 E88.25105
G1 X-22.931 Y-12.144 E88.42382
G1 X-30.279 Y-4.541 E89.01008
G1 X-20.569 Y11.316 E90.04105
G1 X-24.148 Y11.316 E90.23949
G1 X-31.661 Y-3.336 E91.15247
G1 X-40.532 Y5.958 E91.86485
G1 X-40.532 Y11.316 E92.16194
G1 X-43.262 Y11.316 E92.31331
G1 X-43.262 Y-12.144 E93.61408
G1 X-40.532 Y-12.144 E93.76545
G1 X-40.532 Y-1.799 E94.33905
G0 F3600 X-41.132 Y-1.381
G1 F1800 X-36.124 Y0.471 E94.6351
G1 X-41.132 Y5.718 E95.03728
G1 X-41.132 Y10.716 E95.3144
G1 X-42.662 Y10.716 E95.39923
G1 X-42.662 Y-11.544 E96.63348
G1 X-41.132 Y-11.544 E96.71831
G1 X-41.132 Y-1.381 E97.28181
G0 F3600 X-32.319 Y1.186
G0 X-27.037 Y3.051
G1 F1800 X-22.711 Y10.116 E97.74115
G1 X-23.414 Y10.116 E97.78012
G1 X-27.037 Y3.051 E98.22036
G0 F3600 X-27.3 Y2.89
;TYPE:SKIN
G1 F1800 X-27.3 Y2.018 E98.24453
G0 F3600 X-27.6 Y1.528
G1 F1800 X-27.6 Y2.643 E98.27545
G0 F3600 X-27 Y2.721
G1 F1800 X-27 Y2.508 E98.28135
G0 F3600 X-27.9 Y2.058
G1 F1800 X-27.9 Y1.038 E98.30963
G0 F3600 X-28.2 Y1.473
G1 F1800 X-28.2 Y0.548 E98.33527
G0 F3600 X-28.5 Y0.888
G1 F1800 X-28.5 Y0.058 E98.35828
G0 F3600 X-28.8 Y0.303
G1 F1800 X-28.8 Y-.432 E98.37866
G0 F3600 X-29.1 Y-.282
G1 F1800 X-29.1 Y-.922 E98.3964
G0 F3600 X-29.4 Y-.867
G1 F1800 X-29.4 Y-1.412 E98.41151
G0 F3600 X-29.7 Y-1.452
G1 F1800 X-29.7 Y-1.902 E98.42399
G0 F3600 X-30 Y-2.037
G1 F1800 X-30 Y-2.392 E98.43383
G0 F3600 X-30.3 Y-2.622
