;FLAVOR:Marlin
;TIME:1088
;Filament used: 1.77147m
;Layer height: 0.2
;MINX:-37.734
;MINY:-44.348
;MINZ:0.2
;MAXX:37.985
;MAXY:44.456
;MAXZ:3.6
;POSTPROCESSED
;Generated with Cura_SteamEngine 4.8.0
M140 S60
M105
M190 S60
M104 S195
M105
M109 S195
M82 ;absolute extrusion mode
G28 ;Home
G1 Z15.0 F6000 ;Move the platform down 15mm
;Prime the extruder
G92 E0
G1 F200 E3
G92 E0
G92 E0
G92 E0
G1 F1500 E-6.5
;LAYER_COUNT:18
;LAYER:0
M107
G0 F3600 X-35.698 Y-2.203 Z0.2
;TYPE:SKIRT
G1 F1500 E0
G1 F1800 X-35.471 Y-4.896 E0.14985
G1 X-35.316 Y-7.644 E0.30246
G1 X-35.241 Y-10.322 E0.451
G1 X-35.241 Y-13.072 E0.60348
G1 X-35.318 Y-15.748 E0.75192
G1 X-35.474 Y-18.493 E0.90436
G1 X-35.706 Y-21.2 E1.05501
G1 X-36.012 Y-23.887 E1.20495
G1 X-36.398 Y-26.593 E1.35651
G1 X-36.856 Y-29.264 E1.50677
G1 X-37.13 Y-30.675 E1.58647
G1 X-37.395 Y-31.997 E1.66123
G1 X-37.469 Y-32.654 E1.69789
G1 X-37.48 Y-33.082 E1.72162
G1 X-37.48 Y-39.52 E2.07859
G1 X-37.471 Y-40.183 E2.11535
G1 X-37.423 Y-40.739 E2.1463
G1 X-37.297 Y-41.283 E2.17726
G1 X-37.094 Y-41.803 E2.20821
G1 X-36.819 Y-42.289 E2.23917
G1 X-36.478 Y-42.73 E2.27008
G1 X-36.077 Y-43.119 E2.30106
G1 X-35.624 Y-43.446 E2.33204
G1 X-35.13 Y-43.705 E2.36296
G1 X-34.604 Y-43.891 E2.3939
G1 X-34.056 Y-44 E2.42488
G1 X-33.359 Y-44.037 E2.46358
G1 X-33.25 Y-44.039 E2.46962
G1 X-10.493 Y-44.039 E3.73142
G1 X-9.796 Y-44.029 E3.77007
G1 X-9.576 Y-44.019 E3.78228
G1 X-8.469 Y-43.94 E3.84382
G1 X-8.299 Y-43.925 E3.85328
G1 X-5.577 Y-43.763 E4.00447
G1 X-2.867 Y-43.679 E4.15481
G1 X-.153 Y-43.671 E4.30529
G1 X2.595 Y-43.741 E4.45771
G1 X5.27 Y-43.885 E4.60624
G1 X8.019 Y-44.111 E4.75918
G1 X9.944 Y-44.316 E4.86652
G1 X10.554 Y-44.346 E4.90038
G1 X10.676 Y-44.348 E4.90715
G1 X33.433 Y-44.348 E6.16894
G1 X34.132 Y-44.338 E6.20771
G1 X34.688 Y-44.29 E6.23865
G1 X35.232 Y-44.163 E6.26962
G1 X35.751 Y-43.96 E6.30052
G1 X36.237 Y-43.684 E6.33151
G1 X36.678 Y-43.343 E6.36242
G1 X37.066 Y-42.941 E6.3934
G1 X37.393 Y-42.489 E6.42433
G1 X37.652 Y-41.994 E6.45531
G1 X37.838 Y-41.468 E6.48624
G1 X37.946 Y-40.92 E6.51721
G1 X37.983 Y-40.245 E6.55469
G1 X37.985 Y-40.131 E6.56102
G1 X37.985 Y-11.095 E8.17096
G1 X37.974 Y-10.377 E8.21078
G1 X37.942 Y-9.941 E8.23502
G1 X37.768 Y-8.585 E8.31082
G1 X37.748 Y-8.445 E8.31866
G1 X37.445 Y-5.763 E8.46832
G1 X37.213 Y-3.042 E8.61973
G1 X37.059 Y-.305 E8.77173
G1 X36.984 Y2.373 E8.92028
G1 X36.984 Y5.122 E9.0727
G1 X37.062 Y7.828 E9.2228
G1 X37.133 Y9.27 E9.30285
G1 X37.173 Y9.98 E9.34228
G1 X37.185 Y10.427 E9.36707
G1 X37.185 Y39.416 E10.97442
G1 X37.175 Y40.143 E11.01473
G1 X37.127 Y40.699 E11.04567
G1 X37.001 Y41.243 E11.07663
G1 X36.798 Y41.763 E11.10759
G1 X36.523 Y42.248 E11.1385
G1 X36.181 Y42.69 E11.16949
G1 X35.78 Y43.078 E11.20042
G1 X35.328 Y43.405 E11.23136
G1 X34.833 Y43.664 E11.26233
G1 X34.307 Y43.85 E11.29327
G1 X33.759 Y43.959 E11.32425
G1 X33.065 Y43.996 E11.36278
G1 X32.955 Y43.998 E11.36888
G1 X24.662 Y43.998 E11.8287
G1 X23.948 Y43.987 E11.8683
G1 X23.404 Y43.94 E11.89857
G1 X23.24 Y43.914 E11.90778
G1 X20.529 Y43.528 E12.05961
G1 X17.83 Y43.221 E12.21023
G1 X15.122 Y42.989 E12.36092
G1 X12.38 Y42.834 E12.5132
G1 X9.702 Y42.757 E12.66175
G1 X6.954 Y42.757 E12.81412
G1 X4.274 Y42.832 E12.96277
G1 X1.538 Y42.986 E13.11471
G1 X-1.179 Y43.217 E13.26591
G1 X-3.868 Y43.522 E13.41596
G1 X-6.547 Y43.902 E13.56599
G1 X-8.039 Y44.167 E13.65001
G1 X-8.305 Y44.195 E13.66484
G1 X-9.446 Y44.391 E13.72903
G1 X-9.997 Y44.445 E13.75973
G1 X-10.426 Y44.456 E13.78352
G1 X-18.716 Y44.456 E14.24317
G1 X-19.397 Y44.446 E14.28094
G1 X-19.953 Y44.397 E14.31188
G1 X-20.497 Y44.27 E14.34286
G1 X-21.017 Y44.067 E14.37381
G1 X-21.477 Y43.809 E14.40305
G1 X-21.924 Y43.474 E14.43403
G1 X-22.318 Y43.079 E14.46496
G1 X-22.652 Y42.632 E14.4959
G1 X-22.874 Y42.236 E14.52107
G1 X-23.299 Y41.362 E14.57496
G1 X-23.665 Y40.582 E14.62273
G1 X-24.902 Y38.13 E14.77501
G1 X-26.19 Y35.749 E14.9251
G1 X-27.557 Y33.384 E15.07656
G1 X-28.975 Y31.082 E15.22647
G1 X-30.465 Y28.811 E15.37708
G1 X-32.025 Y26.575 E15.52825
G1 X-33.639 Y24.393 E15.67873
G1 X-35.326 Y22.243 E15.83026
G1 X-36.532 Y20.793 E15.93483
G1 X-36.855 Y20.394 E15.96329
G1 X-37.175 Y19.936 E15.99427
G1 X-37.425 Y19.437 E16.02522
G1 X-37.602 Y18.908 E16.05615
G1 X-37.701 Y18.358 E16.08713
G1 X-37.732 Y17.725 E16.12227
G1 X-37.734 Y17.608 E16.12876
G1 X-37.734 Y11.202 E16.48395
G1 X-37.723 Y10.496 E16.5231
G1 X-37.637 Y9.74 E16.56529
G1 X-37.38 Y8.54 E16.63334
G1 X-36.842 Y5.858 E16.78501
G1 X-36.389 Y3.202 E16.9344
G1 X-36.005 Y0.503 E17.08556
G1 X-35.698 Y-2.203 E17.23656
G0 F3600 X-35.1 Y-2.151
G1 F1800 X-34.872 Y-4.847 E17.38658
G1 X-34.718 Y-7.596 E17.53924
G1 X-34.641 Y-10.341 E17.6915
G1 X-34.641 Y-13.054 E17.84193
G1 X-34.72 Y-15.799 E17.99419
G1 X-34.876 Y-18.543 E18.14658
G1 X-35.108 Y-21.249 E18.29717
G1 X-35.417 Y-23.97 E18.44901
G1 X-35.803 Y-26.669 E18.60018
G1 X-36.269 Y-29.388 E18.75314
G1 X-36.541 Y-30.789 E18.83227
G1 X-36.807 Y-32.115 E18.90726
G1 X-36.87 Y-32.671 E18.93828
G1 X-36.88 Y-33.082 E18.96108
G1 X-36.88 Y-39.512 E19.3176
G1 X-36.871 Y-40.175 E19.35437
G1 X-36.824 Y-40.686 E19.38282
G1 X-36.698 Y-41.184 E19.4113
G1 X-36.497 Y-41.656 E19.43975
G1 X-36.225 Y-42.092 E19.46824
G1 X-35.888 Y-42.479 E19.49669
G1 X-35.496 Y-42.81 E19.52514
G1 X-35.057 Y-43.077 E19.55363
G1 X-34.582 Y-43.271 E19.58208
G1 X-34.082 Y-43.39 E19.61058
G1 X-33.342 Y-43.438 E19.65169
G1 X-10.502 Y-43.439 E20.91809
G1 X-9.805 Y-43.429 E20.95674
G1 X-9.619 Y-43.421 E20.96707
G1 X-8.521 Y-43.342 E21.0281
G1 X-8.349 Y-43.327 E21.03768
G1 X-5.598 Y-43.163 E21.19048
G1 X-2.886 Y-43.079 E21.34093
G1 X-.139 Y-43.071 E21.49324
G1 X2.609 Y-43.141 E21.64565
G1 X5.314 Y-43.287 E21.79586
G1 X8.046 Y-43.512 E21.94785
G1 X10.007 Y-43.72 E22.05719
G1 X10.573 Y-43.746 E22.08861
G1 X10.676 Y-43.748 E22.09432
G1 X33.424 Y-43.748 E23.35562
G1 X34.123 Y-43.738 E23.39438
G1 X34.634 Y-43.69 E23.42284
G1 X35.132 Y-43.564 E23.45132
G1 X35.604 Y-43.363 E23.47976
G1 X36.039 Y-43.09 E23.50824
G1 X36.427 Y-42.754 E23.5367
G1 X36.758 Y-42.361 E23.56519
G1 X37.024 Y-41.922 E23.59365
G1 X37.218 Y-41.447 E23.6221
G1 X37.337 Y-40.947 E23.6506
G1 X37.384 Y-40.228 E23.69055
G1 X37.385 Y-11.104 E25.30538
G1 X37.374 Y-10.386 E25.34519
G1 X37.347 Y-10.017 E25.36571
G1 X37.174 Y-8.67 E25.44101
G1 X37.154 Y-8.531 E25.44879
G1 X36.846 Y-5.807 E25.60079
G1 X36.615 Y-3.093 E25.75182
G1 X36.461 Y-.353 E25.90398
G1 X36.384 Y2.392 E26.05624
G1 X36.384 Y5.104 E26.20661
G1 X36.463 Y7.875 E26.36032
G1 X36.536 Y9.332 E26.4412
G1 X36.573 Y9.998 E26.47819
G1 X36.585 Y10.427 E26.50199
G1 X36.585 Y39.407 E28.10883
G1 X36.575 Y40.134 E28.14914
G1 X36.528 Y40.646 E28.17765
G1 X36.402 Y41.143 E28.20608
G1 X36.201 Y41.616 E28.23457
G1 X35.928 Y42.051 E28.26305
G1 X35.592 Y42.439 E28.29151
G1 X35.199 Y42.77 E28.32
G1 X34.76 Y43.036 E28.34846
G1 X34.285 Y43.231 E28.37693
G1 X33.786 Y43.349 E28.40536
G1 X33.048 Y43.397 E28.44637
G1 X24.671 Y43.398 E28.91084
G1 X23.957 Y43.387 E28.95044
G1 X23.357 Y43.325 E28.98388
G1 X20.606 Y42.933 E29.13796
G1 X17.879 Y42.623 E29.29013
G1 X15.172 Y42.391 E29.44078
G1 X12.432 Y42.236 E29.59294
G1 X9.684 Y42.157 E29.74537
G1 X6.973 Y42.157 E29.89569
G1 X4.226 Y42.234 E30.04806
G1 X1.487 Y42.388 E30.20017
G1 X-1.228 Y42.619 E30.35125
G1 X-3.95 Y42.927 E30.50314
G1 X-6.647 Y43.31 E30.65418
G1 X-8.144 Y43.576 E30.73848
G1 X-8.393 Y43.6 E30.75235
G1 X-9.548 Y43.799 E30.81734
G1 X-10.333 Y43.855 E30.86098
G1 X-18.707 Y43.856 E31.32529
G1 X-19.388 Y43.846 E31.36305
G1 X-19.9 Y43.798 E31.39156
G1 X-20.397 Y43.672 E31.41999
G1 X-20.869 Y43.47 E31.44846
G1 X-21.153 Y43.304 E31.4667
G1 X-21.561 Y42.993 E31.49514
G1 X-21.917 Y42.623 E31.52361
G1 X-22.212 Y42.203 E31.55207
G1 X-22.335 Y41.973 E31.56653
G1 X-22.756 Y41.107 E31.61992
G1 X-23.131 Y40.309 E31.66881
G1 X-24.376 Y37.842 E31.82203
G1 X-25.664 Y35.461 E31.97212
G1 X-27.025 Y33.104 E32.12303
G1 X-28.483 Y30.738 E32.27713
G1 X-29.959 Y28.488 E32.42633
G1 X-31.538 Y26.223 E32.57942
G1 X-33.173 Y24.014 E32.73181
G1 X-34.851 Y21.876 E32.8825
G1 X-36.066 Y20.415 E32.98786
G1 X-36.389 Y20.016 E33.01632
G1 X-36.68 Y19.593 E33.04479
G1 X-36.902 Y19.13 E33.07326
G1 X-37.049 Y18.639 E33.10168
G1 X-37.123 Y18.039 E33.1352
G1 X-37.134 Y17.608 E33.15911
G1 X-37.134 Y11.212 E33.51374
G1 X-37.123 Y10.506 E33.55289
G1 X-37.05 Y9.866 E33.58861
G1 X-36.802 Y8.708 E33.65427
G1 X-36.252 Y5.966 E33.80934
G1 X-35.793 Y3.277 E33.96059
G1 X-35.411 Y0.585 E34.11135
G1 X-35.1 Y-2.151 E34.26402
G1 F1500 E27.76402
;MESH:L.stl(1)
G0 F3600 X8.882 Y11.012
G0 X10.461 Y11.012
G0 X24.985 Y16.516
G0 X24.915 Y16.586
;TYPE:WALL-INNER
G1 F1500 E34.26402
G1 F1800 X10.447 Y16.586 E35.06623
G1 X10.447 Y10.998 E35.37606
G1 X32.385 Y10.998 E36.59245
G1 X32.385 Y39.198 E38.15605
G1 X24.915 Y39.198 E38.57023
G1 X24.915 Y16.586 E39.82399
G0 F3600 X24.315 Y17.186
;TYPE:WALL-OUTER
G1 F1800 X9.847 Y17.186 E40.62619
G1 X9.847 Y10.398 E41.00256
G1 X32.985 Y10.398 E42.28549
G1 X32.985 Y39.798 E43.91562
G1 X24.315 Y39.798 E44.39634
G1 X24.315 Y17.186 E45.6501
G0 F3600 X24.115 Y17.186
G0 X24.115 Y16.526
G0 X24.115 Y16.486
G0 X28.815 Y35.628
;TYPE:SKIN
G1 F1800 X28.485 Y35.628 E45.6684
G1 X28.485 Y14.568 E46.8361
G1 X28.815 Y14.568 E46.8544
G1 X28.815 Y35.628 E48.02211
G0 F3600 X29.415 Y36.228
G1 F1800 X27.885 Y36.228 E48.10694
G1 X27.885 Y13.968 E49.34118
G1 X29.415 Y13.968 E49.42602
G1 X29.415 Y36.228 E50.66026
G0 F3600 X30.015 Y36.828
G1 F1800 X27.285 Y36.828 E50.81163
G1 X27.285 Y14.216 E52.06539
G1 X12.817 Y14.216 E52.86759
G1 X12.817 Y13.368 E52.91461
G1 X30.015 Y13.368 E53.86818
G1 X30.015 Y36.828 E55.16896
G0 F3600 X30.615 Y37.428
G1 F1800 X26.685 Y37.428 E55.38686
G1 X26.685 Y14.816 E56.64062
G1 X12.217 Y14.816 E57.44282
G1 X12.217 Y12.768 E57.55638
G1 X30.615 Y12.768 E58.57649
G1 X30.615 Y37.428 E59.9438
G0 F3600 X31.215 Y38.028
G1 F1800 X26.085 Y38.028 E60.22824
G1 X26.085 Y15.416 E61.482
G1 X11.617 Y15.416 E62.2842
G1 X11.617 Y12.168 E62.46429
G1 X31.215 Y12.168 E63.55094
G1 X31.215 Y38.028 E64.98479
G0 F3600 X31.815 Y38.628
G1 F1800 X25.485 Y38.628 E65.33576
G1 X25.485 Y16.016 E66.58952
G1 X11.017 Y16.016 E67.39172
G1 X11.017 Y11.568 E67.63835
G1 X31.815 Y11.568 E68.79153
G1 X31.815 Y38.628 E70.29192
G0 F3600 X27.6 Y13.931
;TYPE:SKIN
G1 F1800 X27.6 Y13.653 E70.29962
G0 F3600 X27.3 Y13.653
G1 F1800 X27.3 Y13.931 E70.30733
G0 F3600 X27 Y13.931
G1 F1800 X27 Y13.653 E70.31504
G0 F3600 X26.7 Y13.653
G1 F1800 X26.7 Y13.931 E70.32274
G0 F3600 X26.4 Y13.931
G1 F1800 X26.4 Y13.653 E70.33045
G0 F3600 X26.1 Y13.653
G1 F1800 X26.1 Y13.931 E70.33816
G0 F3600 X25.8 Y13.931
G1 F1800 X25.8 Y13.653 E70.34587
G0 F3600 X25.5 Y13.653
G1 F1800 X25.5 Y13.931 E70.35357
G0 F3600 X25.2 Y13.931
G1 F1800 X25.2 Y13.653 E70.36128
G0 F3600 X24.9 Y13.653
G1 F1800 X24.9 Y13.931 E70.36899
G0 F3600 X24.6 Y13.931
G1 F1800 X24.6 Y13.653 E70.37669
G0 F3600 X24.3 Y13.653
G1 F1800 X24.3 Y13.931 E70.3844
G0 F3600 X24 Y13.931
G1 F1800 X24 Y13.653 E70.39211
G0 F3600 X23.7 Y13.653
G1 F1800 X23.7 Y13.931 E70.39982
G0 F3600 X23.4 Y13.931
G1 F1800 X23.4 Y13.653 E70.40752
G0 F3600 X23.1 Y13.653
G1 F1800 X23.1 Y13.931 E70.41523
G0 F3600 X22.8 Y13.931
G1 F1800 X22.8 Y13.653 E70.42294
G0 F3600 X22.5 Y13.653
G1 F1800 X22.5 Y13.931 E70.43064
G0 F3600 X22.2 Y13.931
G1 F1800 X22.2 Y13.653 E70.43835
G0 F3600 X21.9 Y13.653
G1 F1800 X21.9 Y13.931 E70.44606
G0 F3600 X21.6 Y13.931
G1 F1800 X21.6 Y13.653 E70.45377
G0 F3600 X21.3 Y13.653
G1 F1800 X21.3 Y13.931 E70.46147
G0 F3600 X21 Y13.931
G1 F1800 X21 Y13.653 E70.46918
G0 F3600 X20.7 Y13.653
G1 F1800 X20.7 Y13.931 E70.47689
G0 F3600 X20.4 Y13.931
G1 F1800 X20.4 Y13.653 E70.48459
G0 F3600 X20.1 Y13.653
G1 F1800 X20.1 Y13.931 E70.4923
G0 F3600 X19.8 Y13.931
G1 F1800 X19.8 Y13.653 E70.50001
G0 F3600 X19.5 Y13.653
G1 F1800 X19.5 Y13.931 E70.50771
G0 F3600 X19.2 Y13.931
G1 F1800 X19.2 Y13.653 E70.51542
G0 F3600 X18.9 Y13.653
G1 F1800 X18.9 Y13.931 E70.52313
G0 F3600 X18.6 Y13.931
G1 F1800 X18.6 Y13.653 E70.53084
G0 F3600 X18.3 Y13.653
G1 F1800 X18.3 Y13.931 E70.53854
G0 F3600 X18 Y13.931
G1 F1800 X18 Y13.653 E70.54625
G0 F3600 X17.7 Y13.653
G1 F1800 X17.7 Y13.931 E70.55396
G0 F3600 X17.4 Y13.931
G1 F1800 X17.4 Y13.653 E70.56166
G0 F3600 X17.1 Y13.653
G1 F1800 X17.1 Y13.931 E70.56937
G0 F3600 X16.8 Y13.931
G1 F1800 X16.8 Y13.653 E70.57708
G0 F3600 X16.5 Y13.653
G1 F1800 X16.5 Y13.931 E70.58479
G0 F3600 X16.2 Y13.931
G1 F1800 X16.2 Y13.653 E70.59249
G0 F3600 X15.9 Y13.653
G1 F1800 X15.9 Y13.931 E70.6002
G0 F3600 X15.6 Y13.931
G1 F1800 X15.6 Y13.653 E70.60791
G0 F3600 X15.3 Y13.653
G1 F1800 X15.3 Y13.931 E70.61561
G0 F3600 X15 Y13.931
G1 F1800 X15 Y13.653 E70.62332
G0 F3600 X14.7 Y13.653
G1 F1800 X14.7 Y13.931 E70.63103
G0 F3600 X14.4 Y13.931
G1 F1800 X14.4 Y13.653 E70.63874
G0 F3600 X14.1 Y13.653
G1 F1800 X14.1 Y13.931 E70.64644
G0 F3600 X13.8 Y13.931
G1 F1800 X13.8 Y13.653 E70.65415
G0 F3600 X13.5 Y13.653
G1 F1800 X13.5 Y13.931 E70.66186
G0 F3600 X13.2 Y13.931
G1 F1800 X13.2 Y13.653 E70.66956
G1 F1500 E64.16956
;MESH:L.stl(3)
G0 F3600 X10.461 Y16.572
G0 X8.882 Y16.572
G0 X-9.431 Y16.572
G0 X-11.016 Y16.572
G0 X-18.396 Y16.974
G0 X-18.466 Y17.044
;TYPE:WALL-INNER
G1 F1500 E70.66956
G1 F1800 X-32.934 Y17.044 E71.47177
G1 X-32.934 Y11.456 E71.7816
G1 X-10.996 Y11.456 E72.99799
G1 X-10.996 Y39.656 E74.56158
G1 X-18.466 Y39.656 E74.97577
G1 X-18.466 Y17.044 E76.22953
G0 F3600 X-19.066 Y17.644
;TYPE:WALL-OUTER
G1 F1800 X-33.534 Y17.644 E77.03173
G1 X-33.534 Y10.856 E77.4081
G1 X-10.396 Y10.856 E78.69103
G1 X-10.396 Y40.256 E80.32116
G1 X-19.066 Y40.256 E80.80188
G1 X-19.066 Y17.644 E82.05564
G0 F3600 X-19.266 Y17.644
G0 X-19.266 Y16.984
G0 X-19.266 Y16.944
G0 X-14.566 Y36.086
;TYPE:SKIN
G1 F1800 X-14.896 Y36.086 E82.07394
G1 X-14.896 Y15.026 E83.24164
G1 X-14.566 Y15.026 E83.25994
G1 X-14.566 Y36.086 E84.42765
G0 F3600 X-13.966 Y36.686
G1 F1800 X-15.496 Y36.686 E84.51248
G1 X-15.496 Y14.426 E85.74672
G1 X-13.966 Y14.426 E85.83156
G1 X-13.966 Y36.686 E87.0658
G0 F3600 X-13.366 Y37.286
G1 F1800 X-16.096 Y37.286 E87.21717
G1 X-16.096 Y14.674 E88.47093
G1 X-30.564 Y14.674 E89.27313
G1 X-30.564 Y13.826 E89.32015
G1 X-13.366 Y13.826 E90.27372
G1 X-13.366 Y37.286 E91.5745
G0 F3600 X-12.766 Y37.886
G1 F1800 X-16.696 Y37.886 E91.7924
G1 X-16.696 Y15.274 E93.04616
G1 X-31.164 Y15.274 E93.84836
G1 X-31.164 Y13.226 E93.96192
G1 X-12.766 Y13.226 E94.98203
G1 X-12.766 Y37.886 E96.34934
G0 F3600 X-12.166 Y38.486
G1 F1800 X-17.296 Y38.486 E96.63378
G1 X-17.296 Y15.874 E97.88754
G1 X-31.764 Y15.874 E98.68974
G1 X-31.764 Y12.626 E98.86983
G1 X-12.166 Y12.626 E99.95648
G1 X-12.166 Y38.486 E101.39033
G0 F3600 X-11.566 Y39.086
G1 F1800 X-17.896 Y39.086 E101.7413
G1 X-17.896 Y16.474 E102.99506
G1 X-32.364 Y16.474 E103.79726
G1 X-32.364 Y12.026 E104.04389
G1 X-11.566 Y12.026 E105.19707
G1 X-11.566 Y39.086 E106.69746
G0 F3600 X-15.9 Y14.389
;TYPE:SKIN
G1 F1800 X-15.9 Y14.111 E106.70516
G0 F3600 X-16.2 Y14.111
G1 F1800 X-16.2 Y14.389 E106.71287
G0 F3600 X-16.5 Y14.389
G1 F1800 X-16.5 Y14.111 E106.72058
G0 F3600 X-16.8 Y14.111
G1 F1800 X-16.8 Y14.389 E106.72828
G0 F3600 X-17.1 Y14.389
G1 F1800 X-17.1 Y14.111 E106.73599
G0 F3600 X-17.4 Y14.111
G1 F1800 X-17.4 Y14.389 E106.7437
G0 F3600 X-17.7 Y14.389
G1 F1800 X-17.7 Y14.111 E106.75141
G0 F3600 X-18 Y14.111
G1 F1800 X-18 Y14.389 E106.75911
G0 F3600 X-18.3 Y14.389
G1 F1800 X-18.3 Y14.111 E106.76682
G0 F3600 X-18.6 Y14.111
G1 F1800 X-18.6 Y14.389 E106.77453
G0 F3600 X-18.9 Y14.389
G1 F1800 X-18.9 Y14.111 E106.78223
G0 F3600 X-19.2 Y14.111
G1 F1800 X-19.2 Y14.389 E106.78994
