;FLAVOR:Marlin
;TIME:2229
;Filament used: 3.65793m
;Layer height: 0.2
;MINX:-55.425
;MINY:-51.796
;MINZ:0.2
;MAXX:55.028
;MAXY:52.033
;MAXZ:3.6
;POSTPROCESSED
;Generated with Cura_SteamEngine 4.8.0
M140 S60
M105
M190 S60
M104 S195
M105
M109 S195
M82 ;absolute extrusion mode
G28 ;Home
G1 Z15.0 F6000 ;Move the platform down 15mm
;Prime the extruder
G92 E0
G1 F200 E3
G92 E0
G92 E0
G92 E0
G1 F1500 E-6.5
;LAYER_COUNT:18
;LAYER:0
M107
G0 F3600 X31.656 Y-34.35 Z0.2
;TYPE:SKIRT
G1 F1500 E0
G1 F1800 X33.589 Y-32.49 E0.14874
G1 X35.627 Y-30.637 E0.30146
G1 X37.697 Y-28.861 E0.45269
G1 X39.802 Y-27.154 E0.60296
G1 X41.954 Y-25.51 E0.75312
G1 X44.171 Y-23.911 E0.90468
G1 X46.399 Y-22.398 E1.05401
G1 X48.705 Y-20.928 E1.20564
G1 X51.041 Y-19.528 E1.35664
G1 X52.325 Y-18.809 E1.43823
G1 X53.065 Y-18.383 E1.48558
G1 X53.527 Y-18.071 E1.51649
G1 X53.941 Y-17.695 E1.5475
G1 X54.296 Y-17.265 E1.57841
G1 X54.586 Y-16.788 E1.60937
G1 X54.806 Y-16.275 E1.64032
G1 X54.95 Y-15.735 E1.6713
G1 X55.017 Y-15.111 E1.7061
G1 X55.028 Y-14.679 E1.73006
G1 X55.028 Y14.308 E3.33729
G1 X55.018 Y15.038 E3.37777
G1 X54.97 Y15.595 E3.40877
G1 X54.844 Y16.138 E3.43968
G1 X54.641 Y16.658 E3.47063
G1 X54.366 Y17.144 E3.50159
G1 X54.024 Y17.586 E3.53258
G1 X53.623 Y17.974 E3.56352
G1 X53.026 Y18.386 E3.60374
G1 X52.741 Y18.546 E3.62186
G1 X50.339 Y19.934 E3.77568
G1 X48.035 Y21.356 E3.9258
G1 X45.762 Y22.846 E4.07649
G1 X43.515 Y24.415 E4.22845
G1 X41.342 Y26.023 E4.37834
G1 X39.193 Y27.71 E4.52982
G1 X37.11 Y29.443 E4.68006
G1 X35.104 Y31.211 E4.82832
G1 X33.083 Y33.096 E4.98156
G1 X31.146 Y35.007 E5.13243
G1 X29.266 Y36.969 E5.28309
G1 X27.464 Y38.961 E5.43203
G1 X25.672 Y41.057 E5.58493
G1 X23.989 Y43.142 E5.7335
G1 X22.33 Y45.323 E5.88544
G1 X20.739 Y47.54 E6.03674
G1 X19.2 Y49.818 E6.18917
G1 X18.903 Y50.269 E6.21911
G1 X18.564 Y50.712 E6.25004
G1 X18.164 Y51.102 E6.28102
G1 X17.713 Y51.431 E6.31197
G1 X17.22 Y51.692 E6.3429
G1 X16.695 Y51.88 E6.37382
G1 X16.148 Y51.992 E6.40478
G1 X15.433 Y52.031 E6.44448
G1 X15.324 Y52.033 E6.45053
G1 X4.121 Y52.033 E7.0717
G1 X3.321 Y52.02 E7.11606
G1 X2.964 Y52.005 E7.13587
G1 X0.259 Y51.927 E7.28592
G1 X-2.49 Y51.927 E7.43834
G1 X-5.151 Y52.002 E7.58594
G1 X-6.032 Y52.03 E7.63481
G1 X-6.158 Y52.032 E7.6418
G1 X-17.445 Y52.033 E8.26763
G1 X-18.147 Y52.022 E8.30656
G1 X-18.703 Y51.973 E8.3375
G1 X-19.247 Y51.845 E8.36849
G1 X-19.766 Y51.641 E8.39941
G1 X-20.252 Y51.366 E8.43037
G1 X-20.692 Y51.023 E8.46131
G1 X-21.08 Y50.621 E8.49228
G1 X-21.405 Y50.17 E8.52311
G1 X-22.811 Y47.892 E8.67154
G1 X-24.286 Y45.644 E8.82062
G1 X-25.856 Y43.393 E8.97278
G1 X-27.479 Y41.201 E9.12401
G1 X-29.124 Y39.106 E9.2717
G1 X-30.902 Y36.97 E9.4258
G1 X-32.68 Y34.952 E9.57492
G1 X-34.541 Y32.955 E9.72628
G1 X-36.432 Y31.038 E9.87558
G1 X-38.415 Y29.14 E10.02778
G1 X-40.424 Y27.323 E10.17797
G1 X-42.472 Y25.573 E10.32734
G1 X-44.617 Y23.839 E10.48027
G1 X-46.767 Y22.204 E10.63004
G1 X-48.968 Y20.626 E10.7802
G1 X-51.226 Y19.101 E10.93127
G1 X-53.606 Y17.59 E11.08759
G1 X-54.054 Y17.258 E11.1185
G1 X-54.451 Y16.865 E11.14948
G1 X-54.788 Y16.42 E11.18043
G1 X-55.057 Y15.931 E11.21137
G1 X-55.254 Y15.409 E11.24231
G1 X-55.375 Y14.864 E11.27326
G1 X-55.424 Y14.063 E11.31776
G1 X-55.425 Y-15.066 E12.93286
G1 X-55.415 Y-15.748 E12.97068
G1 X-55.366 Y-16.304 E13.00163
G1 X-55.239 Y-16.848 E13.0326
G1 X-55.036 Y-17.368 E13.06356
G1 X-54.761 Y-17.853 E13.09447
G1 X-54.419 Y-18.294 E13.12541
G1 X-54.017 Y-18.682 E13.15639
G1 X-53.515 Y-19.039 E13.19055
G1 X-53.156 Y-19.253 E13.21372
G1 X-50.809 Y-20.701 E13.36663
G1 X-48.536 Y-22.192 E13.51735
G1 X-46.309 Y-23.746 E13.66792
G1 X-44.128 Y-25.361 E13.8184
G1 X-42 Y-27.033 E13.96845
G1 X-39.879 Y-28.798 E14.12145
G1 X-37.867 Y-30.571 E14.27014
G1 X-35.865 Y-32.437 E14.42188
G1 X-33.94 Y-34.338 E14.57189
G1 X-32.069 Y-36.291 E14.72185
G1 X-30.233 Y-38.321 E14.87362
G1 X-28.449 Y-40.408 E15.02585
G1 X-26.762 Y-42.499 E15.17482
G1 X-25.115 Y-44.665 E15.32569
G1 X-23.519 Y-46.889 E15.47747
G1 X-22.015 Y-49.116 E15.62647
G1 X-21.416 Y-50.028 E15.68697
G1 X-21.077 Y-50.471 E15.7179
G1 X-20.678 Y-50.862 E15.74888
G1 X-20.227 Y-51.192 E15.77986
G1 X-19.734 Y-51.453 E15.81079
G1 X-19.209 Y-51.642 E15.84173
G1 X-18.662 Y-51.754 E15.87269
G1 X-17.943 Y-51.794 E15.91262
G1 X-17.834 Y-51.796 E15.91866
G1 X-11.225 Y-51.796 E16.28511
G1 X-9.088 Y-51.766 E16.40361
G1 X-8.731 Y-51.756 E16.42341
G1 X-6.03 Y-51.76 E16.57317
G1 X-4.755 Y-51.791 E16.64389
G1 X-4.258 Y-51.796 E16.67145
G1 X1.487 Y-51.796 E16.98999
G1 X3.451 Y-51.767 E17.0989
G1 X3.804 Y-51.757 E17.11848
G1 X6.549 Y-51.757 E17.27068
G1 X8.316 Y-51.796 E17.36868
G1 X14.93 Y-51.796 E17.7354
G1 X15.632 Y-51.786 E17.77433
G1 X16.188 Y-51.738 E17.80527
G1 X16.731 Y-51.611 E17.83619
G1 X17.251 Y-51.408 E17.86714
G1 X17.737 Y-51.133 E17.8981
G1 X18.178 Y-50.791 E17.92905
G1 X18.566 Y-50.39 E17.95998
G1 X18.807 Y-50.07 E17.9822
G1 X19.442 Y-49.13 E18.04509
G1 X19.547 Y-48.971 E18.05566
G1 X21.065 Y-46.784 E18.20327
G1 X22.701 Y-44.563 E18.35622
G1 X24.375 Y-42.421 E18.50695
G1 X26.13 Y-40.302 E18.65951
G1 X27.899 Y-38.284 E18.8083
G1 X29.742 Y-36.297 E18.95857
G1 X31.656 Y-34.35 E19.10995
G0 F3600 X31.236 Y-33.922
G1 F1800 X33.194 Y-32.038 E19.26061
G1 X35.24 Y-30.178 E19.41393
G1 X37.316 Y-28.397 E19.56559
G1 X39.409 Y-26.7 E19.71499
G1 X41.605 Y-25.022 E19.86823
G1 X43.831 Y-23.416 E20.02043
G1 X46.064 Y-21.9 E20.17008
G1 X48.382 Y-20.421 E20.32253
G1 X50.748 Y-19.004 E20.47545
G1 X52.025 Y-18.289 E20.5566
G1 X52.765 Y-17.863 E20.60394
G1 X53.189 Y-17.573 E20.63242
G1 X53.563 Y-17.221 E20.6609
G1 X53.877 Y-16.815 E20.68936
G1 X54.125 Y-16.365 E20.71785
G1 X54.3 Y-15.882 E20.74633
G1 X54.398 Y-15.378 E20.7748
G1 X54.427 Y-14.771 E20.8085
G1 X54.428 Y14.3 E22.42038
G1 X54.418 Y15.03 E22.46086
G1 X54.371 Y15.541 E22.48932
G1 X54.245 Y16.039 E22.5178
G1 X54.044 Y16.512 E22.5463
G1 X53.771 Y16.947 E22.57477
G1 X53.435 Y17.335 E22.60323
G1 X53.043 Y17.666 E22.63168
G1 X52.405 Y18.047 E22.67288
G1 X50.033 Y19.417 E22.82476
G1 X47.716 Y20.848 E22.97576
G1 X45.422 Y22.351 E23.12782
G1 X43.18 Y23.917 E23.27945
G1 X40.981 Y25.544 E23.43113
G1 X38.809 Y27.249 E23.58423
G1 X36.717 Y28.989 E23.7351
G1 X34.685 Y30.78 E23.88529
G1 X32.676 Y32.654 E24.03762
G1 X30.733 Y34.571 E24.18896
G1 X28.829 Y36.558 E24.34155
G1 X26.987 Y38.594 E24.49378
G1 X25.224 Y40.656 E24.6442
G1 X23.503 Y42.789 E24.79617
G1 X21.852 Y44.958 E24.94731
G1 X20.259 Y47.179 E25.09886
G1 X18.703 Y49.482 E25.25296
G1 X18.402 Y49.939 E25.2833
G1 X18.087 Y50.344 E25.31175
G1 X17.713 Y50.696 E25.34023
G1 X17.289 Y50.986 E25.36871
G1 X16.826 Y51.206 E25.39713
G1 X16.333 Y51.352 E25.42564
G1 X15.738 Y51.423 E25.45887
G1 X15.324 Y51.433 E25.48183
G1 X4.129 Y51.433 E26.10255
G1 X3.437 Y51.423 E26.14093
G1 X3.033 Y51.407 E26.16335
G1 X0.241 Y51.327 E26.31822
G1 X-2.471 Y51.327 E26.46859
G1 X-5.167 Y51.401 E26.61813
G1 X-6.158 Y51.432 E26.6731
G1 X-17.436 Y51.433 E27.29843
G1 X-18.138 Y51.422 E27.33736
G1 X-18.649 Y51.374 E27.36582
G1 X-19.146 Y51.247 E27.39426
G1 X-19.618 Y51.045 E27.42273
G1 X-20.053 Y50.772 E27.4512
G1 X-20.44 Y50.434 E27.47969
G1 X-20.894 Y49.855 E27.52049
G1 X-22.287 Y47.597 E27.66759
G1 X-23.798 Y45.297 E27.82018
G1 X-25.37 Y43.042 E27.97259
G1 X-26.984 Y40.862 E28.12299
G1 X-28.681 Y38.701 E28.27534
G1 X-30.433 Y36.595 E28.42723
G1 X-32.247 Y34.537 E28.57934
G1 X-34.099 Y32.549 E28.72999
G1 X-36.032 Y30.59 E28.88259
G1 X-37.985 Y28.72 E29.03251
G1 X-40.019 Y26.879 E29.18462
G1 X-42.111 Y25.093 E29.33714
G1 X-44.226 Y23.384 E29.48791
G1 X-46.42 Y21.715 E29.64076
G1 X-48.655 Y20.112 E29.79326
G1 X-50.893 Y18.601 E29.94298
G1 X-53.284 Y17.083 E30.10002
G1 X-53.695 Y16.775 E30.12849
G1 X-54.053 Y16.407 E30.15696
G1 X-54.35 Y15.988 E30.18544
G1 X-54.578 Y15.528 E30.2139
G1 X-54.732 Y15.038 E30.24238
G1 X-54.815 Y14.385 E30.27888
G1 X-54.825 Y13.959 E30.30251
G1 X-54.825 Y-15.057 E31.91135
G1 X-54.815 Y-15.739 E31.94917
G1 X-54.767 Y-16.251 E31.97768
G1 X-54.641 Y-16.748 E32.00611
G1 X-54.439 Y-17.22 E32.03457
G1 X-54.167 Y-17.655 E32.06302
G1 X-53.83 Y-18.043 E32.09152
G1 X-53.437 Y-18.374 E32.12001
G1 X-52.858 Y-18.733 E32.15778
G1 X-50.464 Y-20.21 E32.31375
G1 X-48.196 Y-21.698 E32.46415
G1 X-45.974 Y-23.248 E32.61437
G1 X-43.766 Y-24.883 E32.7667
G1 X-41.616 Y-26.572 E32.9183
G1 X-39.504 Y-28.329 E33.07063
G1 X-37.449 Y-30.14 E33.2225
G1 X-35.458 Y-31.995 E33.37339
G1 X-33.509 Y-33.92 E33.52528
G1 X-31.615 Y-35.897 E33.67708
G1 X-29.79 Y-37.916 E33.82798
G1 X-27.984 Y-40.029 E33.9821
G1 X-26.306 Y-42.108 E34.13024
G1 X-24.621 Y-44.324 E34.2846
G1 X-23.039 Y-46.529 E34.43507
G1 X-21.489 Y-48.823 E34.58857
G1 X-20.914 Y-49.699 E34.64667
G1 X-20.6 Y-50.105 E34.67513
G1 X-20.226 Y-50.457 E34.70361
G1 X-19.803 Y-50.747 E34.73205
G1 X-19.339 Y-50.968 E34.76054
G1 X-18.847 Y-51.114 E34.789
G1 X-18.248 Y-51.186 E34.82245
G1 X-17.834 Y-51.196 E34.84541
G1 X-11.233 Y-51.196 E35.21141
G1 X-9.105 Y-51.166 E35.32942
G1 X-8.747 Y-51.156 E35.34927
G1 X-6.014 Y-51.16 E35.50081
G1 X-4.749 Y-51.191 E35.57097
G1 X-4.252 Y-51.196 E35.59853
G1 X1.479 Y-51.196 E35.91629
G1 X3.434 Y-51.168 E36.0247
G1 X3.823 Y-51.157 E36.04628
G1 X6.562 Y-51.157 E36.19815
G1 X8.316 Y-51.196 E36.29543
G1 X14.921 Y-51.196 E36.66165
G1 X15.623 Y-51.186 E36.70058
G1 X16.134 Y-51.138 E36.72904
G1 X16.632 Y-51.012 E36.75752
G1 X17.104 Y-50.811 E36.78596
G1 X17.539 Y-50.538 E36.81444
G1 X17.927 Y-50.202 E36.8429
G1 X18.31 Y-49.734 E36.87643
G1 X18.94 Y-48.801 E36.93885
G1 X19.028 Y-48.667 E36.94774
G1 X20.594 Y-46.411 E37.10001
G1 X22.234 Y-44.186 E37.25327
G1 X23.915 Y-42.034 E37.40468
G1 X25.642 Y-39.949 E37.55479
G1 X27.466 Y-37.868 E37.70823
G1 X29.299 Y-35.893 E37.85763
G1 X31.236 Y-33.922 E38.01085
G1 F1500 E31.51085
;MESH:M.stl(1)
G0 F3600 X16.246 Y-33.922
G0 X14.661 Y-33.922
G0 X8.918 Y-24.198
G0 X7.258 Y-23.944
G0 X7.314 Y-24.026
;TYPE:WALL-INNER
G1 F1500 E38.01085
G1 F1800 X8.889 Y-24.224 E38.09887
G1 X8.889 Y-46.996 E39.3615
G1 X14.681 Y-46.996 E39.68265
G1 X14.681 Y-18.796 E41.24624
G1 X4.096 Y-18.796 E41.83315
G1 X-.572 Y-37.05 E42.87784
G1 X-1.968 Y-37.05 E42.95524
G1 X-6.671 Y-18.796 E44.00042
G1 X-17.264 Y-18.796 E44.58776
G1 X-17.264 Y-46.996 E46.15136
G1 X-11.472 Y-46.996 E46.47251
G1 X-11.472 Y-24.224 E47.73514
G1 X-9.897 Y-24.026 E47.82315
G1 X-4.034 Y-46.996 E49.1376
G1 X1.44 Y-46.996 E49.44111
G1 X7.314 Y-24.026 E50.7557
G0 F3600 X7.764 Y-24.687
;TYPE:WALL-OUTER
G1 F1800 X8.289 Y-24.753 E50.78504
G1 X8.289 Y-25.035 E50.80068
G1 X8.289 Y-47.596 E52.05161
G1 X15.281 Y-47.596 E52.43929
G1 X15.281 Y-18.196 E54.06942
G1 X3.63 Y-18.196 E54.71543
G1 X-.974 Y-36.197 E55.74566
G1 X-1.038 Y-36.45 E55.76013
G1 X-1.503 Y-36.45 E55.78591
G1 X-1.568 Y-36.197 E55.79881
G1 X-6.206 Y-18.196 E56.8295
G1 X-17.864 Y-18.196 E57.4759
G1 X-17.864 Y-47.596 E59.10603
G1 X-10.872 Y-47.596 E59.49371
G1 X-10.872 Y-25.035 E60.74465
G1 X-10.872 Y-24.753 E60.76028
G1 X-10.347 Y-24.687 E60.78962
G1 X-10.278 Y-24.96 E60.80431
G1 X-4.5 Y-47.596 E62.09965
G1 X1.906 Y-47.596 E62.45484
G1 X7.695 Y-24.96 E63.75032
G1 X7.764 Y-24.687 E63.76502
G0 F3600 X7.962 Y-24.711
G0 X8.043 Y-24.056
G0 X8.047 Y-24.017
G0 X-.615 Y-40.62
;TYPE:SKIN
G1 F1800 X-1.978 Y-40.62 E63.84059
G1 X-1.297 Y-43.287 E63.99321
G1 X-.615 Y-40.62 E64.14585
G0 F3600 X0.158 Y-40.02
G1 F1800 X-2.75 Y-40.02 E64.30709
G1 X-1.727 Y-44.026 E64.53633
G1 X-.867 Y-44.026 E64.58402
G1 X0.158 Y-40.02 E64.81329
G0 F3600 X0.931 Y-39.42
G1 F1800 X-3.522 Y-39.42 E65.0602
G1 X-2.193 Y-44.626 E65.35811
G1 X-.401 Y-44.626 E65.45747
G1 X0.931 Y-39.42 E65.75542
G0 F3600 X0.803 Y-38.82
G1 F1800 X-3.341 Y-38.82 E65.98519
G1 X-8.043 Y-20.566 E67.03035
G1 X-15.494 Y-20.566 E67.44349
G1 X-15.494 Y-45.226 E68.8108
G1 X-13.242 Y-45.226 E68.93567
G1 X-13.242 Y-22.663 E70.18671
G1 X-8.569 Y-22.075 E70.44785
G1 X-2.659 Y-45.226 E71.77267
G1 X0.065 Y-45.226 E71.9237
G1 X5.986 Y-22.075 E73.24866
G1 X10.659 Y-22.663 E73.50981
G1 X10.659 Y-45.226 E74.76085
G1 X12.911 Y-45.226 E74.88572
G1 X12.911 Y-20.566 E76.25303
G1 X5.471 Y-20.566 E76.66556
G1 X0.803 Y-38.82 E77.71025
G0 F3600 X0.337 Y-38.22
G1 F1800 X-2.876 Y-38.22 E77.8884
G1 X-7.578 Y-19.966 E78.93356
G1 X-16.094 Y-19.966 E79.40574
G1 X-16.094 Y-45.826 E80.83959
G1 X-12.642 Y-45.826 E81.03099
G1 X-12.642 Y-23.192 E82.28597
G1 X-9.019 Y-22.736 E82.48844
G1 X-3.125 Y-45.826 E83.80976
G1 X0.531 Y-45.826 E84.01247
G1 X6.436 Y-22.736 E85.33394
G1 X10.059 Y-23.192 E85.5364
G1 X10.059 Y-45.826 E86.79138
G1 X13.511 Y-45.826 E86.98278
G1 X13.511 Y-19.966 E88.41663
G1 X5.005 Y-19.966 E88.88826
G1 X0.337 Y-38.22 E89.93296
G0 F3600 X-.129 Y-37.62
G1 F1800 X-2.41 Y-37.62 E90.05943
G1 X-2.578 Y-36.965 E90.09692
G1 X-2.579 Y-36.965 E90.09698
G1 X-2.595 Y-36.903 E90.10053
G1 X-7.113 Y-19.366 E91.10465
G1 X-16.694 Y-19.366 E91.63588
G1 X-16.694 Y-46.426 E93.13627
G1 X-12.042 Y-46.426 E93.3942
G1 X-12.042 Y-23.721 E94.65312
G1 X-9.469 Y-23.397 E94.79691
G1 X-3.591 Y-46.426 E96.11473
G1 X0.997 Y-46.426 E96.36912
G1 X6.886 Y-23.397 E97.68709
G1 X9.459 Y-23.721 E97.83088
G1 X9.459 Y-46.426 E99.08979
G1 X14.111 Y-46.426 E99.34773
G1 X14.111 Y-19.366 E100.84812
G1 X4.539 Y-19.366 E101.37885
G1 X-.129 Y-37.62 E102.42355
G0 F3600 X7.292 Y-23.993
G0 X8.918 Y-24.198
G0 X11.259 Y-44.626
G1 F1800 X12.311 Y-44.626 E102.48188
G1 X12.311 Y-21.166 E103.78265
G1 X5.937 Y-21.166 E104.13607
G1 X5.863 Y-21.455 E104.15261
G1 X11.259 Y-22.134 E104.45416
G1 X11.259 Y-44.626 E105.70127
G0 F3600 X8.918 Y-24.198
G0 X7.292 Y-23.993
G0 X-4.599 Y-44.626
G0 X-9.875 Y-23.993
G0 X-11.501 Y-24.198
G0 X-13.842 Y-44.626
G1 F1800 X-13.842 Y-22.134 E106.94837
G1 X-8.434 Y-21.454 E107.25059
G1 X-8.508 Y-21.166 E107.26708
G1 X-14.894 Y-21.166 E107.62116
G1 X-14.894 Y-44.626 E108.92194
G1 X-13.842 Y-44.626 E108.98027
G0 F3600 X-14.4 Y-44.341
;TYPE:SKIN
G1 F1800 X-14.4 Y-21.451 E109.61485
G0 F3600 X-14.1 Y-21.451
G1 F1800 X-14.1 Y-21.879 E109.62672
G0 F3600 X-13.8 Y-21.841
G1 F1800 X-13.8 Y-21.451 E109.63753
G0 F3600 X-13.5 Y-21.451
G1 F1800 X-13.5 Y-21.803 E109.64729
G0 F3600 X-13.2 Y-21.766
G1 F1800 X-13.2 Y-21.451 E109.65602
G0 F3600 X-12.9 Y-21.451
G1 F1800 X-12.9 Y-21.728 E109.6637
G0 F3600 X-12.6 Y-21.69
G1 F1800 X-12.6 Y-21.451 E109.67033
G0 F3600 X-12.3 Y-21.451
G1 F1800 X-12.3 Y-21.652 E109.6759
G0 F3600 X-12 Y-21.614
G1 F1800 X-12 Y-21.451 E109.68042
G0 F3600 X-11.7 Y-21.451
G1 F1800 X-11.7 Y-21.577 E109.68391
G0 F3600 X-11.4 Y-21.539
G1 F1800 X-11.4 Y-21.451 E109.68635
G0 F3600 X-8.1 Y-21.685
G1 F1800 X-8.1 Y-22.76 E109.71615
G0 F3600 X-7.8 Y-22.652
G1 F1800 X-7.8 Y-23.935 E109.75172
G0 F3600 X-7.5 Y-23.816
G1 F1800 X-7.5 Y-25.11 E109.7876
G0 F3600 X-7.2 Y-24.981
G1 F1800 X-7.2 Y-26.285 E109.82375
G0 F3600 X-6.9 Y-26.145
G1 F1800 X-6.9 Y-27.461 E109.86023
G0 F3600 X-6.6 Y-27.31
G1 F1800 X-6.6 Y-28.636 E109.89699
G0 F3600 X-6.3 Y-28.475
G1 F1800 X-6.3 Y-29.811 E109.93403
G0 F3600 X-6 Y-29.639
G1 F1800 X-6 Y-30.986 E109.97138
G0 F3600 X-5.7 Y-30.804
G1 F1800 X-5.7 Y-32.162 E110.00902
G0 F3600 X-5.4 Y-31.968
G1 F1800 X-5.4 Y-33.337 E110.04698
G0 F3600 X-5.1 Y-33.133
G1 F1800 X-5.1 Y-34.512 E110.08521
G0 F3600 X-4.8 Y-34.297
G1 F1800 X-4.8 Y-35.687 E110.12374
G0 F3600 X-4.5 Y-35.462
G1 F1800 X-4.5 Y-36.863 E110.16258
G0 F3600 X-4.2 Y-36.626
G1 F1800 X-4.2 Y-38.038 E110.20173
G0 F3600 X-3.9 Y-37.791
G1 F1800 X-3.9 Y-39.15 E110.2394
G0 F3600 X-3.6 Y-39.15
G1 F1800 X-3.6 Y-38.955 E110.24481
G0 F3600 X-1.5 Y-40.905
G1 F1800 X-1.5 Y-41.343 E110.25695
G0 F3600 X-1.2 Y-41.757
G1 F1800 X-1.2 Y-40.905 E110.28057
G0 F3600 X-1.2 Y-43.557
