;FLAVOR:Marlin
;TIME:1739
;Filament used: 2.96566m
;Layer height: 0.2
;MINX:-42.985
;MINY:-44.312
;MINZ:0.2
;MAXX:42.573
;MAXY:43.713
;MAXZ:3.6
;POSTPROCESSED
;Generated with Cura_SteamEngine 4.8.0
M140 S60
M105
M190 S60
M104 S195
M105
M109 S195
M82 ;absolute extrusion mode
G28 ;Home
G1 Z15.0 F6000 ;Move the platform down 15mm
;Prime the extruder
G92 E0
G1 F200 E3
G92 E0
G92 E0
G92 E0
G1 F1500 E-6.5
;LAYER_COUNT:18
;LAYER:0
M107
G0 F3600 X41.668 Y1.648 Z0.2
;TYPE:SKIRT
G1 F1500 E0
G1 F1800 X41.668 Y4.398 E0.15248
G1 X41.744 Y7.096 E0.30213
G1 X41.819 Y8.582 E0.38463
G1 X41.868 Y9.434 E0.43195
G1 X41.884 Y9.987 E0.46262
G1 X41.884 Y38.976 E2.06997
G1 X41.874 Y39.703 E2.11028
G1 X41.826 Y40.259 E2.14122
G1 X41.7 Y40.803 E2.17219
G1 X41.497 Y41.323 E2.20314
G1 X41.222 Y41.808 E2.23405
G1 X40.88 Y42.25 E2.26504
G1 X40.479 Y42.638 E2.29598
G1 X40.027 Y42.965 E2.32691
G1 X39.532 Y43.224 E2.35788
G1 X39.006 Y43.41 E2.38882
G1 X38.458 Y43.519 E2.4198
G1 X37.764 Y43.556 E2.45833
G1 X37.654 Y43.558 E2.46443
G1 X29.898 Y43.558 E2.89448
G1 X29.193 Y43.548 E2.93357
G1 X27.579 Y43.48 E3.02314
G1 X24.791 Y43.404 E3.17778
G1 X22.076 Y43.407 E3.32832
G1 X19.367 Y43.487 E3.47859
G1 X18.201 Y43.544 E3.54332
G1 X17.681 Y43.558 E3.57216
G1 X9.944 Y43.558 E4.00115
G1 X9.246 Y43.548 E4.03986
G1 X9.028 Y43.538 E4.05196
G1 X8.08 Y43.471 E4.10465
G1 X6.947 Y43.375 E4.1677
G1 X4.236 Y43.224 E4.31825
G1 X1.492 Y43.149 E4.47045
G1 X-1.222 Y43.151 E4.62093
G1 X-3.902 Y43.23 E4.7696
G1 X-6.627 Y43.386 E4.92093
G1 X-8.68 Y43.575 E5.03525
G1 X-10.07 Y43.69 E5.11258
G1 X-10.608 Y43.711 E5.14244
G1 X-10.725 Y43.713 E5.14892
G1 X-18.399 Y43.713 E5.57442
G1 X-19.104 Y43.703 E5.61351
G1 X-20.666 Y43.637 E5.7002
G1 X-23.346 Y43.559 E5.84886
G1 X-26.059 Y43.557 E5.99929
G1 X-28.83 Y43.633 E6.15299
G1 X-30.18 Y43.7 E6.22793
G1 X-30.677 Y43.713 E6.2555
G1 X-38.428 Y43.713 E6.68526
G1 X-39.126 Y43.704 E6.72397
G1 X-39.683 Y43.657 E6.75496
G1 X-40.226 Y43.531 E6.78587
G1 X-40.747 Y43.328 E6.81687
G1 X-41.233 Y43.054 E6.84781
G1 X-41.674 Y42.712 E6.87875
G1 X-42.063 Y42.312 E6.90969
G1 X-42.39 Y41.86 E6.94062
G1 X-42.65 Y41.365 E6.97162
G1 X-42.836 Y40.839 E7.00256
G1 X-42.945 Y40.292 E7.03348
G1 X-42.984 Y39.576 E7.07324
G1 X-42.985 Y10.46 E8.68763
G1 X-42.974 Y9.748 E8.72711
G1 X-42.949 Y9.367 E8.74828
G1 X-42.626 Y6.534 E8.90638
G1 X-42.396 Y3.831 E9.05679
G1 X-42.241 Y1.086 E9.20924
G1 X-42.165 Y-1.589 E9.35761
G1 X-42.165 Y-4.34 E9.51015
G1 X-42.241 Y-7.041 E9.65997
G1 X-42.316 Y-8.537 E9.74302
G1 X-42.355 Y-9.204 E9.78007
G1 X-42.371 Y-9.754 E9.81058
G1 X-42.371 Y-38.784 E11.42019
G1 X-42.361 Y-39.473 E11.4584
G1 X-42.313 Y-40.029 E11.48934
G1 X-42.186 Y-40.572 E11.52026
G1 X-41.982 Y-41.092 E11.55123
G1 X-41.707 Y-41.578 E11.5822
G1 X-41.365 Y-42.019 E11.61314
G1 X-40.964 Y-42.407 E11.64408
G1 X-40.511 Y-42.734 E11.67505
G1 X-40.016 Y-42.992 E11.706
G1 X-39.49 Y-43.178 E11.73694
G1 X-38.942 Y-43.286 E11.76791
G1 X-38.251 Y-43.323 E11.80628
G1 X-38.141 Y-43.325 E11.81238
G1 X-30.385 Y-43.325 E12.24242
G1 X-29.68 Y-43.315 E12.28152
G1 X-28.066 Y-43.247 E12.37109
G1 X-25.278 Y-43.171 E12.52573
G1 X-22.563 Y-43.174 E12.67627
G1 X-19.854 Y-43.254 E12.82654
G1 X-18.688 Y-43.311 E12.89126
G1 X-18.168 Y-43.325 E12.92011
G1 X-10.431 Y-43.325 E13.3491
G1 X-9.638 Y-43.312 E13.39307
G1 X-8.95 Y-43.282 E13.43126
G1 X-6.248 Y-43.206 E13.58113
G1 X-3.498 Y-43.206 E13.73361
G1 X-.818 Y-43.282 E13.88227
G1 X1.92 Y-43.436 E14.03432
G1 X4.631 Y-43.667 E14.18518
G1 X7.325 Y-43.973 E14.33551
G1 X8.779 Y-44.169 E14.41686
G1 X9.441 Y-44.264 E14.45394
G1 X10.203 Y-44.31 E14.49627
G1 X10.313 Y-44.312 E14.50237
G1 X18.069 Y-44.312 E14.93242
G1 X18.775 Y-44.302 E14.97157
G1 X20.252 Y-44.239 E15.05353
G1 X22.988 Y-44.16 E15.2053
G1 X25.702 Y-44.158 E15.35578
G1 X28.474 Y-44.235 E15.50954
G1 X29.764 Y-44.298 E15.58115
G1 X30.285 Y-44.312 E15.61005
G1 X38.022 Y-44.312 E16.03904
G1 X38.72 Y-44.302 E16.07774
G1 X39.276 Y-44.254 E16.10869
G1 X39.82 Y-44.127 E16.13966
G1 X40.34 Y-43.924 E16.17061
G1 X40.825 Y-43.648 E16.20155
G1 X41.267 Y-43.307 E16.23251
G1 X41.655 Y-42.905 E16.26349
G1 X41.981 Y-42.453 E16.29439
G1 X42.24 Y-41.958 E16.32536
G1 X42.426 Y-41.432 E16.3563
G1 X42.534 Y-40.884 E16.38727
G1 X42.571 Y-40.192 E16.42569
G1 X42.573 Y-40.082 E16.43179
G1 X42.573 Y-11.059 E18.04102
G1 X42.562 Y-10.345 E18.08061
G1 X42.53 Y-9.91 E18.1048
G1 X42.443 Y-9.231 E18.14275
G1 X42.131 Y-6.481 E18.29621
G1 X41.9 Y-3.773 E18.4469
G1 X41.744 Y-1.025 E18.59952
G1 X41.668 Y1.648 E18.74778
G0 F3600 X41.068 Y1.667
G1 F1800 X41.068 Y4.379 E18.89816
G1 X41.146 Y7.143 E19.05147
G1 X41.22 Y8.617 E19.1333
G1 X41.269 Y9.469 E19.18062
G1 X41.284 Y9.987 E19.20935
G1 X41.284 Y38.967 E20.8162
G1 X41.274 Y39.694 E20.85651
G1 X41.227 Y40.206 E20.88502
G1 X41.101 Y40.703 E20.91345
G1 X40.9 Y41.176 E20.94194
G1 X40.627 Y41.611 E20.97042
G1 X40.291 Y41.999 E20.99888
G1 X39.898 Y42.33 E21.02737
G1 X39.459 Y42.596 E21.05583
G1 X38.984 Y42.791 E21.0843
G1 X38.485 Y42.909 E21.11273
G1 X37.747 Y42.957 E21.15374
G1 X29.906 Y42.958 E21.58849
G1 X29.201 Y42.948 E21.62759
G1 X27.583 Y42.88 E21.71738
G1 X24.807 Y42.804 E21.87136
G1 X22.094 Y42.807 E22.02178
G1 X19.319 Y42.888 E22.17571
G1 X18.183 Y42.945 E22.23878
G1 X17.681 Y42.958 E22.26662
G1 X9.953 Y42.958 E22.69511
G1 X9.255 Y42.948 E22.73382
G1 X9.07 Y42.94 E22.74409
G1 X8.131 Y42.873 E22.79628
G1 X6.996 Y42.777 E22.85944
G1 X4.252 Y42.624 E23.01182
G1 X1.507 Y42.549 E23.16408
G1 X-1.205 Y42.551 E23.31445
G1 X-3.953 Y42.632 E23.46689
G1 X-6.688 Y42.789 E23.61878
G1 X-8.73 Y42.977 E23.73248
G1 X-10.12 Y43.092 E23.80982
G1 X-10.626 Y43.112 E23.83789
G1 X-18.391 Y43.113 E24.26844
G1 X-19.096 Y43.103 E24.30753
G1 X-20.615 Y43.039 E24.39183
G1 X-23.364 Y42.959 E24.54432
G1 X-26.076 Y42.957 E24.69469
G1 X-28.832 Y43.033 E24.84756
G1 X-30.197 Y43.101 E24.92334
G1 X-30.677 Y43.113 E24.94996
G1 X-38.421 Y43.113 E25.37934
G1 X-39.119 Y43.104 E25.41804
G1 X-39.63 Y43.057 E25.4465
G1 X-40.128 Y42.932 E25.47496
G1 X-40.6 Y42.731 E25.50341
G1 X-41.036 Y42.459 E25.5319
G1 X-41.424 Y42.123 E25.56036
G1 X-41.755 Y41.731 E25.58881
G1 X-42.022 Y41.292 E25.6173
G1 X-42.217 Y40.817 E25.64577
G1 X-42.336 Y40.318 E25.67421
G1 X-42.384 Y39.56 E25.71632
G1 X-42.385 Y10.469 E27.32932
G1 X-42.374 Y9.757 E27.36881
G1 X-42.353 Y9.435 E27.3867
G1 X-42.028 Y6.583 E27.54585
G1 X-41.798 Y3.881 E27.69621
G1 X-41.643 Y1.137 E27.8486
G1 X-41.565 Y-1.608 E28.00086
G1 X-41.565 Y-4.321 E28.15129
G1 X-41.643 Y-7.088 E28.30477
G1 X-41.717 Y-8.567 E28.38688
G1 X-41.761 Y-9.34 E28.42981
G1 X-41.771 Y-9.754 E28.45277
G1 X-41.771 Y-38.775 E30.06189
G1 X-41.761 Y-39.464 E30.10009
G1 X-41.713 Y-39.975 E30.12855
G1 X-41.587 Y-40.473 E30.15704
G1 X-41.385 Y-40.945 E30.1855
G1 X-41.113 Y-41.38 E30.21395
G1 X-40.776 Y-41.768 E30.24244
G1 X-40.383 Y-42.098 E30.2709
G1 X-39.944 Y-42.364 E30.29936
G1 X-39.469 Y-42.558 E30.32781
G1 X-38.969 Y-42.677 E30.3563
G1 X-38.234 Y-42.724 E30.39714
G1 X-30.393 Y-42.725 E30.8319
G1 X-29.688 Y-42.715 E30.87099
G1 X-28.07 Y-42.647 E30.96078
G1 X-25.294 Y-42.571 E31.11476
G1 X-22.581 Y-42.574 E31.26519
G1 X-19.806 Y-42.655 E31.41912
G1 X-18.67 Y-42.712 E31.48219
G1 X-18.168 Y-42.725 E31.51003
G1 X-10.44 Y-42.725 E31.93852
G1 X-9.754 Y-42.715 E31.97656
G1 X-9.021 Y-42.685 E32.01724
G1 X-6.229 Y-42.606 E32.17211
G1 X-3.517 Y-42.606 E32.32248
G1 X-.769 Y-42.684 E32.47491
G1 X1.971 Y-42.838 E32.62707
G1 X4.679 Y-43.069 E32.77776
G1 X7.421 Y-43.38 E32.93077
G1 X8.854 Y-43.574 E33.01095
G1 X9.526 Y-43.67 E33.04859
G1 X10.22 Y-43.711 E33.08714
G1 X18.061 Y-43.712 E33.5219
G1 X18.767 Y-43.702 E33.56105
G1 X20.212 Y-43.641 E33.64124
G1 X23.006 Y-43.56 E33.79622
G1 X25.719 Y-43.558 E33.94665
G1 X28.476 Y-43.634 E34.09957
G1 X29.782 Y-43.699 E34.17207
G1 X30.285 Y-43.712 E34.19997
G1 X38.013 Y-43.712 E34.62846
G1 X38.711 Y-43.702 E34.66717
G1 X39.223 Y-43.654 E34.69568
G1 X39.72 Y-43.528 E34.72411
G1 X40.192 Y-43.327 E34.75256
G1 X40.628 Y-43.054 E34.78108
G1 X41.015 Y-42.718 E34.8095
G1 X41.346 Y-42.325 E34.83799
G1 X41.612 Y-41.886 E34.86645
G1 X41.806 Y-41.41 E34.89495
G1 X41.925 Y-40.911 E34.92339
G1 X41.972 Y-40.175 E34.96428
G1 X41.973 Y-11.068 E36.57817
G1 X41.962 Y-10.354 E36.61776
G1 X41.935 Y-9.986 E36.63822
G1 X41.847 Y-9.299 E36.67662
G1 X41.533 Y-6.529 E36.8312
G1 X41.302 Y-3.823 E36.98178
G1 X41.146 Y-1.076 E37.13434
G1 X41.068 Y1.667 E37.28649
G1 F1500 E30.78649
;MESH:N.stl(1)
G0 F3600 X37.07 Y8.993
G0 X37.07 Y10.572
G0 X30.178 Y26.941
G0 X28.864 Y27.348
G0 X18.412 Y22.036
G0 X18.38 Y22.13
;TYPE:WALL-INNER
G1 F1500 E37.28649
G1 F1800 X17.111 Y22.523 E37.36015
G1 X17.111 Y38.758 E38.26032
G1 X10.193 Y38.758 E38.6439
G1 X10.193 Y10.558 E40.2075
G1 X17.472 Y10.558 E40.61109
G1 X28.877 Y27.311 E41.73481
G1 X30.146 Y26.918 E41.80847
G1 X30.146 Y10.558 E42.71558
G1 X37.084 Y10.558 E43.10027
G1 X37.084 Y38.758 E44.66386
G1 X29.722 Y38.758 E45.07206
G1 X18.38 Y22.13 E46.18808
G0 F3600 X18.134 Y22.834
;TYPE:WALL-OUTER
G1 F1800 X17.711 Y22.965 E46.21264
G1 X17.711 Y23.221 E46.22683
G1 X17.711 Y39.358 E47.12157
G1 X9.593 Y39.358 E47.57169
G1 X9.593 Y9.958 E49.20182
G1 X17.79 Y9.958 E49.65631
G1 X28.979 Y26.396 E50.75885
G1 X29.123 Y26.607 E50.77302
G1 X29.546 Y26.476 E50.79757
G1 X29.546 Y26.22 E50.80998
G1 X29.546 Y9.958 E51.71166
G1 X37.684 Y9.958 E52.16288
G1 X37.684 Y39.358 E53.79301
G1 X29.405 Y39.358 E54.25206
G1 X18.278 Y23.045 E55.34693
G1 X18.134 Y22.834 E55.35931
G0 F3600 X17.943 Y22.893
G0 X17.749 Y22.262
G0 X17.738 Y22.224
G0 X15.609 Y17.368
;TYPE:SKIN
G1 F1800 X15.563 Y17.382 E55.36198
G1 X15.563 Y17.301 E55.36647
G1 X15.609 Y17.368 E55.37098
G0 F3600 X16.562 Y17.701
G1 F1800 X14.963 Y18.196 E55.46379
G1 X14.963 Y15.355 E55.62131
G1 X16.562 Y17.701 E55.77873
G0 F3600 X17.515 Y18.034
G1 F1800 X14.363 Y19.01 E55.96168
G1 X14.363 Y14.728 E56.19911
G1 X15.262 Y14.728 E56.24895
G1 X17.515 Y18.034 E56.47078
G0 F3600 X18.468 Y18.367
G1 F1800 X13.763 Y19.824 E56.74388
G1 X13.763 Y14.128 E57.0597
G1 X15.58 Y14.128 E57.16045
G1 X18.468 Y18.367 E57.44485
G0 F3600 X15.941 Y21.661
G1 F1800 X15.941 Y37.588 E58.32795
G1 X11.363 Y37.588 E58.58178
G1 X11.363 Y11.728 E60.01563
G1 X16.852 Y11.728 E60.31998
G1 X28.397 Y28.684 E61.45737
G1 X31.316 Y27.78 E61.6268
G1 X31.316 Y11.728 E62.51683
G1 X35.914 Y11.728 E62.77177
G1 X35.914 Y37.588 E64.20562
G1 X30.341 Y37.588 E64.51463
G1 X18.86 Y20.757 E65.64429
G1 X15.941 Y21.661 E65.81373
G0 F3600 X15.341 Y21.219
G1 F1800 X15.341 Y36.988 E66.68806
G1 X11.963 Y36.988 E66.87536
G1 X11.963 Y12.328 E68.24268
G1 X16.534 Y12.328 E68.49612
G1 X28.151 Y29.388 E69.64053
G1 X31.916 Y28.222 E69.85906
G1 X31.916 Y12.328 E70.74033
G1 X35.314 Y12.328 E70.92874
G1 X35.314 Y36.988 E72.29606
G1 X30.658 Y36.988 E72.55421
G1 X19.106 Y20.053 E73.69086
G1 X15.341 Y21.219 E73.9094
G0 F3600 X14.741 Y20.777
G1 F1800 X14.741 Y36.388 E74.77498
G1 X12.563 Y36.388 E74.89574
G1 X12.563 Y12.928 E76.19652
G1 X16.216 Y12.928 E76.39906
G1 X27.905 Y30.092 E77.55048
G1 X32.516 Y28.664 E77.81813
G1 X32.516 Y12.928 E78.69063
G1 X34.714 Y12.928 E78.81251
G1 X34.714 Y36.388 E80.11328
G1 X30.975 Y36.388 E80.3206
G1 X19.352 Y19.349 E81.46423
G1 X14.741 Y20.777 E81.73187
G0 F3600 X14.141 Y20.335
G1 F1800 X14.141 Y35.788 E82.58869
G1 X13.163 Y35.788 E82.64291
G1 X13.163 Y13.528 E83.87716
G1 X15.898 Y13.528 E84.0288
G1 X19.421 Y18.7 E84.37578
G1 X14.141 Y20.335 E84.68225
G0 F3600 X16.541 Y22.103
G1 F1800 X16.541 Y38.188 E85.57411
G1 X10.763 Y38.188 E85.89448
G1 X10.763 Y11.128 E87.39487
G1 X17.17 Y11.128 E87.75012
G1 X28.643 Y27.98 E88.88049
G1 X30.716 Y27.338 E89.00082
G1 X30.716 Y11.128 E89.89961
G1 X36.514 Y11.128 E90.22109
G1 X36.514 Y38.188 E91.72148
G1 X30.024 Y38.188 E92.08132
G1 X18.614 Y21.461 E93.20401
G1 X16.541 Y22.103 E93.32433
G0 F3600 X18.393 Y22.093
G0 X28.801 Y31.071
G1 F1800 X33.514 Y29.611 E93.59791
G1 X33.514 Y35.188 E93.90713
G1 X31.609 Y35.188 E94.01276
G1 X28.801 Y31.071 E94.28907
G0 F3600 X29.754 Y31.404
G1 F1800 X32.914 Y30.425 E94.4725
G1 X32.914 Y34.588 E94.70332
G1 X31.926 Y34.588 E94.7581
G1 X29.754 Y31.404 E94.97181
G0 F3600 X30.708 Y31.737
G1 F1800 X32.314 Y31.239 E95.06504
G1 X32.314 Y33.988 E95.21746
G1 X32.243 Y33.988 E95.2214
G1 X30.708 Y31.737 E95.37247
G0 F3600 X31.661 Y32.07
G1 F1800 X31.714 Y32.053 E95.37555
G1 X31.714 Y32.147 E95.38077
G1 X31.661 Y32.07 E95.38595
G0 F3600 X33.116 Y13.528
G1 F1800 X34.114 Y13.528 E95.44129
G1 X34.114 Y35.788 E96.67553
G1 X31.292 Y35.788 E96.832
G1 X27.847 Y30.738 E97.17095
G1 X33.116 Y29.106 E97.47679
G1 X33.116 Y13.528 E98.34054
G0 F3600 X33.6 Y13.813
;TYPE:SKIN
G1 F1800 X33.6 Y29.303 E98.76997
G0 F3600 X31.8 Y32.402
G1 F1800 X31.8 Y32.833 E98.78192
G0 F3600 X27.6 Y30.533
G1 F1800 X27.6 Y30.151 E98.79251
G0 F3600 X27.3 Y30.493
G1 F1800 X27.3 Y29.71 E98.81422
G0 F3600 X27 Y30.053
G1 F1800 X27 Y29.27 E98.83593
G0 F3600 X26.7 Y29.614
G1 F1800 X26.7 Y28.829 E98.85769
G0 F3600 X26.4 Y29.174
G1 F1800 X26.4 Y28.389 E98.87945
G0 F3600 X26.1 Y28.734
G1 F1800 X26.1 Y27.948 E98.90124
G0 F3600 X25.8 Y28.294
G1 F1800 X25.8 Y27.508 E98.92303
G0 F3600 X25.5 Y27.855
G1 F1800 X25.5 Y27.067 E98.94488
G0 F3600 X25.2 Y27.415
G1 F1800 X25.2 Y26.627 E98.96673
G0 F3600 X24.9 Y26.975
G1 F1800 X24.9 Y26.186 E98.9886
G0 F3600 X24.6 Y26.536
G1 F1800 X24.6 Y25.745 E99.01053
G0 F3600 X24.3 Y26.096
G1 F1800 X24.3 Y25.305 E99.03246
G0 F3600 X24 Y25.656
G1 F1800 X24 Y24.864 E99.05442
G0 F3600 X23.7 Y25.216
G1 F1800 X23.7 Y24.424 E99.07637
G0 F3600 X23.4 Y24.777
G1 F1800 X23.4 Y23.983 E99.09838
G0 F3600 X23.1 Y24.337
G1 F1800 X23.1 Y23.543 E99.1204
G0 F3600 X22.8 Y23.897
G1 F1800 X22.8 Y23.102 E99.14244
G0 F3600 X22.5 Y23.458
G1 F1800 X22.5 Y22.662 E99.1645
G0 F3600 X22.2 Y23.018
G1 F1800 X22.2 Y22.221 E99.1866
G0 F3600 X21.9 Y22.578
G1 F1800 X21.9 Y21.781 E99.2087
G0 F3600 X21.6 Y22.138
G1 F1800 X21.6 Y21.34 E99.23082
G0 F3600 X21.3 Y21.699
G1 F1800 X21.3 Y20.9 E99.25297
G0 F3600 X21 Y21.259
G1 F1800 X21 Y20.459 E99.27515
G0 F3600 X20.7 Y20.819
G1 F1800 X20.7 Y20.019 E99.29733
G0 F3600 X20.4 Y20.38
G1 F1800 X20.4 Y19.578 E99.31956
G0 F3600 X20.1 Y19.94
G1 F1800 X20.1 Y19.138 E99.3418
G0 F3600 X19.8 Y18.865
G1 F1800 X19.8 Y19.5 E99.3594
G0 F3600 X19.5 Y19.061
G1 F1800 X19.5 Y18.958 E99.36225
G0 F3600 X15.6 Y17.007
G1 F1800 X15.6 Y16.796 E99.3681
G0 F3600 X15.3 Y17.1
G1 F1800 X15.3 Y16.356 E99.38873
G0 F3600 X14.7 Y15.154
G1 F1800 X14.7 Y15.013 E99.39264
G0 F3600 X13.8 Y20.095
G1 F1800 X13.8 Y35.503 E99.8198
G0 F3600 X13.5 Y35.503
G1 F1800 X13.5 Y20.187 E100.24441
G1 F1500 E93.74441
;MESH:N.stl(3)
G0 F3600 X10.213 Y22.492
G0 X8.628 Y22.492
G0 X-9.73 Y22.492
G0 X-11.315 Y22.492
G0 X-18.18 Y26.971
G0 X-19.494 Y27.378
G0 X-29.964 Y22.123
G0 X-31.327 Y22.492
G0 X-31.247 Y22.551
;TYPE:WALL-INNER
G1 F1500 E100.24441
G1 F1800 X-31.247 Y38.913 E101.15163
G1 X-38.185 Y38.913 E101.53632
G1 X-38.185 Y10.713 E103.09991
G1 X-30.823 Y10.713 E103.50811
G1 X-19.481 Y27.341 E104.62413
G1 X-18.212 Y26.948 E104.69779
G1 X-18.212 Y10.713 E105.59797
G1 X-11.295 Y10.713 E105.98149
G1 X-11.295 Y38.913 E107.54509
G1 X-18.574 Y38.913 E107.94868
G1 X-29.977 Y22.16 E109.07234
G1 X-31.247 Y22.551 E109.14602
G0 F3600 X-30.647 Y22.994
;TYPE:WALL-OUTER
G1 F1800 X-30.647 Y23.25 E109.16021
G1 X-30.647 Y39.513 E110.06194
G1 X-38.785 Y39.513 E110.51317
G1 X-38.785 Y10.113 E112.1433
G1 X-30.506 Y10.113 E112.60234
G1 X-19.379 Y26.426 E113.69722
G1 X-19.235 Y26.637 E113.71138
G1 X-18.812 Y26.506 E113.73593
G1 X-18.812 Y26.25 E113.74835
G1 X-18.812 Y10.113 E114.64309
G1 X-10.695 Y10.113 E115.09315
