;FLAVOR:Marlin
;TIME:1737
;Filament used: 2.96404m
;Layer height: 0.2
;MINX:-42.956
;MINY:-44.313
;MINZ:0.2
;MAXX:43.039
;MAXY:44.051
;MAXZ:3.6
;POSTPROCESSED
;Generated with Cura_SteamEngine 4.8.0
M140 S60
M105
M190 S60
M104 S195
M105
M109 S195
M82 ;absolute extrusion mode
G28 ;Home
G1 Z15.0 F6000 ;Move the platform down 15mm
;Prime the extruder
G92 E0
G1 F200 E3
G92 E0
G92 E0
G92 E0
G1 F1500 E-6.5
;LAYER_COUNT:18
;LAYER:0
M107
G0 F3600 X42.142 Y1.69 Z0.2
;TYPE:SKIRT
G1 F1500 E0
G1 F1800 X42.142 Y4.439 E0.15242
G1 X42.217 Y7.131 E0.30174
G1 X42.293 Y8.619 E0.38436
G1 X42.368 Y9.918 E0.4565
G1 X42.384 Y10.48 E0.48767
G1 X42.384 Y39.469 E2.09502
G1 X42.374 Y40.196 E2.13533
G1 X42.326 Y40.752 E2.16627
G1 X42.2 Y41.296 E2.19723
G1 X41.997 Y41.816 E2.22819
G1 X41.722 Y42.301 E2.2591
G1 X41.38 Y42.743 E2.29009
G1 X40.979 Y43.131 E2.32102
G1 X40.527 Y43.458 E2.35196
G1 X40.032 Y43.717 E2.38293
G1 X39.506 Y43.903 E2.41387
G1 X38.958 Y44.012 E2.44485
G1 X38.264 Y44.049 E2.48338
G1 X38.154 Y44.051 E2.48948
G1 X30.398 Y44.051 E2.91953
G1 X29.585 Y44.038 E2.96461
G1 X28.112 Y43.976 E3.04636
G1 X27.963 Y43.968 E3.05463
G1 X25.232 Y43.894 E3.20611
G1 X22.548 Y43.898 E3.35493
G1 X18.94 Y44.022 E3.5551
G1 X17.474 Y44.051 E3.6364
G1 X10.445 Y44.051 E4.02613
G1 X9.747 Y44.041 E4.06484
G1 X9.043 Y43.986 E4.10399
G1 X6.328 Y43.755 E4.25507
G1 X3.578 Y43.6 E4.40779
G1 X0.905 Y43.525 E4.55606
G1 X-1.845 Y43.525 E4.70854
G1 X-4.524 Y43.602 E4.85714
G1 X-7.286 Y43.758 E5.01053
G1 X-8.716 Y43.871 E5.09007
G1 X-9.815 Y43.966 E5.15123
G1 X-10.355 Y43.987 E5.18119
G1 X-10.466 Y43.989 E5.18735
G1 X-18.222 Y43.989 E5.61739
G1 X-19.035 Y43.976 E5.66248
G1 X-20.501 Y43.914 E5.74383
G1 X-20.637 Y43.906 E5.75139
G1 X-23.389 Y43.832 E5.90403
G1 X-26.073 Y43.836 E6.05285
G1 X-29.681 Y43.96 E6.25302
G1 X-31.147 Y43.989 E6.33432
G1 X-38.177 Y43.989 E6.72411
G1 X-38.875 Y43.979 E6.76282
G1 X-39.431 Y43.931 E6.79376
G1 X-39.975 Y43.804 E6.82473
G1 X-40.495 Y43.601 E6.85569
G1 X-40.98 Y43.325 E6.88663
G1 X-41.422 Y42.984 E6.91758
G1 X-41.81 Y42.582 E6.94856
G1 X-42.136 Y42.13 E6.97946
G1 X-42.395 Y41.635 E7.01043
G1 X-42.581 Y41.109 E7.04137
G1 X-42.689 Y40.561 E7.07234
G1 X-42.727 Y39.85 E7.11182
G1 X-42.728 Y10.74 E8.72587
G1 X-42.718 Y10.042 E8.76457
G1 X-42.708 Y9.824 E8.77667
G1 X-42.649 Y8.985 E8.82331
G1 X-42.542 Y7.734 E8.89293
G1 X-42.386 Y4.988 E9.04543
G1 X-42.31 Y2.315 E9.1937
G1 X-42.31 Y-.436 E9.34623
G1 X-42.386 Y-3.117 E9.49494
G1 X-42.54 Y-5.854 E9.64694
G1 X-42.772 Y-8.574 E9.7983
G1 X-42.925 Y-10.01 E9.87837
G1 X-42.954 Y-10.633 E9.91295
G1 X-42.956 Y-10.743 E9.91905
G1 X-42.956 Y-39.766 E11.52828
G1 X-42.947 Y-40.455 E11.56649
G1 X-42.899 Y-41.011 E11.59743
G1 X-42.773 Y-41.555 E11.62839
G1 X-42.571 Y-42.075 E11.65932
G1 X-42.296 Y-42.561 E11.69029
G1 X-41.955 Y-43.003 E11.72124
G1 X-41.554 Y-43.391 E11.75218
G1 X-41.102 Y-43.719 E11.78314
G1 X-40.608 Y-43.978 E11.81407
G1 X-40.081 Y-44.164 E11.84506
G1 X-39.534 Y-44.273 E11.87598
G1 X-38.835 Y-44.311 E11.9148
G1 X-38.726 Y-44.313 E11.92084
G1 X-30.99 Y-44.313 E12.34978
G1 X-30.176 Y-44.3 E12.39492
G1 X-28.763 Y-44.241 E12.47333
G1 X-26.234 Y-44.164 E12.61362
G1 X-23.522 Y-44.157 E12.76399
G1 X-19.454 Y-44.288 E12.98967
G1 X-18.158 Y-44.313 E13.06154
G1 X-11.017 Y-44.313 E13.45748
G1 X-10.32 Y-44.303 E13.49613
G1 X-9.996 Y-44.284 E13.51413
G1 X-8.995 Y-44.186 E13.5699
G1 X-6.238 Y-43.952 E13.72331
G1 X-3.497 Y-43.798 E13.87553
G1 X-.818 Y-43.723 E14.02413
G1 X1.931 Y-43.723 E14.17655
G1 X4.608 Y-43.8 E14.32504
G1 X7.378 Y-43.958 E14.47888
G1 X8.78 Y-44.068 E14.55686
G1 X10.125 Y-44.184 E14.63171
G1 X10.669 Y-44.205 E14.66189
G1 X10.779 Y-44.207 E14.66799
G1 X18.515 Y-44.207 E15.09693
G1 X19.328 Y-44.194 E15.14201
G1 X20.742 Y-44.135 E15.22048
G1 X23.271 Y-44.058 E15.36077
G1 X25.983 Y-44.051 E15.51114
G1 X30.051 Y-44.182 E15.73682
G1 X31.347 Y-44.207 E15.80869
G1 X38.482 Y-44.207 E16.2043
G1 X39.18 Y-44.198 E16.24301
G1 X39.737 Y-44.151 E16.274
G1 X40.28 Y-44.025 E16.30491
G1 X40.801 Y-43.822 E16.33591
G1 X41.287 Y-43.548 E16.36685
G1 X41.728 Y-43.206 E16.39779
G1 X42.117 Y-42.806 E16.42873
G1 X42.444 Y-42.354 E16.45966
G1 X42.704 Y-41.859 E16.49066
G1 X42.89 Y-41.333 E16.5216
G1 X42.999 Y-40.786 E16.55252
G1 X43.037 Y-40.086 E16.59139
G1 X43.039 Y-39.977 E16.59744
G1 X43.039 Y-10.958 E18.20644
G1 X43.029 Y-10.261 E18.24509
G1 X42.999 Y-9.831 E18.26899
G1 X42.913 Y-9.146 E18.30727
G1 X42.604 Y-6.438 E18.4584
G1 X42.374 Y-3.733 E18.60892
G1 X42.219 Y-.99 E18.76125
G1 X42.142 Y1.69 E18.90991
G0 F3600 X41.542 Y1.707
G1 F1800 X41.542 Y4.42 E19.06034
G1 X41.619 Y7.177 E19.21326
G1 X41.694 Y8.654 E19.29526
G1 X41.773 Y10.045 E19.37251
G1 X41.784 Y10.48 E19.39664
G1 X41.784 Y39.46 E21.00348
G1 X41.774 Y40.187 E21.0438
G1 X41.727 Y40.699 E21.07231
G1 X41.601 Y41.196 E21.10073
G1 X41.4 Y41.669 E21.12923
G1 X41.127 Y42.104 E21.15771
G1 X40.791 Y42.492 E21.18617
G1 X40.398 Y42.823 E21.21465
G1 X39.959 Y43.089 E21.24312
G1 X39.484 Y43.284 E21.27159
G1 X38.985 Y43.402 E21.30002
G1 X38.247 Y43.45 E21.34102
G1 X30.406 Y43.451 E21.77578
G1 X29.701 Y43.441 E21.81487
G1 X28.146 Y43.377 E21.90117
G1 X27.98 Y43.368 E21.91038
G1 X25.247 Y43.294 E22.06197
G1 X22.526 Y43.298 E22.21285
G1 X18.928 Y43.422 E22.41246
G1 X17.474 Y43.451 E22.4931
G1 X10.454 Y43.451 E22.88233
G1 X9.756 Y43.441 E22.92104
G1 X9.093 Y43.388 E22.95792
G1 X6.377 Y43.157 E23.10905
G1 X3.629 Y43.002 E23.26166
G1 X0.886 Y42.925 E23.41381
G1 X-1.827 Y42.925 E23.56424
G1 X-4.576 Y43.004 E23.71672
G1 X-7.321 Y43.159 E23.86917
G1 X-8.768 Y43.273 E23.94965
G1 X-9.867 Y43.368 E24.01081
G1 X-10.372 Y43.388 E24.03883
G1 X-18.214 Y43.389 E24.47365
G1 X-18.921 Y43.379 E24.51285
G1 X-20.466 Y43.315 E24.59859
G1 X-20.618 Y43.306 E24.60703
G1 X-23.374 Y43.232 E24.7599
G1 X-26.095 Y43.236 E24.91077
G1 X-29.693 Y43.36 E25.11038
G1 X-31.147 Y43.389 E25.19102
G1 X-38.168 Y43.389 E25.58031
G1 X-38.866 Y43.379 E25.61902
G1 X-39.378 Y43.331 E25.64753
G1 X-39.875 Y43.205 E25.67596
G1 X-40.347 Y43.004 E25.7044
G1 X-40.783 Y42.731 E25.73293
G1 X-41.17 Y42.395 E25.76134
G1 X-41.501 Y42.002 E25.78983
G1 X-41.767 Y41.563 E25.81829
G1 X-41.961 Y41.087 E25.84679
G1 X-42.08 Y40.588 E25.87524
G1 X-42.127 Y39.834 E25.91712
G1 X-42.128 Y10.749 E27.52979
G1 X-42.118 Y10.051 E27.5685
G1 X-42.11 Y9.866 E27.57876
G1 X-42.051 Y9.036 E27.6249
G1 X-41.944 Y7.784 E27.69457
G1 X-41.788 Y5.039 E27.84702
G1 X-41.71 Y2.296 E27.99917
G1 X-41.71 Y-.417 E28.1496
G1 X-41.788 Y-3.166 E28.30208
G1 X-41.942 Y-5.905 E28.45419
G1 X-42.175 Y-8.638 E28.60627
G1 X-42.328 Y-10.073 E28.68629
G1 X-42.355 Y-10.65 E28.71832
G1 X-42.356 Y-39.758 E30.33226
G1 X-42.347 Y-40.447 E30.37047
G1 X-42.3 Y-40.958 E30.39892
G1 X-42.175 Y-41.456 E30.42739
G1 X-41.974 Y-41.929 E30.45588
G1 X-41.702 Y-42.364 E30.48433
G1 X-41.366 Y-42.752 E30.51279
G1 X-40.973 Y-43.083 E30.54128
G1 X-40.534 Y-43.35 E30.56977
G1 X-40.059 Y-43.545 E30.59824
G1 X-39.56 Y-43.664 E30.62668
G1 X-38.818 Y-43.712 E30.66791
G1 X-30.998 Y-43.713 E31.1015
G1 X-30.292 Y-43.703 E31.14065
G1 X-28.788 Y-43.641 E31.22411
G1 X-26.254 Y-43.564 E31.36468
G1 X-23.504 Y-43.557 E31.51716
G1 X-19.442 Y-43.688 E31.7425
G1 X-18.158 Y-43.713 E31.81371
G1 X-11.026 Y-43.713 E32.20915
G1 X-10.329 Y-43.703 E32.2478
G1 X-10.054 Y-43.687 E32.26308
G1 X-9.03 Y-43.587 E32.32012
G1 X-6.29 Y-43.354 E32.4726
G1 X-3.545 Y-43.2 E32.62504
G1 X-.799 Y-43.123 E32.77735
G1 X1.913 Y-43.123 E32.92772
G1 X4.659 Y-43.202 E33.08004
G1 X7.413 Y-43.359 E33.23299
G1 X8.831 Y-43.47 E33.31185
G1 X10.176 Y-43.586 E33.38671
G1 X10.686 Y-43.606 E33.41501
G1 X18.507 Y-43.607 E33.84866
G1 X19.212 Y-43.597 E33.88775
G1 X20.717 Y-43.535 E33.97127
G1 X23.251 Y-43.458 E34.11183
G1 X26.001 Y-43.451 E34.26431
G1 X30.063 Y-43.582 E34.48965
G1 X31.347 Y-43.607 E34.56086
G1 X38.475 Y-43.607 E34.95608
G1 X39.173 Y-43.598 E34.99479
G1 X39.684 Y-43.551 E35.02324
G1 X40.182 Y-43.426 E35.05171
G1 X40.654 Y-43.225 E35.08016
G1 X41.09 Y-42.953 E35.10865
G1 X41.478 Y-42.617 E35.13711
G1 X41.809 Y-42.225 E35.16556
G1 X42.076 Y-41.786 E35.19404
G1 X42.271 Y-41.311 E35.22251
G1 X42.39 Y-40.812 E35.25096
G1 X42.438 Y-40.069 E35.29224
G1 X42.439 Y-10.967 E36.90585
G1 X42.429 Y-10.27 E36.9445
G1 X42.403 Y-9.906 E36.96473
G1 X42.322 Y-9.259 E37.00089
G1 X42.006 Y-6.487 E37.15558
G1 X41.776 Y-3.783 E37.30605
G1 X41.621 Y-1.041 E37.45833
G1 X41.542 Y1.707 E37.61076
G1 F1500 E31.11076
;MESH:N.stl(3)
G0 F3600 X37.57 Y9.486
G0 X37.57 Y11.065
G0 X30.726 Y22.83
G0 X30.646 Y22.889
;TYPE:WALL-INNER
G1 F1500 E37.61076
G1 F1800 X29.376 Y22.498 E37.68444
G1 X17.973 Y39.251 E38.80809
G1 X10.694 Y39.251 E39.21169
G1 X10.694 Y11.051 E40.77528
G1 X17.611 Y11.051 E41.15881
G1 X17.611 Y27.287 E42.05904
G1 X18.88 Y27.68 E42.1327
G1 X30.222 Y11.051 E43.24877
G1 X37.584 Y11.051 E43.65696
G1 X37.584 Y39.251 E45.22056
G1 X30.646 Y39.251 E45.60525
G1 X30.646 Y22.889 E46.51247
G0 F3600 X30.046 Y23.332
;TYPE:WALL-OUTER
G1 F1800 X29.623 Y23.202 E46.537
G1 X29.479 Y23.413 E46.55117
G1 X18.291 Y39.851 E47.65368
G1 X10.094 Y39.851 E48.10817
G1 X10.094 Y10.451 E49.7383
G1 X18.211 Y10.451 E50.18836
G1 X18.211 Y26.589 E51.08316
G1 X18.211 Y26.845 E51.09736
G1 X18.634 Y26.976 E51.12191
G1 X18.778 Y26.765 E51.13429
G1 X29.905 Y10.451 E52.22921
G1 X38.184 Y10.451 E52.68825
G1 X38.184 Y39.851 E54.31838
G1 X30.046 Y39.851 E54.76961
G1 X30.046 Y23.588 E55.67134
G1 X30.046 Y23.332 E55.68375
G0 F3600 X29.855 Y23.274
G0 X30.05 Y22.643
G0 X30.062 Y22.606
G0 X32.214 Y17.753
;TYPE:SKIN
G1 F1800 X32.163 Y17.738 E55.6867
G1 X32.214 Y17.662 E55.69177
G1 X32.214 Y17.753 E55.69682
G0 F3600 X32.814 Y18.566
G1 F1800 X31.209 Y18.071 E55.78995
G1 X32.743 Y15.821 E55.94094
G1 X32.814 Y15.821 E55.94487
G1 X32.814 Y18.566 E56.09707
G0 F3600 X33.414 Y19.378
G1 F1800 X30.255 Y18.405 E56.28035
G1 X32.426 Y15.221 E56.49403
G1 X33.414 Y15.221 E56.54881
G1 X33.414 Y19.378 E56.7793
G0 F3600 X34.014 Y20.191
G1 F1800 X29.301 Y18.738 E57.05276
G1 X32.109 Y14.621 E57.32907
G1 X34.014 Y14.621 E57.4347
G1 X34.014 Y20.191 E57.74353
G0 F3600 X33.616 Y20.696
G1 F1800 X28.347 Y19.072 E58.04924
G1 X31.792 Y14.021 E58.38824
G1 X34.614 Y14.021 E58.54471
G1 X34.614 Y36.281 E59.77896
G1 X33.616 Y36.281 E59.83429
G1 X33.616 Y20.696 E60.69843
G0 F3600 X33.016 Y21.139
G1 F1800 X28.401 Y19.717 E60.96619
G1 X16.717 Y36.881 E62.11745
G1 X13.064 Y36.881 E62.31999
G1 X13.064 Y13.421 E63.62077
G1 X15.241 Y13.421 E63.74148
G1 X15.241 Y29.033 E64.60711
G1 X19.852 Y30.461 E64.87475
G1 X31.475 Y13.421 E66.01843
G1 X35.214 Y13.421 E66.22574
G1 X35.214 Y36.881 E67.52652
G1 X33.016 Y36.881 E67.64839
G1 X33.016 Y21.139 E68.52123
G0 F3600 X32.416 Y21.582
G1 F1800 X28.648 Y20.421 E68.73985
G1 X17.035 Y37.481 E69.88413
G1 X12.464 Y37.481 E70.13758
G1 X12.464 Y12.821 E71.50489
G1 X15.841 Y12.821 E71.69213
G1 X15.841 Y28.591 E72.56653
G1 X19.606 Y29.757 E72.78506
G1 X31.158 Y12.821 E73.92176
G1 X35.814 Y12.821 E74.17992
G1 X35.814 Y37.481 E75.54723
G1 X32.416 Y37.481 E75.73564
G1 X32.416 Y21.582 E76.61718
G0 F3600 X31.816 Y22.025
G1 F1800 X28.895 Y21.125 E76.78666
G1 X17.353 Y38.081 E77.92395
G1 X11.864 Y38.081 E78.2283
G1 X11.864 Y12.221 E79.66215
G1 X16.441 Y12.221 E79.91593
G1 X16.441 Y28.149 E80.79908
G1 X19.36 Y29.053 E80.96852
G1 X30.841 Y12.221 E82.09823
G1 X36.414 Y12.221 E82.40723
G1 X36.414 Y38.081 E83.84108
G1 X31.816 Y38.081 E84.09602
G1 X31.816 Y22.025 E84.98627
G0 F3600 X31.216 Y22.468
G1 F1800 X29.142 Y21.829 E85.10661
G1 X17.671 Y38.681 E86.23692
G1 X11.264 Y38.681 E86.59217
G1 X11.264 Y11.621 E88.09255
G1 X17.041 Y11.621 E88.41287
G1 X17.041 Y27.707 E89.30478
G1 X19.114 Y28.349 E89.42511
G1 X30.524 Y11.621 E90.54784
G1 X37.014 Y11.621 E90.90769
G1 X37.014 Y38.681 E92.40807
G1 X31.216 Y38.681 E92.72955
G1 X31.216 Y22.468 E93.62851
G0 F3600 X29.363 Y22.461
G0 X18.967 Y31.443
G1 F1800 X16.081 Y35.681 E93.9128
G1 X14.264 Y35.681 E94.01355
G1 X14.264 Y29.986 E94.32932
G1 X18.967 Y31.443 E94.60231
G0 F3600 X18.014 Y31.776
G1 F1800 X15.763 Y35.081 E94.82403
G1 X14.864 Y35.081 E94.87387
G1 X14.864 Y30.8 E95.11124
G1 X18.014 Y31.776 E95.29409
G0 F3600 X17.061 Y32.109
G1 F1800 X15.464 Y34.454 E95.4514
G1 X15.464 Y31.614 E95.60887
G1 X17.061 Y32.109 E95.70157
G0 F3600 X16.108 Y32.442
G1 F1800 X16.064 Y32.507 E95.70592
G1 X16.064 Y32.428 E95.7103
G1 X16.108 Y32.442 E95.71286
G0 F3600 X14.641 Y14.021
G1 F1800 X14.641 Y29.475 E96.56974
G1 X19.92 Y31.11 E96.87616
G1 X16.399 Y36.281 E97.22303
G1 X13.664 Y36.281 E97.37467
G1 X13.664 Y14.021 E98.60892
G1 X14.641 Y14.021 E98.66309
G0 F3600 X14.1 Y14.306
;TYPE:SKIN
G1 F1800 X14.1 Y29.652 E99.08853
G0 F3600 X15.9 Y32.74
G1 F1800 X15.9 Y33.309 E99.1043
G0 F3600 X15.3 Y34.686
G1 F1800 X15.3 Y34.796 E99.10735
G0 F3600 X20.1 Y30.882
G1 F1800 X20.1 Y30.602 E99.11512
G0 F3600 X20.4 Y30.963
G1 F1800 X20.4 Y30.162 E99.13732
G0 F3600 X20.7 Y30.523
G1 F1800 X20.7 Y29.722 E99.15953
G0 F3600 X21 Y30.082
G1 F1800 X21 Y29.283 E99.18168
G0 F3600 X21.3 Y29.641
G1 F1800 X21.3 Y28.843 E99.2038
G0 F3600 X21.6 Y29.2
G1 F1800 X21.6 Y28.403 E99.2259
G0 F3600 X21.9 Y28.76
G1 F1800 X21.9 Y27.964 E99.24797
G0 F3600 X22.2 Y28.319
G1 F1800 X22.2 Y27.524 E99.27001
G0 F3600 X22.5 Y27.878
G1 F1800 X22.5 Y27.084 E99.29202
G0 F3600 X22.8 Y27.438
G1 F1800 X22.8 Y26.644 E99.31403
G0 F3600 X23.1 Y26.997
G1 F1800 X23.1 Y26.205 E99.33599
G0 F3600 X23.4 Y26.556
G1 F1800 X23.4 Y25.765 E99.35792
G0 F3600 X23.7 Y26.116
G1 F1800 X23.7 Y25.325 E99.37985
G0 F3600 X24 Y25.675
G1 F1800 X24 Y24.885 E99.40175
G0 F3600 X24.3 Y25.234
G1 F1800 X24.3 Y24.446 E99.42359
G0 F3600 X24.6 Y24.793
G1 F1800 X24.6 Y24.006 E99.44541
G0 F3600 X24.9 Y24.353
G1 F1800 X24.9 Y23.566 E99.46723
G0 F3600 X25.2 Y23.912
G1 F1800 X25.2 Y23.126 E99.48902
G0 F3600 X25.5 Y23.471
G1 F1800 X25.5 Y22.687 E99.51076
G0 F3600 X25.8 Y23.031
G1 F1800 X25.8 Y22.247 E99.53249
G0 F3600 X26.1 Y22.59
G1 F1800 X26.1 Y21.807 E99.5542
G0 F3600 X26.4 Y22.149
G1 F1800 X26.4 Y21.368 E99.57585
G0 F3600 X26.7 Y21.709
G1 F1800 X26.7 Y20.928 E99.5975
G0 F3600 X27 Y21.268
G1 F1800 X27 Y20.488 E99.61913
G0 F3600 X27.3 Y20.827
G1 F1800 X27.3 Y20.048 E99.64072
G0 F3600 X27.6 Y20.386
G1 F1800 X27.6 Y19.609 E99.66226
G0 F3600 X27.9 Y19.946
G1 F1800 X27.9 Y19.218 E99.68245
G0 F3600 X28.2 Y19.31
G1 F1800 X28.2 Y19.505 E99.68785
G0 F3600 X32.1 Y17.345
G1 F1800 X32.1 Y17.269 E99.68996
G0 F3600 X32.4 Y17.435
G1 F1800 X32.4 Y16.829 E99.70676
G0 F3600 X34.2 Y20.531
G1 F1800 X34.2 Y35.996 E100.1355
G1 F1500 E93.6355
;MESH:N.stl
G0 F3600 X30.678 Y22.866
G0 X29.363 Y22.461
G0 X18.893 Y27.717
G0 X17.579 Y27.31
G0 X10.714 Y22.768
G0 X9.129 Y22.768
G0 X-9.472 Y22.768
G0 X-11.057 Y22.768
G0 X-17.895 Y22.768
G0 X-17.975 Y22.827
;TYPE:WALL-INNER
G1 F1500 E100.1355
G1 F1800 X-19.245 Y22.436 E100.20918
G1 X-30.648 Y39.189 E101.33283
G1 X-37.928 Y39.189 E101.73649
G1 X-37.928 Y10.989 E103.30008
G1 X-31.01 Y10.989 E103.68366
G1 X-31.01 Y27.224 E104.58384
G1 X-29.741 Y27.617 E104.6575
G1 X-18.399 Y10.989 E105.77352
G1 X-11.037 Y10.989 E106.18172
G1 X-11.037 Y39.189 E107.74531
G1 X-17.975 Y39.189 E108.13
G1 X-17.975 Y22.827 E109.03722
G0 F3600 X-18.575 Y23.27
;TYPE:WALL-OUTER
G1 F1800 X-18.998 Y23.14 E109.06175
G1 X-19.142 Y23.351 E109.07592
G1 X-30.33 Y39.789 E110.17843
G1 X-38.528 Y39.789 E110.63298
G1 X-38.528 Y10.389 E112.26311
G1 X-30.41 Y10.389 E112.71323
G1 X-30.41 Y26.526 E113.60797
G1 X-30.41 Y26.782 E113.62216
G1 X-29.987 Y26.913 E113.64672
G1 X-29.843 Y26.702 E113.6591
G1 X-18.716 Y10.389 E114.75397
G1 X-10.437 Y10.389 E115.21301
G1 X-10.437 Y39.789 E116.84315
G1 X-18.575 Y39.789 E117.29437
