;FLAVOR:Marlin
;TIME:1608
;Filament used: 2.71911m
;Layer height: 0.2
;MINX:-44.637
;MINY:-44.205
;MINZ:0.2
;MAXX:44.561
;MAXY:45.085
;MAXZ:3.6
;POSTPROCESSED
;Generated with Cura_SteamEngine 4.8.0
M140 S60
M105
M190 S60
M104 S195
M105
M109 S195
M82 ;absolute extrusion mode
G28 ;Home
G1 Z15.0 F6000 ;Move the platform down 15mm
;Prime the extruder
G92 E0
G1 F200 E3
G92 E0
G92 E0
G92 E0
G1 F1500 E-6.5
;LAYER_COUNT:18
;LAYER:0
M107
G0 F3600 X-40.884 Y1.794 Z0.2
;TYPE:SKIRT
G1 F1500 E0
G1 F1800 X-41.027 Y-.885 E0.14875
G1 X-41.25 Y-3.62 E0.3009
G1 X-41.545 Y-6.292 E0.44996
G1 X-41.921 Y-8.999 E0.60149
G1 X-42.375 Y-11.696 E0.75313
G1 X-42.898 Y-14.353 E0.90328
G1 X-43.497 Y-16.994 E1.05344
G1 X-44.015 Y-19.045 E1.17073
G1 X-44.165 Y-19.807 E1.21379
G1 X-44.365 Y-20.999 E1.28081
G1 X-44.465 Y-21.645 E1.31705
G1 X-44.502 Y-21.984 E1.33596
G1 X-44.561 Y-22.871 E1.38525
G1 X-44.615 Y-23.939 E1.44454
G1 X-44.637 Y-24.539 E1.47783
G1 X-44.634 Y-24.891 E1.49735
G1 X-44.571 Y-26.051 E1.56176
G1 X-44.436 Y-27.875 E1.66317
G1 X-44.374 Y-28.587 E1.7028
G1 X-44.286 Y-29.14 E1.73385
G1 X-44.093 Y-29.96 E1.78056
G1 X-43.673 Y-31.637 E1.87641
G1 X-43.5 Y-32.292 E1.91398
G1 X-43.27 Y-32.931 E1.95163
G1 X-42.88 Y-33.775 E2.00318
G1 X-42.261 Y-35.057 E2.08212
G1 X-41.932 Y-35.716 E2.12296
G1 X-41.612 Y-36.247 E2.15733
G1 X-41.491 Y-36.41 E2.16859
G1 X-41.077 Y-36.944 E2.20605
G1 X-40.12 Y-38.146 E2.29125
G1 X-39.664 Y-38.702 E2.33112
G1 X-39.119 Y-39.246 E2.37381
G1 X-38.569 Y-39.696 E2.41321
G1 X-37.334 Y-40.679 E2.50073
G1 X-36.804 Y-41.09 E2.53792
G1 X-36.316 Y-41.413 E2.57037
G1 X-36.069 Y-41.545 E2.5859
G1 X-35.556 Y-41.799 E2.61764
G1 X-34.033 Y-42.534 E2.7114
G1 X-33.427 Y-42.816 E2.74846
G1 X-32.795 Y-43.046 E2.78575
G1 X-31.895 Y-43.288 E2.83743
G1 X-30.275 Y-43.695 E2.93004
G1 X-29.635 Y-43.847 E2.96652
G1 X-29.081 Y-43.938 E2.99764
G1 X-28.194 Y-44.016 E3.04702
G1 X-26.19 Y-44.164 E3.15843
G1 X-25.518 Y-44.204 E3.19576
G1 X-25.07 Y-44.205 E3.2206
G1 X-24.199 Y-44.156 E3.26897
G1 X-22.083 Y-44.006 E3.38659
G1 X-21.399 Y-43.947 E3.42466
G1 X-20.966 Y-43.885 E3.44891
G1 X-19.886 Y-43.668 E3.50999
G1 X-18.906 Y-43.458 E3.56556
G1 X-16.281 Y-42.974 E3.71356
G1 X-13.569 Y-42.553 E3.86573
G1 X-10.901 Y-42.215 E4.01485
G1 X-8.172 Y-41.949 E4.16688
G1 X-5.462 Y-41.761 E4.3175
G1 X-2.75 Y-41.649 E4.468
G1 X-0.037 Y-41.615 E4.61844
G1 X2.711 Y-41.658 E4.77082
G1 X5.388 Y-41.775 E4.9194
G1 X8.129 Y-41.973 E5.07177
G1 X10.794 Y-42.242 E5.22029
G1 X13.524 Y-42.595 E5.37292
G1 X16.208 Y-43.02 E5.52359
G1 X18.906 Y-43.526 E5.67579
G1 X19.981 Y-43.731 E5.73647
G1 X21.212 Y-43.928 E5.80559
G1 X21.862 Y-44.022 E5.84201
G1 X22.265 Y-44.062 E5.86446
G1 X22.862 Y-44.099 E5.89763
G1 X23.984 Y-44.154 E5.95992
G1 X24.679 Y-44.178 E5.99847
G1 X25.259 Y-44.161 E6.03065
G1 X25.72 Y-44.126 E6.05628
G1 X29.206 Y-43.822 E6.2503
G1 X29.854 Y-43.755 E6.28642
G1 X30.511 Y-43.637 E6.32343
G1 X30.826 Y-43.561 E6.3414
G1 X31.801 Y-43.314 E6.39717
G1 X32.446 Y-43.141 E6.4342
G1 X33.022 Y-42.947 E6.4679
G1 X33.335 Y-42.827 E6.48648
G1 X34.09 Y-42.524 E6.53159
G1 X34.658 Y-42.288 E6.56569
G1 X35.07 Y-42.089 E6.59106
G1 X35.974 Y-41.581 E6.64856
G1 X36.214 Y-41.44 E6.66399
G1 X36.725 Y-41.132 E6.69708
G1 X37.112 Y-40.866 E6.72311
G1 X38.006 Y-40.168 E6.786
G1 X38.105 Y-40.088 E6.79306
G1 X38.68 Y-39.608 E6.83459
G1 X39.02 Y-39.288 E6.86048
G1 X39.727 Y-38.537 E6.91767
G1 X39.964 Y-38.275 E6.93726
G1 X40.404 Y-37.776 E6.97414
G1 X40.71 Y-37.388 E7.00154
G1 X41.079 Y-36.863 E7.03712
G1 X41.479 Y-36.276 E7.07651
G1 X41.842 Y-35.725 E7.11309
G1 X42.063 Y-35.344 E7.13751
G1 X42.47 Y-34.54 E7.18748
G1 X42.724 Y-34.018 E7.21967
G1 X43.004 Y-33.424 E7.25608
G1 X43.179 Y-32.984 E7.28233
G1 X43.521 Y-31.948 E7.34283
G1 X43.695 Y-31.389 E7.37529
G1 X43.883 Y-30.753 E7.41206
G1 X44.002 Y-30.254 E7.4405
G1 X44.086 Y-29.799 E7.46616
G1 X44.286 Y-28.608 E7.53312
G1 X44.388 Y-27.949 E7.57009
G1 X44.425 Y-27.61 E7.589
G1 X44.486 Y-26.692 E7.64001
G1 X44.538 Y-25.661 E7.69725
G1 X44.561 Y-25.054 E7.73093
G1 X44.558 Y-24.698 E7.75067
G1 X44.495 Y-23.533 E7.81536
G1 X44.36 Y-21.714 E7.9165
G1 X44.298 Y-21.002 E7.95612
G1 X44.21 Y-20.449 E7.98717
G1 X43.872 Y-19.008 E8.06924
G1 X43.864 Y-18.947 E8.07265
G1 X43.518 Y-17.481 E8.15617
G1 X42.972 Y-14.839 E8.30575
G1 X42.5 Y-12.161 E8.45653
G1 X42.104 Y-9.485 E8.60652
G1 X41.781 Y-6.768 E8.75823
G1 X41.536 Y-4.059 E8.90905
G1 X41.369 Y-1.38 E9.05788
G1 X41.277 Y1.362 E9.21
G1 X41.262 Y4.078 E9.36059
G1 X41.324 Y6.788 E9.51089
G1 X41.463 Y9.5 E9.66146
G1 X41.682 Y12.243 E9.81404
G1 X41.97 Y14.908 E9.96266
G1 X42.34 Y17.614 E10.1141
G1 X42.6 Y19.238 E10.20529
G1 X42.803 Y20.446 E10.27321
G1 X42.913 Y21.156 E10.31304
G1 X42.95 Y21.495 E10.33195
G1 X43.011 Y22.413 E10.38296
G1 X43.063 Y23.444 E10.4402
G1 X43.086 Y24.051 E10.47388
G1 X43.083 Y24.407 E10.49362
G1 X43.02 Y25.572 E10.55831
G1 X42.885 Y27.391 E10.65945
G1 X42.823 Y28.103 E10.69907
G1 X42.735 Y28.656 E10.73012
G1 X42.542 Y29.476 E10.77683
G1 X42.122 Y31.153 E10.87269
G1 X41.949 Y31.808 E10.91025
G1 X41.719 Y32.447 E10.9479
G1 X41.329 Y33.291 E10.99946
G1 X40.71 Y34.573 E11.07839
G1 X40.381 Y35.232 E11.11923
G1 X40.05 Y35.778 E11.15463
G1 X39.924 Y35.949 E11.16641
G1 X39.572 Y36.402 E11.19822
G1 X38.562 Y37.67 E11.2881
G1 X38.125 Y38.204 E11.32636
G1 X37.585 Y38.746 E11.36878
G1 X37.037 Y39.196 E11.4081
G1 X35.801 Y40.181 E11.49573
G1 X35.244 Y40.612 E11.53478
G1 X34.668 Y40.982 E11.57274
G1 X34.069 Y41.284 E11.60994
G1 X32.482 Y42.05 E11.70764
G1 X31.878 Y42.331 E11.74458
G1 X31.248 Y42.561 E11.78177
G1 X30.316 Y42.811 E11.83527
G1 X28.757 Y43.203 E11.9244
G1 X28.075 Y43.364 E11.96326
G1 X27.529 Y43.452 E11.99392
G1 X26.657 Y43.53 E12.04246
G1 X24.635 Y43.68 E12.15488
G1 X23.961 Y43.72 E12.19232
G1 X23.516 Y43.721 E12.21699
G1 X22.671 Y43.674 E12.26392
G1 X20.535 Y43.522 E12.38265
G1 X19.857 Y43.464 E12.42038
G1 X19.246 Y43.383 E12.45456
G1 X17.206 Y43.064 E12.56904
G1 X14.55 Y42.724 E12.71751
G1 X11.809 Y42.451 E12.87024
G1 X9.102 Y42.259 E13.02071
G1 X6.428 Y42.146 E13.16911
G1 X3.679 Y42.107 E13.32155
G1 X0.931 Y42.146 E13.47393
G1 X-1.747 Y42.259 E13.62255
G1 X-4.449 Y42.45 E13.77274
G1 X-7.191 Y42.723 E13.92553
G1 X-9.849 Y43.063 E14.0741
G1 X-12.563 Y43.488 E14.22642
G1 X-15.217 Y43.982 E14.3761
G1 X-18.453 Y44.689 E14.55976
G1 X-18.625 Y44.729 E14.56955
G1 X-19.166 Y44.816 E14.59993
G1 X-20.071 Y44.897 E14.65031
G1 X-22.06 Y45.044 E14.7609
G1 X-22.731 Y45.084 E14.79817
G1 X-23.179 Y45.085 E14.82301
G1 X-24.051 Y45.036 E14.87143
G1 X-26.164 Y44.886 E14.98889
G1 X-26.842 Y44.828 E15.02662
G1 X-27.457 Y44.729 E15.06116
G1 X-28.045 Y44.593 E15.09462
G1 X-29.912 Y44.139 E15.20116
G1 X-30.576 Y43.967 E15.23919
G1 X-31.203 Y43.747 E15.27603
G1 X-32.012 Y43.381 E15.32526
G1 X-33.344 Y42.753 E15.40692
G1 X-33.987 Y42.44 E15.44657
G1 X-34.647 Y42.033 E15.48956
G1 X-35.263 Y41.562 E15.53256
G1 X-36.407 Y40.664 E15.61319
G1 X-36.964 Y40.214 E15.6529
G1 X-37.518 Y39.666 E15.6961
G1 X-38.055 Y39.016 E15.74285
G1 X-38.935 Y37.917 E15.82092
G1 X-39.367 Y37.363 E15.85987
G1 X-39.696 Y36.868 E15.89282
G1 X-39.801 Y36.673 E15.9051
G1 X-40.102 Y36.068 E15.94257
G1 X-40.798 Y34.629 E16.0312
G1 X-41.082 Y34.02 E16.06846
G1 X-41.311 Y33.392 E16.10552
G1 X-41.551 Y32.505 E16.15647
G1 X-41.96 Y30.876 E16.2496
G1 X-42.108 Y30.25 E16.28527
G1 X-42.197 Y29.702 E16.31605
G1 X-42.274 Y28.839 E16.36409
G1 X-42.421 Y26.855 E16.4744
G1 X-42.46 Y26.202 E16.51067
G1 X-42.465 Y25.86 E16.52963
G1 X-42.437 Y24.869 E16.5846
G1 X-42.395 Y23.917 E16.63744
G1 X-42.351 Y23.164 E16.67926
G1 X-42.287 Y22.567 E16.71255
G1 X-42.084 Y21.172 E16.79072
G1 X-42.026 Y20.81 E16.81104
G1 X-41.632 Y18.112 E16.96223
G1 X-41.312 Y15.375 E17.11502
G1 X-41.073 Y12.678 E17.26514
G1 X-40.911 Y9.97 E17.41556
G1 X-40.825 Y7.254 E17.56623
G1 X-40.816 Y4.541 E17.71666
G1 X-40.884 Y1.794 E17.86901
G0 F3600 X-40.284 Y1.782
G1 F1800 X-40.429 Y-.93 E18.0196
G1 X-40.652 Y-3.664 E18.1717
G1 X-40.95 Y-6.366 E18.32242
G1 X-41.332 Y-9.116 E18.47636
G1 X-41.778 Y-11.767 E18.62542
G1 X-42.314 Y-14.49 E18.7793
G1 X-42.919 Y-17.157 E18.93093
G1 X-43.433 Y-19.192 E19.04731
G1 X-43.575 Y-19.913 E19.08805
G1 X-43.772 Y-21.091 E19.15427
G1 X-43.872 Y-21.737 E19.19052
G1 X-43.904 Y-22.024 E19.20653
G1 X-43.962 Y-22.902 E19.25532
G1 X-44.016 Y-23.961 E19.31411
G1 X-44.038 Y-24.561 E19.3474
G1 X-44.035 Y-24.859 E19.36393
G1 X-43.973 Y-26.007 E19.42767
G1 X-43.839 Y-27.823 E19.52864
G1 X-43.777 Y-28.535 E19.56827
G1 X-43.702 Y-29.003 E19.59455
G1 X-43.511 Y-29.814 E19.64074
G1 X-43.093 Y-31.484 E19.7362
G1 X-42.92 Y-32.139 E19.77376
G1 X-42.725 Y-32.68 E19.80564
G1 X-42.339 Y-33.514 E19.8566
G1 X-41.725 Y-34.789 E19.93506
G1 X-41.396 Y-35.448 E19.9759
G1 X-41.124 Y-35.898 E20.00506
G1 X-41.017 Y-36.043 E20.01505
G1 X-40.608 Y-36.571 E20.05208
G1 X-39.656 Y-37.766 E20.1368
G1 X-39.2 Y-38.322 E20.17667
G1 X-38.739 Y-38.782 E20.21278
G1 X-38.195 Y-39.227 E20.25175
G1 X-36.966 Y-40.205 E20.33883
G1 X-36.436 Y-40.616 E20.37602
G1 X-35.946 Y-40.932 E20.40835
G1 X-35.803 Y-41.008 E20.41733
G1 X-35.296 Y-41.259 E20.4487
G1 X-33.78 Y-41.99 E20.54201
G1 X-33.174 Y-42.272 E20.57908
G1 X-32.639 Y-42.467 E20.61065
G1 X-31.748 Y-42.706 E20.6618
G1 X-30.137 Y-43.112 E20.75392
G1 X-29.497 Y-43.264 E20.79039
G1 X-29.028 Y-43.34 E20.81673
G1 X-28.149 Y-43.418 E20.86566
G1 X-26.154 Y-43.565 E20.97658
G1 X-25.482 Y-43.605 E21.0139
G1 X-25.103 Y-43.606 E21.03492
G1 X-24.241 Y-43.558 E21.08279
G1 X-22.134 Y-43.408 E21.19991
G1 X-21.45 Y-43.349 E21.23797
G1 X-21.084 Y-43.296 E21.25848
G1 X-20.012 Y-43.081 E21.3191
G1 X-19.037 Y-42.872 E21.37439
G1 X-16.378 Y-42.382 E21.52431
G1 X-13.662 Y-41.96 E21.67671
G1 X-10.934 Y-41.615 E21.82917
G1 X-8.236 Y-41.352 E21.97947
G1 X-5.491 Y-41.161 E22.13204
G1 X-2.783 Y-41.05 E22.28232
G1 X-0.035 Y-41.015 E22.4347
G1 X2.71 Y-41.057 E22.58692
G1 X5.457 Y-41.178 E22.73938
G1 X8.162 Y-41.373 E22.88975
G1 X10.861 Y-41.646 E23.04016
G1 X13.625 Y-42.003 E23.19469
G1 X16.268 Y-42.422 E23.34306
G1 X19.033 Y-42.94 E23.49904
G1 X19.978 Y-43.121 E23.55239
G1 X21.246 Y-43.326 E23.62361
G1 X21.948 Y-43.428 E23.66294
G1 X22.303 Y-43.464 E23.68273
G1 X22.891 Y-43.5 E23.71539
G1 X24.005 Y-43.554 E23.77723
G1 X24.7 Y-43.578 E23.81579
G1 X25.214 Y-43.563 E23.8443
G1 X25.668 Y-43.529 E23.86954
G1 X29.144 Y-43.226 E24.06301
G1 X29.792 Y-43.159 E24.09913
G1 X30.384 Y-43.051 E24.1325
G1 X30.679 Y-42.98 E24.14932
G1 X31.646 Y-42.734 E24.20464
G1 X32.291 Y-42.561 E24.24167
G1 X32.817 Y-42.383 E24.27246
G1 X33.112 Y-42.27 E24.28998
G1 X33.86 Y-41.97 E24.33466
G1 X34.428 Y-41.734 E24.36877
G1 X34.776 Y-41.565 E24.39022
G1 X35.672 Y-41.062 E24.44719
G1 X35.905 Y-40.926 E24.46215
G1 X36.416 Y-40.618 E24.49523
G1 X36.743 Y-40.393 E24.51724
G1 X37.637 Y-39.695 E24.58013
G1 X37.721 Y-39.627 E24.58612
G1 X38.296 Y-39.147 E24.62765
G1 X38.583 Y-38.876 E24.64954
G1 X39.283 Y-38.133 E24.70614
G1 X39.514 Y-37.879 E24.72517
G1 X39.954 Y-37.38 E24.76206
G1 X40.219 Y-37.043 E24.78583
G1 X40.583 Y-36.525 E24.82093
G1 X40.978 Y-35.945 E24.85984
G1 X41.341 Y-35.394 E24.89643
G1 X41.528 Y-35.072 E24.91707
G1 X41.931 Y-34.278 E24.96645
G1 X42.181 Y-33.762 E24.99824
G1 X42.461 Y-33.168 E25.03465
G1 X42.61 Y-32.796 E25.05687
G1 X42.948 Y-31.769 E25.11682
G1 X43.12 Y-31.218 E25.14882
G1 X43.308 Y-30.582 E25.18559
G1 X43.443 Y-29.991 E25.21921
G1 X43.494 Y-29.7 E25.23559
G1 X43.693 Y-28.516 E25.30216
G1 X43.795 Y-27.857 E25.33913
G1 X43.827 Y-27.57 E25.35514
G1 X43.887 Y-26.661 E25.40565
G1 X43.939 Y-25.638 E25.46245
G1 X43.962 Y-25.031 E25.49613
G1 X43.959 Y-24.73 E25.51282
G1 X43.897 Y-23.577 E25.57684
G1 X43.763 Y-21.766 E25.67753
G1 X43.701 Y-21.054 E25.71716
G1 X43.626 Y-20.586 E25.74344
G1 X43.309 Y-19.233 E25.82049
G1 X43.28 Y-19.085 E25.82885
G1 X42.938 Y-17.637 E25.91135
G1 X42.379 Y-14.927 E26.06477
G1 X41.905 Y-12.243 E26.21589
G1 X41.513 Y-9.592 E26.36448
G1 X41.187 Y-6.854 E26.51736
G1 X40.939 Y-4.113 E26.66996
G1 X40.768 Y-1.369 E26.8224
G1 X40.677 Y1.339 E26.97264
G1 X40.662 Y4.088 E27.12506
G1 X40.724 Y6.798 E27.27536
G1 X40.864 Y9.54 E27.4276
G1 X41.083 Y12.285 E27.58028
G1 X41.375 Y14.983 E27.73075
G1 X41.753 Y17.748 E27.88549
G1 X42.008 Y19.338 E27.97477
G1 X42.21 Y20.538 E28.04224
G1 X42.32 Y21.248 E28.08208
G1 X42.352 Y21.535 E28.09809
G1 X42.412 Y22.444 E28.1486
G1 X42.464 Y23.467 E28.2054
G1 X42.487 Y24.074 E28.23908
G1 X42.484 Y24.375 E28.25577
G1 X42.422 Y25.528 E28.31979
G1 X42.288 Y27.339 E28.42048
G1 X42.226 Y28.051 E28.46011
G1 X42.151 Y28.519 E28.48639
G1 X41.96 Y29.33 E28.53258
G1 X41.542 Y31 E28.62804
G1 X41.369 Y31.655 E28.6656
G1 X41.174 Y32.196 E28.69749
G1 X40.788 Y33.03 E28.74844
G1 X40.174 Y34.305 E28.82691
G1 X39.845 Y34.964 E28.86775
G1 X39.564 Y35.426 E28.89773
G1 X39.45 Y35.581 E28.9084
G1 X39.103 Y36.029 E28.93982
G1 X38.098 Y37.29 E29.02922
G1 X37.661 Y37.824 E29.06748
G1 X37.204 Y38.282 E29.10336
G1 X36.663 Y38.727 E29.1422
G1 X35.434 Y39.707 E29.22935
G1 X34.877 Y40.138 E29.2684
G1 X34.39 Y40.451 E29.3005
G1 X33.801 Y40.747 E29.33705
G1 X32.229 Y41.506 E29.43384
G1 X31.625 Y41.787 E29.47078
G1 X31.092 Y41.981 E29.50223
G1 X30.169 Y42.229 E29.55522
G1 X28.619 Y42.619 E29.64384
G1 X27.937 Y42.78 E29.6827
G1 X27.475 Y42.855 E29.70865
G1 X26.613 Y42.932 E29.75663
G1 X24.6 Y43.081 E29.86855
G1 X23.926 Y43.121 E29.90599
G1 X23.549 Y43.122 E29.92689
G1 X22.714 Y43.076 E29.97326
G1 X20.586 Y42.924 E30.09155
G1 X19.908 Y42.866 E30.12928
G1 X19.331 Y42.789 E30.16156
G1 X17.305 Y42.472 E30.27526
G1 X14.615 Y42.127 E30.42563
G1 X11.873 Y41.855 E30.57841
G1 X9.137 Y41.661 E30.7305
G1 X6.426 Y41.546 E30.88095
G1 X3.679 Y41.507 E31.03328
G1 X0.932 Y41.546 E31.1856
G1 X-1.782 Y41.661 E31.33622
G1 X-4.513 Y41.853 E31.48802
G1 X-7.256 Y42.126 E31.64086
G1 X-9.948 Y42.471 E31.79134
G1 X-12.661 Y42.896 E31.9436
G1 X-15.325 Y43.391 E32.09384
G1 X-18.583 Y44.103 E32.27875
G1 X-19.22 Y44.219 E32.31465
G1 X-20.116 Y44.299 E32.36453
G1 X-22.096 Y44.445 E32.47461
G1 X-22.767 Y44.485 E32.51188
G1 X-23.146 Y44.486 E32.5329
G1 X-24.009 Y44.438 E32.58082
G1 X-26.113 Y44.288 E32.69778
G1 X-26.791 Y44.23 E32.73551
G1 X-27.322 Y44.144 E32.76533
G1 X-27.903 Y44.01 E32.79839
G1 X-29.762 Y43.559 E32.90446
G1 X-30.426 Y43.387 E32.94249
G1 X-30.956 Y43.2 E32.97365
G1 X-31.756 Y42.838 E33.02234
G1 X-33.081 Y42.213 E33.10357
G1 X-33.724 Y41.9 E33.14322
G1 X-34.283 Y41.556 E33.17961
G1 X-34.892 Y41.09 E33.22213
G1 X-36.03 Y40.197 E33.30234
G1 X-36.587 Y39.747 E33.34204
G1 X-37.055 Y39.284 E33.37854
G1 X-37.587 Y38.641 E33.42482
G1 X-38.462 Y37.548 E33.50245
G1 X-38.894 Y36.994 E33.5414
G1 X-39.173 Y36.575 E33.56931
G1 X-39.264 Y36.405 E33.58
G1 X-39.562 Y35.807 E33.61705
G1 X-40.254 Y34.376 E33.70518
G1 X-40.538 Y33.767 E33.74244
G1 X-40.732 Y33.235 E33.77384
G1 X-40.969 Y32.358 E33.82421
G1 X-41.376 Y30.738 E33.91683
G1 X-41.524 Y30.112 E33.95249
G1 X-41.6 Y29.648 E33.97856
G1 X-41.676 Y28.795 E34.02604
G1 X-41.822 Y26.819 E34.13591
G1 X-41.861 Y26.166 E34.17218
G1 X-41.866 Y25.877 E34.1882
G1 X-41.838 Y24.895 E34.24267
G1 X-41.796 Y23.952 E34.29501
G1 X-41.752 Y23.199 E34.33684
G1 X-41.694 Y22.653 E34.36728
G1 X-41.492 Y21.268 E34.44489
G1 X-41.428 Y20.871 E34.46718
G1 X-41.038 Y18.196 E34.61707
G1 X-40.714 Y15.431 E34.77143
G1 X-40.475 Y12.728 E34.92189
G1 X-40.311 Y9.989 E35.07403
G1 X-40.225 Y7.275 E35.22458
G1 X-40.216 Y4.528 E35.3769
G1 X-40.284 Y1.782 E35.5292
G1 F1500 E29.0292
;MESH:O.stl(1)
G0 F3600 X9.252 Y15.725
G0 X10.708 Y16.35
G0 X18.245 Y17.06
G0 X18.322 Y17.123
;TYPE:WALL-INNER
G1 F1500 E35.5292
