;FLAVOR:Marlin
;TIME:1355
;Filament used: 2.28407m
;Layer height: 0.2
;MINX:-39.914
;MINY:-44.332
;MINZ:0.2
;MAXX:41.135
;MAXY:44.863
;MAXZ:3.6
;POSTPROCESSED
;Generated with Cura_SteamEngine 4.8.0
M140 S60
M105
M190 S60
M104 S195
M105
M109 S195
M82 ;absolute extrusion mode
G28 ;Home
G1 Z15.0 F6000 ;Move the platform down 15mm
;Prime the extruder
G92 E0
G1 F200 E3
G92 E0
G92 E0
G92 E0
G1 F1500 E-6.5
;LAYER_COUNT:18
;LAYER:0
M107
G0 F3600 X-37.002 Y1.768 Z0.2
;TYPE:SKIRT
G1 F1500 E0
G1 F1800 X-37.169 Y-.904 E0.14844
G1 X-37.417 Y-3.641 E0.30082
G1 X-37.736 Y-6.303 E0.44948
G1 X-38.138 Y-9.015 E0.60149
G1 X-38.616 Y-11.705 E0.75298
G1 X-39.165 Y-14.362 E0.90341
G1 X-39.575 Y-16.129 E1.00399
G1 X-39.654 Y-16.457 E1.0227
G1 X-39.745 Y-17.009 E1.05372
G1 X-39.834 Y-17.97 E1.10723
G1 X-39.877 Y-18.544 E1.13914
G1 X-39.914 Y-19.15 E1.17281
G1 X-39.914 Y-19.618 E1.19876
G1 X-39.842 Y-20.83 E1.26608
G1 X-39.803 Y-21.318 E1.29322
G1 X-39.739 Y-21.998 E1.33109
G1 X-39.645 Y-22.556 E1.36247
G1 X-39.525 Y-23.044 E1.39033
G1 X-39.287 Y-23.924 E1.44088
G1 X-39.095 Y-24.598 E1.47973
G1 X-38.853 Y-25.232 E1.51736
G1 X-38.647 Y-25.654 E1.5434
G1 X-38.257 Y-26.408 E1.59047
G1 X-37.929 Y-27.018 E1.62887
G1 X-37.502 Y-27.653 E1.6713
G1 X-36.96 Y-28.309 E1.71848
G1 X-36.689 Y-28.627 E1.74164
G1 X-36.217 Y-29.163 E1.78124
G1 X-35.833 Y-29.543 E1.8112
G1 X-35.091 Y-30.181 E1.86546
G1 X-33.066 Y-31.972 E2.01535
G1 X-31.049 Y-33.858 E2.16846
G1 X-29.145 Y-35.744 E2.31706
G1 X-27.259 Y-37.72 E2.46851
G1 X-25.452 Y-39.724 E2.61813
G1 X-23.762 Y-41.705 E2.76251
G1 X-22.886 Y-42.759 E2.8385
G1 X-22.499 Y-43.162 E2.86948
G1 X-22.059 Y-43.506 E2.90045
G1 X-21.574 Y-43.783 E2.93141
G1 X-21.055 Y-43.988 E2.96235
G1 X-20.512 Y-44.116 E2.99329
G1 X-20.006 Y-44.165 E3.02147
G1 X-19.561 Y-44.177 E3.04616
G1 X-11.231 Y-44.177 E3.50803
G1 X-10.529 Y-44.167 E3.54696
G1 X-9.872 Y-44.101 E3.58357
G1 X-9.356 Y-44.005 E3.61267
G1 X-6.62 Y-43.536 E3.76658
G1 X-3.933 Y-43.153 E3.91707
G1 X-1.233 Y-42.845 E4.06775
G1 X1.47 Y-42.615 E4.21816
G1 X4.214 Y-42.46 E4.37055
G1 X6.894 Y-42.383 E4.51921
G1 X9.643 Y-42.383 E4.67163
G1 X12.316 Y-42.458 E4.8199
G1 X15.066 Y-42.613 E4.97262
G1 X17.767 Y-42.843 E5.12292
G1 X20.468 Y-43.149 E5.27364
G1 X23.148 Y-43.53 E5.42374
G1 X25.869 Y-43.997 E5.57681
G1 X27.188 Y-44.251 E5.65129
G1 X27.808 Y-44.32 E5.68588
G1 X28.254 Y-44.332 E5.71062
G1 X36.584 Y-44.332 E6.17249
G1 X37.282 Y-44.322 E6.21119
G1 X37.838 Y-44.274 E6.24214
G1 X38.382 Y-44.147 E6.27311
G1 X38.902 Y-43.944 E6.30406
G1 X39.387 Y-43.668 E6.335
G1 X39.829 Y-43.327 E6.36596
G1 X40.217 Y-42.925 E6.39693
G1 X40.543 Y-42.473 E6.42783
G1 X40.802 Y-41.978 E6.45881
G1 X40.988 Y-41.452 E6.48974
G1 X41.096 Y-40.904 E6.52071
G1 X41.133 Y-40.217 E6.55886
G1 X41.135 Y-40.106 E6.56502
G1 X41.135 Y-11.078 E8.17452
G1 X41.124 Y-10.371 E8.21373
G1 X41.075 Y-9.815 E8.24467
G1 X40.934 Y-9.184 E8.28052
G1 X40.325 Y-6.54 E8.43096
G1 X39.78 Y-3.836 E8.58391
G1 X39.333 Y-1.217 E8.73122
G1 X38.945 Y1.504 E8.88362
G1 X38.637 Y4.203 E9.03424
G1 X38.407 Y6.906 E9.18465
G1 X38.252 Y9.651 E9.3371
G1 X38.175 Y12.315 E9.48487
G1 X38.165 Y13.746 E9.56421
G1 X38.165 Y38.69 E10.94727
G1 X38.155 Y39.417 E10.98759
G1 X38.107 Y39.973 E11.01853
G1 X37.981 Y40.517 E11.04949
G1 X37.778 Y41.037 E11.08044
G1 X37.503 Y41.522 E11.11136
G1 X37.161 Y41.964 E11.14235
G1 X36.76 Y42.352 E11.17328
G1 X36.308 Y42.679 E11.20422
G1 X35.813 Y42.938 E11.23519
G1 X35.287 Y43.124 E11.26613
G1 X34.739 Y43.233 E11.29711
G1 X34.045 Y43.27 E11.33564
G1 X33.935 Y43.272 E11.34174
G1 X19.504 Y43.272 E12.14189
G1 X18.973 Y43.264 E12.17134
G1 X17.788 Y43.211 E12.23711
G1 X16.937 Y43.158 E12.28438
G1 X16.837 Y43.15 E12.28995
G1 X14.159 Y42.981 E12.43873
G1 X11.406 Y42.885 E12.59147
G1 X8.693 Y42.866 E12.7419
G1 X5.98 Y42.925 E12.89236
G1 X3.273 Y43.06 E13.04264
G1 X0.561 Y43.272 E13.19347
G1 X-2.133 Y43.56 E13.34369
G1 X-4.861 Y43.93 E13.49634
G1 X-7.525 Y44.368 E13.64603
G1 X-9.716 Y44.785 E13.76969
G1 X-10.335 Y44.852 E13.80422
G1 X-10.763 Y44.863 E13.82795
G1 X-25.192 Y44.863 E14.62799
G1 X-25.743 Y44.855 E14.65855
G1 X-26.877 Y44.805 E14.72149
G1 X-27.745 Y44.75 E14.76971
G1 X-28.424 Y44.697 E14.80747
G1 X-28.877 Y44.635 E14.83282
G1 X-30.019 Y44.408 E14.89738
G1 X-30.476 Y44.307 E14.92333
G1 X-31.129 Y44.153 E14.96053
G1 X-31.61 Y44.006 E14.98842
G1 X-32.278 Y43.734 E15.02841
G1 X-32.957 Y43.44 E15.06944
G1 X-33.546 Y43.176 E15.10523
G1 X-34.23 Y42.782 E15.14899
G1 X-34.97 Y42.248 E15.19959
G1 X-35.215 Y42.066 E15.21651
G1 X-35.697 Y41.698 E15.25014
G1 X-36.282 Y41.147 E15.2947
G1 X-37.016 Y40.297 E15.35697
G1 X-37.105 Y40.19 E15.36468
G1 X-37.5 Y39.698 E15.39967
G1 X-37.921 Y39.052 E15.44242
G1 X-38.322 Y38.278 E15.49075
G1 X-38.485 Y37.949 E15.51111
G1 X-38.747 Y37.402 E15.54474
G1 X-38.988 Y36.761 E15.58271
G1 X-39.281 Y35.705 E15.64348
G1 X-39.348 Y35.444 E15.65842
G1 X-39.507 Y34.785 E15.696
G1 X-39.599 Y34.231 E15.72714
G1 X-39.687 Y33.279 E15.78015
G1 X-39.732 Y32.671 E15.81396
G1 X-39.767 Y32.08 E15.84678
G1 X-39.767 Y31.624 E15.87207
G1 X-39.697 Y30.416 E15.93916
G1 X-39.662 Y29.984 E15.96319
G1 X-39.592 Y29.242 E16.00451
G1 X-39.51 Y28.727 E16.03343
G1 X-38.926 Y26.12 E16.18156
G1 X-38.407 Y23.455 E16.3321
G1 X-37.961 Y20.755 E16.48384
G1 X-37.599 Y18.097 E16.63257
G1 X-37.304 Y15.359 E16.78527
G1 X-37.09 Y12.654 E16.93572
G1 X-36.953 Y9.945 E17.08611
G1 X-36.891 Y7.231 E17.23664
G1 X-36.908 Y4.52 E17.38695
G1 X-37.002 Y1.768 E17.53963
G0 F3600 X-36.401 Y1.781
G1 F1800 X-36.574 Y-.993 E17.69374
G1 X-36.816 Y-3.661 E17.84228
G1 X-37.147 Y-6.427 E17.99674
G1 X-37.544 Y-9.104 E18.14679
G1 X-38.021 Y-11.786 E18.29783
G1 X-38.58 Y-14.493 E18.45109
G1 X-38.998 Y-16.297 E18.55377
G1 X-39.148 Y-17.064 E18.5971
G1 X-39.236 Y-18.015 E18.65006
G1 X-39.278 Y-18.581 E18.68153
G1 X-39.315 Y-19.187 E18.71519
G1 X-39.315 Y-19.582 E18.73709
G1 X-39.244 Y-20.783 E18.8038
G1 X-39.205 Y-21.262 E18.83045
G1 X-39.141 Y-21.942 E18.86832
G1 X-38.966 Y-22.808 E18.9173
G1 X-38.946 Y-22.888 E18.92188
G1 X-38.71 Y-23.76 E18.97197
G1 X-38.518 Y-24.434 E19.01082
G1 X-38.313 Y-24.97 E19.04264
G1 X-38.114 Y-25.378 E19.06781
G1 X-37.728 Y-26.124 E19.11438
G1 X-37.4 Y-26.734 E19.15279
G1 X-37.039 Y-27.271 E19.18866
G1 X-36.503 Y-27.921 E19.23538
G1 X-36.239 Y-28.231 E19.25795
G1 X-35.767 Y-28.767 E19.29755
G1 X-35.441 Y-29.088 E19.32292
G1 X-34.734 Y-29.697 E19.37466
G1 X-32.627 Y-31.56 E19.5306
G1 X-30.659 Y-33.4 E19.67999
G1 X-28.713 Y-35.328 E19.83188
G1 X-26.82 Y-37.311 E19.98388
G1 X-24.976 Y-39.357 E20.1366
G1 X-23.327 Y-41.289 E20.27744
G1 X-22.424 Y-42.376 E20.35579
G1 X-22.066 Y-42.744 E20.38426
G1 X-21.656 Y-43.052 E20.41269
G1 X-21.202 Y-43.293 E20.44119
G1 X-20.717 Y-43.461 E20.46965
G1 X-19.987 Y-43.565 E20.51054
G1 X-19.561 Y-43.577 E20.53417
G1 X-11.24 Y-43.577 E20.99554
G1 X-10.538 Y-43.567 E21.03446
G1 X-9.982 Y-43.511 E21.06545
G1 X-9.457 Y-43.414 E21.09505
G1 X-6.696 Y-42.94 E21.25038
G1 X-4.015 Y-42.559 E21.40052
G1 X-1.282 Y-42.247 E21.55304
G1 X1.42 Y-42.017 E21.7034
G1 X4.163 Y-41.862 E21.85574
G1 X6.911 Y-41.783 E22.00817
G1 X9.624 Y-41.783 E22.15859
G1 X12.367 Y-41.86 E22.31074
G1 X15.115 Y-42.015 E22.46335
G1 X17.816 Y-42.244 E22.61365
G1 X20.55 Y-42.555 E22.76622
G1 X23.224 Y-42.935 E22.91597
G1 X25.99 Y-43.409 E23.07158
G1 X27.302 Y-43.662 E23.14566
G1 X27.826 Y-43.72 E23.17489
G1 X28.254 Y-43.732 E23.19863
G1 X36.575 Y-43.732 E23.66
G1 X37.273 Y-43.722 E23.69871
G1 X37.785 Y-43.674 E23.72722
G1 X38.282 Y-43.548 E23.75565
G1 X38.754 Y-43.347 E23.7841
G1 X39.19 Y-43.074 E23.81262
G1 X39.577 Y-42.738 E23.84104
G1 X39.908 Y-42.345 E23.86953
G1 X40.174 Y-41.906 E23.89799
G1 X40.368 Y-41.43 E23.92649
G1 X40.487 Y-40.931 E23.95493
G1 X40.534 Y-40.2 E23.99555
G1 X40.535 Y-11.088 E25.60971
G1 X40.524 Y-10.381 E25.64891
G1 X40.43 Y-9.65 E25.68978
G1 X40.361 Y-9.367 E25.70593
G1 X39.735 Y-6.647 E25.86069
G1 X39.191 Y-3.951 E26.01319
G1 X38.736 Y-1.283 E26.16325
G1 X38.35 Y1.426 E26.31497
G1 X38.039 Y4.154 E26.46721
G1 X37.809 Y6.856 E26.61757
G1 X37.654 Y9.599 E26.7699
G1 X37.574 Y12.383 E26.92433
G1 X37.565 Y13.742 E26.99968
G1 X37.565 Y38.681 E28.38247
G1 X37.555 Y39.408 E28.42278
G1 X37.508 Y39.92 E28.45129
G1 X37.382 Y40.417 E28.47972
G1 X37.181 Y40.89 E28.50821
G1 X36.908 Y41.325 E28.53669
G1 X36.572 Y41.713 E28.56515
G1 X36.179 Y42.044 E28.59364
G1 X35.74 Y42.31 E28.6221
G1 X35.265 Y42.505 E28.65057
G1 X34.766 Y42.623 E28.679
G1 X34.028 Y42.671 E28.72001
G1 X19.513 Y42.672 E29.52481
G1 X18.88 Y42.661 E29.55992
G1 X17.761 Y42.609 E29.62203
G1 X16.985 Y42.559 E29.66515
G1 X14.18 Y42.381 E29.82099
G1 X11.431 Y42.285 E29.9735
G1 X8.684 Y42.266 E30.12582
G1 X5.974 Y42.325 E30.27611
G1 X3.229 Y42.462 E30.4285
G1 X0.485 Y42.677 E30.58112
G1 X-2.207 Y42.964 E30.73122
G1 X-4.929 Y43.333 E30.88353
G1 X-7.616 Y43.775 E31.03452
G1 X-9.828 Y44.196 E31.15937
G1 X-10.352 Y44.253 E31.18859
G1 X-10.763 Y44.263 E31.21139
G1 X-25.183 Y44.263 E32.01093
G1 X-25.836 Y44.252 E32.04714
G1 X-26.909 Y44.202 E32.1067
G1 X-27.699 Y44.152 E32.15059
G1 X-28.378 Y44.099 E32.18835
G1 X-28.761 Y44.046 E32.20979
G1 X-29.89 Y43.822 E32.27361
G1 X-30.338 Y43.723 E32.29905
G1 X-30.991 Y43.569 E32.33625
G1 X-31.528 Y43.396 E32.36753
G1 X-32.046 Y43.181 E32.39863
G1 X-32.712 Y42.892 E32.43888
G1 X-33.301 Y42.628 E32.47467
G1 X-33.879 Y42.295 E32.51166
G1 X-34.612 Y41.767 E32.56175
G1 X-34.851 Y41.589 E32.57827
G1 X-35.333 Y41.221 E32.61189
G1 X-35.828 Y40.755 E32.64959
G1 X-36.562 Y39.905 E32.71186
G1 X-37.032 Y39.322 E32.75338
G1 X-37.388 Y38.776 E32.78952
G1 X-37.785 Y38.011 E32.83731
G1 X-37.944 Y37.69 E32.85717
G1 X-38.206 Y37.143 E32.8908
G1 X-38.41 Y36.6 E32.92296
G1 X-38.7 Y35.552 E32.98325
G1 X-38.765 Y35.303 E32.99752
G1 X-38.924 Y34.644 E33.03511
G1 X-39.002 Y34.176 E33.06142
G1 X-39.089 Y33.235 E33.11381
G1 X-39.133 Y32.635 E33.14717
G1 X-39.168 Y32.044 E33.18
G1 X-39.168 Y31.658 E33.2014
G1 X-39.099 Y30.464 E33.26771
G1 X-39.064 Y30.04 E33.2913
G1 X-38.994 Y29.298 E33.33263
G1 X-38.907 Y28.777 E33.36192
G1 X-38.335 Y26.229 E33.50671
G1 X-37.818 Y23.57 E33.6569
G1 X-37.37 Y20.859 E33.80926
G1 X-36.999 Y18.133 E33.9618
G1 X-36.708 Y15.436 E34.11221
G1 X-36.492 Y12.698 E34.26449
G1 X-36.353 Y9.953 E34.41689
G1 X-36.291 Y7.241 E34.5673
G1 X-36.308 Y4.495 E34.71956
G1 X-36.401 Y1.781 E34.87013
G1 F1500 E28.37013
;MESH:P.stl(3)
G0 F3600 X-9.78 Y10.31
G0 X9.136 Y25.357
G0 X10.543 Y26.084
G0 X18.116 Y33.002
G0 X19.842 Y33.941
G0 X22.019 Y34.185
G0 X25.924 Y34.244
G0 X25.854 Y34.174
;TYPE:WALL-INNER
G1 F1500 E34.87013
G1 F1800 X25.854 Y25.682 E35.34098
G1 X22.636 Y25.682 E35.51941
G1 X20.157 Y25.936 E35.65758
G1 X18.335 Y26.792 E35.7692
G1 X17.264 Y28.192 E35.86693
G1 X16.917 Y29.886 E35.96281
G1 X17.214 Y31.539 E36.05593
G1 X18.143 Y32.973 E36.15067
G1 X19.854 Y33.903 E36.25864
G1 X22.263 Y34.174 E36.39306
G1 X25.854 Y34.174 E36.59217
G0 F3600 X25.254 Y33.574
;TYPE:WALL-OUTER
G1 F1800 X25.254 Y26.282 E36.99648
G1 X22.667 Y26.282 E37.13992
G1 X20.32 Y26.522 E37.27074
G1 X18.723 Y27.273 E37.36859
G1 X17.824 Y28.447 E37.45057
G1 X17.528 Y29.893 E37.53241
G1 X17.783 Y31.314 E37.61246
G1 X18.564 Y32.519 E37.69208
G1 X20.038 Y33.32 E37.7851
G1 X22.297 Y33.574 E37.91114
G1 X25.254 Y33.574 E38.07509
G0 F3600 X25.254 Y33.374
G0 X25.914 Y33.374
G0 X25.954 Y33.374
G0 X25.924 Y21.474
G0 X25.854 Y21.404
;TYPE:WALL-INNER
G1 F1800 X25.854 Y10.272 E38.69233
G1 X33.365 Y10.272 E39.10879
G1 X33.365 Y38.472 E40.67238
G1 X18.881 Y38.472 E41.47547
G1 X16.624 Y38.329 E41.60086
G1 X14.728 Y37.913 E41.70849
G1 X13.184 Y37.244 E41.80179
G1 X11.936 Y36.317 E41.88799
G1 X10.977 Y35.16 E41.97131
G1 X10.284 Y33.764 E42.05773
G1 X9.856 Y32.096 E42.15321
G1 X9.711 Y30.166 E42.26052
G1 X9.87 Y28.17 E42.37155
G1 X10.335 Y26.444 E42.47066
G1 X11.097 Y24.972 E42.56256
G1 X12.155 Y23.728 E42.65311
G1 X13.53 Y22.733 E42.74722
G1 X15.263 Y22.005 E42.85144
G1 X17.375 Y21.558 E42.97114
G1 X19.902 Y21.404 E43.11151
G1 X25.854 Y21.404 E43.44153
G0 F3600 X25.254 Y20.804
;TYPE:WALL-OUTER
G1 F1800 X25.254 Y9.672 E44.05876
G1 X33.965 Y9.672 E44.54176
G1 X33.965 Y39.072 E46.17189
G1 X18.859 Y39.072 E47.00947
G1 X16.541 Y38.925 E47.13825
G1 X14.544 Y38.487 E47.25161
G1 X12.879 Y37.765 E47.35223
G1 X11.521 Y36.757 E47.44601
G1 X10.472 Y35.491 E47.53717
G1 X9.719 Y33.974 E47.63107
G1 X9.262 Y32.194 E47.73297
G1 X9.109 Y30.163 E47.8459
G1 X9.276 Y28.069 E47.96237
G1 X9.773 Y26.223 E48.06837
G1 X10.595 Y24.635 E48.16752
G1 X11.745 Y23.284 E48.26589
G1 X13.233 Y22.207 E48.36774
G1 X15.085 Y21.43 E48.4791
G1 X17.295 Y20.962 E48.60435
G1 X19.881 Y20.804 E48.748
G1 X25.254 Y20.804 E49.04592
G0 F3600 X25.254 Y20.604
G0 X25.914 Y20.604
G0 X25.954 Y20.604
G0 X13.342 Y29.552
;TYPE:SKIN
G1 F1800 X13.404 Y28.776 E49.08908
G1 X13.68 Y27.75 E49.14799
G1 X13.732 Y27.648 E49.15434
G1 X13.342 Y29.552 E49.2621
G0 F3600 X13.307 Y29.985
G1 F1800 X13.828 Y32.877 E49.42504
G1 X14.208 Y33.464 E49.46381
G1 X13.988 Y33.199 E49.48291
G1 X13.649 Y32.515 E49.52523
G1 X13.39 Y31.505 E49.58305
G1 X13.292 Y30.182 E49.6566
G1 X13.307 Y29.985 E49.66756
G0 F3600 X13.893 Y29.851
G1 F1800 X14.397 Y32.652 E49.82536
G1 X16.018 Y35.156 E49.99075
G1 X15.645 Y35.074 E50.01193
G1 X14.683 Y34.657 E50.07006
G1 X13.99 Y34.141 E50.11797
G1 X13.481 Y33.528 E50.16215
G1 X13.084 Y32.727 E50.21171
G1 X12.796 Y31.603 E50.27605
G1 X12.69 Y30.179 E50.35522
G1 X12.81 Y28.675 E50.43888
G1 X13.118 Y27.529 E50.50468
G1 X13.578 Y26.64 E50.56018
G1 X14.189 Y25.921 E50.61249
G1 X14.991 Y25.342 E50.66734
G1 X16.043 Y24.899 E50.73063
G1 X14.492 Y26.929 E50.87228
G1 X13.893 Y29.851 E51.03766
G0 F3600 X14.504 Y29.858
G1 F1800 X14.966 Y32.427 E51.18239
G1 X16.481 Y34.766 E51.33691
G1 X18.934 Y36.101 E51.49176
G1 X16.96 Y35.977 E51.60142
G1 X15.459 Y35.647 E51.68664
G1 X14.383 Y35.181 E51.75165
G1 X13.573 Y34.578 E51.80764
G1 X12.974 Y33.857 E51.85962
G1 X12.519 Y32.938 E51.91648
G1 X12.202 Y31.701 E51.98728
G1 X12.089 Y30.176 E52.07207
G1 X12.216 Y28.574 E52.16117
G1 X12.556 Y27.311 E52.23369
G1 X13.077 Y26.302 E52.29666
G1 X13.777 Y25.479 E52.35656
G1 X14.698 Y24.814 E52.41955
G1 X15.978 Y24.275 E52.49656
G1 X17.693 Y23.912 E52.59376
G1 X19.072 Y23.828 E52.67036
G1 X16.803 Y24.893 E52.80934
G1 X15.052 Y27.184 E52.96922
G1 X14.504 Y29.858 E53.12056
G0 F3600 X15.115 Y29.865
G1 F1800 X15.535 Y32.202 E53.25222
G1 X16.902 Y34.312 E53.39162
G1 X19.311 Y35.623 E53.54369
G1 X22.163 Y35.944 E53.70282
G1 X27.624 Y35.944 E54.00561
G1 X27.624 Y23.912 E54.67275
G1 X22.545 Y23.912 E54.95436
G1 X19.677 Y24.207 E55.11422
G1 X17.191 Y25.374 E55.26649
G1 X15.612 Y27.439 E55.41063
G1 X15.115 Y29.865 E55.54793
G0 F3600 X15.726 Y29.872
G1 F1800 X16.104 Y31.977 E55.66652
G1 X17.323 Y33.858 E55.7908
G1 X19.495 Y35.04 E55.9279
G1 X22.197 Y35.344 E56.07867
G1 X27.024 Y35.344 E56.34631
G1 X27.024 Y24.512 E56.94691
G1 X22.576 Y24.512 E57.19353
G1 X19.84 Y24.793 E57.34603
G1 X17.579 Y25.855 E57.48454
G1 X16.172 Y27.694 E57.61292
G1 X15.726 Y29.872 E57.73619
G0 F3600 X16.337 Y29.879
G1 F1800 X16.673 Y31.752 E57.8417
G1 X17.744 Y33.404 E57.95087
G1 X19.679 Y34.457 E58.07301
G1 X22.231 Y34.744 E58.2154
G1 X26.424 Y34.744 E58.44789
G1 X26.424 Y25.112 E58.98195
G1 X22.607 Y25.112 E59.19359
G1 X20.003 Y25.379 E59.33873
G1 X17.967 Y26.336 E59.46347
G1 X16.732 Y27.949 E59.57611
G1 X16.337 Y29.879 E59.68534
G0 F3600 X11.487 Y30.172
G1 F1800 X11.622 Y28.473 E59.77984
G1 X11.994 Y27.09 E59.85925
G1 X12.575 Y25.966 E59.92941
G1 X13.365 Y25.037 E59.99702
G1 X14.404 Y24.286 E60.06811
G1 X15.797 Y23.7 E60.1519
G1 X17.613 Y23.316 E60.25482
