;FLAVOR:Marlin
;TIME:1780
;Filament used: 2.9788m
;Layer height: 0.2
;MINX:-44.933
;MINY:-47.813
;MINZ:0.2
;MAXX:46.173
;MAXY:48.385
;MAXZ:3.6
;POSTPROCESSED
;Generated with Cura_SteamEngine 4.8.0
M140 S60
M105
M190 S60
M104 S195
M105
M109 S195
M82 ;absolute extrusion mode
G28 ;Home
G1 Z15.0 F6000 ;Move the platform down 15mm
;Prime the extruder
G92 E0
G1 F200 E3
G92 E0
G92 E0
G92 E0
G1 F1500 E-6.5
;LAYER_COUNT:18
;LAYER:0
M107
G0 F3600 X-42.538 Y-2.446 Z0.2
;TYPE:SKIRT
G1 F1500 E0
G1 F1800 X-42.427 Y-5.158 E0.1505
G1 X-42.394 Y-7.885 E0.30171
G1 X-42.438 Y-10.619 E0.45332
G1 X-42.556 Y-13.293 E0.60173
G1 X-42.756 Y-16.043 E0.75461
G1 X-43.024 Y-18.703 E0.90285
G1 X-43.392 Y-21.541 E1.06152
G1 X-43.41 Y-21.708 E1.07083
G1 X-43.467 Y-22.378 E1.10812
G1 X-43.627 Y-24.606 E1.23197
G1 X-43.673 Y-25.424 E1.2774
G1 X-43.7 Y-26.329 E1.3276
G1 X-43.818 Y-29.034 E1.47773
G1 X-44.017 Y-31.792 E1.63104
G1 X-44.283 Y-34.435 E1.77833
G1 X-44.644 Y-37.226 E1.93437
G1 X-44.781 Y-38.18 E1.98781
G1 X-44.82 Y-38.737 E2.01877
G1 X-44.779 Y-39.294 E2.04974
G1 X-44.66 Y-39.839 E2.08067
G1 X-44.471 Y-40.345 E2.11062
G1 X-44.198 Y-40.922 E2.14601
G1 X-42.117 Y-45.117 E2.40565
G1 X-41.819 Y-45.698 E2.44186
G1 X-41.53 Y-46.175 E2.47278
G1 X-41.175 Y-46.606 E2.50374
G1 X-40.762 Y-46.982 E2.53471
G1 X-40.3 Y-47.295 E2.56565
G1 X-39.798 Y-47.539 E2.5966
G1 X-39.266 Y-47.709 E2.62757
G1 X-38.715 Y-47.801 E2.65854
G1 X-38.157 Y-47.813 E2.68949
G1 X-37.341 Y-47.685 E2.73529
G1 X-37.194 Y-47.646 E2.74372
G1 X-34.489 Y-46.961 E2.89844
G1 X-31.847 Y-46.371 E3.04853
G1 X-29.166 Y-45.855 E3.19991
G1 X-26.519 Y-45.42 E3.34865
G1 X-23.813 Y-45.054 E3.50006
G1 X-21.184 Y-44.786 E3.64658
G1 X-19.468 Y-44.594 E3.74232
G1 X-18.51 Y-44.474 E3.79585
G1 X-15.809 Y-44.213 E3.94631
G1 X-13.101 Y-44.029 E4.09681
G1 X-10.392 Y-43.921 E4.24713
G1 X-7.641 Y-43.889 E4.39968
G1 X-4.965 Y-43.935 E4.54807
G1 X-2.253 Y-44.058 E4.6986
G1 X0.488 Y-44.259 E4.85099
G1 X3.188 Y-44.534 E5.00147
G1 X5.888 Y-44.887 E5.15245
G1 X8.541 Y-45.31 E5.3014
G1 X11.202 Y-45.812 E5.45155
G1 X11.897 Y-45.946 E5.4908
G1 X12.452 Y-46.013 E5.52179
G1 X13.01 Y-45.999 E5.55274
G1 X13.592 Y-45.898 E5.58549
G1 X16.481 Y-45.167 E5.75073
G1 X19.147 Y-44.571 E5.9022
G1 X21.82 Y-44.056 E6.05313
G1 X24.466 Y-43.621 E6.20181
G1 X27.17 Y-43.255 E6.35311
G1 X29.793 Y-42.987 E6.4993
G1 X30.518 Y-42.906 E6.53975
G1 X31.117 Y-42.802 E6.57346
G1 X31.246 Y-42.774 E6.58078
G1 X33.196 Y-42.321 E6.69178
G1 X33.894 Y-42.148 E6.73165
G1 X34.415 Y-41.98 E6.762
G1 X34.95 Y-41.757 E6.79414
G1 X36.41 Y-41.111 E6.88266
G1 X37.049 Y-40.818 E6.92164
G1 X37.65 Y-40.475 E6.96001
G1 X38.563 Y-39.839 E7.0217
G1 X39.396 Y-39.237 E7.07869
G1 X39.959 Y-38.816 E7.11767
G1 X40.51 Y-38.315 E7.15896
G1 X40.976 Y-37.801 E7.19743
G1 X42.179 Y-36.433 E7.29844
G1 X42.607 Y-35.933 E7.33493
G1 X43.056 Y-35.286 E7.3786
G1 X43.529 Y-34.431 E7.43277
G1 X44.278 Y-33.016 E7.52155
G1 X44.592 Y-32.402 E7.55978
G1 X44.842 Y-31.792 E7.59634
G1 X45.009 Y-31.228 E7.62895
G1 X45.592 Y-29.109 E7.75081
G1 X45.768 Y-28.43 E7.7897
G1 X45.869 Y-27.887 E7.82032
G1 X45.924 Y-27.352 E7.85014
G1 X46.13 Y-24.794 E7.99244
G1 X46.169 Y-24.217 E8.0245
G1 X46.173 Y-23.749 E8.05045
G1 X46.108 Y-22.531 E8.11808
G1 X45.977 Y-20.737 E8.21782
G1 X45.914 Y-20.02 E8.25773
G1 X45.827 Y-19.475 E8.28833
G1 X45.644 Y-18.692 E8.33291
G1 X45.353 Y-17.521 E8.39981
G1 X44.721 Y-14.813 E8.554
G1 X44.171 Y-12.123 E8.70624
G1 X43.712 Y-9.479 E8.85503
G1 X43.324 Y-6.812 E9.00446
G1 X43.007 Y-4.089 E9.15646
G1 X42.767 Y-1.375 E9.30753
G1 X42.606 Y1.331 E9.45784
G1 X42.522 Y4.042 E9.60822
G1 X42.513 Y6.756 E9.75871
G1 X42.583 Y9.508 E9.91135
G1 X42.726 Y12.175 E10.05943
G1 X42.952 Y14.926 E10.21248
G1 X43.245 Y17.577 E10.36037
G1 X43.626 Y20.312 E10.51348
G1 X44.073 Y22.971 E10.66298
G1 X44.376 Y24.553 E10.75229
G1 X44.45 Y25.111 E10.7835
G1 X44.48 Y25.444 E10.80204
G1 X44.683 Y27.95 E10.94144
G1 X44.722 Y28.53 E10.97367
G1 X44.726 Y28.998 E10.99962
G1 X44.662 Y30.191 E11.06587
G1 X44.528 Y32.02 E11.16755
G1 X44.468 Y32.715 E11.20623
G1 X44.38 Y33.266 E11.23717
G1 X44.201 Y34.032 E11.28078
G1 X43.759 Y35.81 E11.38237
G1 X43.597 Y36.429 E11.41785
G1 X43.37 Y37.065 E11.45529
G1 X43.001 Y37.87 E11.50439
G1 X42.337 Y39.259 E11.58975
G1 X42.037 Y39.865 E11.62724
G1 X41.638 Y40.507 E11.66916
G1 X41.193 Y41.086 E11.70965
G1 X40.235 Y42.296 E11.79522
G1 X39.778 Y42.857 E11.83534
G1 X39.231 Y43.406 E11.87831
G1 X38.628 Y43.902 E11.9216
G1 X37.503 Y44.802 E12.00148
G1 X36.913 Y45.262 E12.04296
G1 X36.269 Y45.669 E12.08521
G1 X35.666 Y45.973 E12.12265
G1 X34.162 Y46.7 E12.21527
G1 X33.549 Y46.987 E12.2528
G1 X32.91 Y47.221 E12.29053
G1 X31.986 Y47.469 E12.34358
G1 X30.386 Y47.871 E12.43505
G1 X29.735 Y48.025 E12.47214
G1 X29.186 Y48.114 E12.50298
G1 X28.27 Y48.196 E12.55397
G1 X26.306 Y48.342 E12.66317
G1 X25.61 Y48.384 E12.70183
G1 X25.159 Y48.385 E12.72684
G1 X24.303 Y48.337 E12.77437
G1 X22.17 Y48.184 E12.89295
G1 X21.502 Y48.126 E12.93012
G1 X20.891 Y48.028 E12.96443
G1 X17.967 Y47.364 E13.13069
G1 X15.271 Y46.828 E13.2831
G1 X12.605 Y46.378 E13.43301
G1 X9.925 Y46.001 E13.58307
G1 X7.23 Y45.7 E13.73343
G1 X4.492 Y45.473 E13.88576
G1 X1.813 Y45.326 E14.03453
G1 X-.931 Y45.254 E14.18672
G1 X-3.648 Y45.259 E14.33737
G1 X-6.359 Y45.34 E14.48776
G1 X-9.068 Y45.499 E14.63822
G1 X-11.771 Y45.734 E14.78866
G1 X-14.471 Y46.046 E14.93936
G1 X-17.166 Y46.435 E15.09034
G1 X-18.922 Y46.731 E15.18907
G1 X-20.129 Y46.946 E15.25705
G1 X-20.467 Y46.991 E15.27596
G1 X-21.353 Y47.069 E15.32527
G1 X-23.365 Y47.219 E15.43714
G1 X-24.05 Y47.26 E15.47519
G1 X-24.501 Y47.261 E15.5002
G1 X-25.363 Y47.212 E15.54807
G1 X-27.48 Y47.061 E15.66575
G1 X-28.16 Y47.002 E15.70359
G1 X-28.779 Y46.902 E15.73836
G1 X-29.336 Y46.773 E15.77006
G1 X-31.243 Y46.311 E15.87886
G1 X-31.886 Y46.144 E15.91569
G1 X-32.51 Y45.924 E15.95238
G1 X-33.312 Y45.562 E16.00117
G1 X-34.66 Y44.928 E16.08376
G1 X-35.281 Y44.627 E16.12203
G1 X-35.941 Y44.223 E16.16493
G1 X-36.563 Y43.749 E16.20829
G1 X-37.677 Y42.877 E16.28673
G1 X-38.258 Y42.41 E16.32806
G1 X-38.819 Y41.857 E16.37174
G1 X-39.403 Y41.151 E16.42254
G1 X-40.246 Y40.097 E16.49738
G1 X-40.682 Y39.535 E16.53682
G1 X-41.092 Y38.882 E16.57957
G1 X-41.456 Y38.151 E16.62485
G1 X-42.139 Y36.721 E16.71271
G1 X-42.405 Y36.144 E16.74794
G1 X-42.633 Y35.508 E16.78541
G1 X-42.877 Y34.586 E16.83829
G1 X-43.268 Y32.995 E16.92913
G1 X-43.433 Y32.283 E16.96965
G1 X-43.52 Y31.737 E17.00031
G1 X-43.586 Y30.964 E17.04332
G1 X-43.737 Y28.865 E17.16001
G1 X-43.788 Y27.962 E17.21015
G1 X-43.815 Y27.051 E17.26069
G1 X-43.934 Y24.354 E17.41037
G1 X-44.133 Y21.606 E17.56314
G1 X-44.403 Y18.935 E17.71199
G1 X-44.757 Y16.197 E17.86507
G1 X-44.894 Y15.239 E17.91873
G1 X-44.933 Y14.682 E17.94969
G1 X-44.846 Y13.871 E17.99491
G1 X-44.241 Y11.046 E18.1551
G1 X-43.743 Y8.336 E18.30788
G1 X-43.327 Y5.654 E18.45836
G1 X-42.992 Y3.002 E18.60658
G1 X-42.725 Y0.262 E18.75922
G1 X-42.538 Y-2.446 E18.90973
G0 F3600 X-41.938 Y-2.415
G1 F1800 X-41.828 Y-5.125 E19.06011
G1 X-41.794 Y-7.885 E19.21316
G1 X-41.837 Y-10.62 E19.36482
G1 X-41.959 Y-13.365 E19.51717
G1 X-42.156 Y-16.074 E19.66777
G1 X-42.428 Y-18.77 E19.81802
G1 X-42.797 Y-21.618 E19.97725
G1 X-42.812 Y-21.76 E19.98517
G1 X-42.868 Y-22.421 E20.02195
G1 X-43.028 Y-24.64 E20.1453
G1 X-43.074 Y-25.442 E20.18984
G1 X-43.101 Y-26.347 E20.24005
G1 X-43.221 Y-29.101 E20.39289
G1 X-43.416 Y-31.808 E20.54337
G1 X-43.686 Y-34.502 E20.69349
G1 X-44.049 Y-37.303 E20.8501
G1 X-44.187 Y-38.265 E20.90399
G1 X-44.22 Y-38.778 E20.93249
G1 X-44.173 Y-39.289 E20.96094
G1 X-44.047 Y-39.787 E20.98942
G1 X-43.828 Y-40.309 E21.02081
G1 X-43.642 Y-40.692 E21.04442
G1 X-41.583 Y-44.843 E21.30134
G1 X-41.285 Y-45.424 E21.33754
G1 X-41.016 Y-45.861 E21.36599
G1 X-40.682 Y-46.251 E21.39446
G1 X-40.292 Y-46.585 E21.42293
G1 X-39.855 Y-46.854 E21.45139
G1 X-39.381 Y-47.052 E21.47987
G1 X-38.883 Y-47.175 E21.50831
G1 X-38.371 Y-47.218 E21.5368
G1 X-37.859 Y-47.181 E21.56526
G1 X-37.306 Y-47.055 E21.59671
G1 X-34.655 Y-46.384 E21.74834
G1 X-31.928 Y-45.775 E21.90326
G1 X-29.296 Y-45.268 E22.05188
G1 X-26.593 Y-44.824 E22.20376
G1 X-23.895 Y-44.459 E22.35472
G1 X-21.25 Y-44.19 E22.50213
G1 X-19.543 Y-43.998 E22.59738
G1 X-18.607 Y-43.881 E22.64968
G1 X-15.837 Y-43.613 E22.80398
G1 X-13.132 Y-43.429 E22.95431
G1 X-10.422 Y-43.322 E23.10469
G1 X-7.673 Y-43.29 E23.25712
G1 X-4.928 Y-43.336 E23.40935
G1 X-2.181 Y-43.461 E23.56182
G1 X0.523 Y-43.659 E23.71214
G1 X3.256 Y-43.938 E23.86447
G1 X5.955 Y-44.291 E24.01539
G1 X8.671 Y-44.724 E24.16789
G1 X11.314 Y-45.223 E24.31702
G1 X12.011 Y-45.357 E24.35638
G1 X12.521 Y-45.415 E24.38484
G1 X13.034 Y-45.393 E24.41331
G1 X13.445 Y-45.316 E24.43649
G1 X16.349 Y-44.581 E24.60259
G1 X19.033 Y-43.981 E24.75508
G1 X21.685 Y-43.47 E24.90483
G1 X24.398 Y-43.024 E25.05727
G1 X27.088 Y-42.66 E25.20778
G1 X29.726 Y-42.391 E25.35481
G1 X30.451 Y-42.31 E25.39526
G1 X31.001 Y-42.213 E25.42623
G1 X31.111 Y-42.19 E25.43246
G1 X33.052 Y-41.739 E25.54295
G1 X33.75 Y-41.566 E25.58282
G1 X34.424 Y-41.329 E25.62243
G1 X34.745 Y-41.192 E25.64178
G1 X36.159 Y-40.566 E25.72753
G1 X36.798 Y-40.273 E25.7665
G1 X37.307 Y-39.982 E25.79901
G1 X38.211 Y-39.353 E25.86007
G1 X39.036 Y-38.757 E25.91651
G1 X39.599 Y-38.336 E25.95549
G1 X40.066 Y-37.912 E25.99046
G1 X40.526 Y-37.404 E26.02846
G1 X41.723 Y-36.043 E26.12895
G1 X42.151 Y-35.543 E26.16545
G1 X42.531 Y-34.995 E26.20242
G1 X42.999 Y-34.15 E26.25598
G1 X43.744 Y-32.743 E26.34426
G1 X44.058 Y-32.129 E26.38249
G1 X44.269 Y-31.612 E26.41346
G1 X44.432 Y-31.064 E26.44516
G1 X44.999 Y-29.006 E26.56352
G1 X45.187 Y-28.279 E26.60515
G1 X45.299 Y-27.58 E26.6444
G1 X45.329 Y-27.26 E26.66222
G1 X45.531 Y-24.754 E26.80162
G1 X45.57 Y-24.177 E26.83369
G1 X45.573 Y-23.781 E26.85565
G1 X45.509 Y-22.574 E26.92267
G1 X45.379 Y-20.789 E27.0219
G1 X45.316 Y-20.072 E27.06181
G1 X45.243 Y-19.612 E27.08763
G1 X45.062 Y-18.837 E27.13176
G1 X44.758 Y-17.613 E27.20169
G1 X44.133 Y-14.932 E27.35433
G1 X43.583 Y-12.241 E27.50662
G1 X43.124 Y-9.599 E27.6553
G1 X42.726 Y-6.862 E27.80866
G1 X42.409 Y-4.137 E27.96077
G1 X42.169 Y-1.429 E28.11151
G1 X42.006 Y1.31 E28.26364
G1 X41.922 Y4.022 E28.41409
G1 X41.913 Y6.769 E28.5664
G1 X41.983 Y9.52 E28.71898
G1 X42.128 Y12.221 E28.86896
G1 X42.354 Y14.971 E29.02195
G1 X42.654 Y17.69 E29.17363
G1 X43.031 Y20.39 E29.32478
G1 X43.485 Y23.092 E29.4767
G1 X43.786 Y24.666 E29.56556
G1 X43.854 Y25.178 E29.59419
G1 X43.882 Y25.492 E29.61167
G1 X44.085 Y27.991 E29.75069
G1 X44.124 Y28.571 E29.78292
G1 X44.126 Y28.966 E29.80482
G1 X44.063 Y30.148 E29.87045
G1 X43.93 Y31.969 E29.97169
G1 X43.87 Y32.664 E30.01037
G1 X43.796 Y33.129 E30.03648
G1 X43.619 Y33.888 E30.07969
G1 X43.178 Y35.659 E30.18089
G1 X43.016 Y36.278 E30.21636
G1 X42.824 Y36.816 E30.24804
G1 X42.46 Y37.611 E30.29652
G1 X41.799 Y38.993 E30.38146
G1 X41.499 Y39.599 E30.41895
G1 X41.162 Y40.142 E30.45438
G1 X40.723 Y40.714 E30.49436
G1 X39.77 Y41.917 E30.57946
G1 X39.313 Y42.478 E30.61958
G1 X38.85 Y42.943 E30.65596
G1 X38.253 Y43.434 E30.69882
G1 X37.134 Y44.328 E30.77824
G1 X36.544 Y44.788 E30.81972
G1 X35.999 Y45.133 E30.85548
G1 X35.404 Y45.432 E30.8924
G1 X33.907 Y46.157 E30.98463
G1 X33.294 Y46.444 E31.02216
G1 X32.754 Y46.641 E31.05403
G1 X31.839 Y46.887 E31.10657
G1 X30.248 Y47.287 E31.19753
G1 X29.597 Y47.441 E31.23462
G1 X29.133 Y47.517 E31.26069
G1 X28.226 Y47.598 E31.31118
G1 X26.27 Y47.743 E31.41993
G1 X25.574 Y47.785 E31.45859
G1 X25.192 Y47.786 E31.47977
G1 X24.346 Y47.739 E31.52675
G1 X22.222 Y47.587 E31.64482
G1 X21.554 Y47.529 E31.682
G1 X21.024 Y47.443 E31.71177
G1 X18.061 Y46.771 E31.88023
G1 X15.384 Y46.238 E32.03158
G1 X12.719 Y45.789 E32.18142
G1 X10.001 Y45.406 E32.33362
G1 X7.277 Y45.102 E32.48559
G1 X4.54 Y44.875 E32.63787
G1 X1.827 Y44.726 E32.78852
G1 X-.916 Y44.654 E32.94067
G1 X-3.632 Y44.659 E33.09126
G1 X-6.412 Y44.742 E33.24547
G1 X-9.085 Y44.899 E33.39393
G1 X-11.857 Y45.14 E33.54821
G1 X-14.555 Y45.452 E33.6988
G1 X-17.267 Y45.843 E33.85073
G1 X-19.027 Y46.14 E33.9497
G1 X-20.234 Y46.355 E34.01767
G1 X-20.52 Y46.393 E34.03367
G1 X-21.397 Y46.471 E34.08249
G1 X-23.401 Y46.62 E34.19391
G1 X-24.086 Y46.661 E34.23196
G1 X-24.467 Y46.662 E34.25308
G1 X-25.321 Y46.614 E34.30051
G1 X-27.428 Y46.464 E34.41763
G1 X-28.108 Y46.405 E34.45548
G1 X-28.645 Y46.317 E34.48565
G1 X-29.195 Y46.19 E34.51695
G1 X-31.093 Y45.73 E34.62523
G1 X-31.736 Y45.563 E34.66207
G1 X-32.263 Y45.377 E34.69305
G1 X-33.057 Y45.018 E34.74137
G1 X-34.398 Y44.389 E34.8235
G1 X-35.019 Y44.088 E34.86176
G1 X-35.577 Y43.745 E34.89808
G1 X-36.193 Y43.276 E34.94101
G1 X-37.301 Y42.409 E35.01901
G1 X-37.882 Y41.942 E35.06034
G1 X-38.357 Y41.474 E35.09732
G1 X-38.934 Y40.776 E35.14753
G1 X-39.772 Y39.729 E35.22189
G1 X-40.208 Y39.167 E35.26133
G1 X-40.555 Y38.615 E35.29748
G1 X-40.914 Y37.892 E35.34224
G1 X-41.594 Y36.47 E35.42963
G1 X-41.86 Y35.893 E35.46486
G1 X-42.053 Y35.355 E35.49655
G1 X-42.294 Y34.443 E35.54886
G1 X-42.684 Y32.86 E35.63925
G1 X-42.849 Y32.148 E35.67978
G1 X-42.922 Y31.686 E35.70571
G1 X-42.987 Y30.92 E35.74834
G1 X-43.138 Y28.83 E35.86452
G1 X-43.189 Y27.944 E35.91373
G1 X-43.216 Y27.033 E35.96426
G1 X-43.337 Y24.283 E36.11689
G1 X-43.534 Y21.572 E36.2676
G1 X-43.806 Y18.872 E36.41806
G1 X-44.162 Y16.12 E36.57192
G1 X-44.3 Y15.154 E36.62603
G1 X-44.333 Y14.642 E36.65448
G1 X-44.26 Y13.997 E36.69047
G1 X-43.65 Y11.15 E36.85191
G1 X-43.15 Y8.425 E37.00552
G1 X-42.735 Y5.751 E37.15556
G1 X-42.391 Y3.03 E37.30763
G1 X-42.127 Y0.324 E37.45838
G1 X-41.938 Y-2.415 E37.61061
G1 F1500 E31.11061
;MESH:Q.stl(1)
G0 F3600 X-17.449 Y-10.44
G0 X10.552 Y-23.619
G0 X12.13 Y-23.732
G0 X21.09 Y-31.058
G0 X21.427 Y-30.807
;TYPE:WALL-INNER
G1 F1500 E37.61061
G1 F1800 X21.103 Y-31.021 E37.63214
G1 X20.98 Y-30.653 E37.64513
G1 X19.868 Y-27.33 E37.83942
G1 X19.578 Y-23.704 E38.04111
G1 X19.689 Y-21.48 E38.16458
G1 X20.029 Y-19.564 E38.27248
G1 X20.618 Y-17.934 E38.36857
G1 X21.475 Y-16.619 E38.4556
G1 X22.56 Y-15.619 E38.53742
G1 X23.825 Y-14.911 E38.6178
G1 X25.253 Y-14.492 E38.70031
G1 X26.826 Y-14.357 E38.78785
G1 X28.318 Y-14.497 E38.87094
G1 X29.692 Y-14.928 E38.95078
G1 X30.923 Y-15.651 E39.02994
G1 X31.997 Y-16.66 E39.11165
G1 X32.862 Y-17.963 E39.19836
G1 X33.464 Y-19.541 E39.29201
G1 X33.811 Y-21.368 E39.39512
G1 X33.925 Y-23.441 E39.51024
G1 X33.816 Y-25.812 E39.64184
G1 X33.48 Y-27.844 E39.75604
G1 X32.899 Y-29.554 E39.85617
G1 X32.048 Y-30.916 E39.94522
G1 X30.971 Y-31.936 E40.02747
G1 X29.716 Y-32.661 E40.10783
G1 X28.3 Y-33.091 E40.18988
G1 X26.736 Y-33.231 E40.27695
G1 X24.253 Y-32.974 E40.41536
G1 X23.932 Y-31.78 E40.48391
G1 X26.003 Y-30.271 E40.62599
G1 X27.472 Y-29.574 E40.71615
G1 X26.682 Y-27.762 E40.82575
G1 X25.657 Y-28.058 E40.8849
G1 X23.095 Y-29.707 E41.05384
G1 X21.427 Y-30.807 E41.16462
G0 F3600 X21.424 Y-30.09
;TYPE:WALL-OUTER
G1 F1800 X21.301 Y-29.721 E41.18619
G1 X20.46 Y-27.209 E41.33307
G1 X20.179 Y-23.695 E41.52853
G1 X20.286 Y-21.548 E41.64772
G1 X20.611 Y-19.72 E41.75067
G1 X21.159 Y-18.203 E41.8401
G1 X21.937 Y-17.009 E41.91912
G1 X22.915 Y-16.108 E41.99285
G1 X24.059 Y-15.468 E42.06553
G1 X25.364 Y-15.085 E42.14094
G1 X26.824 Y-14.959 E42.2222
G1 X28.199 Y-15.088 E42.29877
G1 X29.447 Y-15.48 E42.3713
G1 X30.561 Y-16.134 E42.44293
G1 X31.536 Y-17.05 E42.5171
G1 X32.325 Y-18.239 E42.59622
G1 X32.884 Y-19.705 E42.68322
G1 X33.214 Y-21.441 E42.7812
G1 X33.324 Y-23.444 E42.89242
G1 X33.218 Y-25.749 E43.02036
G1 X32.896 Y-27.698 E43.12989
G1 X32.353 Y-29.295 E43.22342
