;FLAVOR:Marlin
;TIME:1699
;Filament used: 2.8813m
;Layer height: 0.2
;MINX:-43.199
;MINY:-43.379
;MINZ:0.2
;MAXX:44.397
;MAXY:43.879
;MAXZ:3.6
;POSTPROCESSED
;Generated with Cura_SteamEngine 4.8.0
M140 S60
M105
M190 S60
M104 S195
M105
M109 S195
M82 ;absolute extrusion mode
G28 ;Home
G1 Z15.0 F6000 ;Move the platform down 15mm
;Prime the extruder
G92 E0
G1 F200 E3
G92 E0
G92 E0
G92 E0
G1 F1500 E-6.5
;LAYER_COUNT:18
;LAYER:0
M107
G0 F3600 X-40.552 Y-4.267 Z0.2
;TYPE:SKIRT
G1 F1500 E0
G1 F1800 X-40.235 Y-6.953 E0.14996
G1 X-39.996 Y-9.624 E0.29865
G1 X-39.829 Y-12.368 E0.45108
G1 X-39.741 Y-15.085 E0.60181
G1 X-39.724 Y-17.193 E0.71869
G1 X-39.726 Y-17.797 E0.75218
G1 X-39.773 Y-20.498 E0.90197
G1 X-39.898 Y-23.247 E1.05455
G1 X-40.095 Y-25.913 E1.20277
G1 X-40.377 Y-28.659 E1.35583
G1 X-40.727 Y-31.335 E1.50547
G1 X-41.158 Y-34.03 E1.65679
G1 X-41.809 Y-37.401 E1.84716
G1 X-42.073 Y-38.66 E1.91848
G1 X-42.148 Y-39.213 E1.94943
G1 X-42.144 Y-39.771 E1.98037
G1 X-42.059 Y-40.323 E2.01133
G1 X-41.897 Y-40.857 E2.04228
G1 X-41.661 Y-41.362 E2.07318
G1 X-41.354 Y-41.829 E2.10417
G1 X-40.984 Y-42.247 E2.13512
G1 X-40.558 Y-42.608 E2.16608
G1 X-40.085 Y-42.904 E2.19702
G1 X-39.575 Y-43.13 E2.22795
G1 X-39.037 Y-43.281 E2.25893
G1 X-38.333 Y-43.359 E2.29821
G1 X-37.288 Y-43.379 E2.35616
G1 X-28.45 Y-43.379 E2.8462
G1 X-27.637 Y-43.366 E2.89128
G1 X-27.021 Y-43.339 E2.92547
G1 X-24.321 Y-43.264 E3.07523
G1 X-21.571 Y-43.264 E3.22771
G1 X-18.852 Y-43.342 E3.37853
G1 X-18.531 Y-43.357 E3.39635
G1 X-17.745 Y-43.379 E3.43995
G1 X-9.415 Y-43.379 E3.90182
G1 X-8.717 Y-43.369 E3.94052
G1 X-8.5 Y-43.359 E3.95257
G1 X-7.887 Y-43.316 E3.98664
G1 X-6.215 Y-43.173 E4.07969
G1 X-3.467 Y-43.017 E4.2323
G1 X-.79 Y-42.94 E4.38079
G1 X1.959 Y-42.94 E4.53321
G1 X4.645 Y-43.015 E4.6822
G1 X8.248 Y-43.24 E4.88236
G1 X8.416 Y-43.247 E4.89169
G1 X9.733 Y-43.272 E4.96472
G1 X18.564 Y-43.272 E5.45437
G1 X19.377 Y-43.259 E5.49946
G1 X19.993 Y-43.232 E5.53365
G1 X22.693 Y-43.157 E5.68341
G1 X25.443 Y-43.157 E5.83589
G1 X28.16 Y-43.235 E5.9866
G1 X28.483 Y-43.25 E6.00453
G1 X29.269 Y-43.272 E6.04812
G1 X37.599 Y-43.272 E6.51
G1 X38.297 Y-43.262 E6.5487
G1 X38.853 Y-43.214 E6.57964
G1 X39.397 Y-43.087 E6.61062
G1 X39.917 Y-42.884 E6.64157
G1 X40.402 Y-42.608 E6.67251
G1 X40.844 Y-42.267 E6.70346
G1 X41.232 Y-41.865 E6.73444
G1 X41.558 Y-41.413 E6.76534
G1 X41.817 Y-40.918 E6.79632
G1 X42.003 Y-40.392 E6.82725
G1 X42.111 Y-39.844 E6.85822
G1 X42.148 Y-39.152 E6.89665
G1 X42.15 Y-39.042 E6.90275
G1 X42.15 Y-11.15 E8.44926
G1 X42.19 Y-8.346 E8.60475
G1 X42.303 Y-5.672 E8.75315
G1 X42.495 Y-2.961 E8.90384
G1 X42.766 Y-.227 E9.05617
G1 X43.106 Y2.427 E9.20453
G1 X43.534 Y5.151 E9.35742
G1 X44.044 Y7.891 E9.51196
G1 X44.311 Y9.212 E9.58668
G1 X44.386 Y9.877 E9.62379
G1 X44.397 Y10.309 E9.64775
G1 X44.397 Y39.291 E11.2547
G1 X44.388 Y40.018 E11.29501
G1 X44.341 Y40.575 E11.32601
G1 X44.215 Y41.118 E11.35692
G1 X44.013 Y41.639 E11.3879
G1 X43.739 Y42.125 E11.41883
G1 X43.398 Y42.567 E11.44979
G1 X42.997 Y42.956 E11.48076
G1 X42.545 Y43.283 E11.5117
G1 X42.051 Y43.543 E11.54265
G1 X41.525 Y43.73 E11.5736
G1 X40.978 Y43.839 E11.60453
G1 X40.276 Y43.877 E11.64351
G1 X40.167 Y43.879 E11.64955
G1 X25.701 Y43.879 E12.45164
G1 X24.824 Y43.867 E12.50028
G1 X24.272 Y43.846 E12.5309
G1 X21.744 Y43.723 E12.67124
G1 X21.004 Y43.676 E12.71235
G1 X20.316 Y43.588 E12.75081
G1 X18.655 Y43.313 E12.84416
G1 X15.928 Y42.938 E12.99679
G1 X13.264 Y42.649 E13.14536
G1 X10.53 Y42.431 E13.29744
G1 X7.816 Y42.291 E13.44812
G1 X5.103 Y42.227 E13.59859
G1 X2.393 Y42.241 E13.74885
G1 X-.324 Y42.332 E13.89958
G1 X-3.066 Y42.501 E14.0519
G1 X-5.748 Y42.743 E14.20122
G1 X-9.109 Y43.159 E14.38899
G1 X-9.71 Y43.212 E14.42245
G1 X-10.139 Y43.223 E14.44624
G1 X-24.605 Y43.223 E15.24833
G1 X-25.482 Y43.211 E15.29696
G1 X-26.034 Y43.19 E15.32759
G1 X-28.561 Y43.067 E15.46787
G1 X-29.257 Y43.023 E15.50654
G1 X-29.702 Y42.969 E15.5314
G1 X-30.65 Y42.798 E15.58481
G1 X-31.912 Y42.546 E15.65616
G1 X-32.643 Y42.39 E15.69761
G1 X-33.179 Y42.235 E15.72854
G1 X-33.674 Y42.017 E15.75853
G1 X-34.168 Y41.77 E15.78916
G1 X-35.102 Y41.29 E15.84738
G1 X-35.712 Y40.965 E15.88571
G1 X-36.184 Y40.668 E15.91663
G1 X-36.6 Y40.316 E15.94684
G1 X-37.047 Y39.866 E15.98201
G1 X-37.846 Y39.033 E16.04601
G1 X-38.308 Y38.537 E16.08359
G1 X-38.658 Y38.103 E16.11451
G1 X-38.945 Y37.617 E16.1458
G1 X-39.466 Y36.57 E16.21064
G1 X-39.798 Y35.865 E16.25385
G1 X-40.079 Y35.244 E16.29165
G1 X-40.272 Y34.72 E16.32261
G1 X-40.385 Y34.199 E16.35217
G1 X-40.493 Y33.457 E16.39374
G1 X-40.669 Y32.11 E16.46906
G1 X-40.746 Y31.447 E16.50607
G1 X-40.771 Y31.066 E16.52724
G1 X-40.821 Y28.262 E16.68274
G1 X-40.947 Y25.511 E16.83543
G1 X-41.147 Y22.816 E16.98527
G1 X-41.423 Y20.142 E17.13432
G1 X-41.781 Y17.418 E17.28666
G1 X-42.213 Y14.724 E17.43794
G1 X-42.847 Y11.44 E17.62339
G1 X-43.123 Y10.131 E17.69757
G1 X-43.199 Y9.578 E17.72852
G1 X-43.193 Y8.99 E17.76112
G1 X-43.089 Y8.367 E17.79614
G1 X-42.878 Y7.524 E17.84433
G1 X-42.59 Y6.439 E17.90657
G1 X-41.964 Y3.771 E18.05852
G1 X-41.416 Y1.11 E18.20916
G1 X-40.951 Y-1.55 E18.35888
G1 X-40.552 Y-4.267 E18.51115
G0 F3600 X-39.958 Y-4.18
G1 F1800 X-39.641 Y-6.865 E18.66105
G1 X-39.396 Y-9.605 E18.81358
G1 X-39.229 Y-12.349 E18.96601
G1 X-39.141 Y-15.06 E19.11641
G1 X-39.124 Y-17.188 E19.2344
G1 X-39.126 Y-17.752 E19.26567
G1 X-39.174 Y-20.534 E19.41995
G1 X-39.3 Y-23.283 E19.57253
G1 X-39.499 Y-25.983 E19.72264
G1 X-39.781 Y-28.728 E19.87564
G1 X-40.131 Y-31.404 E20.02528
G1 X-40.57 Y-34.145 E20.1792
G1 X-41.222 Y-37.524 E20.37001
G1 X-41.486 Y-38.783 E20.44134
G1 X-41.552 Y-39.292 E20.46979
G1 X-41.538 Y-39.805 E20.49825
G1 X-41.445 Y-40.31 E20.52672
G1 X-41.274 Y-40.794 E20.55518
G1 X-41.031 Y-41.246 E20.58364
G1 X-40.72 Y-41.655 E20.61212
G1 X-40.35 Y-42.011 E20.64059
G1 X-39.929 Y-42.305 E20.66907
G1 X-39.467 Y-42.53 E20.69756
G1 X-38.976 Y-42.68 E20.72602
G1 X-38.321 Y-42.759 E20.76261
G1 X-37.288 Y-42.779 E20.81989
G1 X-28.458 Y-42.779 E21.30949
G1 X-27.754 Y-42.769 E21.34852
G1 X-27.093 Y-42.742 E21.38521
G1 X-24.302 Y-42.664 E21.54002
G1 X-21.589 Y-42.664 E21.69044
G1 X-18.806 Y-42.744 E21.84482
G1 X-18.513 Y-42.758 E21.86108
G1 X-17.843 Y-42.778 E21.89825
G1 X-9.424 Y-42.779 E22.36505
G1 X-8.726 Y-42.769 E22.40376
G1 X-8.542 Y-42.761 E22.41397
G1 X-7.938 Y-42.718 E22.44754
G1 X-6.265 Y-42.575 E22.54064
G1 X-3.518 Y-42.419 E22.6932
G1 X-.772 Y-42.34 E22.84552
G1 X1.94 Y-42.34 E22.99589
G1 X4.67 Y-42.416 E23.14732
G1 X8.285 Y-42.642 E23.34815
G1 X8.427 Y-42.647 E23.35603
G1 X9.733 Y-42.672 E23.42846
G1 X18.556 Y-42.672 E23.91766
G1 X19.26 Y-42.662 E23.9567
G1 X19.921 Y-42.635 E23.99338
G1 X22.712 Y-42.557 E24.14819
G1 X25.425 Y-42.557 E24.29862
G1 X28.206 Y-42.637 E24.45288
G1 X28.501 Y-42.651 E24.46926
G1 X29.171 Y-42.671 E24.50642
G1 X37.59 Y-42.672 E24.97323
G1 X38.288 Y-42.662 E25.01193
G1 X38.8 Y-42.614 E25.04045
G1 X39.297 Y-42.488 E25.06887
G1 X39.769 Y-42.287 E25.09732
G1 X40.205 Y-42.014 E25.12584
G1 X40.592 Y-41.678 E25.15426
G1 X40.923 Y-41.285 E25.18275
G1 X41.189 Y-40.846 E25.21121
G1 X41.383 Y-40.37 E25.23971
G1 X41.502 Y-39.871 E25.26815
G1 X41.549 Y-39.135 E25.30904
G1 X41.55 Y-11.142 E26.86116
G1 X41.59 Y-8.348 E27.0161
G1 X41.705 Y-5.637 E27.16655
G1 X41.899 Y-2.894 E27.31902
G1 X42.169 Y-.166 E27.47101
G1 X42.514 Y2.526 E27.6215
G1 X42.941 Y5.243 E27.774
G1 X43.456 Y8.01 E27.93005
G1 X43.723 Y9.331 E28.00478
G1 X43.787 Y9.893 E28.03614
G1 X43.797 Y10.309 E28.05921
G1 X43.797 Y39.284 E29.66578
G1 X43.788 Y40.011 E29.70609
G1 X43.741 Y40.522 E29.73454
G1 X43.616 Y41.02 E29.76301
G1 X43.416 Y41.493 E29.79149
G1 X43.144 Y41.928 E29.81993
G1 X42.808 Y42.317 E29.84843
G1 X42.416 Y42.648 E29.87688
G1 X41.977 Y42.915 E29.90537
G1 X41.503 Y43.11 E29.93379
G1 X41.003 Y43.23 E29.9623
G1 X40.259 Y43.278 E30.00364
G1 X25.709 Y43.279 E30.81039
G1 X24.75 Y43.265 E30.86357
G1 X24.301 Y43.247 E30.88848
G1 X21.782 Y43.124 E31.02832
G1 X21.042 Y43.077 E31.06943
G1 X20.404 Y42.995 E31.1051
G1 X18.725 Y42.716 E31.19947
G1 X16.039 Y42.347 E31.3498
G1 X13.309 Y42.051 E31.50205
G1 X10.57 Y41.832 E31.65441
G1 X7.825 Y41.691 E31.80681
G1 X5.114 Y41.627 E31.95717
G1 X2.37 Y41.641 E32.10931
G1 X-.345 Y41.732 E32.25994
G1 X-3.086 Y41.901 E32.4122
G1 X-5.816 Y42.147 E32.56419
G1 X-9.176 Y42.563 E32.75191
G1 X-9.727 Y42.613 E32.78259
G1 X-10.139 Y42.623 E32.80544
G1 X-24.597 Y42.623 E33.60708
G1 X-25.556 Y42.609 E33.66026
G1 X-26.005 Y42.591 E33.68518
G1 X-28.523 Y42.468 E33.82496
G1 X-29.219 Y42.424 E33.86363
G1 X-29.596 Y42.379 E33.88468
G1 X-30.533 Y42.209 E33.93748
G1 X-31.787 Y41.959 E34.00838
G1 X-32.518 Y41.803 E34.04982
G1 X-33.221 Y41.568 E34.09092
G1 X-33.406 Y41.481 E34.10226
G1 X-33.894 Y41.236 E34.13253
G1 X-34.82 Y40.76 E34.19026
G1 X-35.43 Y40.435 E34.22859
G1 X-35.863 Y40.159 E34.25706
G1 X-36.299 Y39.771 E34.28942
G1 X-36.639 Y39.425 E34.31632
G1 X-37.407 Y38.624 E34.37785
G1 X-37.869 Y38.128 E34.41543
G1 X-38.188 Y37.726 E34.44388
G1 X-38.408 Y37.35 E34.46804
G1 X-38.923 Y36.314 E34.53219
G1 X-39.252 Y35.617 E34.57492
G1 X-39.533 Y34.996 E34.61272
G1 X-39.707 Y34.514 E34.64113
G1 X-39.791 Y34.113 E34.66385
G1 X-39.898 Y33.379 E34.70497
G1 X-40.073 Y32.041 E34.77979
G1 X-40.15 Y31.378 E34.8168
G1 X-40.171 Y31.055 E34.83475
G1 X-40.22 Y28.272 E34.98908
G1 X-40.349 Y25.475 E35.14433
G1 X-40.549 Y22.777 E35.29433
G1 X-40.831 Y20.041 E35.44684
G1 X-41.19 Y17.314 E35.59935
G1 X-41.618 Y14.645 E35.74923
G1 X-42.26 Y11.316 E35.93721
G1 X-42.536 Y10.007 E36.01138
G1 X-42.603 Y9.498 E36.03985
G1 X-42.595 Y9.04 E36.06525
G1 X-42.507 Y8.513 E36.09487
G1 X-42.298 Y7.678 E36.1426
G1 X-42.01 Y6.593 E36.20484
G1 X-41.37 Y3.867 E36.3601
G1 X-40.828 Y1.23 E36.50937
G1 X-40.357 Y-1.464 E36.66101
G1 X-39.958 Y-4.18 E36.81322
G1 F1500 E30.31322
;MESH:R.stl(1)
G0 F3600 X-8.111 Y-8.826
G0 X11.902 Y-12.694
G0 X13.335 Y-13.37
G0 X29.909 Y-14.46
G0 X29.839 Y-14.53
;TYPE:WALL-INNER
G1 F1500 E36.81322
G1 F1800 X29.839 Y-22.428 E37.25113
G1 X24.955 Y-22.428 E37.52194
G1 X22.333 Y-21.992 E37.66931
G1 X21.252 Y-21.568 E37.7337
G1 X20.349 Y-20.737 E37.80174
G1 X19.768 Y-19.655 E37.86984
G1 X19.575 Y-18.429 E37.93865
G1 X19.868 Y-16.791 E38.03091
G1 X20.824 Y-15.481 E38.12083
G1 X22.505 Y-14.741 E38.22267
G1 X24.825 Y-14.53 E38.35184
G1 X29.839 Y-14.53 E38.62985
G0 F3600 X29.239 Y-15.13
;TYPE:WALL-OUTER
G1 F1800 X29.239 Y-21.828 E39.00123
G1 X25.005 Y-21.828 E39.23599
G1 X22.494 Y-21.41 E39.37713
G1 X21.576 Y-21.05 E39.43181
G1 X20.83 Y-20.364 E39.488
G1 X20.345 Y-19.461 E39.54483
G1 X20.183 Y-18.435 E39.60242
G1 X20.434 Y-17.033 E39.6814
G1 X21.213 Y-15.965 E39.75469
G1 X22.657 Y-15.33 E39.84216
G1 X24.852 Y-15.13 E39.96437
G1 X29.239 Y-15.13 E40.20761
G0 F3600 X29.239 Y-15.33
G0 X29.899 Y-15.33
G0 X29.939 Y-15.33
G0 X29.909 Y-26.226
G0 X29.839 Y-26.296
;TYPE:WALL-INNER
G1 F1800 X29.839 Y-38.472 E40.88273
G1 X37.35 Y-38.472 E41.29919
G1 X37.35 Y-10.272 E42.86278
G1 X22.823 Y-10.272 E43.66826
G1 X19.12 Y-10.453 E43.87382
G1 X16.53 Y-10.967 E44.02023
G1 X14.724 Y-11.892 E44.13274
G1 X13.319 Y-13.359 E44.24536
G1 X12.398 Y-15.312 E44.36509
G1 X12.082 Y-17.708 E44.49909
G1 X12.322 Y-19.805 E44.61612
G1 X13.028 Y-21.556 E44.7208
G1 X14.148 Y-23.008 E44.82248
G1 X15.641 Y-24.172 E44.92744
G1 X16.892 Y-24.754 E45.00395
G1 X19.275 Y-25.44 E45.14144
G1 X19.368 Y-26.69 E45.21094
G1 X16.546 Y-27.983 E45.38306
G1 X15.229 Y-29.384 E45.48967
G1 X14.004 Y-31.142 E45.60848
G1 X10.444 Y-38.036 E46.03868
G1 X10.219 Y-38.472 E46.06589
G1 X10.709 Y-38.472 E46.08145
G1 X10.71 Y-38.472 E46.08151
G1 X18.679 Y-38.472 E46.52336
G1 X23.39 Y-29.758 E47.07261
G1 X24.34 Y-28.19 E47.17426
G1 X25.305 Y-27.156 E47.25269
G1 X26.65 Y-26.5 E47.33566
G1 X28.055 Y-26.296 E47.41438
G1 X29.839 Y-26.296 E47.51329
G0 F3600 X29.239 Y-26.896
;TYPE:WALL-OUTER
G1 F1800 X29.239 Y-39.072 E48.18841
G1 X37.95 Y-39.072 E48.67141
G1 X37.95 Y-9.672 E50.30154
G1 X22.815 Y-9.672 E51.14072
G1 X19.041 Y-9.856 E51.35023
G1 X16.332 Y-10.394 E51.50337
G1 X14.362 Y-11.403 E51.62609
G1 X12.817 Y-13.016 E51.74993
G1 X11.815 Y-15.14 E51.88015
G1 X11.478 Y-17.702 E52.02343
G1 X11.735 Y-19.952 E52.14899
G1 X12.503 Y-21.857 E52.26288
G1 X13.72 Y-23.435 E52.37337
G1 X15.326 Y-24.687 E52.48628
G1 X16.684 Y-25.319 E52.56933
G1 X18.473 Y-25.834 E52.67256
G1 X18.708 Y-25.901 E52.68611
G1 X18.739 Y-26.318 E52.70929
G1 X18.517 Y-26.42 E52.72091
G1 X16.189 Y-27.487 E52.8629
G1 X14.763 Y-29.004 E52.97834
G1 X13.489 Y-30.832 E53.10188
G1 X9.459 Y-38.635 E53.58883
G1 X9.234 Y-39.072 E53.61608
G1 X9.725 Y-39.072 E53.63169
G1 X9.726 Y-39.072 E53.63175
G1 X19.037 Y-39.072 E54.14801
G1 X23.911 Y-30.056 E54.71629
G1 X24.821 Y-28.554 E54.81366
G1 X25.668 Y-27.647 E54.88247
G1 X26.829 Y-27.08 E54.95411
G1 X28.098 Y-26.896 E55.02521
G1 X29.239 Y-26.896 E55.08847
G0 F3600 X29.239 Y-27.096
G0 X29.899 Y-27.096
G0 X29.939 Y-27.096
G0 X28.053 Y-26.257
G0 X26.639 Y-26.462
G0 X25.541 Y-26.997
G0 X18.701 Y-30.923
;TYPE:SKIN
G1 F1800 X18.665 Y-30.94 E55.09068
G1 X18.004 Y-31.644 E55.14422
G1 X17.07 Y-32.985 E55.23484
G1 X16.08 Y-34.902 E55.35446
G1 X16.549 Y-34.902 E55.38047
G1 X18.701 Y-30.923 E55.63129
G0 F3600 X18.31 Y-30.442
G1 F1800 X17.537 Y-31.264 E55.69385
G1 X16.555 Y-32.675 E55.78917
G1 X15.095 Y-35.502 E55.96559
G1 X16.907 Y-35.502 E56.06606
G1 X20.083 Y-29.63 E56.43621
G1 X18.31 Y-30.442 E56.54434
G0 F3600 X17.955 Y-29.944
G1 F1800 X17.071 Y-30.884 E56.61589
G1 X16.04 Y-32.365 E56.71594
G1 X14.11 Y-36.102 E56.94915
G1 X17.265 Y-36.102 E57.12408
G1 X21.333 Y-28.581 E57.59819
G1 X21.487 Y-28.327 E57.61466
G1 X17.955 Y-29.944 E57.83004
G0 F3600 X17.598 Y-29.448
G1 F1800 X16.605 Y-30.504 E57.91042
G1 X15.525 Y-32.055 E58.01521
G1 X13.125 Y-36.702 E58.3052
G1 X17.623 Y-36.702 E58.5546
G1 X21.854 Y-28.879 E59.04774
G1 X22.922 Y-27.116 E59.16203
G1 X24.235 Y-25.708 E59.26877
G1 X26.122 Y-24.789 E59.38515
G1 X27.927 Y-24.526 E59.48629
G1 X31.609 Y-24.526 E59.69044
G1 X31.609 Y-36.702 E60.36556
G1 X35.58 Y-36.702 E60.58574
G1 X35.58 Y-12.042 E61.95305
G1 X22.869 Y-12.042 E62.65783
G1 X19.343 Y-12.215 E62.85357
G1 X17.115 Y-12.656 E62.97951
G1 X15.797 Y-13.332 E63.06164
G1 X14.797 Y-14.376 E63.14179
G1 X14.118 Y-15.817 E63.23012
G1 X13.866 Y-17.727 E63.33694
G1 X14.053 Y-19.371 E63.42868
G1 X14.573 Y-20.659 E63.5057
G1 X15.417 Y-21.752 E63.58226
G1 X16.569 Y-22.652 E63.66332
G1 X17.514 Y-23.091 E63.7211
G1 X20.948 Y-24.079 E63.91922
G1 X21.224 Y-27.787 E64.12539
G1 X17.598 Y-29.448 E64.34653
G0 F3600 X17.243 Y-28.95
G1 F1800 X16.139 Y-30.124 E64.43588
G1 X15.01 Y-31.745 E64.54541
G1 X12.14 Y-37.302 E64.8922
G1 X17.981 Y-37.302 E65.21606
G1 X22.375 Y-29.177 E65.72822
G1 X23.403 Y-27.48 E65.83823
G1 X24.598 Y-26.199 E65.93537
G1 X26.301 Y-25.369 E66.04041
G1 X27.97 Y-25.126 E66.13393
G1 X31.009 Y-25.126 E66.30243
G1 X31.009 Y-37.302 E66.97755
G1 X36.18 Y-37.302 E67.26426
G1 X36.18 Y-11.442 E68.69811
G1 X22.86 Y-11.442 E69.43666
G1 X19.264 Y-11.618 E69.63629
G1 X16.917 Y-12.083 E69.76895
G1 X15.434 Y-12.843 E69.86135
G1 X14.295 Y-14.033 E69.95268
G1 X13.535 Y-15.645 E70.0515
G1 X13.261 Y-17.72 E70.16755
G1 X13.466 Y-19.518 E70.26789
G1 X14.049 Y-20.963 E70.35428
G1 X14.987 Y-22.177 E70.43935
G1 X16.254 Y-23.167 E70.5285
G1 X17.306 Y-23.656 E70.59282
G1 X20.381 Y-24.54 E70.77023
G1 X20.595 Y-27.415 E70.93008
G1 X17.243 Y-28.95 E71.13449
G0 F3600 X16.886 Y-28.454
G1 F1800 X15.673 Y-29.744 E71.23267
G1 X14.495 Y-31.435 E71.34694
G1 X11.155 Y-37.902 E71.75052
G1 X18.339 Y-37.902 E72.14884
G1 X22.896 Y-29.475 E72.68004
