;FLAVOR:Marlin
;TIME:1588
;Filament used: 2.53472m
;Layer height: 0.2
;MINX:-39.499
;MINY:-46.133
;MINZ:0.2
;MAXX:41.686
;MAXY:45.628
;MAXZ:3.6
;POSTPROCESSED
;Generated with Cura_SteamEngine 4.8.0
M140 S60
M105
M190 S60
M104 S195
M105
M109 S195
M82 ;absolute extrusion mode
G28 ;Home
G1 Z15.0 F6000 ;Move the platform down 15mm
;Prime the extruder
G92 E0
G1 F200 E3
G92 E0
G92 E0
G92 E0
G1 F1500 E-6.5
;LAYER_COUNT:18
;LAYER:0
M107
G0 F3600 X-37.047 Y-1.806 Z0.2
;TYPE:SKIRT
G1 F1500 E0
G1 F1800 X-37.043 Y-4.519 E0.15043
G1 X-37.116 Y-7.268 E0.3029
G1 X-37.265 Y-9.974 E0.45317
G1 X-37.489 Y-12.653 E0.60223
G1 X-37.794 Y-15.385 E0.75465
G1 X-38.218 Y-18.37 E0.92182
G1 X-38.407 Y-19.565 E0.9889
G1 X-38.451 Y-20.002 E1.01325
G1 X-38.495 Y-21.017 E1.06959
G1 X-38.515 Y-21.714 E1.10825
G1 X-38.67 Y-24.457 E1.26058
G1 X-38.9 Y-27.158 E1.41088
G1 X-39.208 Y-29.86 E1.56167
G1 X-39.328 Y-30.802 E1.61432
G1 X-39.412 Y-31.534 E1.65518
G1 X-39.435 Y-32.092 E1.68614
G1 X-39.363 Y-32.835 E1.72753
G1 X-39.104 Y-34.639 E1.82858
G1 X-38.998 Y-35.311 E1.86631
G1 X-38.872 Y-35.855 E1.89727
G1 X-38.709 Y-36.29 E1.92302
G1 X-38.239 Y-37.345 E1.98706
G1 X-37.772 Y-38.339 E2.04796
G1 X-37.458 Y-38.984 E2.08773
G1 X-37.178 Y-39.467 E2.11869
G1 X-36.905 Y-39.824 E2.14361
G1 X-36.289 Y-40.537 E2.19585
G1 X-35.338 Y-41.6 E2.27493
G1 X-34.933 Y-42.041 E2.30813
G1 X-34.527 Y-42.424 E2.33908
G1 X-34.157 Y-42.692 E2.36441
G1 X-33.235 Y-43.278 E2.42499
G1 X-32.082 Y-43.981 E2.49986
G1 X-31.497 Y-44.326 E2.53752
G1 X-30.997 Y-44.575 E2.56849
G1 X-30.677 Y-44.69 E2.58734
G1 X-29.643 Y-45.012 E2.64739
G1 X-27.979 Y-45.495 E2.74346
G1 X-27.328 Y-45.676 E2.78093
G1 X-26.657 Y-45.801 E2.81877
G1 X-25.688 Y-45.894 E2.87275
G1 X-23.198 Y-46.09 E3.01124
G1 X-22.512 Y-46.133 E3.04935
G1 X-21.692 Y-46.128 E3.09481
G1 X-19.13 Y-45.993 E3.23706
G1 X-18.5 Y-45.951 E3.27207
G1 X-17.997 Y-45.891 E3.30016
G1 X-17.515 Y-45.807 E3.32729
G1 X-15.748 Y-45.475 E3.42698
G1 X-13.693 Y-45.059 E3.54323
G1 X-11.007 Y-44.555 E3.69476
G1 X-8.314 Y-44.128 E3.84594
G1 X-5.583 Y-43.774 E3.99863
G1 X-2.923 Y-43.505 E4.14688
G1 X-.174 Y-43.306 E4.2997
G1 X2.495 Y-43.189 E4.44783
G1 X5.248 Y-43.145 E4.60049
G1 X7.957 Y-43.178 E4.75071
G1 X10.672 Y-43.29 E4.90137
G1 X13.379 Y-43.477 E5.05182
G1 X16.13 Y-43.746 E5.20508
G1 X17.69 Y-43.933 E5.2922
G1 X18.623 Y-44.051 E5.34434
G1 X19.788 Y-44.163 E5.40924
G1 X22.187 Y-44.352 E5.54267
G1 X22.923 Y-44.4 E5.58356
G1 X23.657 Y-44.397 E5.62426
G1 X26.239 Y-44.264 E5.76761
G1 X26.989 Y-44.213 E5.80929
G1 X27.559 Y-44.138 E5.84117
G1 X27.957 Y-44.067 E5.86359
G1 X29.712 Y-43.738 E5.96259
G1 X30.422 Y-43.594 E6.00276
G1 X30.954 Y-43.446 E6.03338
G1 X31.38 Y-43.293 E6.05848
G1 X32.857 Y-42.715 E6.14642
G1 X33.458 Y-42.471 E6.18238
G1 X33.959 Y-42.224 E6.21335
G1 X34.239 Y-42.044 E6.23181
G1 X34.933 Y-41.553 E6.27895
G1 X35.555 Y-41.1 E6.32161
G1 X36.119 Y-40.675 E6.36077
G1 X36.693 Y-40.144 E6.40412
G1 X37.054 Y-39.728 E6.43466
G1 X37.68 Y-38.978 E6.48883
G1 X38.103 Y-38.456 E6.52608
G1 X38.414 Y-38.013 E6.5561
G1 X38.639 Y-37.636 E6.58044
G1 X39.154 Y-36.721 E6.63866
G1 X39.466 Y-36.145 E6.67498
G1 X39.7 Y-35.626 E6.70654
G1 X40.098 Y-34.536 E6.77088
G1 X40.237 Y-34.127 E6.79484
G1 X40.454 Y-33.46 E6.83373
G1 X40.596 Y-32.887 E6.86646
G1 X40.708 Y-32.25 E6.90232
G1 X40.854 Y-31.354 E6.95266
G1 X40.958 Y-30.651 E6.99206
G1 X41 Y-30.094 E7.02303
G1 X40.964 Y-29.553 E7.05309
G1 X40.837 Y-28.62 E7.1053
G1 X40.69 Y-27.639 E7.1603
G1 X40.359 Y-24.92 E7.31217
G1 X40.109 Y-22.236 E7.46164
G1 X39.933 Y-19.514 E7.61288
G1 X39.886 Y-18.355 E7.67719
G1 X39.849 Y-17.845 E7.70555
G1 X39.807 Y-17.484 E7.7257
G1 X39.729 Y-16.919 E7.75732
G1 X39.722 Y-16.821 E7.76277
G1 X39.464 Y-14.896 E7.87046
G1 X39.179 Y-12.192 E8.02122
G1 X38.971 Y-9.489 E8.17153
G1 X38.838 Y-6.773 E8.32231
G1 X38.783 Y-4.064 E8.47254
G1 X38.806 Y-1.312 E8.62514
G1 X38.902 Y1.362 E8.7735
G1 X39.08 Y4.109 E8.92613
G1 X39.331 Y6.804 E9.0762
G1 X39.656 Y9.473 E9.22528
G1 X40.065 Y12.188 E9.37752
G1 X40.544 Y14.854 E9.52771
G1 X41.089 Y17.405 E9.67234
G1 X41.282 Y18.352 E9.72593
G1 X41.394 Y18.988 E9.76174
G1 X41.537 Y19.866 E9.81106
G1 X41.644 Y20.59 E9.85164
G1 X41.686 Y21.146 E9.88256
G1 X41.65 Y21.686 E9.91256
G1 X41.514 Y22.688 E9.96863
G1 X41.373 Y23.629 E10.02139
G1 X41.041 Y26.356 E10.17371
G1 X40.794 Y29.021 E10.32211
G1 X40.618 Y31.754 E10.47396
G1 X40.573 Y32.873 E10.53605
G1 X40.535 Y33.41 E10.5659
G1 X40.49 Y33.785 E10.58684
G1 X40.28 Y35.206 E10.66649
G1 X40.181 Y35.806 E10.7002
G1 X40.051 Y36.349 E10.73116
G1 X39.89 Y36.771 E10.75621
G1 X39.437 Y37.776 E10.81733
G1 X39.135 Y38.412 E10.85637
G1 X38.822 Y39.049 E10.89572
G1 X38.541 Y39.531 E10.92666
G1 X38.041 Y40.147 E10.97065
G1 X36.968 Y41.322 E11.05887
G1 X36.524 Y41.796 E11.09488
G1 X36.115 Y42.175 E11.1258
G1 X35.734 Y42.444 E11.15166
G1 X34.764 Y43.045 E11.21493
G1 X33.848 Y43.589 E11.274
G1 X33.273 Y43.919 E11.31076
G1 X32.77 Y44.161 E11.34171
G1 X32.45 Y44.272 E11.36049
G1 X31.383 Y44.591 E11.42224
G1 X29.781 Y45.032 E11.51437
G1 X29.113 Y45.208 E11.55267
G1 X28.446 Y45.323 E11.5902
G1 X27.595 Y45.394 E11.63755
G1 X24.881 Y45.585 E11.7884
G1 X24.203 Y45.624 E11.82606
G1 X23.851 Y45.628 E11.84558
G1 X22.845 Y45.594 E11.90139
G1 X21.7 Y45.538 E11.96495
G1 X21.023 Y45.495 E12.00256
G1 X20.685 Y45.459 E12.02141
G1 X19.714 Y45.311 E12.07587
G1 X18.837 Y45.161 E12.1252
G1 X18.031 Y45.011 E12.17066
G1 X17.737 Y44.948 E12.18733
G1 X15.02 Y44.407 E12.34094
G1 X12.343 Y43.952 E12.4915
G1 X9.644 Y43.572 E12.64262
G1 X6.918 Y43.266 E12.79472
G1 X4.252 Y43.044 E12.94305
G1 X1.538 Y42.894 E13.09377
G1 X-1.21 Y42.82 E13.24619
G1 X-3.922 Y42.824 E13.39656
G1 X-6.636 Y42.905 E13.54711
G1 X-9.345 Y43.062 E13.69757
G1 X-12.044 Y43.296 E13.84778
G1 X-14.732 Y43.606 E13.99781
G1 X-16.093 Y43.807 E14.07409
G1 X-16.321 Y43.824 E14.08676
G1 X-17.496 Y43.993 E14.15258
G1 X-17.719 Y44.019 E14.16503
G1 X-18.563 Y44.09 E14.21199
G1 X-21.367 Y44.287 E14.36785
G1 X-21.986 Y44.322 E14.40223
G1 X-22.334 Y44.326 E14.42152
G1 X-23.346 Y44.292 E14.47767
G1 X-24.534 Y44.233 E14.54362
G1 X-25.161 Y44.193 E14.57845
G1 X-25.499 Y44.157 E14.5973
G1 X-26.492 Y44.005 E14.653
G1 X-27.338 Y43.862 E14.70057
G1 X-27.968 Y43.746 E14.73609
G1 X-28.418 Y43.635 E14.76179
G1 X-29.483 Y43.304 E14.82363
G1 X-29.936 Y43.154 E14.85009
G1 X-30.623 Y42.917 E14.89038
G1 X-31.147 Y42.692 E14.922
G1 X-31.595 Y42.456 E14.95008
G1 X-32.401 Y42.007 E15.00123
G1 X-32.971 Y41.679 E15.0377
G1 X-33.602 Y41.227 E15.08073
G1 X-34.211 Y40.691 E15.12572
G1 X-34.507 Y40.422 E15.14789
G1 X-35.009 Y39.954 E15.18595
G1 X-35.527 Y39.363 E15.22952
G1 X-36.18 Y38.443 E15.29208
G1 X-36.316 Y38.243 E15.30549
G1 X-36.694 Y37.669 E15.34359
G1 X-37.004 Y37.102 E15.37942
G1 X-37.146 Y36.774 E15.39924
G1 X-37.579 Y35.699 E15.4635
G1 X-37.795 Y35.134 E15.49704
G1 X-37.958 Y34.594 E15.52832
G1 X-38.219 Y33.425 E15.59473
G1 X-38.324 Y32.902 E15.62431
G1 X-38.451 Y32.221 E15.66272
G1 X-38.513 Y31.681 E15.69285
G1 X-38.557 Y30.687 E15.74802
G1 X-38.583 Y29.832 E15.79545
G1 X-38.738 Y27.154 E15.94418
G1 X-38.974 Y24.411 E16.09684
G1 X-39.276 Y21.778 E16.24378
G1 X-39.391 Y20.879 E16.29404
G1 X-39.476 Y20.133 E16.33567
G1 X-39.499 Y19.575 E16.36663
G1 X-39.427 Y18.835 E16.40786
G1 X-39.16 Y16.978 E16.51188
G1 X-39.054 Y16.309 E16.54944
G1 X-38.861 Y15.272 E16.60792
G1 X-38.687 Y14.411 E16.65663
G1 X-38.218 Y11.7 E16.80918
G1 X-37.833 Y9.023 E16.95913
G1 X-37.521 Y6.317 E17.11017
G1 X-37.287 Y3.62 E17.26027
G1 X-37.128 Y0.907 E17.41095
G1 X-37.047 Y-1.806 E17.56145
G0 F3600 X-36.447 Y-1.822
G1 F1800 X-36.443 Y-4.534 E17.71182
G1 X-36.516 Y-7.282 E17.86424
G1 X-36.666 Y-10.022 E18.01639
G1 X-36.889 Y-12.686 E18.16462
G1 X-37.2 Y-15.466 E18.31972
G1 X-37.617 Y-18.404 E18.48426
G1 X-37.815 Y-19.659 E18.5547
G1 X-37.852 Y-20.028 E18.57526
G1 X-37.896 Y-21.034 E18.6311
G1 X-37.917 Y-21.765 E18.67164
G1 X-38.072 Y-24.507 E18.82392
G1 X-38.302 Y-27.207 E18.97417
G1 X-38.618 Y-29.98 E19.12892
G1 X-38.731 Y-30.871 E19.17872
G1 X-38.815 Y-31.603 E19.21957
G1 X-38.814 Y-32.367 E19.26193
G1 X-38.756 Y-32.847 E19.28874
G1 X-38.504 Y-34.596 E19.38672
G1 X-38.406 Y-35.218 E19.42163
G1 X-38.287 Y-35.717 E19.45007
G1 X-38.161 Y-36.046 E19.46961
G1 X-37.695 Y-37.09 E19.533
G1 X-37.232 Y-38.076 E19.5934
G1 X-36.918 Y-38.721 E19.63317
G1 X-36.658 Y-39.164 E19.66165
G1 X-36.45 Y-39.432 E19.68046
G1 X-35.842 Y-40.137 E19.73208
G1 X-34.897 Y-41.194 E19.8107
G1 X-34.492 Y-41.635 E19.8439
G1 X-34.116 Y-41.985 E19.87238
G1 X-33.834 Y-42.186 E19.89158
G1 X-32.923 Y-42.766 E19.95146
G1 X-31.777 Y-43.465 E20.02589
G1 X-31.192 Y-43.81 E20.06355
G1 X-30.498 Y-44.117 E20.10562
G1 X-29.475 Y-44.436 E20.16504
G1 X-27.818 Y-44.917 E20.26071
G1 X-27.167 Y-45.098 E20.29817
G1 X-26.599 Y-45.204 E20.33021
G1 X-25.64 Y-45.296 E20.38363
G1 X-23.16 Y-45.492 E20.52156
G1 X-22.474 Y-45.535 E20.55967
G1 X-21.724 Y-45.529 E20.60126
G1 X-19.169 Y-45.395 E20.74312
G1 X-18.539 Y-45.353 E20.77813
G1 X-17.971 Y-45.279 E20.80989
G1 X-17.626 Y-45.217 E20.82933
G1 X-15.867 Y-44.887 E20.92856
G1 X-13.826 Y-44.474 E21.04402
G1 X-11.066 Y-43.957 E21.19971
G1 X-8.415 Y-43.536 E21.34854
G1 X-5.647 Y-43.177 E21.5033
G1 X-2.957 Y-42.906 E21.65321
G1 X-.245 Y-42.709 E21.80398
G1 X2.496 Y-42.588 E21.95611
G1 X5.245 Y-42.545 E22.10855
G1 X7.99 Y-42.579 E22.26076
G1 X10.704 Y-42.69 E22.41137
G1 X13.441 Y-42.879 E22.56349
G1 X16.169 Y-43.146 E22.71547
G1 X17.735 Y-43.334 E22.80292
G1 X18.68 Y-43.454 E22.85574
G1 X19.835 Y-43.565 E22.92007
G1 X22.226 Y-43.753 E23.05306
G1 X22.962 Y-43.801 E23.09395
G1 X23.641 Y-43.797 E23.1316
G1 X26.208 Y-43.665 E23.27412
G1 X26.948 Y-43.614 E23.31525
G1 X27.454 Y-43.547 E23.34355
G1 X27.846 Y-43.478 E23.36562
G1 X29.593 Y-43.15 E23.46418
G1 X30.303 Y-43.006 E23.50434
G1 X31.065 Y-42.77 E23.54858
G1 X31.162 Y-42.734 E23.55431
G1 X32.631 Y-42.159 E23.64178
G1 X33.232 Y-41.915 E23.67775
G1 X33.893 Y-41.554 E23.71951
G1 X34.58 Y-41.069 E23.76613
G1 X35.194 Y-40.621 E23.80828
G1 X35.758 Y-40.196 E23.84743
G1 X36.243 Y-39.747 E23.88408
G1 X36.597 Y-39.339 E23.91403
G1 X37.214 Y-38.601 E23.96737
G1 X37.637 Y-38.079 E24.00462
G1 X38.068 Y-37.424 E24.04809
G1 X38.116 Y-37.342 E24.05336
G1 X38.627 Y-36.435 E24.11108
G1 X38.939 Y-35.859 E24.14741
G1 X39.136 Y-35.42 E24.17409
G1 X39.53 Y-34.342 E24.23772
G1 X39.666 Y-33.941 E24.2612
G1 X39.883 Y-33.274 E24.30009
G1 X40.005 Y-32.783 E24.32815
G1 X40.116 Y-32.153 E24.36361
G1 X40.26 Y-31.266 E24.41344
G1 X40.364 Y-30.563 E24.45284
G1 X40.4 Y-30.051 E24.4813
G1 X40.37 Y-29.634 E24.50448
G1 X40.243 Y-28.71 E24.5562
G1 X40.097 Y-27.735 E24.61086
G1 X39.766 Y-25.01 E24.76306
G1 X39.509 Y-22.26 E24.91621
G1 X39.333 Y-19.536 E25.06756
G1 X39.287 Y-18.392 E25.13104
G1 X39.223 Y-17.648 E25.17244
G1 X39.132 Y-16.984 E25.2096
G1 X39.128 Y-16.901 E25.21421
G1 X38.869 Y-14.968 E25.32235
G1 X38.58 Y-12.23 E25.475
G1 X38.372 Y-9.529 E25.62521
G1 X38.238 Y-6.78 E25.77781
G1 X38.183 Y-4.076 E25.92777
G1 X38.206 Y-1.321 E26.08053
G1 X38.305 Y1.42 E26.23261
G1 X38.48 Y4.132 E26.38329
G1 X38.735 Y6.866 E26.53554
G1 X39.067 Y9.596 E26.68803
G1 X39.471 Y12.279 E26.83847
G1 X39.953 Y14.962 E26.98961
G1 X40.501 Y17.526 E27.13499
G1 X40.691 Y18.456 E27.18762
G1 X40.801 Y19.085 E27.22303
G1 X40.944 Y19.954 E27.27186
G1 X41.051 Y20.678 E27.31244
G1 X41.086 Y21.19 E27.34089
G1 X41.056 Y21.605 E27.36396
G1 X40.92 Y22.598 E27.41953
G1 X40.78 Y23.533 E27.47195
G1 X40.447 Y26.267 E27.62467
G1 X40.195 Y28.997 E27.77668
G1 X40.018 Y31.732 E27.92864
G1 X39.974 Y32.839 E27.99007
G1 X39.939 Y33.341 E28.01797
G1 X39.897 Y33.698 E28.0379
G1 X39.688 Y35.108 E28.11694
G1 X39.589 Y35.708 E28.15065
G1 X39.466 Y36.207 E28.17915
G1 X39.343 Y36.525 E28.19806
G1 X38.895 Y37.519 E28.25851
G1 X38.597 Y38.147 E28.29705
G1 X38.284 Y38.784 E28.3364
G1 X38.022 Y39.226 E28.36489
G1 X37.587 Y39.754 E28.40282
G1 X36.558 Y40.882 E28.48748
G1 X36.086 Y41.386 E28.52577
G1 X35.707 Y41.732 E28.55422
G1 X35.418 Y41.934 E28.57377
G1 X34.458 Y42.529 E28.6364
G1 X33.55 Y43.068 E28.69494
G1 X32.975 Y43.398 E28.7317
G1 X32.278 Y43.698 E28.77378
G1 X31.292 Y43.993 E28.83084
G1 X29.628 Y44.452 E28.92655
G1 X28.96 Y44.628 E28.96485
G1 X28.395 Y44.725 E28.99664
G1 X27.553 Y44.796 E29.04349
G1 X24.847 Y44.986 E29.1939
G1 X24.169 Y45.025 E29.23155
G1 X23.871 Y45.028 E29.24808
G1 X22.874 Y44.995 E29.30339
G1 X21.738 Y44.939 E29.36645
G1 X21.061 Y44.896 E29.40407
G1 X20.775 Y44.866 E29.42001
G1 X19.814 Y44.719 E29.47391
G1 X18.945 Y44.571 E29.52279
G1 X18.157 Y44.425 E29.56723
G1 X17.854 Y44.36 E29.58441
G1 X15.098 Y43.812 E29.74021
G1 X12.452 Y43.362 E29.88903
G1 X9.69 Y42.972 E30.04369
G1 X7.034 Y42.675 E30.19188
G1 X4.265 Y42.444 E30.34594
G1 X1.552 Y42.294 E30.4966
G1 X-1.195 Y42.22 E30.64897
G1 X-3.906 Y42.224 E30.79928
G1 X-6.689 Y42.307 E30.95366
G1 X-9.358 Y42.462 E31.10189
G1 X-12.133 Y42.702 E31.25633
G1 X-14.826 Y43.013 E31.40664
G1 X-16.181 Y43.213 E31.48259
G1 X-16.39 Y43.228 E31.49421
G1 X-17.582 Y43.399 E31.56098
G1 X-17.77 Y43.421 E31.57147
G1 X-18.605 Y43.492 E31.61794
G1 X-21.401 Y43.688 E31.77334
G1 X-22.02 Y43.723 E31.80772
G1 X-22.314 Y43.726 E31.82402
G1 X-23.316 Y43.693 E31.87961
G1 X-24.496 Y43.634 E31.94512
G1 X-25.123 Y43.594 E31.97996
G1 X-25.409 Y43.564 E31.9959
G1 X-26.392 Y43.414 E32.05103
G1 X-27.23 Y43.271 E32.09817
G1 X-27.86 Y43.155 E32.13369
G1 X-28.24 Y43.062 E32.15538
G1 X-29.295 Y42.734 E32.21664
G1 X-29.74 Y42.587 E32.24262
G1 X-30.427 Y42.35 E32.28292
G1 X-31.111 Y42.034 E32.3247
G1 X-31.346 Y41.908 E32.33948
G1 X-32.102 Y41.487 E32.38746
G1 X-32.672 Y41.159 E32.42392
G1 X-33.206 Y40.777 E32.46033
G1 X-33.808 Y40.246 E32.50484
G1 X-34.098 Y39.983 E32.52654
G1 X-34.6 Y39.515 E32.5646
G1 X-35.039 Y39.015 E32.60149
G1 X-35.644 Y38.165 E32.65934
G1 X-35.815 Y37.913 E32.67622
G1 X-36.193 Y37.339 E32.71433
G1 X-36.455 Y36.859 E32.74465
G1 X-36.59 Y36.549 E32.7634
G1 X-37.018 Y35.484 E32.82704
G1 X-37.234 Y34.919 E32.86058
G1 X-37.372 Y34.463 E32.887
G1 X-37.631 Y33.306 E32.95274
G1 X-37.734 Y32.792 E32.9818
G1 X-37.861 Y32.111 E33.02021
G1 X-37.914 Y31.654 E33.04572
G1 X-37.958 Y30.67 E33.10033
G1 X-37.985 Y29.766 E33.15048
G1 X-38.14 Y27.103 E33.29839
G1 X-38.376 Y24.361 E33.45098
G1 X-38.68 Y21.709 E33.59899
G1 X-38.795 Y20.811 E33.64919
G1 X-38.88 Y20.065 E33.69082
G1 X-38.878 Y19.303 E33.73307
G1 X-38.82 Y18.823 E33.75988
G1 X-38.567 Y17.072 E33.85797
G1 X-38.445 Y16.311 E33.90071
G1 X-38.262 Y15.336 E33.95571
G1 X-38.097 Y14.522 E34.00176
G1 X-37.625 Y11.789 E34.15554
G1 X-37.238 Y9.103 E34.30601
G1 X-36.927 Y6.406 E34.45654
G1 X-36.687 Y3.633 E34.61087
G1 X-36.531 Y0.96 E34.75933
G1 X-36.447 Y-1.822 E34.91365
G1 F1500 E28.41365
;MESH:S.stl(3)
G0 F3600 X-30.006 Y10.174
G0 X-29.182 Y11.525
G0 X-27.219 Y19.921
G0 X-26.2 Y21.225
G0 X-17.404 Y31.386
G0 X-17.07 Y32.491
G0 X-17.169 Y32.492
;TYPE:WALL-INNER
G1 F1500 E34.91365
G1 F1800 X-17.439 Y31.404 E34.97581
G1 X-18.193 Y30.497 E35.0412
G1 X-19.547 Y29.794 E35.12579
G1 X-21.655 Y29.236 E35.2467
G1 X-26.826 Y27.929 E35.54243
G1 X-30.174 Y26.651 E35.74113
G1 X-32.258 Y25.273 E35.87966
G1 X-33.639 Y23.655 E35.99761
G1 X-34.435 Y21.789 E36.11009
G1 X-34.703 Y19.697 E36.22703
G1 X-34.341 Y17.181 E36.36797
G1 X-33.256 Y14.874 E36.50933
G1 X-31.516 Y12.925 E36.6542
G1 X-29.19 Y11.507 E36.80524
G1 X-26.151 Y10.622 E36.98074
G1 X-22.322 Y10.32 E37.19371
G1 X-18.906 Y10.498 E37.38337
G1 X-16.097 Y11.025 E37.54184
G1 X-13.933 Y11.87 E37.67065
G1 X-12.35 Y13.026 E37.77933
G1 X-11.162 Y14.448 E37.88207
G1 X-10.249 Y16.077 E37.98561
