;FLAVOR:Marlin
;TIME:1156
;Filament used: 1.93318m
;Layer height: 0.2
;MINX:-40.971
;MINY:-44.024
;MINZ:0.2
;MAXX:42.601
;MAXY:44.3
;MAXZ:3.6
;POSTPROCESSED
;Generated with Cura_SteamEngine 4.8.0
M140 S60
M105
M190 S60
M104 S195
M105
M109 S195
M82 ;absolute extrusion mode
G28 ;Home
G1 Z15.0 F6000 ;Move the platform down 15mm
;Prime the extruder
G92 E1465.62904
G1 F200 E1468.62904
G92 E1465.62904
G92 E1465.62904
G92 E1465.62904
G1 F300 Z4.2
G1 F9000 X-8.421 Y33.638
G1 F300 Z3.2 ; move back down to resume height
G1 F1500 ; restore extrusion feedrate
;LAYER:15
;TYPE:WALL-INNER
;MESH:T.stl
G1 F1500 E1465.62904
G1 F3600 X-8.421 Y33.638 E1466.15323
G1 X-8.421 Y39.245 E1466.46412
G1 X-34.5 Y39.246 E1467.91012
G1 X-34.799 Y39.246 E1467.9267
G1 X-34.799 Y38.947 E1467.93742
G1 X-34.799 Y33.639 E1468.23174
G1 X-25.345 Y33.638 E1468.75593
G1 X-25.345 Y11.047 E1470.00852
G1 X-18.174 Y11.046 E1470.40613
G1 X-17.875 Y11.046 E1470.42271
G1 X-17.875 Y11.345 E1470.43344
G1 X-17.875 Y33.637 E1471.66945
G0 F7200 X-17.275 Y33.037
;TYPE:WALL-OUTER
G1 F1800 X-7.821 Y33.038 E1472.19365
G1 X-7.821 Y39.845 E1472.57107
G1 X-35.099 Y39.846 E1474.08355
G1 X-35.399 Y39.846 E1474.10018
G1 X-35.399 Y39.546 E1474.11094
G1 X-35.399 Y33.039 E1474.47173
G1 X-25.945 Y33.038 E1474.99592
G1 X-25.945 Y10.447 E1476.24851
G1 X-17.575 Y10.446 E1476.7126
G1 X-17.275 Y10.446 E1476.72924
G1 X-17.275 Y10.746 E1476.73999
G1 X-17.275 Y33.037 E1477.97595
G0 F7200 X-17.075 Y33.037
G0 X-17.076 Y33.697
G0 X-17.076 Y33.737
G0 X-18.465 Y34.227
;TYPE:SKIN
G1 F1800 X-9.011 Y34.228 E1478.50015
G1 X-9.011 Y38.655 E1478.74561
G1 X-34.209 Y38.656 E1480.14275
G1 X-34.209 Y34.229 E1480.38822
G1 X-24.755 Y34.228 E1480.91241
G1 X-24.755 Y11.637 E1482.165
G1 X-18.465 Y11.636 E1482.51376
G1 X-18.465 Y34.227 E1483.76636
G0 F7200 X-33.939 Y37.8
G1 F1800 X-9.28 Y37.8 E1485.13362
G0 F7200 X-9.28 Y37.2
G1 F1800 X-33.939 Y37.2 E1486.50087
G0 F7200 X-33.939 Y36.6
G1 F1800 X-9.28 Y36.6 E1487.86813
G0 F7200 X-9.28 Y36
G1 F1800 X-33.939 Y36 E1489.23539
G0 F7200 X-33.939 Y35.4
G1 F1800 X-9.28 Y35.4 E1490.60265
G0 F7200 X-9.28 Y34.8
G1 F1800 X-33.939 Y34.8 E1491.96991
G1 X-34.089 Y34.8
G0 F7200 X-24.485 Y34.2
G1 F1800 X-18.734 Y34.2 E1492.28878
G0 F7200 X-18.734 Y33.6
G1 F1800 X-24.485 Y33.6 E1492.60766
G0 F7200 X-24.485 Y33
G1 F1800 X-18.734 Y33 E1492.92653
G0 F7200 X-18.734 Y32.4
G1 F1800 X-24.485 Y32.4 E1493.2454
G0 F7200 X-24.485 Y31.8
G1 F1800 X-18.734 Y31.8 E1493.56428
G0 F7200 X-18.734 Y31.2
G1 F1800 X-24.485 Y31.2 E1493.88315
G0 F7200 X-24.485 Y30.6
G1 F1800 X-18.734 Y30.6 E1494.20202
G0 F7200 X-18.734 Y30
G1 F1800 X-24.485 Y30 E1494.5209
G0 F7200 X-24.485 Y29.4
G1 F1800 X-18.734 Y29.4 E1494.83977
G0 F7200 X-18.734 Y28.8
G1 F1800 X-24.485 Y28.8 E1495.15864
G0 F7200 X-24.485 Y28.2
G1 F1800 X-18.734 Y28.2 E1495.47752
G0 F7200 X-18.734 Y27.6
G1 F1800 X-24.485 Y27.6 E1495.79639
G0 F7200 X-24.485 Y27
G1 F1800 X-18.734 Y27 E1496.11527
G0 F7200 X-18.734 Y26.4
G1 F1800 X-24.485 Y26.4 E1496.43414
G0 F7200 X-24.485 Y25.8
G1 F1800 X-18.734 Y25.8 E1496.75301
G0 F7200 X-18.734 Y25.2
G1 F1800 X-24.485 Y25.2 E1497.07189
G0 F7200 X-24.485 Y24.6
G1 F1800 X-18.734 Y24.6 E1497.39076
G0 F7200 X-18.734 Y24
G1 F1800 X-24.485 Y24 E1497.70963
G0 F7200 X-24.485 Y23.4
G1 F1800 X-18.734 Y23.4 E1498.02851
G0 F7200 X-18.734 Y22.8
G1 F1800 X-24.485 Y22.8 E1498.34738
G0 F7200 X-24.485 Y22.2
G1 F1800 X-18.734 Y22.2 E1498.66625
G0 F7200 X-18.734 Y21.6
G1 F1800 X-24.485 Y21.6 E1498.98513
G0 F7200 X-24.485 Y21
G1 F1800 X-18.734 Y21 E1499.304
G0 F7200 X-18.734 Y20.4
G1 F1800 X-24.485 Y20.4 E1499.62287
G0 F7200 X-24.485 Y19.8
G1 F1800 X-18.734 Y19.8 E1499.94175
G0 F7200 X-18.734 Y19.2
G1 F1800 X-24.485 Y19.2 E1500.26062
G0 F7200 X-24.485 Y18.6
G1 F1800 X-18.734 Y18.6 E1500.5795
G0 F7200 X-18.734 Y18
G1 F1800 X-24.485 Y18 E1500.89837
G0 F7200 X-24.485 Y17.4
G1 F1800 X-18.734 Y17.4 E1501.21724
G0 F7200 X-18.734 Y16.8
G1 F1800 X-24.485 Y16.8 E1501.53612
G0 F7200 X-24.485 Y16.199
G1 F1800 X-18.734 Y16.199 E1501.85499
G0 F7200 X-18.734 Y15.599
G1 F1800 X-24.485 Y15.599 E1502.17386
G0 F7200 X-24.485 Y14.999
G1 F1800 X-18.734 Y14.999 E1502.49274
G0 F7200 X-18.734 Y14.399
G1 F1800 X-24.485 Y14.399 E1502.81161
G0 F7200 X-24.485 Y13.799
G1 F1800 X-18.734 Y13.799 E1503.13048
G0 F7200 X-18.734 Y13.199
G1 F1800 X-24.485 Y13.199 E1503.44936
G0 F7200 X-24.485 Y12.599
G1 F1800 X-18.734 Y12.599 E1503.76823
G0 F7200 X-18.734 Y11.999
G1 F1800 X-24.485 Y11.999 E1504.08711
G1 X-24.635 Y11.999
G1 F1500 E1497.58711
;MESH:T.stl(3)
G0 F7200 X-17.889 Y33.651
G0 X-16.322 Y32.084
G0 X-6.868 Y32.085
G0 X9.857 Y33.907
G0 X11.436 Y33.907
G0 X28.277 Y33.961
G0 X28.347 Y33.891
;TYPE:WALL-INNER
G1 F1500 E1504.08711
G1 F3600 X37.801 Y33.892 E1504.6113
G1 X37.801 Y39.499 E1504.92219
G1 X11.721 Y39.5 E1506.36824
G1 X11.422 Y39.5 E1506.38481
G1 X11.422 Y39.201 E1506.39554
G1 X11.422 Y33.893 E1506.68985
G1 X20.877 Y33.892 E1507.2141
G1 X20.877 Y11.301 E1508.4667
G1 X28.048 Y11.3 E1508.8643
G1 X28.347 Y11.3 E1508.88088
G1 X28.347 Y11.599 E1508.89161
G1 X28.347 Y33.891 E1510.12763
G0 F7200 X28.947 Y33.291
;TYPE:WALL-OUTER
G1 F1800 X38.401 Y33.292 E1510.65182
G1 X38.401 Y40.099 E1511.02925
G1 X11.122 Y40.1 E1512.54177
G1 X10.822 Y40.1 E1512.55841
G1 X10.822 Y39.8 E1512.56917
G1 X10.822 Y33.293 E1512.92996
G1 X20.277 Y33.292 E1513.4542
G1 X20.277 Y10.701 E1514.7068
G1 X28.647 Y10.7 E1515.17089
G1 X28.947 Y10.7 E1515.18752
G1 X28.947 Y11 E1515.19828
G1 X28.947 Y33.291 E1516.43424
G0 F7200 X29.147 Y33.291
G0 X29.146 Y33.951
G0 X29.146 Y33.991
G0 X27.757 Y34.481
;TYPE:SKIN
G1 F1800 X37.211 Y34.482 E1516.95843
G1 X37.211 Y38.909 E1517.20389
G1 X12.012 Y38.91 E1518.60109
G1 X12.012 Y34.483 E1518.84656
G1 X21.467 Y34.482 E1519.3708
G1 X21.467 Y11.891 E1520.6234
G1 X27.757 Y11.89 E1520.97216
G1 X27.757 Y34.481 E1522.22475
G0 F7200 X12.281 Y38.4
G1 F1800 X36.941 Y38.4 E1523.59207
G0 F7200 X36.941 Y37.8
G1 F1800 X12.281 Y37.8 E1524.95938
G0 F7200 X12.281 Y37.2
G1 F1800 X36.941 Y37.2 E1526.32669
G0 F7200 X36.941 Y36.6
G1 F1800 X12.281 Y36.6 E1527.69401
G0 F7200 X12.281 Y36
G1 F1800 X36.941 Y36 E1529.06132
G0 F7200 X36.941 Y35.4
G1 F1800 X12.281 Y35.4 E1530.42864
G0 F7200 X12.281 Y34.8
G1 F1800 X36.941 Y34.8 E1531.79595
G1 X37.091 Y34.8
G0 F7200 X27.486 Y34.2
G1 F1800 X21.736 Y34.2 E1532.11477
G0 F7200 X21.736 Y33.6
G1 F1800 X27.486 Y33.6 E1532.43359
G0 F7200 X27.486 Y33
G1 F1800 X21.736 Y33 E1532.75241
G0 F7200 X21.736 Y32.4
G1 F1800 X27.486 Y32.4 E1533.07122
G0 F7200 X27.486 Y31.8
G1 F1800 X21.736 Y31.8 E1533.39004
G0 F7200 X21.736 Y31.2
G1 F1800 X27.486 Y31.2 E1533.70886
G0 F7200 X27.486 Y30.6
G1 F1800 X21.736 Y30.6 E1534.02768
G0 F7200 X21.736 Y30
G1 F1800 X27.486 Y30 E1534.3465
G0 F7200 X27.487 Y29.4
G1 F1800 X21.737 Y29.4 E1534.66531
G0 F7200 X21.737 Y28.8
G1 F1800 X27.487 Y28.8 E1534.98413
G0 F7200 X27.487 Y28.2
G1 F1800 X21.737 Y28.2 E1535.30295
G0 F7200 X21.737 Y27.6
G1 F1800 X27.487 Y27.6 E1535.62177
G0 F7200 X27.487 Y27
G1 F1800 X21.737 Y27 E1535.94059
G0 F7200 X21.737 Y26.4
G1 F1800 X27.487 Y26.4 E1536.2594
G0 F7200 X27.487 Y25.8
G1 F1800 X21.737 Y25.8 E1536.57822
G0 F7200 X21.737 Y25.2
G1 F1800 X27.487 Y25.2 E1536.89704
G0 F7200 X27.487 Y24.6
G1 F1800 X21.737 Y24.6 E1537.21586
G0 F7200 X21.737 Y24
G1 F1800 X27.487 Y24 E1537.53468
G0 F7200 X27.487 Y23.4
G1 F1800 X21.737 Y23.4 E1537.8535
G0 F7200 X21.737 Y22.8
G1 F1800 X27.487 Y22.8 E1538.17231
G0 F7200 X27.487 Y22.2
G1 F1800 X21.737 Y22.2 E1538.49113
G0 F7200 X21.737 Y21.6
G1 F1800 X27.487 Y21.6 E1538.80995
G0 F7200 X27.487 Y21
G1 F1800 X21.737 Y21 E1539.12877
G0 F7200 X21.737 Y20.4
G1 F1800 X27.487 Y20.4 E1539.44759
G0 F7200 X27.487 Y19.8
G1 F1800 X21.737 Y19.8 E1539.7664
G0 F7200 X21.737 Y19.2
G1 F1800 X27.487 Y19.2 E1540.08522
G0 F7200 X27.487 Y18.6
G1 F1800 X21.737 Y18.6 E1540.40404
G0 F7200 X21.737 Y18
G1 F1800 X27.487 Y18 E1540.72286
G0 F7200 X27.487 Y17.4
G1 F1800 X21.737 Y17.4 E1541.04168
G0 F7200 X21.737 Y16.8
G1 F1800 X27.487 Y16.8 E1541.3605
G0 F7200 X27.487 Y16.2
G1 F1800 X21.737 Y16.2 E1541.67931
G0 F7200 X21.737 Y15.6
G1 F1800 X27.487 Y15.6 E1541.99813
G0 F7200 X27.487 Y15
G1 F1800 X21.737 Y15 E1542.31695
G0 F7200 X21.737 Y14.4
G1 F1800 X27.487 Y14.4 E1542.63577
G0 F7200 X27.487 Y13.8
G1 F1800 X21.737 Y13.8 E1542.95459
G0 F7200 X21.737 Y13.2
G1 F1800 X27.487 Y13.2 E1543.2734
G0 F7200 X27.487 Y12.6
G1 F1800 X21.737 Y12.6 E1543.59222
G1 X21.587 Y12.6
G1 F1500 E1537.09222
;MESH:T.stl(2)
G0 F7200 X27.793 Y11.301
G0 X27.792 Y9.736
G0 X27.794 Y-9.46
G0 X27.793 Y-11.025
G0 X27.79 Y-16.563
G0 X27.86 Y-16.633
;TYPE:WALL-INNER
G1 F1500 E1543.59222
G1 F3600 X37.314 Y-16.632 E1544.11641
G1 X37.314 Y-11.025 E1544.4273
G1 X11.234 Y-11.024 E1545.87335
G1 X10.935 Y-11.024 E1545.88993
G1 X10.935 Y-11.323 E1545.90066
G1 X10.935 Y-16.631 E1546.19497
G1 X20.39 Y-16.632 E1546.71922
G1 X20.39 Y-39.223 E1547.97181
G1 X27.561 Y-39.224 E1548.36942
G1 X27.86 Y-39.224 E1548.386
G1 X27.86 Y-38.925 E1548.39673
G1 X27.86 Y-16.633 E1549.63275
G0 F7200 X28.46 Y-17.233
;TYPE:WALL-OUTER
G1 F1800 X37.914 Y-17.232 E1550.15694
G1 X37.914 Y-10.425 E1550.53436
G1 X10.635 Y-10.424 E1552.04689
G1 X10.335 Y-10.424 E1552.06353
G1 X10.335 Y-10.724 E1552.07428
G1 X10.335 Y-17.231 E1552.43507
G1 X19.79 Y-17.232 E1552.95932
G1 X19.79 Y-39.823 E1554.21192
G1 X28.16 Y-39.824 E1554.676
G1 X28.46 Y-39.824 E1554.69264
G1 X28.46 Y-39.524 E1554.7034
G1 X28.46 Y-17.233 E1555.93936
G0 F7200 X28.66 Y-17.233
G0 X28.659 Y-16.573
G0 X28.659 Y-16.533
G0 X27.27 Y-16.043
;TYPE:SKIN
G1 F1800 X36.724 Y-16.042 E1556.46355
G1 X36.724 Y-11.615 E1556.70901
G1 X11.525 Y-11.614 E1558.10621
G1 X11.525 Y-16.041 E1558.35167
G1 X20.98 Y-16.042 E1558.87592
G1 X20.98 Y-38.633 E1560.12852
G1 X27.27 Y-38.634 E1560.47728
G1 X27.27 Y-16.043 E1561.72987
G0 F7200 X11.794 Y-12
G1 F1800 X36.454 Y-11.999 E1563.09718
G0 F7200 X36.454 Y-12.599
G1 F1800 X11.794 Y-12.6 E1564.4645
G0 F7200 X11.794 Y-13.2
G1 F1800 X36.454 Y-13.199 E1565.83181
G0 F7200 X36.454 Y-13.799
G1 F1800 X11.794 Y-13.8 E1567.19913
G0 F7200 X11.794 Y-14.4
G1 F1800 X36.454 Y-14.399 E1568.56644
G0 F7200 X36.454 Y-14.999
G1 F1800 X11.794 Y-15 E1569.93375
G0 F7200 X11.794 Y-15.6
G1 F1800 X36.454 Y-15.599 E1571.30107
G1 X36.604 Y-15.599
G0 F7200 X27 Y-16.199
G1 F1800 X21.249 Y-16.199 E1571.61994
G0 F7200 X21.249 Y-16.8
G1 F1800 X27 Y-16.8 E1571.93882
G0 F7200 X27 Y-17.4
G1 F1800 X21.249 Y-17.4 E1572.25769
G0 F7200 X21.249 Y-18
G1 F1800 X27 Y-18 E1572.57656
G0 F7200 X27 Y-18.6
G1 F1800 X21.249 Y-18.6 E1572.89544
G0 F7200 X21.249 Y-19.2
G1 F1800 X27 Y-19.2 E1573.21431
G0 F7200 X27 Y-19.8
G1 F1800 X21.249 Y-19.8 E1573.53318
G0 F7200 X21.249 Y-20.4
G1 F1800 X27 Y-20.4 E1573.85206
G0 F7200 X27 Y-21
G1 F1800 X21.249 Y-21 E1574.17093
G0 F7200 X21.249 Y-21.6
G1 F1800 X27 Y-21.6 E1574.4898
G0 F7200 X27 Y-22.2
G1 F1800 X21.249 Y-22.2 E1574.80868
G0 F7200 X21.249 Y-22.8
G1 F1800 X27 Y-22.8 E1575.12755
G0 F7200 X27 Y-23.4
G1 F1800 X21.249 Y-23.4 E1575.44642
G0 F7200 X21.249 Y-24
G1 F1800 X27 Y-24 E1575.7653
G0 F7200 X27 Y-24.6
G1 F1800 X21.249 Y-24.6 E1576.08417
G0 F7200 X21.249 Y-25.2
G1 F1800 X27 Y-25.2 E1576.40305
G0 F7200 X27 Y-25.8
G1 F1800 X21.249 Y-25.8 E1576.72192
G0 F7200 X21.249 Y-26.4
G1 F1800 X27 Y-26.4 E1577.04079
G0 F7200 X27 Y-27
G1 F1800 X21.249 Y-27 E1577.35967
G0 F7200 X21.249 Y-27.6
G1 F1800 X27 Y-27.6 E1577.67854
G0 F7200 X27 Y-28.2
G1 F1800 X21.249 Y-28.2 E1577.99741
G0 F7200 X21.249 Y-28.8
G1 F1800 X27 Y-28.8 E1578.31629
G0 F7200 X27 Y-29.4
G1 F1800 X21.249 Y-29.4 E1578.63516
G0 F7200 X21.249 Y-30
G1 F1800 X27 Y-30 E1578.95403
G0 F7200 X27 Y-30.6
G1 F1800 X21.249 Y-30.6 E1579.27291
G0 F7200 X21.249 Y-31.2
G1 F1800 X27 Y-31.2 E1579.59178
G0 F7200 X27 Y-31.8
G1 F1800 X21.249 Y-31.8 E1579.91065
G0 F7200 X21.249 Y-32.4
G1 F1800 X27 Y-32.4 E1580.22953
G0 F7200 X27 Y-33
G1 F1800 X21.249 Y-33 E1580.5484
G0 F7200 X21.249 Y-33.6
G1 F1800 X27 Y-33.6 E1580.86728
G0 F7200 X27 Y-34.2
G1 F1800 X21.249 Y-34.2 E1581.18615
G0 F7200 X21.249 Y-34.8
G1 F1800 X27 Y-34.8 E1581.50502
G0 F7200 X27 Y-35.4
G1 F1800 X21.249 Y-35.4 E1581.8239
G0 F7200 X21.249 Y-36
G1 F1800 X27 Y-36 E1582.14277
G0 F7200 X27 Y-36.6
G1 F1800 X21.249 Y-36.6 E1582.46164
G0 F7200 X21.249 Y-37.2
G1 F1800 X27 Y-37.2 E1582.78052
G0 F7200 X27 Y-37.8
G1 F1800 X21.249 Y-37.8 E1583.09939
G1 X21.099 Y-37.8
G1 F1500 E1576.59939
;MESH:T.stl(1)
G0 F7200 X20.404 Y-16.618
G0 X18.837 Y-18.185
G0 X9.382 Y-18.184
G0 X-8.227 Y-16.167
G0 X-9.806 Y-16.167
G0 X-19.317 Y-16.112
G0 X-19.247 Y-16.182
;TYPE:WALL-INNER
G1 F1500 E1583.09939
G1 F3600 X-9.792 Y-16.181 E1583.62364
G1 X-9.792 Y-10.574 E1583.93453
G1 X-35.872 Y-10.573 E1585.38058
G1 X-36.171 Y-10.573 E1585.39715
G1 X-36.171 Y-10.872 E1585.40788
G1 X-36.171 Y-16.18 E1585.70219
G1 X-26.717 Y-16.181 E1586.22639
G1 X-26.717 Y-38.772 E1587.47898
G1 X-19.546 Y-38.773 E1587.87659
G1 X-19.247 Y-38.773 E1587.89317
G1 X-19.247 Y-38.474 E1587.9039
G1 X-19.247 Y-16.182 E1589.13991
G0 F7200 X-18.647 Y-16.782
;TYPE:WALL-OUTER
G1 F1800 X-9.192 Y-16.781 E1589.66416
G1 X-9.192 Y-9.974 E1590.04159
G1 X-36.471 Y-9.973 E1591.55412
G1 X-36.771 Y-9.973 E1591.57075
G1 X-36.771 Y-10.273 E1591.58151
G1 X-36.771 Y-16.78 E1591.9423
G1 X-27.317 Y-16.781 E1592.46649
G1 X-27.317 Y-39.372 E1593.71908
G1 X-18.947 Y-39.373 E1594.18317
G1 X-18.647 Y-39.373 E1594.19981
G1 X-18.647 Y-39.073 E1594.21056
G1 X-18.647 Y-16.782 E1595.44652
G0 F7200 X-18.447 Y-16.782
G0 X-18.448 Y-16.122
G0 X-18.448 Y-16.082
G0 X-19.837 Y-15.592
;TYPE:SKIN
G1 F1800 X-10.382 Y-15.591 E1595.97077
G1 X-10.382 Y-11.164 E1596.21623
G1 X-35.581 Y-11.163 E1597.61343
G1 X-35.581 Y-15.59 E1597.8589
G1 X-26.127 Y-15.591 E1598.38309
G1 X-26.127 Y-38.182 E1599.63568
G1 X-19.837 Y-38.183 E1599.98444
G1 X-19.837 Y-15.592 E1601.23704
G0 F7200 X-35.311 Y-12
G1 F1800 X-10.652 Y-12 E1602.6043
G0 F7200 X-10.652 Y-12.6
G1 F1800 X-35.311 Y-12.6 E1603.97156
G0 F7200 X-35.311 Y-13.2
G1 F1800 X-10.652 Y-13.2 E1605.33881
G0 F7200 X-10.652 Y-13.8
G1 F1800 X-35.311 Y-13.8 E1606.70607
G0 F7200 X-35.311 Y-14.4
G1 F1800 X-10.652 Y-14.4 E1608.07333
G0 F7200 X-10.651 Y-15
G1 F1800 X-35.311 Y-15 E1609.44065
G1 X-35.461 Y-15
G0 F7200 X-25.857 Y-15.6
G1 F1800 X-20.107 Y-15.6 E1609.75946
G0 F7200 X-20.107 Y-16.2
G1 F1800 X-25.857 Y-16.2 E1610.07828
G0 F7200 X-25.857 Y-16.8
G1 F1800 X-20.107 Y-16.8 E1610.3971
G0 F7200 X-20.107 Y-17.4
G1 F1800 X-25.857 Y-17.4 E1610.71592
G0 F7200 X-25.857 Y-18
G1 F1800 X-20.107 Y-18 E1611.03474
G0 F7200 X-20.107 Y-18.6
G1 F1800 X-25.857 Y-18.6 E1611.35355
G0 F7200 X-25.857 Y-19.2
G1 F1800 X-20.107 Y-19.2 E1611.67237
G0 F7200 X-20.107 Y-19.8
G1 F1800 X-25.857 Y-19.8 E1611.99119
G0 F7200 X-25.857 Y-20.4
G1 F1800 X-20.107 Y-20.4 E1612.31001
G0 F7200 X-20.107 Y-21
G1 F1800 X-25.857 Y-21 E1612.62883
G0 F7200 X-25.857 Y-21.6
G1 F1800 X-20.107 Y-21.6 E1612.94764
G0 F7200 X-20.107 Y-22.2
G1 F1800 X-25.857 Y-22.2 E1613.26646
G0 F7200 X-25.857 Y-22.8
G1 F1800 X-20.107 Y-22.8 E1613.58528
G0 F7200 X-20.107 Y-23.4
G1 F1800 X-25.857 Y-23.4 E1613.9041
G0 F7200 X-25.857 Y-24
G1 F1800 X-20.107 Y-24 E1614.22292
G0 F7200 X-20.107 Y-24.6
G1 F1800 X-25.857 Y-24.6 E1614.54174
G0 F7200 X-25.857 Y-25.2
G1 F1800 X-20.107 Y-25.2 E1614.86055
G0 F7200 X-20.107 Y-25.8
G1 F1800 X-25.857 Y-25.8 E1615.17937
G0 F7200 X-25.857 Y-26.4
G1 F1800 X-20.107 Y-26.4 E1615.49819
G0 F7200 X-20.107 Y-27
G1 F1800 X-25.857 Y-27 E1615.81701
G0 F7200 X-25.857 Y-27.6
G1 F1800 X-20.107 Y-27.6 E1616.13583
G0 F7200 X-20.107 Y-28.2
G1 F1800 X-25.857 Y-28.2 E1616.45464
G0 F7200 X-25.857 Y-28.8
G1 F1800 X-20.107 Y-28.8 E1616.77346
G0 F7200 X-20.107 Y-29.4
