;FLAVOR:Marlin
;TIME:1156
;Filament used: 1.93318m
;Layer height: 0.2
;MINX:-40.971
;MINY:-44.024
;MINZ:0.2
;MAXX:42.601
;MAXY:44.3
;MAXZ:3.6
;POSTPROCESSED
;Generated with Cura_SteamEngine 4.8.0
M140 S60
M105
M190 S60
M104 S195
M105
M109 S195
M82 ;absolute extrusion mode
G28 ;Home
G1 Z15.0 F6000 ;Move the platform down 15mm
;Prime the extruder
G92 E0
G1 F200 E3
G92 E0
G92 E0
G92 E0
G1 F1500 E-6.5
;LAYER_COUNT:18
;LAYER:0
M107
G0 F3600 X-38.42 Y5.195 Z0.2
;TYPE:SKIRT
G1 F1500 E0
G1 F1800 X-38.728 Y2.496 E0.15062
G1 X-39.111 Y-.191 E0.30111
G1 X-39.57 Y-2.871 E0.45187
G1 X-40.105 Y-5.539 E0.60275
G1 X-40.709 Y-8.164 E0.7521
G1 X-40.86 Y-8.787 E0.78764
G1 X-40.959 Y-9.553 E0.83047
G1 X-40.971 Y-10.003 E0.85543
G1 X-40.971 Y-16.429 E1.21173
G1 X-40.961 Y-17.132 E1.25071
G1 X-40.913 Y-17.689 E1.28171
G1 X-40.786 Y-18.232 E1.31263
G1 X-40.5 Y-18.916 E1.35374
G1 X-40.29 Y-19.308 E1.3784
G1 X-39.31 Y-21.065 E1.48994
G1 X-38.052 Y-23.478 E1.64083
G1 X-36.872 Y-25.905 E1.79046
G1 X-35.759 Y-28.372 E1.94052
G1 X-34.702 Y-30.903 E2.0926
G1 X-33.718 Y-33.455 E2.24426
G1 X-32.824 Y-35.996 E2.39361
G1 X-31.991 Y-38.586 E2.54446
G1 X-31.483 Y-40.335 E2.64545
G1 X-31.339 Y-40.805 E2.6727
G1 X-31.138 Y-41.326 E2.70367
G1 X-30.864 Y-41.813 E2.73465
G1 X-30.524 Y-42.255 E2.76557
G1 X-30.124 Y-42.645 E2.79655
G1 X-29.672 Y-42.973 E2.82751
G1 X-29.179 Y-43.234 E2.85844
G1 X-28.653 Y-43.421 E2.88939
G1 X-28.106 Y-43.531 E2.92033
G1 X-27.408 Y-43.571 E2.9591
G1 X-27.287 Y-43.573 E2.96581
G1 X-18.994 Y-43.573 E3.42562
G1 X-18.284 Y-43.562 E3.465
G1 X-17.739 Y-43.515 E3.49533
G1 X-17.171 Y-43.425 E3.52721
G1 X-15.484 Y-43.137 E3.6221
G1 X-12.781 Y-42.751 E3.7735
G1 X-10.086 Y-42.446 E3.92388
G1 X-7.382 Y-42.216 E4.07435
G1 X-4.64 Y-42.062 E4.22662
G1 X-1.961 Y-41.986 E4.37522
G1 X0.789 Y-41.986 E4.5277
G1 X3.463 Y-42.062 E4.67603
G1 X6.211 Y-42.218 E4.82864
G1 X8.919 Y-42.449 E4.97933
G1 X11.609 Y-42.754 E5.12944
G1 X14.3 Y-43.138 E5.28016
G1 X16.978 Y-43.597 E5.43081
G1 X18.739 Y-43.94 E5.53029
G1 X19.39 Y-44.013 E5.56661
G1 X19.82 Y-44.024 E5.59046
G1 X28.109 Y-44.024 E6.05006
G1 X28.808 Y-44.014 E6.08882
G1 X29.364 Y-43.966 E6.11976
G1 X29.908 Y-43.839 E6.15074
G1 X30.427 Y-43.636 E6.18163
G1 X30.913 Y-43.36 E6.21262
G1 X31.354 Y-43.019 E6.24353
G1 X31.742 Y-42.617 E6.27451
G1 X32.069 Y-42.165 E6.30544
G1 X32.328 Y-41.67 E6.33642
G1 X32.495 Y-41.208 E6.36366
G1 X32.77 Y-40.268 E6.41796
G1 X33.589 Y-37.602 E6.5726
G1 X34.453 Y-35.049 E6.72204
G1 X35.4 Y-32.494 E6.87313
G1 X36.408 Y-29.989 E7.02284
G1 X37.504 Y-27.476 E7.17486
G1 X38.669 Y-24.999 E7.32663
G1 X39.879 Y-22.602 E7.47551
G1 X41.189 Y-20.183 E7.62804
G1 X41.606 Y-19.436 E7.67548
G1 X41.843 Y-18.931 E7.70641
G1 X41.988 Y-18.471 E7.73315
G1 X42.102 Y-17.646 E7.77933
G1 X42.114 Y-17.202 E7.80395
G1 X42.114 Y-10.775 E8.16031
G1 X42.104 Y-10.074 E8.19918
G1 X42.038 Y-9.417 E8.23579
G1 X41.913 Y-8.746 E8.27364
G1 X41.612 Y-7.246 E8.35847
G1 X41.152 Y-4.559 E8.50962
G1 X40.769 Y-1.871 E8.66016
G1 X40.461 Y0.827 E8.81073
G1 X40.231 Y3.53 E8.96115
G1 X40.076 Y6.276 E9.11364
G1 X40 Y8.951 E9.26202
G1 X40 Y11.702 E9.41456
G1 X40.076 Y14.383 E9.56327
G1 X40.23 Y17.12 E9.71527
G1 X40.461 Y19.831 E9.86613
G1 X40.767 Y22.528 E10.01663
G1 X41.148 Y25.208 E10.16672
G1 X41.608 Y27.892 E10.31771
G1 X42.149 Y30.591 E10.47033
G1 X42.497 Y32.148 E10.55879
G1 X42.589 Y32.878 E10.59959
G1 X42.601 Y33.322 E10.62422
G1 X42.601 Y39.712 E10.97852
G1 X42.592 Y40.439 E11.01883
G1 X42.545 Y40.996 E11.04983
G1 X42.419 Y41.539 E11.08074
G1 X42.217 Y42.06 E11.11172
G1 X41.943 Y42.546 E11.14265
G1 X41.602 Y42.988 E11.17361
G1 X41.201 Y43.377 E11.20458
G1 X40.749 Y43.704 E11.23552
G1 X40.255 Y43.964 E11.26647
G1 X39.729 Y44.151 E11.29742
G1 X39.182 Y44.26 E11.32835
G1 X38.48 Y44.298 E11.36733
G1 X38.371 Y44.3 E11.37337
G1 X11.168 Y44.3 E12.88169
G1 X10.461 Y44.289 E12.92089
G1 X9.673 Y44.224 E12.96473
G1 X6.917 Y43.989 E13.1181
G1 X4.171 Y43.834 E13.2706
G1 X1.496 Y43.758 E13.41898
G1 X-1.254 Y43.758 E13.57146
G1 X-3.935 Y43.834 E13.72017
G1 X-6.691 Y43.989 E13.87322
G1 X-7.299 Y44.03 E13.90701
G1 X-7.851 Y44.046 E13.93763
G1 X-35.049 Y44.046 E15.44566
G1 X-35.746 Y44.036 E15.48431
G1 X-36.302 Y43.988 E15.51526
G1 X-36.846 Y43.861 E15.54623
G1 X-37.366 Y43.658 E15.57718
G1 X-37.851 Y43.382 E15.60812
G1 X-38.293 Y43.041 E15.63908
G1 X-38.681 Y42.639 E15.67006
G1 X-39.007 Y42.187 E15.70096
G1 X-39.266 Y41.692 E15.73193
G1 X-39.452 Y41.166 E15.76287
G1 X-39.56 Y40.618 E15.79384
G1 X-39.598 Y39.91 E15.83315
G1 X-39.599 Y33.385 E16.19494
G1 X-39.588 Y32.675 E16.23431
G1 X-39.542 Y32.139 E16.26414
G1 X-39.496 Y31.842 E16.2808
G1 X-39.106 Y29.57 E16.40862
G1 X-38.726 Y26.897 E16.55832
G1 X-38.42 Y24.198 E16.70893
G1 X-38.189 Y21.488 E16.85973
G1 X-38.035 Y18.749 E17.01184
G1 X-37.959 Y16.07 E17.16044
G1 X-37.959 Y13.319 E17.31298
G1 X-38.035 Y10.644 E17.46136
G1 X-38.19 Y7.899 E17.6138
G1 X-38.42 Y5.195 E17.76427
G0 F3600 X-37.822 Y5.146
G1 F1800 X-38.133 Y2.418 E17.91651
G1 X-38.516 Y-.272 E18.06716
G1 X-38.982 Y-2.986 E18.21985
G1 X-39.523 Y-5.688 E18.37264
G1 X-40.122 Y-8.294 E18.5209
G1 X-40.275 Y-8.923 E18.55679
G1 X-40.36 Y-9.571 E18.59303
G1 X-40.371 Y-10.003 E18.61699
G1 X-40.371 Y-16.421 E18.97285
G1 X-40.361 Y-17.124 E19.01183
G1 X-40.313 Y-17.635 E19.04029
G1 X-40.188 Y-18.133 E19.06876
G1 X-39.971 Y-18.633 E19.09898
G1 X-39.766 Y-19.016 E19.12306
G1 X-38.778 Y-20.787 E19.23551
G1 X-37.524 Y-23.192 E19.38589
G1 X-36.322 Y-25.665 E19.53835
G1 X-35.202 Y-28.148 E19.68938
G1 X-34.145 Y-30.679 E19.84147
G1 X-33.154 Y-33.25 E19.99424
G1 X-32.259 Y-35.791 E20.14362
G1 X-31.409 Y-38.436 E20.29766
G1 X-30.909 Y-40.16 E20.39719
G1 X-30.765 Y-40.63 E20.42444
G1 X-30.577 Y-41.107 E20.45287
G1 X-30.317 Y-41.55 E20.48135
G1 X-29.992 Y-41.947 E20.5098
G1 X-29.609 Y-42.289 E20.53827
G1 X-29.177 Y-42.567 E20.56676
G1 X-28.708 Y-42.775 E20.5952
G1 X-28.212 Y-42.908 E20.62368
G1 X-27.712 Y-42.961 E20.65155
G1 X-27.287 Y-42.973 E20.67513
G1 X-19.003 Y-42.973 E21.13445
G1 X-18.293 Y-42.962 E21.17382
G1 X-17.832 Y-42.922 E21.19948
G1 X-17.272 Y-42.834 E21.23091
G1 X-15.564 Y-42.542 E21.32699
G1 X-12.859 Y-42.157 E21.47848
G1 X-10.135 Y-41.847 E21.63049
G1 X-7.432 Y-41.618 E21.7809
G1 X-4.691 Y-41.464 E21.93312
G1 X-1.942 Y-41.386 E22.0856
G1 X0.77 Y-41.386 E22.23598
G1 X3.514 Y-41.464 E22.38818
G1 X6.261 Y-41.62 E22.54074
G1 X8.967 Y-41.851 E22.69132
G1 X11.692 Y-42.16 E22.84338
G1 X14.376 Y-42.542 E22.9937
G1 X17.102 Y-43.01 E23.14706
G1 X18.856 Y-43.352 E23.24615
G1 X19.407 Y-43.414 E23.27689
G1 X19.82 Y-43.424 E23.2998
G1 X28.1 Y-43.424 E23.75889
G1 X28.799 Y-43.414 E23.79766
G1 X29.31 Y-43.366 E23.82611
G1 X29.808 Y-43.24 E23.8546
G1 X30.28 Y-43.039 E23.88304
G1 X30.715 Y-42.766 E23.91152
G1 X31.103 Y-42.43 E23.93998
G1 X31.434 Y-42.037 E23.96847
G1 X31.7 Y-41.598 E23.99693
G1 X31.919 Y-41.04 E24.03016
G1 X32.196 Y-40.091 E24.08498
G1 X33.006 Y-37.455 E24.23788
G1 X33.895 Y-34.828 E24.39165
G1 X34.842 Y-32.272 E24.54279
G1 X35.851 Y-29.766 E24.69258
G1 X36.955 Y-27.235 E24.84568
G1 X38.12 Y-24.756 E24.99756
G1 X39.36 Y-22.301 E25.15006
G1 X40.669 Y-19.882 E25.30256
G1 X41.082 Y-19.143 E25.3495
G1 X41.297 Y-18.677 E25.37795
G1 X41.405 Y-18.325 E25.39837
G1 X41.502 Y-17.627 E25.43744
G1 X41.514 Y-17.202 E25.46102
G1 X41.514 Y-10.784 E25.81687
G1 X41.504 Y-10.083 E25.85575
G1 X41.448 Y-9.526 E25.88679
G1 X41.325 Y-8.864 E25.92412
G1 X41.024 Y-7.361 E26.00911
G1 X40.556 Y-4.635 E26.16247
G1 X40.175 Y-1.958 E26.3124
G1 X39.863 Y0.782 E26.4653
G1 X39.633 Y3.48 E26.61544
G1 X39.478 Y6.225 E26.76788
G1 X39.4 Y8.97 E26.92015
G1 X39.4 Y11.683 E27.07057
G1 X39.478 Y14.432 E27.22306
G1 X39.632 Y17.171 E27.37516
G1 X39.863 Y19.879 E27.52586
G1 X40.173 Y22.61 E27.67826
G1 X40.553 Y25.284 E27.82801
G1 X41.02 Y28.007 E27.9812
G1 X41.56 Y30.704 E28.1337
G1 X41.912 Y32.279 E28.22319
G1 X41.989 Y32.896 E28.25766
G1 X42.001 Y33.322 E28.28129
G1 X42.001 Y39.705 E28.63521
G1 X41.992 Y40.432 E28.67552
G1 X41.945 Y40.943 E28.70397
G1 X41.82 Y41.441 E28.73244
G1 X41.62 Y41.914 E28.76092
G1 X41.348 Y42.349 E28.78936
G1 X41.012 Y42.738 E28.81786
G1 X40.62 Y43.069 E28.84631
G1 X40.181 Y43.336 E28.8748
G1 X39.707 Y43.531 E28.90322
G1 X39.207 Y43.651 E28.93173
G1 X38.463 Y43.699 E28.97307
G1 X11.178 Y43.7 E30.48593
G1 X10.471 Y43.689 E30.52513
G1 X9.706 Y43.625 E30.5677
G1 X6.967 Y43.391 E30.72012
G1 X4.222 Y43.236 E30.87256
G1 X1.477 Y43.158 E31.02483
G1 X-1.235 Y43.158 E31.1752
G1 X-3.984 Y43.236 E31.32768
G1 X-6.729 Y43.39 E31.48012
G1 X-7.335 Y43.431 E31.5138
G1 X-7.851 Y43.446 E31.54242
G1 X-35.04 Y43.446 E33.04996
G1 X-35.737 Y43.436 E33.08861
G1 X-36.249 Y43.388 E33.11712
G1 X-36.746 Y43.262 E33.14555
G1 X-37.218 Y43.061 E33.174
G1 X-37.654 Y42.788 E33.20252
G1 X-38.041 Y42.452 E33.23094
G1 X-38.372 Y42.059 E33.25943
G1 X-38.638 Y41.62 E33.28789
G1 X-38.832 Y41.144 E33.31639
G1 X-38.951 Y40.645 E33.34483
G1 X-38.998 Y39.893 E33.38661
G1 X-38.999 Y33.394 E33.74696
G1 X-38.988 Y32.684 E33.78633
G1 X-38.913 Y31.998 E33.82459
G1 X-38.517 Y29.687 E33.9546
G1 X-38.132 Y26.979 E34.10626
G1 X-37.822 Y24.246 E34.25876
G1 X-37.591 Y21.537 E34.40951
G1 X-37.437 Y18.8 E34.56151
G1 X-37.359 Y16.051 E34.714
G1 X-37.359 Y13.338 E34.86442
G1 X-37.437 Y10.593 E35.01668
G1 X-37.592 Y7.849 E35.16907
G1 X-37.822 Y5.146 E35.31949
G1 F1500 E28.81949
;MESH:T.stl
G0 F3600 X-26.91 Y11.06
G0 X-25.331 Y11.06
G0 X-17.945 Y33.708
G0 X-17.875 Y33.638
;TYPE:WALL-INNER
G1 F1500 E35.31949
G1 F1800 X-8.421 Y33.638 E35.84368
G1 X-8.421 Y39.246 E36.15462
G1 X-34.799 Y39.246 E37.61719
G1 X-34.799 Y33.638 E37.92814
G1 X-25.345 Y33.638 E38.45233
G1 X-25.345 Y11.046 E39.70498
G1 X-17.875 Y11.046 E40.11917
G1 X-17.875 Y33.638 E41.37182
G0 F3600 X-17.275 Y33.038
;TYPE:WALL-OUTER
G1 F1800 X-7.821 Y33.038 E41.89601
G1 X-7.821 Y39.846 E42.27349
G1 X-35.399 Y39.846 E43.8026
G1 X-35.399 Y33.038 E44.18008
G1 X-25.945 Y33.038 E44.70427
G1 X-25.945 Y10.446 E45.95692
G1 X-17.275 Y10.446 E46.43765
G1 X-17.275 Y33.038 E47.6903
G0 F3600 X-17.075 Y33.038
G0 X-17.075 Y33.698
G0 X-17.075 Y33.738
G0 X-21.445 Y35.676
;TYPE:SKIN
G1 F1800 X-21.775 Y35.676 E47.70859
G1 X-21.775 Y14.616 E48.8763
G1 X-21.445 Y14.616 E48.8946
G1 X-21.445 Y35.676 E50.0623
G0 F3600 X-20.845 Y36.276
G1 F1800 X-22.375 Y36.276 E50.14714
G1 X-22.375 Y14.016 E51.38138
G1 X-20.845 Y14.016 E51.46621
G1 X-20.845 Y36.276 E52.70045
G0 F3600 X-20.245 Y36.008
G1 F1800 X-10.791 Y36.008 E53.22465
G1 X-10.791 Y36.876 E53.27277
G1 X-32.429 Y36.876 E54.47253
G1 X-32.429 Y36.008 E54.52066
G1 X-22.975 Y36.008 E55.04485
G1 X-22.975 Y13.416 E56.2975
G1 X-20.245 Y13.416 E56.44887
G1 X-20.245 Y36.008 E57.70152
G0 F3600 X-19.645 Y35.408
G1 F1800 X-10.191 Y35.408 E58.22571
G1 X-10.191 Y37.476 E58.34037
G1 X-33.029 Y37.476 E59.60666
G1 X-33.029 Y35.408 E59.72133
G1 X-23.575 Y35.408 E60.24552
G1 X-23.575 Y12.816 E61.49817
G1 X-19.645 Y12.816 E61.71608
G1 X-19.645 Y35.408 E62.96873
G0 F3600 X-19.045 Y34.808
G1 F1800 X-9.591 Y34.808 E63.49292
G1 X-9.591 Y38.076 E63.67412
G1 X-33.629 Y38.076 E65.00694
G1 X-33.629 Y34.808 E65.18814
G1 X-24.175 Y34.808 E65.71234
G1 X-24.175 Y12.216 E66.96499
G1 X-19.045 Y12.216 E67.24943
G1 X-19.045 Y34.808 E68.50208
G0 F3600 X-18.445 Y34.208
G1 F1800 X-8.991 Y34.208 E69.02627
G1 X-8.991 Y38.676 E69.27401
G1 X-34.229 Y38.676 E70.67337
G1 X-34.229 Y34.208 E70.9211
G1 X-24.775 Y34.208 E71.4453
G1 X-24.775 Y11.616 E72.69795
G1 X-18.445 Y11.616 E73.04892
G1 X-18.445 Y34.208 E74.30158
G0 F3600 X-18.3 Y36.293
;TYPE:SKIN
G1 F1800 X-18.3 Y36.591 E74.30984
G0 F3600 X-18 Y36.591
G1 F1800 X-18 Y36.293 E74.3181
G0 F3600 X-17.7 Y36.293
G1 F1800 X-17.7 Y36.591 E74.32636
G0 F3600 X-17.4 Y36.591
G1 F1800 X-17.4 Y36.293 E74.33462
G0 F3600 X-17.1 Y36.293
G1 F1800 X-17.1 Y36.591 E74.34288
G0 F3600 X-16.8 Y36.591
G1 F1800 X-16.8 Y36.293 E74.35114
G0 F3600 X-16.5 Y36.293
G1 F1800 X-16.5 Y36.591 E74.35941
G0 F3600 X-16.2 Y36.591
G1 F1800 X-16.2 Y36.293 E74.36767
G0 F3600 X-15.9 Y36.293
G1 F1800 X-15.9 Y36.591 E74.37593
G0 F3600 X-15.6 Y36.591
G1 F1800 X-15.6 Y36.293 E74.38419
G0 F3600 X-15.3 Y36.293
G1 F1800 X-15.3 Y36.591 E74.39245
G0 F3600 X-15 Y36.591
G1 F1800 X-15 Y36.293 E74.40071
G0 F3600 X-14.7 Y36.293
G1 F1800 X-14.7 Y36.591 E74.40898
G0 F3600 X-14.4 Y36.591
G1 F1800 X-14.4 Y36.293 E74.41724
G0 F3600 X-14.1 Y36.293
G1 F1800 X-14.1 Y36.591 E74.4255
G0 F3600 X-13.8 Y36.591
G1 F1800 X-13.8 Y36.293 E74.43376
G0 F3600 X-13.5 Y36.293
G1 F1800 X-13.5 Y36.591 E74.44202
G0 F3600 X-13.2 Y36.591
G1 F1800 X-13.2 Y36.293 E74.45028
G0 F3600 X-12.9 Y36.293
G1 F1800 X-12.9 Y36.591 E74.45854
G0 F3600 X-12.6 Y36.591
G1 F1800 X-12.6 Y36.293 E74.46681
G0 F3600 X-12.3 Y36.293
G1 F1800 X-12.3 Y36.591 E74.47507
G0 F3600 X-12 Y36.591
G1 F1800 X-12 Y36.293 E74.48333
G0 F3600 X-11.7 Y36.293
G1 F1800 X-11.7 Y36.591 E74.49159
G0 F3600 X-11.4 Y36.591
G1 F1800 X-11.4 Y36.293 E74.49985
G0 F3600 X-11.1 Y36.293
G1 F1800 X-11.1 Y36.591 E74.50811
G0 F3600 X-18.6 Y36.591
G1 F1800 X-18.6 Y36.293 E74.51638
G0 F3600 X-18.9 Y36.293
G1 F1800 X-18.9 Y36.591 E74.52464
G0 F3600 X-19.2 Y36.591
G1 F1800 X-19.2 Y36.293 E74.5329
G0 F3600 X-19.5 Y36.293
G1 F1800 X-19.5 Y36.591 E74.54116
G0 F3600 X-19.8 Y36.591
G1 F1800 X-19.8 Y36.293 E74.54942
G0 F3600 X-20.1 Y36.293
G1 F1800 X-20.1 Y36.591 E74.55768
G0 F3600 X-20.4 Y36.591
G1 F1800 X-20.4 Y36.293 E74.56594
G0 F3600 X-22.8 Y36.293
G1 F1800 X-22.8 Y36.591 E74.57421
G0 F3600 X-23.1 Y36.591
G1 F1800 X-23.1 Y36.293 E74.58247
G0 F3600 X-23.4 Y36.293
G1 F1800 X-23.4 Y36.591 E74.59073
G0 F3600 X-23.7 Y36.591
G1 F1800 X-23.7 Y36.293 E74.59899
G0 F3600 X-24 Y36.293
G1 F1800 X-24 Y36.591 E74.60725
G0 F3600 X-24.3 Y36.591
G1 F1800 X-24.3 Y36.293 E74.61551
G0 F3600 X-24.6 Y36.293
G1 F1800 X-24.6 Y36.591 E74.62378
G0 F3600 X-24.9 Y36.591
G1 F1800 X-24.9 Y36.293 E74.63204
G0 F3600 X-25.2 Y36.293
G1 F1800 X-25.2 Y36.591 E74.6403
G0 F3600 X-25.5 Y36.591
G1 F1800 X-25.5 Y36.293 E74.64856
G0 F3600 X-25.8 Y36.293
G1 F1800 X-25.8 Y36.591 E74.65682
G0 F3600 X-26.1 Y36.591
G1 F1800 X-26.1 Y36.293 E74.66508
G0 F3600 X-26.4 Y36.293
G1 F1800 X-26.4 Y36.591 E74.67334
G0 F3600 X-26.7 Y36.591
G1 F1800 X-26.7 Y36.293 E74.68161
G0 F3600 X-27 Y36.293
G1 F1800 X-27 Y36.591 E74.68987
G0 F3600 X-27.3 Y36.591
G1 F1800 X-27.3 Y36.293 E74.69813
G0 F3600 X-27.6 Y36.293
G1 F1800 X-27.6 Y36.591 E74.70639
G0 F3600 X-27.9 Y36.591
G1 F1800 X-27.9 Y36.293 E74.71465
G0 F3600 X-28.2 Y36.293
G1 F1800 X-28.2 Y36.591 E74.72291
G0 F3600 X-28.5 Y36.591
G1 F1800 X-28.5 Y36.293 E74.73118
G0 F3600 X-28.8 Y36.293
G1 F1800 X-28.8 Y36.591 E74.73944
G0 F3600 X-29.1 Y36.591
G1 F1800 X-29.1 Y36.293 E74.7477
G0 F3600 X-29.4 Y36.293
G1 F1800 X-29.4 Y36.591 E74.75596
G0 F3600 X-29.7 Y36.591
G1 F1800 X-29.7 Y36.293 E74.76422
G0 F3600 X-30 Y36.293
G1 F1800 X-30 Y36.591 E74.77248
G0 F3600 X-30.3 Y36.591
G1 F1800 X-30.3 Y36.293 E74.78074
G0 F3600 X-30.6 Y36.293
G1 F1800 X-30.6 Y36.591 E74.78901
G0 F3600 X-30.9 Y36.591
G1 F1800 X-30.9 Y36.293 E74.79727
G0 F3600 X-31.2 Y36.293
G1 F1800 X-31.2 Y36.591 E74.80553
G0 F3600 X-31.5 Y36.591
G1 F1800 X-31.5 Y36.293 E74.81379
G0 F3600 X-31.8 Y36.293
G1 F1800 X-31.8 Y36.591 E74.82205
G0 F3600 X-32.1 Y36.591
G1 F1800 X-32.1 Y36.293 E74.83031
G1 F1500 E68.33031
;MESH:T.stl(3)
G0 F3600 X-8.441 Y33.962
G0 X-6.856 Y33.962
G0 X9.857 Y33.962
G0 X11.442 Y33.962
G0 X28.277 Y33.962
G0 X28.347 Y33.892
;TYPE:WALL-INNER
G1 F1500 E74.83031
G1 F1800 X37.801 Y33.892 E75.35451
G1 X37.801 Y39.5 E75.66545
G1 X11.422 Y39.5 E77.12808
G1 X11.422 Y33.892 E77.43902
G1 X20.877 Y33.892 E77.96327
G1 X20.877 Y11.3 E79.21592
