;FLAVOR:Marlin
;TIME:1558
;Filament used: 2.62042m
;Layer height: 0.2
;MINX:-41.966
;MINY:-44.293
;MINZ:0.2
;MAXX:43.297
;MAXY:43.86
;MAXZ:3.6
;POSTPROCESSED
;Generated with Cura_SteamEngine 4.8.0
M140 S60
M105
M190 S60
M104 S195
M105
M109 S195
M82 ;absolute extrusion mode
G28 ;Home
G1 Z15.0 F6000 ;Move the platform down 15mm
;Prime the extruder
G92 E0
G1 F200 E3
G92 E0
G92 E0
G92 E0
G1 F1500 E-6.5
;LAYER_COUNT:18
;LAYER:0
M107
G0 F3600 X-40.927 Y0.752 Z0.2
;TYPE:SKIRT
G1 F1500 E0
G1 F1800 X-41.088 Y-1.957 E0.15047
G1 X-41.326 Y-4.657 E0.30076
G1 X-41.802 Y-8.538 E0.51756
G1 X-41.876 Y-9.058 E0.54668
G1 X-41.922 Y-9.819 E0.58895
G1 X-41.924 Y-9.929 E0.59505
G1 X-41.924 Y-26.821 E1.53166
G1 X-41.914 Y-27.527 E1.57081
G1 X-41.871 Y-28.283 E1.61279
G1 X-41.748 Y-29.802 E1.69729
G1 X-41.688 Y-30.428 E1.73216
G1 X-41.598 Y-30.967 E1.76246
G1 X-41.424 Y-31.689 E1.80364
G1 X-41.132 Y-32.84 E1.86948
G1 X-40.949 Y-33.514 E1.9082
G1 X-40.723 Y-34.133 E1.94474
G1 X-40.391 Y-34.848 E1.98845
G1 X-39.926 Y-35.813 E2.04784
G1 X-39.617 Y-36.434 E2.0863
G1 X-39.204 Y-37.091 E2.12933
G1 X-38.709 Y-37.727 E2.17402
G1 X-38.077 Y-38.515 E2.23002
G1 X-37.61 Y-39.082 E2.27075
G1 X-37.139 Y-39.563 E2.30808
G1 X-36.429 Y-40.172 E2.35995
G1 X-35.78 Y-40.709 E2.40665
G1 X-35.223 Y-41.158 E2.44632
G1 X-34.682 Y-41.524 E2.48254
G1 X-34.159 Y-41.808 E2.51553
G1 X-33.231 Y-42.285 E2.57339
G1 X-32.636 Y-42.583 E2.61029
G1 X-31.895 Y-42.864 E2.65423
G1 X-31.066 Y-43.085 E2.7018
G1 X-29.567 Y-43.464 E2.78753
G1 X-28.841 Y-43.637 E2.82891
G1 X-28.281 Y-43.728 E2.86037
G1 X-27.322 Y-43.812 E2.91374
G1 X-25.33 Y-43.954 E3.02447
G1 X-24.604 Y-43.995 E3.06479
G1 X-24.049 Y-43.992 E3.09556
G1 X-23.561 Y-43.965 E3.12266
G1 X-20.029 Y-43.738 E3.31891
G1 X-19.44 Y-43.692 E3.35166
G1 X-19.085 Y-43.648 E3.3715
G1 X-16.908 Y-43.275 E3.49396
G1 X-16.066 Y-43.127 E3.54137
G1 X-13.367 Y-42.72 E3.69271
G1 X-10.645 Y-42.39 E3.84474
G1 X-7.974 Y-42.141 E3.99348
G1 X-5.232 Y-41.964 E4.14583
G1 X-2.552 Y-41.867 E4.29452
G1 X0.195 Y-41.845 E4.44684
G1 X2.91 Y-41.901 E4.59741
G1 X5.615 Y-42.032 E4.74757
G1 X8.328 Y-42.242 E4.89845
G1 X11.027 Y-42.527 E5.04893
G1 X13.711 Y-42.887 E5.19908
G1 X16.419 Y-43.329 E5.35122
G1 X19.2 Y-43.866 E5.50826
G1 X20.061 Y-44.018 E5.55674
G1 X21.036 Y-44.105 E5.61101
G1 X23.037 Y-44.248 E5.72225
G1 X23.74 Y-44.288 E5.76129
G1 X24.068 Y-44.293 E5.77948
G1 X24.749 Y-44.262 E5.81728
G1 X28.353 Y-44.03 E6.01752
G1 X28.914 Y-43.986 E6.04872
G1 X29.268 Y-43.942 E6.0685
G1 X30.524 Y-43.726 E6.13916
G1 X31.227 Y-43.59 E6.17886
G1 X31.846 Y-43.461 E6.21392
G1 X32.389 Y-43.306 E6.24523
G1 X33.465 Y-42.912 E6.30877
G1 X33.87 Y-42.753 E6.33289
G1 X34.542 Y-42.479 E6.37313
G1 X35.117 Y-42.188 E6.40886
G1 X35.485 Y-41.959 E6.43289
G1 X36.319 Y-41.407 E6.48835
G1 X36.925 Y-40.993 E6.52904
G1 X37.344 Y-40.663 E6.55861
G1 X37.829 Y-40.206 E6.59556
G1 X38.483 Y-39.566 E6.6463
G1 X38.99 Y-39.056 E6.68617
G1 X39.357 Y-38.629 E6.71739
G1 X39.928 Y-37.858 E6.77059
G1 X40.234 Y-37.429 E6.79981
G1 X40.629 Y-36.859 E6.83826
G1 X40.969 Y-36.263 E6.8763
G1 X41.455 Y-35.199 E6.94116
G1 X41.54 Y-35.002 E6.95306
G1 X41.808 Y-34.36 E6.99163
G1 X41.987 Y-33.824 E7.02296
G1 X42.212 Y-32.944 E7.07333
G1 X42.511 Y-31.69 E7.14481
G1 X42.663 Y-31.016 E7.18312
G1 X42.737 Y-30.567 E7.20835
G1 X42.829 Y-29.693 E7.25707
G1 X42.908 Y-28.818 E7.30579
G1 X42.961 Y-28.124 E7.34438
G1 X42.971 Y-27.892 E7.35726
G1 X42.987 Y-26.925 E7.41088
G1 X42.987 Y-10.539 E8.31943
G1 X42.976 Y-9.821 E8.35924
G1 X42.944 Y-9.385 E8.38348
G1 X42.812 Y-8.355 E8.44106
G1 X42.716 Y-7.685 E8.47859
G1 X42.406 Y-4.98 E8.62955
G1 X42.174 Y-2.276 E8.78003
G1 X42.017 Y0.467 E8.93237
G1 X41.939 Y3.144 E9.08087
G1 X41.937 Y5.857 E9.23129
G1 X42.013 Y8.609 E9.38394
G1 X42.163 Y11.313 E9.5341
G1 X42.392 Y14.023 E9.68489
G1 X42.694 Y16.703 E9.83443
G1 X42.85 Y17.772 E9.89433
G1 X42.856 Y17.857 E9.89906
G1 X43.031 Y19.145 E9.97113
G1 X43.133 Y20.097 E10.02421
G1 X43.216 Y21.012 E10.07516
G1 X43.27 Y21.72 E10.11453
G1 X43.28 Y21.949 E10.12724
G1 X43.297 Y22.94 E10.18219
G1 X43.297 Y39.278 E11.08808
G1 X43.287 Y40.005 E11.12839
G1 X43.239 Y40.561 E11.15934
G1 X43.113 Y41.105 E11.1903
G1 X42.91 Y41.625 E11.22125
G1 X42.635 Y42.11 E11.25216
G1 X42.293 Y42.552 E11.28315
G1 X41.892 Y42.94 E11.31409
G1 X41.44 Y43.267 E11.34502
G1 X40.945 Y43.526 E11.376
G1 X40.419 Y43.712 E11.40693
G1 X39.871 Y43.821 E11.43791
G1 X39.177 Y43.858 E11.47645
G1 X39.067 Y43.86 E11.48255
G1 X30.798 Y43.86 E11.94103
G1 X29.995 Y43.847 E11.98556
G1 X29.069 Y43.807 E12.03695
G1 X26.369 Y43.732 E12.18672
G1 X23.618 Y43.732 E12.33925
G1 X20.924 Y43.808 E12.48868
G1 X20.232 Y43.842 E12.5271
G1 X19.565 Y43.86 E12.5641
G1 X11.292 Y43.86 E13.02281
G1 X10.574 Y43.849 E13.06262
G1 X10.138 Y43.817 E13.08686
G1 X9.004 Y43.672 E13.15025
G1 X6.267 Y43.361 E13.30298
G1 X3.558 Y43.13 E13.45373
G1 X0.813 Y42.975 E13.60618
G1 X-1.862 Y42.899 E13.75456
G1 X-4.613 Y42.899 E13.90709
G1 X-7.311 Y42.975 E14.05675
G1 X-8.774 Y43.049 E14.13797
G1 X-9.528 Y43.081 E14.17981
G1 X-9.645 Y43.083 E14.1863
G1 X-17.913 Y43.083 E14.64473
G1 X-18.717 Y43.07 E14.68932
G1 X-19.642 Y43.03 E14.74065
G1 X-22.342 Y42.955 E14.89042
G1 X-25.094 Y42.955 E15.04301
G1 X-27.795 Y43.031 E15.19283
G1 X-28.466 Y43.064 E15.23008
G1 X-29.147 Y43.083 E15.26785
G1 X-37.415 Y43.083 E15.72628
G1 X-38.113 Y43.073 E15.76499
G1 X-38.669 Y43.025 E15.79593
G1 X-39.213 Y42.898 E15.82691
G1 X-39.733 Y42.695 E15.85786
G1 X-40.218 Y42.419 E15.8888
G1 X-40.66 Y42.078 E15.91975
G1 X-41.048 Y41.676 E15.95073
G1 X-41.374 Y41.224 E15.98163
G1 X-41.633 Y40.729 E16.01261
G1 X-41.819 Y40.203 E16.04354
G1 X-41.927 Y39.655 E16.07451
G1 X-41.965 Y38.947 E16.11382
G1 X-41.966 Y21.961 E17.05564
G1 X-41.956 Y21.254 E17.09484
G1 X-41.913 Y20.496 E17.13694
G1 X-41.798 Y19.057 E17.21698
G1 X-41.718 Y18.227 E17.26322
G1 X-41.547 Y16.839 E17.34076
G1 X-41.271 Y14.323 E17.4811
G1 X-41.048 Y11.603 E17.63242
G1 X-40.904 Y8.925 E17.78112
G1 X-40.834 Y6.179 E17.93343
G1 X-40.843 Y3.464 E18.08396
G1 X-40.927 Y0.752 E18.23441
G0 F3600 X-40.327 Y0.731
G1 F1800 X-40.491 Y-2.01 E18.38666
G1 X-40.729 Y-4.723 E18.53766
G1 X-41.203 Y-8.589 E18.75363
G1 X-41.282 Y-9.143 E18.78465
G1 X-41.323 Y-9.836 E18.82314
G1 X-41.324 Y-26.813 E19.76446
G1 X-41.314 Y-27.519 E19.80361
G1 X-41.273 Y-28.243 E19.84382
G1 X-41.151 Y-29.745 E19.92737
G1 X-41.091 Y-30.371 E19.96224
G1 X-41.015 Y-30.827 E19.98788
G1 X-40.843 Y-31.541 E20.0286
G1 X-40.553 Y-32.683 E20.09393
G1 X-40.37 Y-33.357 E20.13265
G1 X-40.179 Y-33.881 E20.16357
G1 X-39.85 Y-34.588 E20.20681
G1 X-39.388 Y-35.546 E20.26578
G1 X-39.079 Y-36.167 E20.30424
G1 X-38.73 Y-36.722 E20.3406
G1 X-38.241 Y-37.352 E20.38481
G1 X-37.614 Y-38.134 E20.44039
G1 X-37.147 Y-38.701 E20.48112
G1 X-36.748 Y-39.108 E20.51272
G1 X-36.046 Y-39.71 E20.564
G1 X-35.403 Y-40.242 E20.61027
G1 X-34.846 Y-40.691 E20.64994
G1 X-34.389 Y-41.001 E20.68056
G1 X-33.88 Y-41.277 E20.71266
G1 X-32.963 Y-41.749 E20.76985
G1 X-32.368 Y-42.047 E20.80674
G1 X-31.74 Y-42.285 E20.84398
G1 X-30.919 Y-42.503 E20.89108
G1 X-29.428 Y-42.88 E20.97635
G1 X-28.702 Y-43.053 E21.01773
G1 X-28.228 Y-43.13 E21.04436
G1 X-27.279 Y-43.214 E21.09718
G1 X-25.296 Y-43.355 E21.20741
G1 X-24.57 Y-43.396 E21.24773
G1 X-23.629 Y-43.368 E21.29993
G1 X-20.076 Y-43.14 E21.49734
G1 X-19.487 Y-43.094 E21.53009
G1 X-19.187 Y-43.057 E21.54685
G1 X-17.012 Y-42.684 E21.66921
G1 X-16.142 Y-42.531 E21.71819
G1 X-13.459 Y-42.127 E21.86863
G1 X-10.738 Y-41.796 E22.02061
G1 X-7.995 Y-41.541 E22.17336
G1 X-5.293 Y-41.367 E22.32349
G1 X-2.544 Y-41.267 E22.47601
G1 X0.202 Y-41.245 E22.62827
G1 X2.916 Y-41.301 E22.77878
G1 X5.658 Y-41.434 E22.931
G1 X8.364 Y-41.643 E23.08148
G1 X11.1 Y-41.932 E23.23403
G1 X13.817 Y-42.297 E23.38603
G1 X16.525 Y-42.739 E23.53817
G1 X19.358 Y-43.285 E23.69814
G1 X20.115 Y-43.421 E23.74078
G1 X21.079 Y-43.507 E23.79445
G1 X23.072 Y-43.649 E23.90523
G1 X23.775 Y-43.689 E23.94427
G1 X24.052 Y-43.693 E23.95963
G1 X24.718 Y-43.662 E23.9966
G1 X28.306 Y-43.432 E24.19595
G1 X28.867 Y-43.388 E24.22715
G1 X29.167 Y-43.351 E24.24391
G1 X30.345 Y-43.149 E24.31018
G1 X31.104 Y-43.003 E24.35304
G1 X31.723 Y-42.874 E24.3881
G1 X32.183 Y-42.742 E24.41463
G1 X33.248 Y-42.352 E24.47752
G1 X33.644 Y-42.198 E24.50108
G1 X34.316 Y-41.924 E24.54131
G1 X34.802 Y-41.677 E24.57154
G1 X35.154 Y-41.458 E24.59453
G1 X35.981 Y-40.912 E24.64948
G1 X36.587 Y-40.498 E24.69017
G1 X37.069 Y-40.102 E24.72476
G1 X37.437 Y-39.75 E24.75299
G1 X38.057 Y-39.143 E24.8011
G1 X38.564 Y-38.633 E24.84098
G1 X38.875 Y-38.272 E24.86739
G1 X39.44 Y-37.509 E24.92004
G1 X39.74 Y-37.088 E24.9487
G1 X40.135 Y-36.518 E24.98715
G1 X40.423 Y-36.013 E25.01939
G1 X40.905 Y-34.96 E25.0836
G1 X40.986 Y-34.771 E25.095
G1 X41.254 Y-34.129 E25.13357
G1 X41.406 Y-33.676 E25.16007
G1 X41.629 Y-32.804 E25.20997
G1 X41.926 Y-31.558 E25.28099
G1 X42.078 Y-30.884 E25.3193
G1 X42.141 Y-30.504 E25.34066
G1 X42.232 Y-29.639 E25.38889
G1 X42.309 Y-28.772 E25.43715
G1 X42.362 Y-28.078 E25.47574
G1 X42.372 Y-27.882 E25.48662
G1 X42.387 Y-26.98 E25.53664
G1 X42.387 Y-10.548 E26.44774
G1 X42.376 Y-9.83 E26.48756
G1 X42.349 Y-9.461 E26.50807
G1 X42.218 Y-8.44 E26.56514
G1 X42.122 Y-7.768 E26.60278
G1 X41.808 Y-5.026 E26.75581
G1 X41.576 Y-2.327 E26.90601
G1 X41.419 Y0.414 E27.05824
G1 X41.339 Y3.162 E27.21067
G1 X41.337 Y5.874 E27.36105
G1 X41.413 Y8.624 E27.51358
G1 X41.565 Y11.36 E27.66552
G1 X41.794 Y14.07 E27.81631
G1 X42.098 Y16.767 E27.9668
G1 X42.257 Y17.859 E28.02799
G1 X42.263 Y17.951 E28.0331
G1 X42.448 Y19.32 E28.10969
G1 X42.535 Y20.152 E28.15608
G1 X42.617 Y21.058 E28.20652
G1 X42.671 Y21.766 E28.24589
G1 X42.681 Y21.96 E28.25666
G1 X42.697 Y22.883 E28.30784
G1 X42.697 Y39.269 E29.21639
G1 X42.687 Y39.996 E29.25671
G1 X42.64 Y40.508 E29.28521
G1 X42.514 Y41.005 E29.31364
G1 X42.313 Y41.478 E29.34214
G1 X42.04 Y41.913 E29.37061
G1 X41.704 Y42.301 E29.39907
G1 X41.311 Y42.632 E29.42756
G1 X40.872 Y42.898 E29.45602
G1 X40.397 Y43.093 E29.48449
G1 X39.898 Y43.211 E29.51292
G1 X39.16 Y43.259 E29.55393
G1 X30.807 Y43.26 E30.01708
G1 X30.112 Y43.25 E30.05562
G1 X29.141 Y43.21 E30.1095
G1 X26.35 Y43.132 E30.26431
G1 X23.637 Y43.132 E30.41474
G1 X20.877 Y43.21 E30.56783
G1 X20.214 Y43.243 E30.60464
G1 X19.66 Y43.259 E30.63537
G1 X11.301 Y43.26 E31.09885
G1 X10.583 Y43.249 E31.13866
G1 X10.214 Y43.222 E31.15918
G1 X9.074 Y43.076 E31.2229
G1 X6.315 Y42.763 E31.37686
G1 X3.608 Y42.532 E31.5275
G1 X0.864 Y42.377 E31.67989
G1 X-1.881 Y42.299 E31.83215
G1 X-4.594 Y42.299 E31.98258
G1 X-7.358 Y42.377 E32.13589
G1 X-8.808 Y42.45 E32.21639
G1 X-9.546 Y42.482 E32.25735
G1 X-17.904 Y42.483 E32.72077
G1 X-18.6 Y42.473 E32.75937
G1 X-19.57 Y42.433 E32.8132
G1 X-22.361 Y42.355 E32.96801
G1 X-25.075 Y42.355 E33.11849
G1 X-27.842 Y42.433 E33.27197
G1 X-28.484 Y42.464 E33.30761
G1 X-29.147 Y42.483 E33.34439
G1 X-37.406 Y42.483 E33.80232
G1 X-38.104 Y42.473 E33.84103
G1 X-38.616 Y42.425 E33.86954
G1 X-39.113 Y42.299 E33.89797
G1 X-39.585 Y42.098 E33.92642
G1 X-40.021 Y41.825 E33.95494
G1 X-40.408 Y41.489 E33.98335
G1 X-40.739 Y41.096 E34.01184
G1 X-41.005 Y40.657 E34.04031
G1 X-41.199 Y40.181 E34.06881
G1 X-41.318 Y39.682 E34.09725
G1 X-41.365 Y38.93 E34.13903
G1 X-41.366 Y21.969 E35.07946
G1 X-41.356 Y21.262 E35.11866
G1 X-41.314 Y20.537 E35.15893
G1 X-41.2 Y19.114 E35.23808
G1 X-41.122 Y18.3 E35.28342
G1 X-40.951 Y16.912 E35.36096
G1 X-40.675 Y14.397 E35.50125
G1 X-40.45 Y11.647 E35.65424
G1 X-40.304 Y8.939 E35.8046
G1 X-40.234 Y6.192 E35.95697
G1 X-40.243 Y3.444 E36.10933
G1 X-40.327 Y0.731 E36.25983
G1 F1500 E29.75983
;MESH:U.stl
G0 F3600 X-33.324 Y10.203
G0 X-32.312 Y11.421
G0 X-28.181 Y16.308
G0 X-28.111 Y16.378
;TYPE:WALL-INNER
G1 F1500 E36.25983
G1 F1800 X-29.337 Y18.355 E36.38882
G1 X-29.717 Y20.814 E36.52678
G1 X-29.717 Y38.283 E37.49538
G1 X-37.166 Y38.283 E37.9084
G1 X-37.166 Y21.344 E38.84761
G1 X-36.968 Y18.873 E38.98506
G1 X-36.389 Y16.598 E39.11522
G1 X-35.406 Y14.558 E39.24078
G1 X-33.995 Y12.793 E39.36607
G1 X-32.323 Y11.405 E39.48656
G1 X-30.605 Y10.521 E39.59368
G1 X-27.803 Y9.813 E39.75393
G1 X-24.438 Y9.572 E39.94098
G1 X-19.777 Y9.872 E40.19996
G1 X-17.535 Y10.303 E40.32654
G1 X-15.745 Y11 E40.43305
G1 X-14.235 Y11.999 E40.53344
G1 X-12.833 Y13.372 E40.64225
G1 X-11.722 Y14.928 E40.74825
G1 X-11.033 Y16.52 E40.84444
G1 X-10.421 Y19.082 E40.99049
G1 X-10.215 Y21.357 E41.11715
G1 X-10.215 Y38.283 E42.05564
G1 X-17.664 Y38.283 E42.46866
G1 X-17.664 Y20.813 E43.43731
G1 X-18.044 Y18.379 E43.5739
G1 X-19.268 Y16.402 E43.70283
G1 X-21.222 Y15.156 E43.83132
G1 X-23.701 Y14.758 E43.97054
G1 X-26.161 Y15.15 E44.10866
G1 X-28.111 Y16.378 E44.23643
G0 F3600 X-27.674 Y16.812
;TYPE:WALL-OUTER
G1 F1800 X-28.763 Y18.567 E44.35095
G1 X-29.117 Y20.86 E44.4796
G1 X-29.117 Y38.883 E45.47891
G1 X-37.766 Y38.883 E45.95847
G1 X-37.766 Y21.321 E46.93222
G1 X-37.562 Y18.776 E47.07379
G1 X-36.954 Y16.389 E47.21036
G1 X-35.917 Y14.235 E47.34292
G1 X-34.427 Y12.372 E47.47519
G1 X-32.657 Y10.903 E47.60272
G1 X-30.817 Y9.955 E47.71749
G1 X-27.903 Y9.219 E47.88414
G1 X-24.435 Y8.971 E48.07692
G1 X-19.704 Y9.275 E48.33978
G1 X-17.367 Y9.725 E48.47173
G1 X-15.466 Y10.465 E48.58484
G1 X-13.856 Y11.529 E48.69185
G1 X-12.377 Y12.978 E48.80665
G1 X-11.196 Y14.632 E48.91934
G1 X-10.461 Y16.33 E49.02193
G1 X-9.827 Y18.986 E49.17333
G1 X-9.615 Y21.325 E49.30355
G1 X-9.615 Y38.883 E50.27708
G1 X-18.264 Y38.883 E50.75664
G1 X-18.264 Y20.86 E51.75596
G1 X-18.618 Y18.592 E51.88323
G1 X-19.706 Y16.834 E51.99786
G1 X-21.44 Y15.729 E52.11187
G1 X-23.701 Y15.366 E52.23884
G1 X-25.945 Y15.723 E52.36483
G1 X-27.674 Y16.812 E52.47813
G0 F3600 X-27.779 Y16.981
G0 X-28.338 Y16.633
G0 X-28.372 Y16.611
G0 X-26.175 Y15.113
G0 X-23.701 Y14.718
G0 X-21.683 Y15.042
G0 X-14.85 Y16.69
;TYPE:SKIN
G1 F1800 X-14.757 Y16.906 E52.49117
G1 X-15.154 Y16.265 E52.53297
G1 X-14.85 Y16.69 E52.56194
G0 F3600 X-14.324 Y16.394
G1 F1800 X-13.866 Y17.454 E52.62597
G1 X-13.361 Y19.566 E52.74637
G1 X-13.185 Y21.501 E52.85411
G1 X-13.185 Y35.313 E53.61993
G1 X-14.694 Y35.313 E53.7036
G1 X-14.694 Y20.581 E54.52044
G1 X-15.203 Y17.325 E54.70317
G1 X-17.1 Y14.263 E54.90289
G1 X-19.011 Y13.043 E55.0286
G1 X-18.367 Y13.166 E55.06495
G1 X-17.113 Y13.655 E55.13958
G1 X-16.117 Y14.314 E55.2058
G1 X-15.095 Y15.316 E55.28516
G1 X-14.324 Y16.394 E55.35864
G0 F3600 X-13.798 Y16.098
G1 F1800 X-13.294 Y17.264 E55.42908
G1 X-12.767 Y19.469 E55.55478
G1 X-12.585 Y21.469 E55.66613
G1 X-12.585 Y35.913 E56.467
G1 X-15.294 Y35.913 E56.61721
G1 X-15.294 Y20.628 E57.46471
G1 X-15.777 Y17.538 E57.63812
G1 X-17.538 Y14.695 E57.82354
G1 X-20.361 Y12.893 E58.00924
G1 X-23.701 Y12.357 E58.1968
G1 X-27.014 Y12.886 E58.38282
G1 X-29.837 Y14.664 E58.56781
G1 X-31.604 Y17.517 E58.75388
G1 X-32.087 Y20.632 E58.92866
G1 X-32.087 Y35.913 E59.77594
G1 X-34.796 Y35.913 E59.92615
G1 X-34.796 Y21.433 E60.72901
G1 X-34.622 Y19.278 E60.84889
G1 X-34.145 Y17.402 E60.95622
G1 X-33.39 Y15.834 E61.05271
G1 X-32.292 Y14.46 E61.15023
G1 X-31.004 Y13.391 E61.24304
G1 X-29.768 Y12.755 E61.32011
G1 X-27.408 Y12.159 E61.45508
G1 X-24.443 Y11.945 E61.6199
G1 X-20.075 Y12.228 E61.8626
G1 X-18.199 Y12.588 E61.96852
G1 X-16.837 Y13.119 E62.04957
G1 X-15.735 Y13.848 E62.12283
G1 X-14.639 Y14.922 E62.20792
G1 X-13.798 Y16.098 E62.28808
G0 F3600 X-13.272 Y15.802
G1 F1800 X-12.722 Y17.074 E62.36492
G1 X-12.173 Y19.372 E62.49592
G1 X-11.985 Y21.437 E62.61089
G1 X-11.985 Y36.513 E63.4468
G1 X-15.894 Y36.513 E63.66355
G1 X-15.894 Y20.675 E64.54171
G1 X-16.351 Y17.751 E64.7058
