;FLAVOR:Marlin
;TIME:1376
;Filament used: 2.2586m
;Layer height: 0.2
;MINX:-47.291
;MINY:-45.566
;MINZ:0.2
;MAXX:47.908
;MAXY:44.213
;MAXZ:3.6
;POSTPROCESSED
;Generated with Cura_SteamEngine 4.8.0
M140 S60
M105
M190 S60
M104 S195
M105
M109 S195
M82 ;absolute extrusion mode
G28 ;Home
G1 Z15.0 F6000 ;Move the platform down 15mm
;Prime the extruder
G92 E0
G1 F200 E3
G92 E0
G92 E0
G92 E0
G1 F1500 E-6.5
;LAYER_COUNT:18
;LAYER:0
M107
G0 F3600 X2.1 Y-42.212 Z0.2
;TYPE:SKIRT
G1 F1500 E0
G1 F1800 X4.851 Y-42.212 E0.15253
G1 X7.526 Y-42.288 E0.30091
G1 X10.276 Y-42.443 E0.45363
G1 X12.973 Y-42.672 E0.60371
G1 X15.68 Y-42.981 E0.75478
G1 X18.376 Y-43.364 E0.90576
G1 X20.867 Y-43.789 E1.04588
G1 X21.538 Y-43.852 E1.08325
G1 X22.199 Y-43.861 E1.1199
G1 X30.96 Y-43.861 E1.60567
G1 X31.661 Y-43.851 E1.64454
G1 X32.217 Y-43.803 E1.67548
G1 X32.76 Y-43.676 E1.7064
G1 X33.28 Y-43.473 E1.73735
G1 X33.766 Y-43.198 E1.76832
G1 X34.207 Y-42.856 E1.79926
G1 X34.595 Y-42.455 E1.8302
G1 X34.922 Y-42.002 E1.86118
G1 X35.208 Y-41.444 E1.89594
G1 X35.429 Y-40.889 E1.92907
G1 X46.375 Y-11.906 E3.64686
G1 X46.6 Y-11.282 E3.68364
G1 X46.751 Y-10.745 E3.71457
G1 X46.824 Y-10.191 E3.74556
G1 X46.817 Y-9.633 E3.7765
G1 X46.738 Y-9.112 E3.80571
G1 X46.45 Y-7.817 E3.87927
G1 X45.886 Y-5.102 E4.03302
G1 X45.405 Y-2.399 E4.18525
G1 X45.01 Y0.25 E4.33375
G1 X44.685 Y2.946 E4.48432
G1 X44.433 Y5.686 E4.63688
G1 X44.264 Y8.362 E4.78555
G1 X44.169 Y11.105 E4.93774
G1 X44.15 Y13.821 E5.08833
G1 X44.209 Y16.534 E5.23879
G1 X44.344 Y19.243 E5.38919
G1 X44.556 Y21.948 E5.53963
G1 X44.845 Y24.65 E5.6903
G1 X45.215 Y27.374 E5.84272
G1 X45.649 Y30.015 E5.99112
G1 X46.173 Y32.718 E6.14379
G1 X46.754 Y35.323 E6.29177
G1 X47.433 Y38.007 E6.44528
G1 X47.776 Y39.285 E6.51865
G1 X47.881 Y39.833 E6.54959
G1 X47.908 Y40.391 E6.58056
G1 X47.854 Y40.946 E6.61148
G1 X47.722 Y41.489 E6.64246
G1 X47.514 Y42.007 E6.67341
G1 X47.234 Y42.489 E6.70432
G1 X46.888 Y42.927 E6.73527
G1 X46.482 Y43.311 E6.76626
G1 X46.027 Y43.634 E6.79719
G1 X45.529 Y43.887 E6.82817
G1 X45.001 Y44.068 E6.85911
G1 X44.452 Y44.171 E6.89009
G1 X44.082 Y44.195 E6.91064
G1 X43.099 Y44.213 E6.96516
G1 X34.985 Y44.213 E7.41505
G1 X34.28 Y44.203 E7.45414
G1 X33.743 Y44.181 E7.48394
G1 X31.688 Y44.065 E7.59807
G1 X29.007 Y43.988 E7.74678
G1 X26.258 Y43.988 E7.89921
G1 X23.577 Y44.063 E8.04792
G1 X21.248 Y44.193 E8.17725
G1 X20.92 Y44.205 E8.19545
G1 X20.292 Y44.213 E8.23027
G1 X12.157 Y44.213 E8.68133
G1 X11.46 Y44.203 E8.71998
G1 X11.135 Y44.184 E8.73803
G1 X9.802 Y44.053 E8.8123
G1 X7.045 Y43.819 E8.96572
G1 X4.304 Y43.665 E9.11793
G1 X1.626 Y43.59 E9.26648
G1 X-1.123 Y43.59 E9.4189
G1 X-3.798 Y43.667 E9.56728
G1 X-7.365 Y43.885 E9.76543
G1 X-8.388 Y43.966 E9.82233
G1 X-8.627 Y43.977 E9.8356
G1 X-9.739 Y43.997 E9.89726
G1 X-17.853 Y43.997 E10.34716
G1 X-18.668 Y43.984 E10.39235
G1 X-19.057 Y43.967 E10.41394
G1 X-21.161 Y43.848 E10.53079
G1 X-23.836 Y43.772 E10.67917
G1 X-26.586 Y43.772 E10.83164
G1 X-29.274 Y43.848 E10.98074
G1 X-31.567 Y43.975 E11.10808
G1 X-31.915 Y43.989 E11.12739
G1 X-32.542 Y43.997 E11.16216
G1 X-40.683 Y43.997 E11.61355
G1 X-41.341 Y43.987 E11.65004
G1 X-41.897 Y43.938 E11.68098
G1 X-42.441 Y43.811 E11.71196
G1 X-42.961 Y43.607 E11.74293
G1 X-43.446 Y43.332 E11.77384
G1 X-43.887 Y42.989 E11.80482
G1 X-44.439 Y42.376 E11.85056
G1 X-44.468 Y42.336 E11.8533
G1 X-44.763 Y41.862 E11.88425
G1 X-44.987 Y41.351 E11.91519
G1 X-45.135 Y40.812 E11.94618
G1 X-45.205 Y40.259 E11.97709
G1 X-45.196 Y39.701 E12.00803
G1 X-45.081 Y39.009 E12.04693
G1 X-44.637 Y36.942 E12.16415
G1 X-44.138 Y34.248 E12.31606
G1 X-43.723 Y31.59 E12.46523
G1 X-43.377 Y28.869 E12.61731
G1 X-43.109 Y26.165 E12.76797
G1 X-42.922 Y23.495 E12.91638
G1 X-42.806 Y20.744 E13.06905
G1 X-42.77 Y18.028 E13.21965
G1 X-42.811 Y15.282 E13.37193
G1 X-42.925 Y12.61 E13.52022
G1 X-43.119 Y9.901 E13.67081
G1 X-43.392 Y7.167 E13.82315
G1 X-43.735 Y4.5 E13.97225
G1 X-44.161 Y1.791 E14.1243
G1 X-44.658 Y-.874 E14.27461
G1 X-45.23 Y-3.521 E14.42476
G1 X-45.876 Y-6.154 E14.57508
G1 X-46.601 Y-8.778 E14.72603
G1 X-46.844 Y-9.57 E14.77196
G1 X-47.135 Y-10.568 E14.8296
G1 X-47.253 Y-11.114 E14.86057
G1 X-47.291 Y-11.671 E14.89153
G1 X-47.249 Y-12.228 E14.9225
G1 X-47.068 Y-12.959 E14.96426
G1 X-46.775 Y-13.787 E15.01296
G1 X-36.139 Y-42.432 E16.70718
G1 X-35.892 Y-43.068 E16.74501
G1 X-35.654 Y-43.572 E16.77591
G1 X-35.345 Y-44.038 E16.80691
G1 X-34.974 Y-44.454 E16.83782
G1 X-34.546 Y-44.813 E16.86879
G1 X-34.072 Y-45.108 E16.89975
G1 X-33.561 Y-45.332 E16.93068
G1 X-33.023 Y-45.48 E16.96162
G1 X-32.314 Y-45.556 E17.00116
G1 X-31.632 Y-45.566 E17.03898
G1 X-22.867 Y-45.566 E17.52497
G1 X-22.165 Y-45.556 E17.5639
G1 X-21.553 Y-45.498 E17.59798
G1 X-21.269 Y-45.44 E17.61405
G1 X-20.404 Y-45.227 E17.66345
G1 X-19.397 Y-44.965 E17.72114
G1 X-16.76 Y-44.357 E17.87119
G1 X-14.091 Y-43.82 E18.02214
G1 X-11.4 Y-43.361 E18.1735
G1 X-8.72 Y-42.979 E18.3236
G1 X-6.029 Y-42.674 E18.47377
G1 X-3.321 Y-42.443 E18.62446
G1 X-.575 Y-42.288 E18.77696
G1 X2.1 Y-42.212 E18.92534
G0 F3600 X2.119 Y-41.612
G1 F1800 X4.832 Y-41.612 E19.07577
G1 X7.577 Y-41.69 E19.22803
G1 X10.325 Y-41.845 E19.38064
G1 X13.021 Y-42.074 E19.53066
G1 X15.763 Y-42.386 E19.68368
G1 X18.451 Y-42.768 E19.83421
G1 X20.968 Y-43.198 E19.97579
G1 X21.546 Y-43.252 E20.00798
G1 X22.207 Y-43.261 E20.04464
G1 X30.951 Y-43.261 E20.52946
G1 X31.652 Y-43.251 E20.56833
G1 X32.163 Y-43.203 E20.59679
G1 X32.661 Y-43.077 E20.62527
G1 X33.133 Y-42.876 E20.65372
G1 X33.568 Y-42.603 E20.68219
G1 X33.956 Y-42.267 E20.71065
G1 X34.287 Y-41.874 E20.73914
G1 X34.654 Y-41.215 E20.78097
G1 X34.87 Y-40.671 E20.81342
G1 X45.81 Y-11.702 E22.53037
G1 X46.035 Y-11.078 E22.56715
G1 X46.171 Y-10.583 E22.59562
G1 X46.229 Y-10.073 E22.62408
G1 X46.207 Y-9.56 E22.65255
G1 X46.152 Y-9.243 E22.67039
G1 X45.862 Y-7.939 E22.74446
G1 X45.298 Y-5.225 E22.89815
G1 X44.816 Y-2.517 E23.05066
G1 X44.412 Y0.195 E23.20269
G1 X44.088 Y2.89 E23.3532
G1 X43.836 Y5.628 E23.50565
G1 X43.664 Y8.339 E23.65627
G1 X43.569 Y11.08 E23.80834
G1 X43.55 Y13.83 E23.96082
G1 X43.609 Y16.542 E24.11123
G1 X43.746 Y19.285 E24.26351
G1 X43.96 Y22.024 E24.41584
G1 X44.249 Y24.724 E24.5664
G1 X44.618 Y27.442 E24.71849
G1 X45.06 Y30.128 E24.86942
G1 X45.581 Y32.819 E25.0214
G1 X46.177 Y35.489 E25.17308
G1 X46.853 Y38.163 E25.32601
G1 X47.196 Y39.441 E25.39938
G1 X47.29 Y39.945 E25.42781
G1 X47.305 Y40.459 E25.45632
G1 X47.24 Y40.968 E25.48477
G1 X47.097 Y41.461 E25.51323
G1 X46.879 Y41.926 E25.54171
G1 X46.591 Y42.351 E25.57017
G1 X46.241 Y42.727 E25.59866
G1 X45.837 Y43.043 E25.6271
G1 X45.389 Y43.294 E25.65557
G1 X44.907 Y43.471 E25.68404
G1 X44.404 Y43.572 E25.71248
G1 X44.071 Y43.595 E25.73099
G1 X43.099 Y43.613 E25.7849
G1 X34.993 Y43.613 E26.23435
G1 X34.288 Y43.603 E26.27344
G1 X33.777 Y43.582 E26.3018
G1 X31.74 Y43.467 E26.41492
G1 X28.989 Y43.388 E26.56752
G1 X26.277 Y43.388 E26.71789
G1 X23.526 Y43.465 E26.87048
G1 X21.223 Y43.593 E26.99837
G1 X20.912 Y43.605 E27.01563
G1 X20.284 Y43.613 E27.05045
G1 X12.166 Y43.613 E27.50057
G1 X11.469 Y43.603 E27.53922
G1 X11.193 Y43.587 E27.55455
G1 X9.829 Y43.453 E27.63054
G1 X7.097 Y43.221 E27.78257
G1 X4.352 Y43.067 E27.93501
G1 X1.607 Y42.99 E28.08727
G1 X-1.106 Y42.99 E28.2377
G1 X-3.852 Y43.069 E28.39002
G1 X-7.396 Y43.285 E28.58688
G1 X-8.436 Y43.368 E28.64473
G1 X-8.638 Y43.377 E28.65594
G1 X-9.739 Y43.397 E28.717
G1 X-17.845 Y43.397 E29.16645
G1 X-18.551 Y43.387 E29.2056
G1 X-19.023 Y43.368 E29.23179
G1 X-21.11 Y43.25 E29.34769
G1 X-23.855 Y43.172 E29.49995
G1 X-26.567 Y43.172 E29.65033
G1 X-29.323 Y43.25 E29.8032
G1 X-31.593 Y43.376 E29.92926
G1 X-31.923 Y43.389 E29.94757
G1 X-32.55 Y43.397 E29.98234
G1 X-40.674 Y43.397 E30.43278
G1 X-41.332 Y43.387 E30.46927
G1 X-41.843 Y43.339 E30.49773
G1 X-42.341 Y43.212 E30.52623
G1 X-42.813 Y43.01 E30.55469
G1 X-43.248 Y42.738 E30.58314
G1 X-43.635 Y42.401 E30.61159
G1 X-43.983 Y41.984 E30.64171
G1 X-44.251 Y41.546 E30.67018
G1 X-44.448 Y41.072 E30.69864
G1 X-44.569 Y40.573 E30.72711
G1 X-44.611 Y40.061 E30.75559
G1 X-44.547 Y39.402 E30.7923
G1 X-44.482 Y39.078 E30.81063
G1 X-44.051 Y37.073 E30.92434
G1 X-43.546 Y34.345 E31.07817
G1 X-43.131 Y31.688 E31.22727
G1 X-42.78 Y28.93 E31.38143
G1 X-42.513 Y26.231 E31.53181
G1 X-42.321 Y23.491 E31.68411
G1 X-42.207 Y20.777 E31.83472
G1 X-42.17 Y18.028 E31.98716
G1 X-42.211 Y15.283 E32.13937
G1 X-42.326 Y12.579 E32.28944
G1 X-42.523 Y9.831 E32.4422
G1 X-42.796 Y7.101 E32.59432
G1 X-43.143 Y4.4 E32.74531
G1 X-43.568 Y1.698 E32.89697
G1 X-44.066 Y-.973 E33.04762
G1 X-44.651 Y-3.68 E33.20118
G1 X-45.291 Y-6.287 E33.35002
G1 X-46.031 Y-8.968 E33.50423
G1 X-46.268 Y-9.738 E33.5489
G1 X-46.559 Y-10.736 E33.60654
G1 X-46.664 Y-11.239 E33.63503
G1 X-46.69 Y-11.752 E33.66352
G1 X-46.636 Y-12.262 E33.69195
G1 X-46.503 Y-12.759 E33.72048
G1 X-46.213 Y-13.579 E33.7687
G1 X-35.58 Y-42.215 E35.4624
G1 X-35.333 Y-42.851 E35.50023
G1 X-35.111 Y-43.313 E35.52865
G1 X-34.819 Y-43.736 E35.55715
G1 X-34.465 Y-44.108 E35.58562
G1 X-34.058 Y-44.421 E35.61409
G1 X-33.608 Y-44.667 E35.64252
G1 X-33.124 Y-44.84 E35.67102
G1 X-32.62 Y-44.936 E35.69947
G1 X-32.305 Y-44.956 E35.71697
G1 X-31.623 Y-44.966 E35.75479
G1 X-22.876 Y-44.966 E36.23978
G1 X-22.174 Y-44.956 E36.27871
G1 X-21.656 Y-44.907 E36.30756
G1 X-21.412 Y-44.857 E36.32137
G1 X-20.555 Y-44.646 E36.37031
G1 X-19.571 Y-44.39 E36.42668
G1 X-16.868 Y-43.767 E36.58048
G1 X-14.18 Y-43.226 E36.73251
G1 X-11.516 Y-42.772 E36.88235
G1 X-8.798 Y-42.385 E37.03458
G1 X-6.077 Y-42.076 E37.18642
G1 X-3.371 Y-41.845 E37.337
G1 X-.626 Y-41.69 E37.48944
G1 X2.119 Y-41.612 E37.64171
G1 F1500 E31.14171
;MESH:V.stl(1)
G0 F3600 X-9.95 Y-11.019
G0 X-20.777 Y9.432
G0 X-20.777 Y11.013
G0 X-25.98 Y17.528
G0 X-25.921 Y17.608
;TYPE:WALL-INNER
G1 F1500 E37.64171
G1 F1800 X-32.586 Y39.197 E38.89449
G1 X-39.608 Y39.197 E39.28384
G1 X-39.609 Y39.197 E39.28389
G1 X-40.038 Y39.197 E39.30768
G1 X-39.889 Y38.794 E39.32173
G1 X-29.567 Y10.997 E40.96581
G1 X-20.766 Y10.997 E41.45379
G1 X-10.268 Y38.792 E43.10119
G1 X-10.116 Y39.197 E43.12518
G1 X-10.548 Y39.197 E43.13929
G1 X-10.549 Y39.197 E43.13935
G1 X-17.844 Y39.197 E43.54383
G1 X-24.596 Y17.608 E44.79804
G1 X-25.921 Y17.608 E44.87151
G0 F3600 X-25.478 Y18.208
;TYPE:WALL-OUTER
G1 F1800 X-25.553 Y18.451 E44.88561
G1 X-32.144 Y39.797 E46.12431
G1 X-40.469 Y39.797 E46.5859
G1 X-40.47 Y39.797 E46.58596
G1 X-40.9 Y39.797 E46.6098
G1 X-40.75 Y39.393 E46.62389
G1 X-29.984 Y10.397 E48.33886
G1 X-20.352 Y10.397 E48.87292
G1 X-9.4 Y39.392 E50.59146
G1 X-9.248 Y39.797 E50.61545
G1 X-9.68 Y39.797 E50.62956
G1 X-9.681 Y39.797 E50.62961
G1 X-18.285 Y39.797 E51.10668
G1 X-24.961 Y18.451 E52.34678
G1 X-25.037 Y18.208 E52.3591
G1 X-25.478 Y18.208 E52.38355
G0 F3600 X-25.537 Y18.399
G0 X-26.166 Y18.205
G0 X-26.205 Y18.193
G0 X-22.564 Y14.638
;TYPE:SKIN
G1 F1800 X-27.752 Y14.638 E52.67121
G1 X-27.503 Y13.967 E52.7109
G1 X-22.817 Y13.967 E52.97072
G1 X-22.564 Y14.638 E53.01048
G0 F3600 X-22.854 Y15.238
G1 F1800 X-27.67 Y15.238 E53.27751
G1 X-34.333 Y36.827 E54.53026
G1 X-36.633 Y36.827 E54.65779
G1 X-27.92 Y13.367 E56.04538
G1 X-22.403 Y13.367 E56.35128
G1 X-13.545 Y36.827 E57.74169
G1 X-16.102 Y36.827 E57.88347
G1 X-22.854 Y15.238 E59.13769
G0 F3600 X-23.295 Y15.838
G1 F1800 X-27.227 Y15.838 E59.3557
G1 X-33.891 Y37.427 E60.60847
G1 X-37.495 Y37.427 E60.8083
G1 X-28.337 Y12.767 E62.26686
G1 X-21.989 Y12.767 E62.61883
G1 X-12.677 Y37.427 E64.08038
G1 X-16.543 Y37.427 E64.29474
G1 X-23.295 Y15.838 E65.54896
G0 F3600 X-23.736 Y16.438
G1 F1800 X-26.784 Y16.438 E65.71796
G1 X-33.449 Y38.027 E66.97074
G1 X-38.357 Y38.027 E67.24287
G1 X-28.754 Y12.167 E68.77239
G1 X-21.575 Y12.167 E69.17044
G1 X-11.809 Y38.027 E70.70313
G1 X-16.984 Y38.027 E70.99007
G1 X-23.736 Y16.438 E72.24429
G0 F3600 X-24.177 Y17.038
G1 F1800 X-26.341 Y17.038 E72.36427
G1 X-28.476 Y23.953 E72.76555
G1 X-29.257 Y26.482 E72.9123
G1 X-33.007 Y38.627 E73.61707
G1 X-39.219 Y38.627 E73.96151
G1 X-29.171 Y11.567 E75.56199
G1 X-21.161 Y11.567 E76.00612
G1 X-17.153 Y22.178 E76.63503
G1 X-16.748 Y23.251 E76.69863
G1 X-10.941 Y38.627 E77.60995
G1 X-17.425 Y38.627 E77.96946
G1 X-24.177 Y17.038 E79.22368
G0 F3600 X-21.684 Y16.97
G1 F1800 X-14.413 Y36.227 E80.36499
G1 X-15.661 Y36.227 E80.43419
G1 X-21.684 Y16.97 E81.55293
G0 F3600 X-25.944 Y17.576
G0 X-29.885 Y20.38
G1 F1800 X-34.775 Y36.227 E82.47248
G1 X-35.771 Y36.227 E82.5277
G1 X-29.885 Y20.38 E83.46501
G0 F3600 X-29.7 Y20.157
;TYPE:SKIN
G1 F1800 X-29.7 Y18.977 E83.49773
G0 F3600 X-29.1 Y18.908
G1 F1800 X-29.1 Y17.362 E83.54059
G0 F3600 X-28.8 Y17.935
G1 F1800 X-28.8 Y16.555 E83.57885
G0 F3600 X-28.5 Y16.963
G1 F1800 X-28.5 Y15.747 E83.61256
G0 F3600 X-28.2 Y15.991
G1 F1800 X-28.2 Y14.94 E83.6417
G0 F3600 X-27.9 Y14.908
G1 F1800 X-27.9 Y15.019 E83.64477
G0 F3600 X-27.3 Y14.353
G1 F1800 X-27.3 Y14.252 E83.64757
G0 F3600 X-27 Y14.252
G1 F1800 X-27 Y14.353 E83.65037
G0 F3600 X-26.7 Y14.353
G1 F1800 X-26.7 Y14.252 E83.65317
G0 F3600 X-26.4 Y14.252
G1 F1800 X-26.4 Y14.353 E83.65597
G0 F3600 X-26.1 Y14.353
G1 F1800 X-26.1 Y14.252 E83.65877
G0 F3600 X-25.8 Y14.252
G1 F1800 X-25.8 Y14.353 E83.66157
G0 F3600 X-25.5 Y14.353
G1 F1800 X-25.5 Y14.252 E83.66437
G0 F3600 X-25.2 Y14.252
G1 F1800 X-25.2 Y14.353 E83.66717
G0 F3600 X-24.9 Y14.353
G1 F1800 X-24.9 Y14.252 E83.66997
G0 F3600 X-24.6 Y14.252
G1 F1800 X-24.6 Y14.353 E83.67277
G0 F3600 X-24.3 Y14.353
G1 F1800 X-24.3 Y14.252 E83.67557
G0 F3600 X-24 Y14.252
G1 F1800 X-24 Y14.353 E83.67837
G0 F3600 X-23.7 Y14.353
G1 F1800 X-23.7 Y14.252 E83.68117
G0 F3600 X-23.4 Y14.252
G1 F1800 X-23.4 Y14.353 E83.68397
G0 F3600 X-23.1 Y14.353
G1 F1800 X-23.1 Y14.252 E83.68677
G0 F3600 X-22.5 Y14.908
G1 F1800 X-22.5 Y15.412 E83.70075
G0 F3600 X-22.2 Y14.908
G1 F1800 X-22.2 Y16.37 E83.74128
G0 F3600 X-21.9 Y16.759
G1 F1800 X-21.9 Y15.507 E83.77599
G0 F3600 X-21.6 Y16.302
G1 F1800 X-21.6 Y16.655 E83.78577
G0 F3600 X-29.4 Y18.17
G1 F1800 X-29.4 Y19.88 E83.83318
G0 F3600 X-30 Y19.785
G1 F1800 X-30 Y20.055 E83.84067
G0 F3600 X-33.6 Y31.2
G1 F1800 X-33.6 Y31.453 E83.84768
G0 F3600 X-33.9 Y32.008
G1 F1800 X-33.9 Y32.425 E83.85924
G0 F3600 X-34.2 Y32.815
G1 F1800 X-34.2 Y33.398 E83.8754
G0 F3600 X-34.5 Y33.623
G1 F1800 X-34.5 Y34.37 E83.89611
G0 F3600 X-34.8 Y34.431
G1 F1800 X-34.8 Y35.343 E83.9214
G0 F3600 X-35.1 Y35.239
G1 F1800 X-35.1 Y35.942 E83.94089
G0 F3600 X-25.944 Y17.576
G0 X-24.573 Y17.576
G0 X-17.1 Y30.669
G1 F1800 X-17.1 Y29.918 E83.96171
G0 F3600 X-17.4 Y29.71
G1 F1800 X-17.4 Y29.124 E83.97795
G0 F3600 X-17.7 Y28.75
G1 F1800 X-17.7 Y28.329 E83.98962
G0 F3600 X-18 Y27.791
G1 F1800 X-18 Y27.534 E83.99675
G0 F3600 X-16.8 Y30.713
G1 F1800 X-16.8 Y31.628 E84.02211
G0 F3600 X-16.5 Y31.508
G1 F1800 X-16.5 Y32.587 E84.05203
G0 F3600 X-16.2 Y32.303
G1 F1800 X-16.2 Y33.547 E84.08652
G0 F3600 X-15.9 Y33.097
G1 F1800 X-15.9 Y34.506 E84.12558
G0 F3600 X-15.3 Y34.687
G1 F1800 X-15.3 Y35.942 E84.16037
G0 F3600 X-15 Y35.942
G1 F1800 X-15 Y35.482 E84.17312
G0 F3600 X-15.6 Y35.465
G1 F1800 X-15.6 Y33.892 E84.21673
G1 F1500 E77.71673
;MESH:V.stl(2)
G0 F3600 X-20.777 Y11.013
G0 X-20.777 Y9.432
G0 X-34.67 Y-11.001
G0 X-34.67 Y-12.582
G0 X-28.052 Y-34.236
G0 X-27.993 Y-34.156
;TYPE:WALL-INNER
G1 F1500 E84.21673
G1 F1800 X-34.659 Y-12.566 E85.46959
G1 X-41.68 Y-12.566 E85.85888
G1 X-41.681 Y-12.566 E85.85893
G1 X-42.11 Y-12.566 E85.88272
G1 X-41.961 Y-12.969 E85.89677
G1 X-31.639 Y-40.766 E87.54085
G1 X-22.838 Y-40.766 E88.02883
G1 X-12.34 Y-12.971 E89.67623
G1 X-12.188 Y-12.566 E89.70022
