;FLAVOR:Marlin
;TIME:2157
;Filament used: 3.63541m
;Layer height: 0.2
;MINX:-55.981
;MINY:-44.106
;MINZ:0.2
;MAXX:56.404
;MAXY:44.552
;MAXZ:3.6
;POSTPROCESSED
;Generated with Cura_SteamEngine 4.8.0
M140 S60
M105
M190 S60
M104 S195
M105
M109 S195
M82 ;absolute extrusion mode
G28 ;Home
G1 Z15.0 F6000 ;Move the platform down 15mm
;Prime the extruder
G92 E0
G1 F200 E3
G92 E0
G92 E0
G92 E0
G1 F1500 E-6.5
;LAYER_COUNT:18
;LAYER:0
M107
G0 F3600 X-.841 Y-42.6 Z0.2
;TYPE:SKIRT
G1 F1500 E0
G1 F1800 X1.908 Y-42.598 E0.15242
G1 X4.588 Y-42.673 E0.30108
G1 X7.328 Y-42.826 E0.45324
G1 X10.043 Y-43.056 E0.60432
G1 X12.722 Y-43.359 E0.7538
G1 X15.426 Y-43.743 E0.90524
G1 X15.879 Y-43.818 E0.9307
G1 X16.664 Y-43.935 E0.9747
G1 X17.181 Y-43.979 E1.00347
G1 X17.745 Y-43.987 E1.03475
G1 X25.658 Y-43.987 E1.4735
G1 X26.455 Y-43.974 E1.51769
G1 X27.449 Y-43.931 E1.57286
G1 X30.151 Y-43.855 E1.72273
G1 X32.871 Y-43.855 E1.87355
G1 X35.461 Y-43.925 E2.01721
G1 X36.836 Y-43.979 E2.09351
G1 X37.413 Y-43.987 E2.1255
G1 X45.256 Y-43.987 E2.56037
G1 X45.956 Y-43.976 E2.59919
G1 X46.512 Y-43.927 E2.63013
G1 X47.056 Y-43.799 E2.66112
G1 X47.575 Y-43.595 E2.69204
G1 X48.061 Y-43.319 E2.72303
G1 X48.502 Y-42.977 E2.75397
G1 X48.889 Y-42.575 E2.78491
G1 X49.215 Y-42.122 E2.81586
G1 X49.473 Y-41.627 E2.84681
G1 X49.668 Y-41.063 E2.8799
G1 X49.82 Y-40.43 E2.91599
G1 X56.19 Y-11.528 E4.55697
G1 X56.324 Y-10.878 E4.59377
G1 X56.404 Y-10.083 E4.63807
G1 X56.364 Y-9.526 E4.66904
G1 X56.284 Y-9.122 E4.69187
G1 X55.826 Y-7.323 E4.7948
G1 X55.199 Y-4.651 E4.94698
G1 X54.645 Y-1.968 E5.09888
G1 X54.18 Y0.689 E5.24844
G1 X53.783 Y3.393 E5.39998
G1 X53.464 Y6.089 E5.5505
G1 X53.224 Y8.761 E5.69925
G1 X53.056 Y11.505 E5.85168
G1 X52.967 Y14.216 E6.00208
G1 X52.955 Y16.929 E6.15251
G1 X53.02 Y19.642 E6.30298
G1 X53.162 Y22.388 E6.45544
G1 X53.378 Y25.062 E6.60419
G1 X53.671 Y27.755 E6.75439
G1 X54.046 Y30.482 E6.90701
G1 X54.488 Y33.13 E7.05586
G1 X55.209 Y36.724 E7.25911
G1 X55.737 Y39.122 E7.39526
G1 X55.887 Y39.851 E7.43652
G1 X55.96 Y40.404 E7.46745
G1 X55.953 Y40.963 E7.49845
G1 X55.867 Y41.514 E7.52937
G1 X55.703 Y42.048 E7.56034
G1 X55.464 Y42.552 E7.59127
G1 X55.156 Y43.018 E7.62224
G1 X54.785 Y43.434 E7.65315
G1 X54.357 Y43.794 E7.68416
G1 X53.883 Y44.088 E7.71509
G1 X53.372 Y44.312 E7.74602
G1 X52.834 Y44.461 E7.77697
G1 X52.135 Y44.536 E7.81595
G1 X51.203 Y44.552 E7.86764
G1 X43.973 Y44.552 E8.26852
G1 X42.865 Y44.535 E8.32996
G1 X40.75 Y44.476 E8.44727
G1 X37.998 Y44.476 E8.59986
G1 X35.708 Y44.541 E8.72689
G1 X34.891 Y44.552 E8.77219
G1 X27.377 Y44.552 E9.18882
G1 X26.298 Y44.536 E9.24865
G1 X24.192 Y44.476 E9.36547
G1 X21.476 Y44.476 E9.51606
G1 X19.018 Y44.543 E9.6524
G1 X18.33 Y44.552 E9.69055
G1 X10.821 Y44.552 E10.1069
G1 X10.123 Y44.542 E10.14561
G1 X9.736 Y44.52 E10.1671
G1 X7.116 Y44.297 E10.31289
G1 X4.378 Y44.143 E10.46495
G1 X1.7 Y44.068 E10.61349
G1 X-1.05 Y44.068 E10.76597
G1 X-3.737 Y44.145 E10.91502
G1 X-7.044 Y44.342 E11.0987
G1 X-7.613 Y44.386 E11.13035
G1 X-7.848 Y44.397 E11.14339
G1 X-8.873 Y44.414 E11.20023
G1 X-16.103 Y44.414 E11.60111
G1 X-17.218 Y44.397 E11.66294
G1 X-19.303 Y44.338 E11.77859
G1 X-22.056 Y44.338 E11.93124
G1 X-24.37 Y44.403 E12.05959
G1 X-25.188 Y44.414 E12.10495
G1 X-32.702 Y44.414 E12.52158
G1 X-33.793 Y44.397 E12.58208
G1 X-35.864 Y44.338 E12.69695
G1 X-38.582 Y44.338 E12.84766
G1 X-41.015 Y44.404 E12.98261
G1 X-41.743 Y44.414 E13.02298
G1 X-49.317 Y44.414 E13.44293
G1 X-50.005 Y44.404 E13.48108
G1 X-50.561 Y44.356 E13.51202
G1 X-51.104 Y44.229 E13.54294
G1 X-51.624 Y44.025 E13.57392
G1 X-52.11 Y43.75 E13.60488
G1 X-52.551 Y43.408 E13.63582
G1 X-52.939 Y43.007 E13.66676
G1 X-53.266 Y42.554 E13.69774
G1 X-53.524 Y42.059 E13.72869
G1 X-53.71 Y41.533 E13.75962
G1 X-53.818 Y40.985 E13.79059
G1 X-53.847 Y40.428 E13.82152
G1 X-53.77 Y39.728 E13.86056
G1 X-53.497 Y38.383 E13.93666
G1 X-52.992 Y35.71 E14.08749
G1 X-52.564 Y33.026 E14.23819
G1 X-52.214 Y30.346 E14.38805
G1 X-51.937 Y27.634 E14.5392
G1 X-51.736 Y24.899 E14.69126
G1 X-51.613 Y22.184 E14.84195
G1 X-51.567 Y19.509 E14.99029
G1 X-51.599 Y16.758 E15.14284
G1 X-51.707 Y14.049 E15.29316
G1 X-51.891 Y11.34 E15.44371
G1 X-52.152 Y8.635 E15.59439
G1 X-52.493 Y5.913 E15.7465
G1 X-52.903 Y3.256 E15.89556
G1 X-53.39 Y0.593 E16.04566
G1 X-53.958 Y-2.081 E16.19724
G1 X-54.594 Y-4.71 E16.34721
G1 X-55.316 Y-7.36 E16.4995
G1 X-55.438 Y-7.765 E16.52295
G1 X-55.827 Y-9.106 E16.60037
G1 X-55.943 Y-9.652 E16.63132
G1 X-55.981 Y-10.209 E16.66228
G1 X-55.903 Y-10.969 E16.70464
G1 X-55.709 Y-11.922 E16.75856
G1 X-49.359 Y-40.457 E18.37943
G1 X-49.21 Y-41.09 E18.41549
G1 X-49.044 Y-41.622 E18.44639
G1 X-48.803 Y-42.126 E18.47737
G1 X-48.493 Y-42.59 E18.50831
G1 X-48.119 Y-43.005 E18.53928
G1 X-47.691 Y-43.363 E18.57022
G1 X-47.215 Y-43.655 E18.60118
G1 X-46.703 Y-43.877 E18.63213
G1 X-46.164 Y-44.023 E18.66309
G1 X-45.576 Y-44.093 E18.69592
G1 X-44.892 Y-44.106 E18.73385
G1 X-36.98 Y-44.106 E19.17255
G1 X-36.184 Y-44.093 E19.21669
G1 X-35.191 Y-44.05 E19.2718
G1 X-32.49 Y-43.974 E19.42162
G1 X-29.771 Y-43.974 E19.57238
G1 X-27.181 Y-44.045 E19.71604
G1 X-25.836 Y-44.098 E19.79067
G1 X-25.223 Y-44.106 E19.82467
G1 X-17.383 Y-44.106 E20.25937
G1 X-16.673 Y-44.095 E20.29874
G1 X-16.128 Y-44.048 E20.32907
G1 X-15.132 Y-43.891 E20.38498
G1 X-14.368 Y-43.76 E20.42796
G1 X-11.653 Y-43.371 E20.58003
G1 X-8.969 Y-43.066 E20.72981
G1 X-6.264 Y-42.834 E20.88034
G1 X-3.516 Y-42.677 E21.03296
G1 X-.841 Y-42.6 E21.18134
G0 F3600 X-.822 Y-42
G1 F1800 X1.889 Y-41.998 E21.33165
G1 X4.639 Y-42.075 E21.48419
G1 X7.374 Y-42.228 E21.63608
G1 X10.09 Y-42.458 E21.78721
G1 X12.808 Y-42.765 E21.93887
G1 X15.531 Y-43.152 E22.09137
G1 X15.968 Y-43.225 E22.11593
G1 X16.753 Y-43.342 E22.15994
G1 X17.301 Y-43.382 E22.19041
G1 X17.751 Y-43.387 E22.21536
G1 X25.649 Y-43.387 E22.65328
G1 X26.338 Y-43.377 E22.69148
G1 X27.377 Y-43.334 E22.74914
G1 X30.17 Y-43.255 E22.90407
G1 X32.887 Y-43.255 E23.05471
G1 X35.481 Y-43.325 E23.1986
G1 X36.844 Y-43.379 E23.27423
G1 X37.421 Y-43.387 E23.30622
G1 X45.247 Y-43.387 E23.74015
G1 X45.947 Y-43.376 E23.77897
G1 X46.458 Y-43.328 E23.80743
G1 X46.956 Y-43.201 E23.83592
G1 X47.427 Y-42.999 E23.86434
G1 X47.862 Y-42.726 E23.89281
G1 X48.249 Y-42.388 E23.9213
G1 X48.58 Y-41.995 E23.94979
G1 X48.845 Y-41.556 E23.97822
G1 X49.088 Y-40.911 E24.01644
G1 X49.235 Y-40.294 E24.05161
G1 X55.602 Y-11.407 E25.69174
G1 X55.736 Y-10.757 E25.72854
G1 X55.804 Y-10.083 E25.7661
G1 X55.764 Y-9.571 E25.79457
G1 X55.702 Y-9.27 E25.81161
G1 X55.249 Y-7.488 E25.91356
G1 X54.609 Y-4.764 E26.06871
G1 X54.057 Y-2.088 E26.22021
G1 X53.586 Y0.603 E26.37169
G1 X53.188 Y3.31 E26.52339
G1 X52.87 Y6 E26.67358
G1 X52.624 Y8.74 E26.82612
G1 X52.456 Y11.483 E26.97849
G1 X52.367 Y14.194 E27.12889
G1 X52.355 Y16.941 E27.2812
G1 X52.419 Y19.652 E27.43156
G1 X52.564 Y22.432 E27.58591
G1 X52.779 Y25.105 E27.7346
G1 X53.08 Y27.867 E27.88865
G1 X53.45 Y30.552 E28.03893
G1 X53.901 Y33.258 E28.19104
G1 X54.615 Y36.815 E28.3922
G1 X55.149 Y39.243 E28.53004
G1 X55.299 Y39.972 E28.57131
G1 X55.363 Y40.481 E28.59975
G1 X55.348 Y40.995 E28.62826
G1 X55.252 Y41.499 E28.65671
G1 X55.08 Y41.983 E28.68519
G1 X54.835 Y42.434 E28.71365
G1 X54.523 Y42.841 E28.74208
G1 X54.151 Y43.196 E28.77059
G1 X53.729 Y43.488 E28.79905
G1 X53.267 Y43.711 E28.82749
G1 X52.775 Y43.86 E28.856
G1 X52.124 Y43.937 E28.89234
G1 X51.26 Y43.952 E28.94026
G1 X43.981 Y43.952 E29.34385
G1 X42.882 Y43.936 E29.4048
G1 X40.731 Y43.876 E29.52411
G1 X38.017 Y43.876 E29.67459
G1 X35.699 Y43.941 E29.80317
G1 X34.882 Y43.952 E29.84847
G1 X27.385 Y43.952 E30.26415
G1 X26.315 Y43.937 E30.32349
G1 X24.174 Y43.876 E30.44225
G1 X21.46 Y43.876 E30.59273
G1 X19.01 Y43.943 E30.72862
G1 X18.322 Y43.952 E30.76677
G1 X10.83 Y43.952 E31.18218
G1 X10.132 Y43.942 E31.22089
G1 X9.787 Y43.922 E31.24005
G1 X7.167 Y43.699 E31.38584
G1 X4.426 Y43.545 E31.53806
G1 X1.681 Y43.468 E31.69032
G1 X-1.032 Y43.468 E31.84075
G1 X-3.791 Y43.547 E31.99379
G1 X-7.067 Y43.742 E32.17575
G1 X-7.659 Y43.788 E32.20868
G1 X-7.858 Y43.798 E32.21972
G1 X-8.818 Y43.814 E32.27296
G1 X-16.095 Y43.814 E32.67645
G1 X-17.201 Y43.798 E32.73778
G1 X-19.322 Y43.738 E32.85543
G1 X-22.037 Y43.738 E33.00596
G1 X-24.378 Y43.803 E33.13581
G1 X-25.196 Y43.814 E33.18117
G1 X-32.694 Y43.814 E33.59691
G1 X-33.776 Y43.798 E33.65691
G1 X-35.882 Y43.738 E33.77373
G1 X-38.598 Y43.738 E33.92432
G1 X-41.024 Y43.804 E34.05889
G1 X-41.752 Y43.814 E34.09926
G1 X-49.308 Y43.814 E34.51821
G1 X-49.996 Y43.804 E34.55636
G1 X-50.507 Y43.756 E34.58482
G1 X-51.005 Y43.63 E34.6133
G1 X-51.477 Y43.428 E34.64177
G1 X-51.912 Y43.156 E34.67021
G1 X-52.3 Y42.819 E34.69871
G1 X-52.63 Y42.426 E34.72716
G1 X-52.896 Y41.987 E34.75562
G1 X-53.09 Y41.512 E34.78407
G1 X-53.209 Y41.012 E34.81257
G1 X-53.248 Y40.5 E34.84104
G1 X-53.182 Y39.848 E34.87738
G1 X-52.918 Y38.547 E34.95098
G1 X-52.401 Y35.812 E35.10532
G1 X-51.968 Y33.094 E35.25792
G1 X-51.618 Y30.415 E35.40772
G1 X-51.337 Y27.669 E35.56078
G1 X-51.139 Y24.969 E35.71088
G1 X-51.014 Y22.223 E35.8633
G1 X-50.968 Y19.477 E36.01558
G1 X-51 Y16.728 E36.16801
G1 X-51.107 Y14.018 E36.31839
G1 X-51.291 Y11.311 E36.46883
G1 X-51.559 Y8.538 E36.6233
G1 X-51.895 Y5.856 E36.77317
G1 X-52.31 Y3.161 E36.92436
G1 X-52.803 Y0.464 E37.07637
G1 X-53.37 Y-2.202 E37.2275
G1 X-54.016 Y-4.871 E37.37976
G1 X-54.739 Y-7.526 E37.53233
G1 X-54.861 Y-7.933 E37.55589
G1 X-55.25 Y-9.274 E37.63331
G1 X-55.355 Y-9.776 E37.66175
G1 X-55.38 Y-10.289 E37.69023
G1 X-55.315 Y-10.849 E37.72148
G1 X-55.123 Y-11.792 E37.77484
G1 X-48.775 Y-40.319 E39.39526
G1 X-48.626 Y-40.952 E39.43131
G1 X-48.47 Y-41.441 E39.45977
G1 X-48.24 Y-41.9 E39.48824
G1 X-47.941 Y-42.318 E39.51674
G1 X-47.582 Y-42.684 E39.54516
G1 X-47.169 Y-42.99 E39.57366
G1 X-46.715 Y-43.229 E39.60211
G1 X-46.229 Y-43.394 E39.63057
G1 X-45.551 Y-43.493 E39.66856
G1 X-44.885 Y-43.506 E39.70549
G1 X-36.989 Y-43.506 E40.1433
G1 X-36.301 Y-43.496 E40.18145
G1 X-35.263 Y-43.453 E40.23906
G1 X-32.471 Y-43.374 E40.39392
G1 X-29.754 Y-43.374 E40.54457
G1 X-27.159 Y-43.445 E40.68851
G1 X-25.828 Y-43.498 E40.76237
G1 X-25.215 Y-43.506 E40.79636
G1 X-17.392 Y-43.506 E41.23012
G1 X-16.682 Y-43.495 E41.26949
G1 X-16.221 Y-43.455 E41.29515
G1 X-15.233 Y-43.3 E41.3506
G1 X-14.444 Y-43.165 E41.39498
G1 X-11.735 Y-42.777 E41.54672
G1 X-9.018 Y-42.468 E41.69834
G1 X-6.314 Y-42.236 E41.84882
G1 X-3.566 Y-42.079 E42.00143
G1 X-.822 Y-42 E42.15364
G1 F1500 E35.65364
;MESH:W.stl(3)
G0 F3600 X-9.314 Y-9.556
G0 X-34.899 Y9.849
G0 X-34.899 Y11.429
G0 X-38.81 Y22.775
G0 X-38.745 Y22.85
;TYPE:WALL-INNER
G1 F1500 E42.15364
G1 F1800 X-41.91 Y39.614 E43.09957
G1 X-48.472 Y39.614 E43.46341
G1 X-48.473 Y39.614 E43.46347
G1 X-48.845 Y39.614 E43.48409
G1 X-48.764 Y39.25 E43.4967
G1 X-42.571 Y11.414 E45.07785
G1 X-34.887 Y11.414 E45.5039
G1 X-29.645 Y30.303 E46.59081
G1 X-28.277 Y30.303 E46.66666
G1 X-23.016 Y11.414 E47.75386
G1 X-15.332 Y11.414 E48.17991
G1 X-9.196 Y39.251 E49.76043
G1 X-9.116 Y39.614 E49.78104
G1 X-9.487 Y39.614 E49.7936
G1 X-9.488 Y39.614 E49.79365
G1 X-16.008 Y39.614 E50.15517
G1 X-19.178 Y22.873 E51.09989
G1 X-20.605 Y22.812 E51.17909
G1 X-25.264 Y39.614 E52.14585
G1 X-32.669 Y39.614 E52.55644
G1 X-37.316 Y22.791 E53.52415
G1 X-38.745 Y22.85 E53.60345
G0 F3600 X-38.244 Y23.43
;TYPE:WALL-OUTER
G1 F1800 X-38.292 Y23.689 E53.61805
G1 X-41.412 Y40.214 E54.5505
G1 X-49.219 Y40.214 E54.98337
G1 X-49.22 Y40.214 E54.98342
G1 X-49.593 Y40.214 E55.00411
G1 X-49.512 Y39.849 E55.01675
G1 X-43.052 Y10.814 E56.66601
G1 X-34.431 Y10.814 E57.14401
G1 X-29.257 Y29.455 E58.21667
G1 X-29.189 Y29.703 E58.23093
G1 X-28.733 Y29.703 E58.25621
G1 X-28.664 Y29.455 E58.26883
G1 X-23.472 Y10.814 E59.34175
G1 X-14.85 Y10.814 E59.81982
G1 X-8.449 Y39.85 E61.46842
G1 X-8.369 Y40.214 E61.48908
G1 X-8.741 Y40.214 E61.50167
G1 X-8.742 Y40.214 E61.50173
G1 X-16.506 Y40.214 E61.93221
G1 X-19.63 Y23.715 E62.86328
G1 X-19.679 Y23.452 E62.87812
G1 X-20.154 Y23.432 E62.90448
G1 X-20.225 Y23.69 E62.91781
G1 X-24.808 Y40.214 E63.86859
G1 X-33.125 Y40.214 E64.32974
G1 X-37.697 Y23.664 E65.28176
G1 X-37.767 Y23.41 E65.2949
G1 X-38.244 Y23.43 E65.32137
G0 F3600 X-38.28 Y23.626
G0 X-38.928 Y23.503
G0 X-38.968 Y23.495
G0 X-37.995 Y18.046
;TYPE:SKIN
G1 F1800 X-39.17 Y18.094 E65.38658
G1 X-38.745 Y16.184 E65.49507
G1 X-38.512 Y16.184 E65.50799
G1 X-37.995 Y18.046 E65.61514
G0 F3600 X-37.215 Y18.614
G1 F1800 X-39.925 Y18.725 E65.76552
G1 X-39.226 Y15.584 E65.94394
G1 X-38.056 Y15.584 E66.00882
G1 X-37.215 Y18.614 E66.18317
G0 F3600 X-36.435 Y19.182
G1 F1800 X-40.68 Y19.356 E66.41874
G1 X-39.708 Y14.984 E66.66707
G1 X-37.6 Y14.984 E66.78395
G1 X-36.435 Y19.182 E67.02551
G0 F3600 X-35.655 Y19.75
G1 F1800 X-41.225 Y19.979 E67.33461
G1 X-44.374 Y36.644 E68.27498
G1 X-45.142 Y36.644 E68.31756
G1 X-40.189 Y14.384 E69.58199
G1 X-37.144 Y14.384 E69.75083
G1 X-35.655 Y19.75 E70.0596
G0 F3600 X-35.534 Y20.345
G1 F1800 X-40.724 Y20.559 E70.34761
G1 X-43.876 Y37.244 E71.2891
G1 X-45.89 Y37.244 E71.40077
G1 X-40.67 Y13.784 E72.73336
G1 X-36.688 Y13.784 E72.95415
G1 X-31.446 Y32.673 E74.04106
G1 X-26.476 Y32.673 E74.31663
G1 X-21.215 Y13.784 E75.40382
G1 X-17.236 Y13.784 E75.62445
G1 X-12.066 Y37.244 E76.95644
G1 X-14.042 Y37.244 E77.066
G1 X-17.199 Y20.585 E78.00612
G1 X-22.386 Y20.363 E78.29399
G1 X-27.065 Y37.244 E79.26527
G1 X-30.868 Y37.244 E79.47614
G1 X-35.534 Y20.345 E80.44819
G0 F3600 X-35.985 Y20.964
G1 F1800 X-40.223 Y21.139 E80.68337
G1 X-43.378 Y37.844 E81.62598
G1 X-46.638 Y37.844 E81.80674
G1 X-41.151 Y13.184 E83.20749
G1 X-36.232 Y13.184 E83.48023
G1 X-30.99 Y32.073 E84.56715
G1 X-26.932 Y32.073 E84.79215
G1 X-21.671 Y13.184 E85.87935
G1 X-16.754 Y13.184 E86.15198
G1 X-11.319 Y37.844 E87.55211
G1 X-14.54 Y37.844 E87.7307
G1 X-17.7 Y21.164 E88.672
G1 X-21.935 Y20.983 E88.90703
G1 X-26.609 Y37.844 E89.87717
G1 X-31.324 Y37.844 E90.1386
G1 X-35.985 Y20.964 E91.10957
G0 F3600 X-36.436 Y21.583
G1 F1800 X-39.722 Y21.719 E91.29192
G1 X-42.88 Y38.444 E92.23565
G1 X-47.386 Y38.444 E92.4855
G1 X-41.632 Y12.584 E93.95441
G1 X-35.776 Y12.584 E94.27911
G1 X-30.534 Y31.473 E95.36602
G1 X-27.388 Y31.473 E95.54045
G1 X-22.127 Y12.584 E96.62765
G1 X-16.272 Y12.584 E96.95229
G1 X-10.572 Y38.444 E98.42056
G1 X-15.038 Y38.444 E98.66818
G1 X-18.201 Y21.743 E99.61066
G1 X-21.484 Y21.603 E99.79286
G1 X-26.153 Y38.444 E100.76185
G1 X-31.78 Y38.444 E101.07385
G1 X-36.436 Y21.583 E102.04373
G0 F3600 X-36.887 Y22.202
G1 F1800 X-39.221 Y22.299 E102.17325
G1 X-39.502 Y23.786 E102.25716
G1 X-39.955 Y26.189 E102.39274
G1 X-42.382 Y39.044 E103.1181
G1 X-48.134 Y39.044 E103.43703
G1 X-42.113 Y11.984 E104.97411
G1 X-35.32 Y11.984 E105.35076
G1 X-30.078 Y30.873 E106.43767
G1 X-27.844 Y30.873 E106.56154
G1 X-22.583 Y11.984 E107.64874
G1 X-15.79 Y11.984 E108.02539
G1 X-13.342 Y23.09 E108.65596
G1 X-13.223 Y23.629 E108.68656
G1 X-9.825 Y39.044 E109.56179
G1 X-15.536 Y39.044 E109.87845
G1 X-17.724 Y27.481 E110.53096
G1 X-17.726 Y27.481 E110.53107
G1 X-18.422 Y23.798 E110.73889
G1 X-18.702 Y22.322 E110.82219
G1 X-21.033 Y22.223 E110.95155
G1 X-25.697 Y39.044 E111.91941
G1 X-32.236 Y39.044 E112.28197
G1 X-36.887 Y22.202 E113.25076
G0 F3600 X-31.342 Y33.273
G1 F1800 X-26.587 Y33.273 E113.51441
G1 X-27.521 Y36.644 E113.70836
G1 X-30.411 Y36.644 E113.8686
G1 X-31.342 Y33.273 E114.06251
G0 F3600 X-30.554 Y33.873
G1 F1800 X-27.376 Y33.873 E114.23872
G1 X-27.977 Y36.044 E114.36362
G1 X-29.955 Y36.044 E114.47329
G1 X-30.554 Y33.873 E114.59817
G0 F3600 X-29.766 Y34.473
G1 F1800 X-28.164 Y34.473 E114.68699
