;FLAVOR:Marlin
;TIME:1438
;Filament used: 2.46985m
;Layer height: 0.2
;MINX:-45.278
;MINY:-43.452
;MINZ:0.2
;MAXX:45.567
;MAXY:43.975
;MAXZ:3.6
;POSTPROCESSED
;Generated with Cura_SteamEngine 4.8.0
M140 S60
M105
M190 S60
M104 S195
M105
M109 S195
M82 ;absolute extrusion mode
G28 ;Home
G1 Z15.0 F6000 ;Move the platform down 15mm
;Prime the extruder
G92 E0
G1 F200 E3
G92 E0
G92 E0
G92 E0
G1 F1500 E-6.5
;LAYER_COUNT:18
;LAYER:0
M107
G0 F3600 X2.228 Y-42.728 Z0.2
;TYPE:SKIRT
G1 F1500 E0
G1 F1800 X4.965 Y-42.73 E0.15176
G1 X8.099 Y-42.826 E0.32561
G1 X8.772 Y-42.858 E0.36297
G1 X9.874 Y-42.877 E0.42408
G1 X18.823 Y-42.877 E0.92027
G1 X19.529 Y-42.867 E0.95942
G1 X20.873 Y-42.811 E1.034
G1 X21.355 Y-42.784 E1.06077
G1 X24.031 Y-42.709 E1.2092
G1 X26.78 Y-42.709 E1.36163
G1 X29.471 Y-42.786 E1.5109
G1 X29.746 Y-42.801 E1.52617
G1 X31.233 Y-42.866 E1.60869
G1 X32.002 Y-42.877 E1.65134
G1 X41.028 Y-42.877 E2.1518
G1 X41.724 Y-42.867 E2.19039
G1 X42.28 Y-42.819 E2.22134
G1 X42.824 Y-42.692 E2.25231
G1 X43.344 Y-42.489 E2.28326
G1 X43.829 Y-42.213 E2.3142
G1 X44.271 Y-41.872 E2.34516
G1 X44.659 Y-41.47 E2.37613
G1 X44.985 Y-41.018 E2.40703
G1 X45.244 Y-40.523 E2.43801
G1 X45.43 Y-39.997 E2.46894
G1 X45.538 Y-39.449 E2.49991
G1 X45.567 Y-38.892 E2.53084
G1 X45.513 Y-38.312 E2.56314
G1 X45.284 Y-36.968 E2.63873
G1 X44.864 Y-34.27 E2.79013
G1 X44.522 Y-31.574 E2.94081
G1 X44.261 Y-28.909 E3.08928
G1 X44.07 Y-26.164 E3.24185
G1 X43.958 Y-23.456 E3.39213
G1 X43.923 Y-20.739 E3.54279
G1 X43.965 Y-17.995 E3.69495
G1 X44.082 Y-15.314 E3.84375
G1 X44.277 Y-12.601 E3.99456
G1 X44.534 Y-10.028 E4.13794
G1 X44.603 Y-9.412 E4.17231
G1 X44.612 Y-8.638 E4.21522
G1 X44.591 Y-8.398 E4.22858
G1 X44.35 Y-5.977 E4.36348
G1 X44.157 Y-3.264 E4.51429
G1 X44.044 Y-.593 E4.66252
G1 X44.004 Y2.156 E4.81496
G1 X44.042 Y4.905 E4.9674
G1 X44.155 Y7.579 E5.11579
G1 X44.263 Y9.107 E5.20073
G1 X44.306 Y9.846 E5.24177
G1 X44.299 Y10.405 E5.27277
G1 X44.258 Y10.726 E5.29071
G1 X44.039 Y12.015 E5.36321
G1 X43.611 Y14.766 E5.51757
G1 X43.267 Y17.469 E5.66865
G1 X43.006 Y20.129 E5.81685
G1 X42.815 Y22.873 E5.96937
G1 X42.702 Y25.584 E6.11981
G1 X42.667 Y28.299 E6.27036
G1 X42.709 Y31.046 E6.42269
G1 X42.825 Y33.723 E6.57126
G1 X43.021 Y36.44 E6.7223
G1 X43.285 Y39.092 E6.87007
G1 X43.345 Y39.627 E6.89992
G1 X43.368 Y40.185 E6.93089
G1 X43.311 Y40.74 E6.96182
G1 X43.175 Y41.281 E6.99275
G1 X42.963 Y41.798 E7.02373
G1 X42.68 Y42.279 E7.05468
G1 X42.331 Y42.714 E7.0856
G1 X41.923 Y43.096 E7.11659
G1 X41.465 Y43.415 E7.14754
G1 X40.967 Y43.665 E7.17843
G1 X40.437 Y43.842 E7.20942
G1 X39.888 Y43.942 E7.24036
G1 X39.53 Y43.964 E7.26025
G1 X38.817 Y43.975 E7.29978
G1 X29.923 Y43.975 E7.79293
G1 X29.206 Y43.965 E7.83268
G1 X28.088 Y43.918 E7.89473
G1 X25.359 Y43.841 E8.0461
G1 X22.649 Y43.841 E8.19636
G1 X20.391 Y43.919 E8.32164
G1 X17.724 Y43.975 E8.46955
G1 X9.331 Y43.975 E8.93491
G1 X8.615 Y43.964 E8.97461
G1 X8.18 Y43.932 E8.9988
G1 X7.451 Y43.839 E9.03955
G1 X4.722 Y43.53 E9.19183
G1 X2.017 Y43.301 E9.34235
G1 X-.735 Y43.145 E9.49518
G1 X-3.408 Y43.07 E9.64345
G1 X-6.157 Y43.07 E9.79587
G1 X-8.926 Y43.149 E9.94946
G1 X-9.635 Y43.179 E9.98881
G1 X-10.377 Y43.19 E10.02996
G1 X-19.272 Y43.19 E10.52316
G1 X-19.99 Y43.18 E10.56297
G1 X-21.107 Y43.133 E10.62496
G1 X-23.836 Y43.056 E10.77633
G1 X-26.547 Y43.056 E10.92665
G1 X-28.804 Y43.134 E11.05187
G1 X-31.471 Y43.19 E11.19977
G1 X-39.863 Y43.19 E11.66508
G1 X-40.521 Y43.18 E11.70157
G1 X-41.077 Y43.131 E11.73252
G1 X-41.621 Y43.004 E11.76349
G1 X-42.141 Y42.8 E11.79446
G1 X-42.626 Y42.525 E11.82538
G1 X-43.067 Y42.182 E11.85636
G1 X-43.507 Y41.716 E11.89189
G1 X-43.539 Y41.676 E11.89473
G1 X-43.856 Y41.217 E11.92566
G1 X-44.104 Y40.716 E11.95666
G1 X-44.278 Y40.186 E11.98759
G1 X-44.374 Y39.636 E12.01854
G1 X-44.37 Y38.806 E12.06456
G1 X-44.273 Y37.94 E12.11288
G1 X-44.01 Y35.263 E12.26203
G1 X-43.819 Y32.518 E12.4146
G1 X-43.705 Y29.803 E12.56527
G1 X-43.67 Y27.083 E12.71609
G1 X-43.712 Y24.34 E12.8682
G1 X-43.827 Y21.669 E13.01644
G1 X-44.022 Y18.957 E13.1672
G1 X-44.296 Y16.225 E13.31944
G1 X-44.643 Y13.533 E13.46993
G1 X-45.121 Y10.537 E13.63815
G1 X-45.223 Y9.948 E13.6713
G1 X-45.278 Y9.393 E13.70222
G1 X-45.243 Y8.749 E13.73798
G1 X-45.127 Y7.908 E13.78505
G1 X-44.955 Y6.787 E13.84794
G1 X-44.622 Y4.109 E13.99757
G1 X-44.362 Y1.404 E14.14824
G1 X-44.18 Y-1.303 E14.29867
G1 X-44.075 Y-4.016 E14.44921
G1 X-44.045 Y-6.77 E14.60192
G1 X-44.091 Y-9.474 E14.75187
G1 X-44.068 Y-9.989 E14.78045
G1 X-43.965 Y-10.908 E14.83173
G1 X-43.701 Y-13.589 E14.9811
G1 X-43.509 Y-16.333 E15.13362
G1 X-43.397 Y-19.042 E15.28395
G1 X-43.362 Y-21.765 E15.43494
G1 X-43.404 Y-24.504 E15.58683
G1 X-43.52 Y-27.185 E15.73562
G1 X-43.716 Y-29.92 E15.88766
G1 X-43.985 Y-32.591 E16.0365
G1 X-44.336 Y-35.315 E16.18879
G1 X-44.811 Y-38.296 E16.35616
G1 X-44.911 Y-38.87 E16.38847
G1 X-44.967 Y-39.425 E16.4194
G1 X-44.944 Y-39.983 E16.45036
G1 X-44.841 Y-40.531 E16.48128
G1 X-44.66 Y-41.06 E16.51228
G1 X-44.406 Y-41.557 E16.54323
G1 X-44.084 Y-42.013 E16.57418
G1 X-43.7 Y-42.418 E16.60512
G1 X-43.262 Y-42.764 E16.63607
G1 X-42.779 Y-43.044 E16.66703
G1 X-42.261 Y-43.252 E16.69798
G1 X-41.719 Y-43.384 E16.72891
G1 X-41.132 Y-43.438 E16.76159
G1 X-40.268 Y-43.452 E16.80951
G1 X-31.319 Y-43.452 E17.3057
G1 X-30.613 Y-43.442 E17.34485
G1 X-29.269 Y-43.386 E17.41943
G1 X-28.787 Y-43.359 E17.4462
G1 X-26.111 Y-43.284 E17.59463
G1 X-23.362 Y-43.284 E17.74706
G1 X-20.672 Y-43.361 E17.89627
G1 X-20.396 Y-43.376 E17.91159
G1 X-18.909 Y-43.441 E17.99412
G1 X-18.14 Y-43.452 E18.03676
G1 X-9.114 Y-43.452 E18.53723
G1 X-8.416 Y-43.442 E18.57593
G1 X-8.093 Y-43.424 E18.59387
G1 X-7.357 Y-43.351 E18.63488
G1 X-5.895 Y-43.185 E18.71646
G1 X-3.197 Y-42.958 E18.86658
G1 X-.449 Y-42.803 E19.01919
G1 X2.228 Y-42.728 E19.16768
G0 F3600 X2.247 Y-42.128
G1 F1800 X4.983 Y-42.13 E19.31939
G1 X8.144 Y-42.227 E19.49473
G1 X8.903 Y-42.262 E19.53686
G1 X9.82 Y-42.277 E19.58771
G1 X18.815 Y-42.277 E20.08646
G1 X19.521 Y-42.267 E20.12561
G1 X20.839 Y-42.212 E20.19875
G1 X21.305 Y-42.186 E20.22463
G1 X24.05 Y-42.109 E20.37689
G1 X26.762 Y-42.109 E20.52726
G1 X29.521 Y-42.188 E20.6803
G1 X29.772 Y-42.202 E20.69424
G1 X31.242 Y-42.266 E20.77582
G1 X32.011 Y-42.277 E20.81846
G1 X41.019 Y-42.277 E21.31793
G1 X41.715 Y-42.267 E21.35652
G1 X42.227 Y-42.219 E21.38504
G1 X42.724 Y-42.093 E21.41346
G1 X43.197 Y-41.892 E21.44196
G1 X43.632 Y-41.619 E21.47044
G1 X44.019 Y-41.282 E21.49889
G1 X44.35 Y-40.89 E21.52734
G1 X44.616 Y-40.45 E21.55584
G1 X44.81 Y-39.975 E21.58429
G1 X44.929 Y-39.476 E21.61274
G1 X44.968 Y-38.964 E21.64121
G1 X44.921 Y-38.413 E21.67187
G1 X44.7 Y-37.115 E21.74488
G1 X44.271 Y-34.363 E21.89931
G1 X43.926 Y-31.639 E22.05155
G1 X43.661 Y-28.942 E22.20181
G1 X43.47 Y-26.193 E22.3546
G1 X43.359 Y-23.489 E22.50466
G1 X43.323 Y-20.738 E22.6572
G1 X43.364 Y-17.995 E22.80931
G1 X43.485 Y-15.244 E22.96199
G1 X43.676 Y-12.585 E23.1098
G1 X43.941 Y-9.922 E23.25819
G1 X44.006 Y-9.345 E23.29038
G1 X44.014 Y-8.69 E23.3267
G1 X43.994 Y-8.458 E23.33961
G1 X43.754 Y-6.047 E23.47396
G1 X43.558 Y-3.297 E23.62682
G1 X43.444 Y-.591 E23.77699
G1 X43.404 Y2.156 E23.92932
G1 X43.442 Y4.903 E24.08165
G1 X43.557 Y7.614 E24.2321
G1 X43.664 Y9.142 E24.31703
G1 X43.707 Y9.881 E24.35807
G1 X43.666 Y10.626 E24.39944
G1 X43.446 Y11.922 E24.47233
G1 X43.019 Y14.663 E24.62614
G1 X42.67 Y17.409 E24.77962
G1 X42.406 Y20.096 E24.92933
G1 X42.215 Y22.843 E25.082
G1 X42.103 Y25.553 E25.23239
G1 X42.067 Y28.3 E25.38472
G1 X42.108 Y31.047 E25.53705
G1 X42.228 Y33.79 E25.68928
G1 X42.421 Y36.472 E25.83838
G1 X42.688 Y39.152 E25.98771
G1 X42.749 Y39.694 E26.01795
G1 X42.767 Y40.207 E26.04641
G1 X42.705 Y40.717 E26.0749
G1 X42.564 Y41.211 E26.10338
G1 X42.349 Y41.677 E26.13184
G1 X42.064 Y42.104 E26.1603
G1 X41.716 Y42.481 E26.18875
G1 X41.314 Y42.801 E26.21724
G1 X40.867 Y43.054 E26.24572
G1 X40.387 Y43.234 E26.27414
G1 X39.884 Y43.338 E26.30262
G1 X39.521 Y43.364 E26.3228
G1 X38.808 Y43.375 E26.36234
G1 X29.931 Y43.375 E26.85454
G1 X29.214 Y43.365 E26.8943
G1 X28.132 Y43.32 E26.95434
G1 X25.34 Y43.241 E27.10921
G1 X22.628 Y43.241 E27.25958
G1 X20.378 Y43.319 E27.38441
G1 X17.724 Y43.375 E27.5316
G1 X9.34 Y43.375 E27.99647
G1 X8.624 Y43.364 E28.03617
G1 X8.256 Y43.337 E28.05663
G1 X7.528 Y43.244 E28.09732
G1 X4.769 Y42.932 E28.25127
G1 X2.064 Y42.702 E28.4018
G1 X-.684 Y42.547 E28.55441
G1 X-3.427 Y42.47 E28.70656
G1 X-6.14 Y42.47 E28.85699
G1 X-8.969 Y42.551 E29.01391
G1 X-9.644 Y42.579 E29.05137
G1 X-10.386 Y42.59 E29.09251
G1 X-19.264 Y42.59 E29.58477
G1 X-19.982 Y42.58 E29.62458
G1 X-21.063 Y42.535 E29.68457
G1 X-23.855 Y42.456 E29.83944
G1 X-26.568 Y42.456 E29.98987
G1 X-28.817 Y42.534 E30.11464
G1 X-31.471 Y42.59 E30.26183
G1 X-39.854 Y42.59 E30.72664
G1 X-40.512 Y42.58 E30.76313
G1 X-41.023 Y42.532 E30.79159
G1 X-41.521 Y42.405 E30.82008
G1 X-41.993 Y42.203 E30.84855
G1 X-42.428 Y41.931 E30.877
G1 X-42.815 Y41.594 E30.90545
G1 X-43.071 Y41.301 E30.92702
G1 X-43.359 Y40.877 E30.95544
G1 X-43.579 Y40.413 E30.98391
G1 X-43.723 Y39.92 E31.01239
G1 X-43.79 Y39.411 E31.04086
G1 X-43.773 Y38.873 E31.0707
G1 X-43.681 Y38.049 E31.11667
G1 X-43.41 Y35.293 E31.27022
G1 X-43.219 Y32.549 E31.42274
G1 X-43.106 Y29.835 E31.57335
G1 X-43.07 Y27.083 E31.72595
G1 X-43.111 Y24.341 E31.878
G1 X-43.23 Y21.6 E32.03012
G1 X-43.421 Y18.938 E32.1781
G1 X-43.699 Y16.162 E32.33279
G1 X-44.048 Y13.456 E32.48407
G1 X-44.53 Y10.435 E32.6537
G1 X-44.632 Y9.846 E32.68684
G1 X-44.68 Y9.335 E32.7153
G1 X-44.649 Y8.832 E32.74324
G1 X-44.534 Y8 E32.78981
G1 X-44.363 Y6.887 E32.85225
G1 X-44.025 Y4.17 E33.00406
G1 X-43.766 Y1.466 E33.15467
G1 X-43.581 Y-1.276 E33.30705
G1 X-43.474 Y-4.02 E33.45931
G1 X-43.446 Y-6.737 E33.60997
G1 X-43.491 Y-9.487 E33.76247
G1 X-43.471 Y-9.923 E33.78667
G1 X-43.373 Y-10.8 E33.8356
G1 X-43.101 Y-13.558 E33.98926
G1 X-42.91 Y-16.3 E34.14166
G1 X-42.798 Y-19.01 E34.29205
G1 X-42.762 Y-21.765 E34.44482
G1 X-42.803 Y-24.505 E34.59676
G1 X-42.921 Y-27.217 E34.74728
G1 X-43.121 Y-30.003 E34.90215
G1 X-43.388 Y-32.654 E35.04988
G1 X-43.741 Y-35.392 E35.20295
G1 X-44.228 Y-38.446 E35.37442
G1 X-44.32 Y-38.973 E35.40409
G1 X-44.369 Y-39.484 E35.43255
G1 X-44.337 Y-39.996 E35.46099
G1 X-44.227 Y-40.498 E35.48949
G1 X-44.04 Y-40.976 E35.51795
G1 X-43.781 Y-41.419 E35.5464
G1 X-43.457 Y-41.817 E35.57486
G1 X-43.074 Y-42.16 E35.60336
G1 X-42.643 Y-42.439 E35.63183
G1 X-42.175 Y-42.648 E35.66025
G1 X-41.679 Y-42.782 E35.68874
G1 X-41.123 Y-42.839 E35.71973
G1 X-40.322 Y-42.852 E35.76415
G1 X-31.327 Y-42.852 E36.26289
G1 X-30.621 Y-42.842 E36.30204
G1 X-29.303 Y-42.787 E36.37518
G1 X-28.837 Y-42.761 E36.40106
G1 X-26.092 Y-42.684 E36.55332
G1 X-23.38 Y-42.684 E36.70369
G1 X-20.62 Y-42.763 E36.85679
G1 X-20.37 Y-42.777 E36.87067
G1 X-18.9 Y-42.841 E36.95225
G1 X-18.131 Y-42.852 E36.9949
G1 X-9.123 Y-42.852 E37.49436
G1 X-8.425 Y-42.842 E37.53306
G1 X-8.151 Y-42.826 E37.54828
G1 X-7.424 Y-42.755 E37.58878
G1 X-5.943 Y-42.587 E37.67143
G1 X-3.246 Y-42.359 E37.8215
G1 X-.497 Y-42.205 E37.97416
G1 X2.247 Y-42.128 E38.12637
G1 F1500 E31.62637
;MESH:X.stl(3)
G0 F3600 X9.174 Y-9.004
G0 X17.876 Y9.41
G0 X17.876 Y10.692
G0 X23.89 Y21.019
;TYPE:WALL-INNER
G1 F1500 E38.12637
G1 F1800 X24.144 Y21.433 E38.1533
G1 X24.398 Y21.019 E38.16873
G1 X30.571 Y10.975 E38.82241
G1 X38.192 Y10.975 E39.24497
G1 X38.193 Y10.975 E39.24503
G1 X38.749 Y10.975 E39.27585
G1 X38.442 Y11.439 E39.29312
G1 X28.998 Y25.706 E40.24179
G1 X37.514 Y38.712 E41.10376
G1 X37.817 Y39.175 E41.13444
G1 X37.264 Y39.175 E41.15162
G1 X37.263 Y39.175 E41.15167
G1 X29.791 Y39.175 E41.56597
G1 X24.479 Y29.943 E42.15654
G1 X23.431 Y29.949 E42.21465
G1 X18.265 Y39.175 E42.80094
G1 X10.88 Y39.175 E43.21041
G1 X10.879 Y39.175 E43.21047
G1 X10.332 Y39.175 E43.2408
G1 X10.628 Y38.714 E43.25784
G1 X19.095 Y25.54 E44.12615
G1 X9.783 Y11.438 E45.06315
G1 X9.477 Y10.975 E45.09392
G1 X10.031 Y10.975 E45.11111
G1 X10.033 Y10.975 E45.11122
G1 X17.717 Y10.975 E45.53728
G1 X23.89 Y21.019 E46.19095
G0 F3600 X24.144 Y20.287
;TYPE:WALL-OUTER
G1 F1800 X24.399 Y19.872 E46.21796
G1 X30.236 Y10.375 E46.83604
G1 X39.307 Y10.375 E47.339
G1 X39.308 Y10.375 E47.33906
G1 X39.865 Y10.375 E47.36994
G1 X39.558 Y10.84 E47.38723
G1 X29.716 Y25.708 E48.37587
G1 X38.623 Y39.311 E49.27741
G1 X38.927 Y39.775 E49.30817
G1 X38.373 Y39.775 E49.32537
G1 X38.372 Y39.775 E49.32542
G1 X29.444 Y39.775 E49.82045
G1 X24.243 Y30.736 E50.39868
G1 X24.133 Y30.545 E50.4109
G1 X23.784 Y30.547 E50.43025
G1 X23.677 Y30.739 E50.44244
G1 X18.617 Y39.775 E51.01666
G1 X9.782 Y39.775 E51.50653
G1 X9.78 Y39.775 E51.50664
G1 X9.233 Y39.775 E51.53697
G1 X9.529 Y39.314 E51.55402
G1 X18.379 Y25.544 E52.46161
G1 X8.667 Y10.839 E53.43873
G1 X8.361 Y10.375 E53.46955
G1 X8.916 Y10.375 E53.48676
G1 X8.918 Y10.375 E53.48687
G1 X18.052 Y10.375 E53.99332
G1 X23.889 Y19.872 E54.61141
G1 X24.144 Y20.287 E54.62691
G0 F3600 X24.248 Y20.117
G0 X24.81 Y20.463
G0 X22.994 Y26.381
;TYPE:SKIN
G1 F1800 X22.798 Y26.382 E54.63778
G1 X22.899 Y26.226 E54.64808
G1 X22.994 Y26.381 E54.65816
G0 F3600 X22.639 Y25.52
G1 F1800 X14.999 Y13.945 E55.42715
G1 X16.058 Y13.945 E55.48587
G1 X24.063 Y26.975 E56.33379
G1 X21.695 Y26.989 E56.46509
G1 X22.639 Y25.52 E56.56191
G0 F3600 X24.144 Y25.961
G1 F1800 X31.895 Y13.345 E57.38289
G1 X34.341 Y13.345 E57.51852
G1 X26.162 Y25.698 E58.33997
G1 X33.432 Y36.805 E59.07601
G1 X31.162 Y36.805 E59.20188
G1 X25.846 Y27.565 E59.79294
G1 X22.037 Y27.587 E60.00414
G1 X16.875 Y36.805 E60.58993
G1 X14.672 Y36.805 E60.71208
G1 X21.923 Y25.524 E61.45564
G1 X13.884 Y13.345 E62.26477
G1 X16.393 Y13.345 E62.40389
G1 X24.144 Y25.961 E63.22487
G0 F3600 X24.226 Y26.974
G1 F1800 X32.23 Y13.945 E64.07271
G1 X33.225 Y13.945 E64.12788
G1 X25.444 Y25.696 E64.90933
G1 X32.322 Y36.205 E65.60572
G1 X31.509 Y36.205 E65.6508
G1 X26.192 Y26.963 E66.24199
G1 X24.226 Y26.974 E66.351
G0 F3600 X22.39 Y28.185
G1 F1800 X17.227 Y37.405 E66.93691
G1 X13.573 Y37.405 E67.13951
G1 X21.207 Y25.528 E67.92235
G1 X12.768 Y12.745 E68.77165
G1 X16.728 Y12.745 E68.99122
G1 X24.144 Y24.815 E69.77669
G1 X31.56 Y12.745 E70.56216
G1 X35.457 Y12.745 E70.77823
G1 X26.88 Y25.7 E71.63971
G1 X34.542 Y37.405 E72.41539
G1 X30.815 Y37.405 E72.62204
G1 X25.5 Y28.167 E73.21298
G1 X22.39 Y28.185 E73.38543
G0 F3600 X22.743 Y28.783
G1 F1800 X17.579 Y38.005 E73.97146
G1 X12.474 Y38.005 E74.25452
G1 X20.491 Y25.532 E75.07664
G1 X11.652 Y12.145 E75.9661
G1 X17.063 Y12.145 E76.26613
G1 X24.144 Y23.669 E77.01608
G1 X31.225 Y12.145 E77.76603
G1 X36.573 Y12.145 E78.06256
G1 X27.598 Y25.702 E78.96404
G1 X35.652 Y38.005 E79.77938
G1 X30.468 Y38.005 E80.06681
G1 X25.154 Y28.769 E80.65763
G1 X22.743 Y28.783 E80.79131
G0 F3600 X23.096 Y29.381
G1 F1800 X17.93 Y38.605 E81.3775
G1 X11.375 Y38.605 E81.74095
G1 X19.775 Y25.536 E82.60236
G1 X10.536 Y11.545 E83.53199
G1 X17.398 Y11.545 E83.91246
G1 X24.144 Y22.522 E84.62685
G1 X24.73 Y21.567 E84.68898
G1 X30.89 Y11.545 E85.34124
G1 X37.689 Y11.545 E85.71822
G1 X28.316 Y25.704 E86.65972
G1 X36.762 Y38.605 E87.5147
G1 X30.121 Y38.605 E87.88292
G1 X24.808 Y29.371 E88.47361
G1 X23.096 Y29.381 E88.56854
G0 F3600 X21.611 Y27.119
G1 F1800 X16.523 Y36.205 E89.14594
G1 X15.771 Y36.205 E89.18763
G1 X21.611 Y27.119 E89.78651
G0 F3600 X22.5 Y26.7
;TYPE:SKIN
G1 F1800 X22.5 Y26.4 E89.79483
G0 F3600 X23.4 Y26.44
G1 F1800 X23.4 Y26.694 E89.80187
G0 F3600 X24.9 Y26.686
G1 F1800 X24.9 Y26.42 E89.80924
G0 F3600 X25.2 Y26.684
G1 F1800 X25.2 Y25.932 E89.83009
G0 F3600 X25.5 Y26.303
