;FLAVOR:Marlin
;TIME:1123
;Filament used: 1.9093m
;Layer height: 0.2
;MINX:-40.413
;MINY:-40.151
;MINZ:0.2
;MAXX:37.896
;MAXY:35.661
;MAXZ:3.6
;POSTPROCESSED
;Generated with Cura_SteamEngine 4.8.0
M140 S60
M105
M190 S60
M104 S195
M105
M109 S195
M82 ;absolute extrusion mode
G28 ;Home
G1 Z15.0 F6000 ;Move the platform down 15mm
;Prime the extruder
G92 E0
G1 F200 E3
G92 E0
G92 E0
G92 E0
G1 F1500 E-6.5
;LAYER_COUNT:18
;LAYER:0
M107
G0 F3600 X0.061 Y35.586 Z0.2
;TYPE:SKIRT
G1 F1500 E0
G1 F1800 X-.861 Y35.623 E0.05116
G1 X-2.822 Y35.661 E0.15991
G1 X-11.494 Y35.661 E0.64075
G1 X-12.199 Y35.651 E0.67984
G1 X-13.367 Y35.602 E0.74466
G1 X-14.192 Y35.556 E0.79047
G1 X-16.872 Y35.481 E0.93913
G1 X-19.582 Y35.481 E1.08939
G1 X-23.668 Y35.625 E1.31609
G1 X-23.813 Y35.631 E1.32413
G1 X-25.306 Y35.661 E1.40693
G1 X-33.839 Y35.661 E1.88006
G1 X-34.517 Y35.651 E1.91765
G1 X-35.073 Y35.602 E1.9486
G1 X-35.616 Y35.475 E1.97952
G1 X-36.136 Y35.272 E2.01047
G1 X-36.622 Y34.997 E2.04143
G1 X-37.063 Y34.655 E2.07238
G1 X-37.504 Y34.187 E2.10803
G1 X-37.52 Y34.167 E2.10945
G1 X-37.837 Y33.708 E2.14038
G1 X-38.085 Y33.207 E2.17138
G1 X-38.259 Y32.677 E2.20231
G1 X-38.355 Y32.127 E2.23326
G1 X-38.372 Y31.569 E2.26422
G1 X-38.317 Y30.999 E2.29597
G1 X-38.035 Y28.782 E2.41989
G1 X-37.773 Y26.122 E2.56809
G1 X-37.581 Y23.378 E2.7206
G1 X-37.469 Y20.669 E2.87094
G1 X-37.433 Y17.946 E3.02193
G1 X-37.475 Y15.203 E3.17404
G1 X-37.59 Y12.53 E3.32239
G1 X-37.784 Y9.822 E3.47292
G1 X-38.058 Y7.088 E3.62527
G1 X-38.406 Y4.394 E3.77589
G1 X-38.824 Y1.742 E3.92475
G1 X-39.327 Y-.952 E4.0767
G1 X-39.902 Y-3.609 E4.22743
G1 X-40.091 Y-4.379 E4.27139
G1 X-40.32 Y-5.373 E4.32795
G1 X-40.407 Y-5.925 E4.35894
G1 X-40.413 Y-6.483 E4.38988
G1 X-40.34 Y-7.037 E4.42086
G1 X-40.188 Y-7.574 E4.4518
G1 X-39.915 Y-8.172 E4.48825
G1 X-39.727 Y-8.508 E4.5096
G1 X-38.711 Y-10.274 E4.62257
G1 X-37.423 Y-12.666 E4.7732
G1 X-36.209 Y-15.081 E4.92307
G1 X-35.059 Y-17.544 E5.07379
G1 X-33.958 Y-20.085 E5.22734
G1 X-32.961 Y-22.574 E5.376
G1 X-32.028 Y-25.113 E5.52599
G1 X-31.158 Y-27.7 E5.67732
G1 X-30.362 Y-30.315 E5.82888
G1 X-29.655 Y-32.893 E5.9771
G1 X-28.64 Y-37.166 E6.22062
G1 X-28.524 Y-37.574 E6.24414
G1 X-28.297 Y-38.084 E6.27509
G1 X-27.998 Y-38.556 E6.30607
G1 X-27.636 Y-38.98 E6.33698
G1 X-27.217 Y-39.349 E6.36794
G1 X-26.749 Y-39.654 E6.39891
G1 X-26.242 Y-39.888 E6.42987
G1 X-25.708 Y-40.049 E6.4608
G1 X-24.968 Y-40.14 E6.50214
G1 X-24.537 Y-40.151 E6.52604
G1 X-16.227 Y-40.151 E6.9868
G1 X-15.525 Y-40.141 E7.02573
G1 X-14.869 Y-40.075 E7.06229
G1 X-14.422 Y-39.992 E7.0875
G1 X-11.686 Y-39.524 E7.2414
G1 X-8.999 Y-39.142 E7.39188
G1 X-6.303 Y-38.836 E7.54233
G1 X-3.591 Y-38.605 E7.69324
G1 X-.853 Y-38.451 E7.8453
G1 X1.827 Y-38.375 E7.99395
G1 X4.577 Y-38.375 E8.14643
G1 X7.25 Y-38.451 E8.2947
G1 X10.03 Y-38.609 E8.44909
G1 X11.448 Y-38.72 E8.52795
G1 X12.716 Y-38.828 E8.59851
G1 X13.253 Y-38.851 E8.62832
G1 X13.367 Y-38.853 E8.63464
G1 X21.677 Y-38.853 E9.0954
G1 X22.376 Y-38.843 E9.13416
G1 X22.932 Y-38.795 E9.1651
G1 X23.476 Y-38.668 E9.19608
G1 X23.995 Y-38.465 E9.22698
G1 X24.481 Y-38.189 E9.25797
G1 X24.922 Y-37.848 E9.28888
G1 X25.31 Y-37.446 E9.31986
G1 X25.637 Y-36.994 E9.35079
G1 X25.896 Y-36.499 E9.38176
G1 X26.119 Y-35.823 E9.42123
G1 X26.341 Y-34.866 E9.4757
G1 X26.472 Y-34.257 E9.51024
G1 X27.109 Y-31.654 E9.65883
G1 X27.836 Y-29.007 E9.81103
G1 X28.63 Y-26.406 E9.96182
G1 X29.486 Y-23.862 E10.11065
G1 X30.443 Y-21.265 E10.26411
G1 X31.445 Y-18.765 E10.41344
G1 X32.513 Y-16.304 E10.56219
G1 X33.692 Y-13.787 E10.7163
G1 X34.892 Y-11.401 E10.86439
G1 X36.754 Y-7.991 E11.07981
G1 X37.388 Y-6.883 E11.15059
G1 X37.63 Y-6.38 E11.18154
G1 X37.797 Y-5.847 E11.21251
G1 X37.886 Y-5.297 E11.2434
G1 X37.896 Y-4.738 E11.2744
G1 X37.834 Y-4.223 E11.30317
G1 X37.601 Y-2.991 E11.37269
G1 X37.119 Y-.238 E11.52765
G1 X36.729 Y2.437 E11.67754
G1 X36.415 Y5.111 E11.82682
G1 X36.173 Y7.842 E11.97884
G1 X36.01 Y10.552 E12.12937
G1 X35.924 Y13.264 E12.27982
G1 X35.914 Y15.978 E12.4303
G1 X35.981 Y18.695 E12.581
G1 X36.126 Y21.433 E12.73302
G1 X36.344 Y24.109 E12.88189
G1 X36.644 Y26.837 E13.03406
G1 X37.017 Y29.519 E13.1842
G1 X37.068 Y29.83 E13.20167
G1 X37.253 Y31.036 E13.26933
G1 X37.298 Y31.592 E13.30025
G1 X37.263 Y32.149 E13.3312
G1 X37.149 Y32.696 E13.36218
G1 X36.958 Y33.22 E13.3931
G1 X36.694 Y33.712 E13.42406
G1 X36.362 Y34.161 E13.45502
G1 X35.97 Y34.558 E13.48596
G1 X35.525 Y34.896 E13.51694
G1 X35.037 Y35.166 E13.54787
G1 X34.515 Y35.364 E13.57882
G1 X33.97 Y35.485 E13.60978
G1 X33.476 Y35.526 E13.63726
G1 X32.403 Y35.547 E13.69677
G1 X23.765 Y35.547 E14.17572
G1 X22.952 Y35.534 E14.2208
G1 X21.892 Y35.489 E14.27963
G1 X21.043 Y35.441 E14.32677
G1 X18.371 Y35.366 E14.47499
G1 X15.659 Y35.368 E14.62536
G1 X11.427 Y35.517 E14.86015
G1 X9.96 Y35.547 E14.94151
G1 X2.838 Y35.547 E15.3364
G1 X0.061 Y35.586 E15.49039
G0 F3600 X0.029 Y34.987
G1 F1800 X-.873 Y35.023 E15.54044
G1 X-2.822 Y35.061 E15.64853
G1 X-11.486 Y35.061 E16.12892
G1 X-12.191 Y35.051 E16.16801
G1 X-13.333 Y35.003 E16.23139
G1 X-14.141 Y34.958 E16.27626
G1 X-16.891 Y34.881 E16.4288
G1 X-19.603 Y34.881 E16.57917
G1 X-23.641 Y35.022 E16.8032
G1 X-23.825 Y35.031 E16.81341
G1 X-25.306 Y35.061 E16.89555
G1 X-33.83 Y35.061 E17.36817
G1 X-34.508 Y35.051 E17.40577
G1 X-35.019 Y35.003 E17.43423
G1 X-35.517 Y34.877 E17.46271
G1 X-35.989 Y34.675 E17.49118
G1 X-36.424 Y34.402 E17.51965
G1 X-36.811 Y34.066 E17.54807
G1 X-37.052 Y33.792 E17.5683
G1 X-37.34 Y33.368 E17.59672
G1 X-37.56 Y32.904 E17.6252
G1 X-37.704 Y32.411 E17.65367
G1 X-37.771 Y31.902 E17.68214
G1 X-37.754 Y31.355 E17.71248
G1 X-37.716 Y31.026 E17.73085
G1 X-37.438 Y28.847 E17.85264
G1 X-37.173 Y26.153 E18.00274
G1 X-36.982 Y23.411 E18.15514
G1 X-36.87 Y20.701 E18.30553
G1 X-36.833 Y17.946 E18.4583
G1 X-36.874 Y15.204 E18.61035
G1 X-36.991 Y12.496 E18.76064
G1 X-37.188 Y9.754 E18.91307
G1 X-37.461 Y7.025 E19.06514
G1 X-37.81 Y4.323 E19.2162
G1 X-38.238 Y1.614 E19.36827
G1 X-38.741 Y-1.084 E19.52044
G1 X-39.307 Y-3.699 E19.66879
G1 X-39.507 Y-4.514 E19.71532
G1 X-39.736 Y-5.508 E19.77188
G1 X-39.812 Y-6.016 E19.80036
G1 X-39.808 Y-6.529 E19.8288
G1 X-39.725 Y-7.036 E19.85729
G1 X-39.495 Y-7.677 E19.89505
G1 X-39.23 Y-8.169 E19.92603
G1 X-38.192 Y-9.973 E20.04143
G1 X-36.881 Y-12.409 E20.19482
G1 X-35.666 Y-14.825 E20.34476
G1 X-34.508 Y-17.305 E20.49652
G1 X-33.413 Y-19.834 E20.64933
G1 X-32.403 Y-22.355 E20.79991
G1 X-31.458 Y-24.926 E20.95179
G1 X-30.588 Y-27.513 E21.10312
G1 X-29.795 Y-30.118 E21.25411
G1 X-29.066 Y-32.775 E21.40687
G1 X-28.055 Y-37.031 E21.64942
G1 X-27.946 Y-37.408 E21.67118
G1 X-27.728 Y-37.873 E21.69965
G1 X-27.44 Y-38.298 E21.72812
G1 X-27.09 Y-38.673 E21.75656
G1 X-26.686 Y-38.99 E21.78503
G1 X-26.238 Y-39.24 E21.81348
G1 X-25.756 Y-39.418 E21.84197
G1 X-25.252 Y-39.518 E21.87046
G1 X-24.629 Y-39.55 E21.90505
G1 X-16.236 Y-39.551 E22.37041
G1 X-15.534 Y-39.541 E22.40934
G1 X-14.979 Y-39.486 E22.44026
G1 X-14.499 Y-39.397 E22.46733
G1 X-11.762 Y-38.929 E22.62129
G1 X-9.081 Y-38.548 E22.77144
G1 X-6.351 Y-38.238 E22.92378
G1 X-3.642 Y-38.007 E23.07453
G1 X-.902 Y-37.853 E23.22669
G1 X1.846 Y-37.775 E23.37912
G1 X4.558 Y-37.775 E23.52949
G1 X7.301 Y-37.853 E23.68164
G1 X10.061 Y-38.01 E23.83492
G1 X11.522 Y-38.124 E23.91618
G1 X12.767 Y-38.23 E23.98546
G1 X13.271 Y-38.252 E24.01343
G1 X21.668 Y-38.253 E24.47902
G1 X22.367 Y-38.243 E24.51778
G1 X22.878 Y-38.195 E24.54624
G1 X23.376 Y-38.069 E24.57472
G1 X23.848 Y-37.868 E24.60316
G1 X24.283 Y-37.595 E24.63164
G1 X24.671 Y-37.259 E24.6601
G1 X25.002 Y-36.866 E24.68859
G1 X25.268 Y-36.427 E24.71705
G1 X25.462 Y-35.952 E24.7455
G1 X25.535 Y-35.688 E24.76068
G1 X25.754 Y-34.74 E24.81463
G1 X25.886 Y-34.125 E24.84951
G1 X26.529 Y-31.498 E24.99947
G1 X27.259 Y-28.842 E25.15219
G1 X28.056 Y-26.228 E25.30372
G1 X28.912 Y-23.686 E25.45244
G1 X29.885 Y-21.045 E25.6085
G1 X30.884 Y-18.551 E25.75746
G1 X31.982 Y-16.022 E25.91033
G1 X33.135 Y-13.56 E26.06107
G1 X34.366 Y-11.113 E26.21295
G1 X36.212 Y-7.732 E26.42654
G1 X36.867 Y-6.586 E26.49972
G1 X37.086 Y-6.121 E26.52822
G1 X37.231 Y-5.629 E26.55666
G1 X37.298 Y-5.12 E26.58513
G1 X37.284 Y-4.606 E26.61364
G1 X37.244 Y-4.334 E26.62888
G1 X37.01 Y-3.095 E26.6988
G1 X36.522 Y-.309 E26.85562
G1 X36.135 Y2.35 E27.00461
G1 X35.817 Y5.058 E27.15579
G1 X35.575 Y7.788 E27.30775
G1 X35.41 Y10.532 E27.46017
G1 X35.324 Y13.243 E27.61056
G1 X35.314 Y15.991 E27.76293
G1 X35.382 Y18.741 E27.91546
G1 X35.525 Y21.446 E28.06565
G1 X35.748 Y24.185 E28.21802
G1 X36.045 Y26.88 E28.36835
G1 X36.426 Y29.625 E28.52201
G1 X36.475 Y29.921 E28.53865
G1 X36.66 Y31.127 E28.6063
G1 X36.698 Y31.639 E28.63477
G1 X36.656 Y32.15 E28.6632
G1 X36.536 Y32.649 E28.69165
G1 X36.339 Y33.124 E28.72017
G1 X36.071 Y33.562 E28.74864
G1 X35.739 Y33.953 E28.77708
G1 X35.35 Y34.288 E28.80554
G1 X34.913 Y34.558 E28.83402
G1 X34.44 Y34.758 E28.8625
G1 X33.942 Y34.882 E28.89095
G1 X33.464 Y34.926 E28.91757
G1 X32.403 Y34.947 E28.97641
G1 X23.773 Y34.947 E29.45491
G1 X23.068 Y34.937 E29.49401
G1 X21.926 Y34.89 E29.55738
G1 X21.093 Y34.843 E29.60364
G1 X18.352 Y34.766 E29.75568
G1 X15.638 Y34.768 E29.90616
G1 X11.414 Y34.917 E30.14052
G1 X9.96 Y34.947 E30.22115
G1 X2.83 Y34.947 E30.61649
G1 X0.029 Y34.987 E30.77181
G1 F1500 E24.27181
;MESH:Y.stl(2)
G0 F3600 X1.919 Y32.312
G0 X1.919 Y31.037
G0 X17.069 Y20.317
G0 X17.325 Y20.202
;TYPE:WALL-INNER
G1 F1500 E30.77181
G1 F1800 X17.069 Y19.773 E30.79951
G1 X16.813 Y20.202 E30.8153
G1 X10.503 Y30.747 E31.49667
G1 X3.016 Y30.747 E31.9118
G1 X3.015 Y30.747 E31.91185
G1 X2.456 Y30.747 E31.94285
G1 X2.767 Y30.282 E31.96019
G1 X13.335 Y14.485 E33.01401
G1 X13.335 Y2.547 E33.67593
G1 X20.826 Y2.547 E34.09128
G1 X20.826 Y14.485 E34.7532
G1 X31.413 Y30.281 E35.80756
G1 X31.725 Y30.747 E35.83866
G1 X31.165 Y30.747 E35.85601
G1 X31.164 Y30.747 E35.85607
G1 X23.625 Y30.747 E36.27408
G1 X17.325 Y20.202 E36.95516
G0 F3600 X17.069 Y20.942
;TYPE:WALL-OUTER
G1 F1800 X16.812 Y21.371 E36.98289
G1 X10.843 Y31.347 E37.62748
G1 X1.893 Y31.347 E38.12373
G1 X1.892 Y31.347 E38.12378
G1 X1.332 Y31.347 E38.15483
G1 X1.643 Y30.881 E38.17221
G1 X12.735 Y14.303 E39.27817
G1 X12.735 Y1.947 E39.96327
G1 X21.426 Y1.947 E40.44516
G1 X21.426 Y14.303 E41.13026
G1 X32.537 Y30.881 E42.23681
G1 X32.849 Y31.347 E42.2679
G1 X32.289 Y31.347 E42.28526
G1 X32.287 Y31.347 E42.28537
G1 X23.284 Y31.347 E42.78456
G1 X17.325 Y21.372 E43.42881
G1 X17.069 Y20.942 E43.44464
G0 F3600 X16.967 Y21.113
G0 X16.401 Y20.774
G0 X17.256 Y13.13
;TYPE:SKIN
G1 F1800 X17.069 Y12.817 E43.46486
G1 X16.905 Y13.091 E43.48256
G1 X16.905 Y6.117 E43.86925
G1 X17.256 Y6.117 E43.88871
G1 X17.256 Y13.13 E44.27756
G0 F3600 X17.069 Y13.986
G1 F1800 X16.305 Y15.263 E44.36007
G1 X16.305 Y5.517 E44.90045
G1 X17.856 Y5.517 E44.98645
G1 X17.856 Y15.303 E45.52905
G1 X17.069 Y13.986 E45.61412
G0 F3600 X17.069 Y15.155
G1 F1800 X9.159 Y28.377 E46.46841
G1 X6.894 Y28.377 E46.594
G1 X15.705 Y15.204 E47.47272
G1 X15.705 Y4.917 E48.0431
G1 X18.456 Y4.917 E48.19563
G1 X18.456 Y15.204 E48.76601
G1 X27.285 Y28.377 E49.64529
G1 X24.971 Y28.377 E49.77359
G1 X17.069 Y15.155 E50.62766
G0 F3600 X18.315 Y16.071
G1 F1800 X26.161 Y27.777 E51.40902
G1 X25.311 Y27.777 E51.45615
G1 X18.315 Y16.071 E52.21229
G0 F3600 X19.056 Y15.022
G1 F1800 X28.409 Y28.977 E53.14376
G1 X24.63 Y28.977 E53.35329
G1 X17.069 Y16.324 E54.17058
G1 X9.499 Y28.977 E54.98812
G1 X5.77 Y28.977 E55.19488
G1 X15.105 Y15.022 E56.12579
G1 X15.105 Y4.317 E56.71935
G1 X19.056 Y4.317 E56.93842
G1 X19.056 Y15.022 E57.53197
G0 F3600 X19.656 Y14.84
G1 F1800 X29.533 Y29.577 E58.51564
G1 X24.29 Y29.577 E58.80635
G1 X17.069 Y17.493 E59.58688
G1 X9.839 Y29.577 E60.36766
G1 X4.646 Y29.577 E60.6556
G1 X14.505 Y14.84 E61.63871
G1 X14.505 Y3.717 E62.25544
G1 X19.656 Y3.717 E62.54104
G1 X19.656 Y14.84 E63.15778
G0 F3600 X20.256 Y14.658
G1 F1800 X30.657 Y30.177 E64.19364
G1 X23.949 Y30.177 E64.56557
G1 X17.069 Y18.662 E65.30932
G1 X10.179 Y30.177 E66.05336
G1 X3.522 Y30.177 E66.42246
G1 X13.905 Y14.658 E67.45777
G1 X13.905 Y3.117 E68.09768
G1 X20.256 Y3.117 E68.44982
G1 X20.256 Y14.658 E69.08973
G0 F3600 X15.608 Y16.428
G1 F1800 X8.819 Y27.777 E69.82299
G1 X8.018 Y27.777 E69.8674
G1 X15.608 Y16.428 E70.62442
G0 F3600 X15.9 Y16.293
;TYPE:SKIN
G1 F1800 X15.9 Y15.424 E70.64851
G0 F3600 X16.2 Y15.515
G1 F1800 X16.2 Y16.053 E70.66343
G0 F3600 X15.6 Y16.103
G1 F1800 X15.6 Y15.873 E70.6698
G0 F3600 X16.8 Y13.881
G1 F1800 X16.8 Y13.343 E70.68472
G0 F3600 X17.4 Y13.37
G1 F1800 X17.4 Y13.984 E70.70174
G0 F3600 X18 Y15.543
G1 F1800 X18 Y15.952 E70.71308
G0 F3600 X18.3 Y15.761
G1 F1800 X18.3 Y15.484 E70.72076
G0 F3600 X24.9 Y26.407
G1 F1800 X24.9 Y26.533 E70.72425
G0 F3600 X25.2 Y26.855
G1 F1800 X25.2 Y27.035 E70.72924
G0 F3600 X25.5 Y27.302
G1 F1800 X25.5 Y27.492 E70.73451
G0 F3600 X26.4 Y27.902
G1 F1800 X26.4 Y28.092 E70.73978
G0 F3600 X26.7 Y28.092
G1 F1800 X26.7 Y28.016 E70.74188
G0 F3600 X27.6 Y28.359
G1 F1800 X27.6 Y28.692 E70.75112
G0 F3600 X28.8 Y28.995
G1 F1800 X28.8 Y29.292 E70.75935
G0 F3600 X30 Y29.709
G1 F1800 X30 Y29.892 E70.76442
G0 F3600 X30.9 Y30.327
G1 F1800 X30.9 Y30.477 E70.76858
G0 F3600 X17.069 Y20.317
G0 X8.7 Y27.422
G1 F1800 X8.7 Y27.27 E70.7728
G0 F3600 X7.8 Y27.942
G1 F1800 X7.8 Y28.092 E70.77695
G0 F3600 X7.5 Y28.092
G1 F1800 X7.5 Y27.984 E70.77995
G0 F3600 X6.6 Y28.399
G1 F1800 X6.6 Y28.692 E70.78807
G0 F3600 X5.4 Y28.963
G1 F1800 X5.4 Y29.292 E70.79719
G0 F3600 X4.2 Y29.676
G1 F1800 X4.2 Y29.892 E70.80318
G0 F3600 X3.3 Y30.367
G1 F1800 X3.3 Y30.477 E70.80623
G0 F3600 X3.3 Y30.447
G1 F1500 E64.30623
;MESH:Y.stl
G0 F3600 X2.168 Y30.916
G0 X0.539 Y30.797
G0 X-1.938 Y30.434
G0 X-2.996 Y31.144
G0 X-17.934 Y20.316
;TYPE:WALL-INNER
G1 F1500 E70.80623
G1 F1800 X-18.19 Y19.887 E70.83393
G1 X-18.446 Y20.316 E70.84972
G1 X-24.757 Y30.861 E71.53112
G1 X-32.243 Y30.861 E71.94619
G1 X-32.244 Y30.861 E71.94625
G1 X-32.803 Y30.861 E71.97724
G1 X-32.492 Y30.396 E71.99458
G1 X-21.924 Y14.599 E73.0484
G1 X-21.924 Y2.661 E73.71032
G1 X-14.433 Y2.661 E74.12567
G1 X-14.433 Y14.599 E74.7876
G1 X-3.847 Y30.395 E75.84192
G1 X-3.535 Y30.861 E75.87302
G1 X-4.095 Y30.861 E75.89037
G1 X-4.096 Y30.861 E75.89043
G1 X-11.634 Y30.861 E76.30839
G1 X-17.934 Y20.316 E76.98947
G0 F3600 X-18.19 Y21.056
;TYPE:WALL-OUTER
G1 F1800 X-18.447 Y21.485 E77.0172
G1 X-24.417 Y31.461 E77.66182
G1 X-33.366 Y31.461 E78.15801
G1 X-33.367 Y31.461 E78.15806
G1 X-33.927 Y31.461 E78.18911
G1 X-33.616 Y30.995 E78.20649
G1 X-22.524 Y14.417 E79.31246
G1 X-22.524 Y2.061 E79.99755
G1 X-13.833 Y2.061 E80.47944
G1 X-13.833 Y14.417 E81.16454
G1 X-2.723 Y30.995 E82.27106
G1 X-2.411 Y31.461 E82.30216
G1 X-2.971 Y31.461 E82.31951
G1 X-2.973 Y31.461 E82.31962
G1 X-11.975 Y31.461 E82.81875
G1 X-17.934 Y21.486 E83.46301
G1 X-18.19 Y21.056 E83.47884
G0 F3600 X-18.292 Y21.227
G0 X-18.858 Y20.888
G0 X-18.003 Y13.244
;TYPE:SKIN
G1 F1800 X-18.19 Y12.931 E83.49905
G1 X-18.354 Y13.205 E83.51676
G1 X-18.354 Y6.231 E83.90344
G1 X-18.003 Y6.231 E83.92291
G1 X-18.003 Y13.244 E84.31175
G0 F3600 X-18.19 Y14.1
G1 F1800 X-18.954 Y15.377 E84.39426
G1 X-18.954 Y5.631 E84.93465
G1 X-17.403 Y5.631 E85.02064
G1 X-17.403 Y15.417 E85.56324
G1 X-18.19 Y14.1 E85.64831
G0 F3600 X-18.19 Y15.269
G1 F1800 X-26.101 Y28.491 E86.50263
G1 X-28.365 Y28.491 E86.62816
G1 X-19.554 Y15.318 E87.50689
G1 X-19.554 Y5.031 E88.07727
G1 X-16.803 Y5.031 E88.2298
G1 X-16.803 Y15.318 E88.80018
G1 X-7.974 Y28.491 E89.67946
G1 X-10.288 Y28.491 E89.80776
G1 X-18.19 Y15.269 E90.66182
G0 F3600 X-16.944 Y16.185
