;FLAVOR:Marlin
;TIME:1535
;Filament used: 2.54335m
;Layer height: 0.2
;MINX:-41.973
;MINY:-43.916
;MINZ:0.2
;MAXX:42.442
;MAXY:44.02
;MAXZ:3.6
;POSTPROCESSED
;Generated with Cura_SteamEngine 4.8.0
M140 S60
M105
M190 S60
M104 S195
M105
M109 S195
M82 ;absolute extrusion mode
G28 ;Home
G1 Z15.0 F6000 ;Move the platform down 15mm
;Prime the extruder
G92 E0
G1 F200 E3
G92 E0
G92 E0
G92 E0
G1 F1500 E-6.5
;LAYER_COUNT:18
;LAYER:0
M107
G0 F3600 X40.566 Y-1.502 Z0.2
;TYPE:SKIRT
G1 F1500 E0
G1 F1800 X40.641 Y1.174 E0.14843
G1 X40.795 Y3.917 E0.30076
G1 X41.025 Y6.622 E0.45129
G1 X41.37 Y9.687 E0.6223
G1 X41.402 Y10.332 E0.65811
G1 X41.404 Y10.45 E0.66466
G1 X41.404 Y15.694 E0.95542
G1 X41.393 Y16.404 E0.99479
G1 X41.346 Y16.945 E1.0249
G1 X41.276 Y17.393 E1.05004
G1 X40.949 Y19.306 E1.15765
G1 X40.564 Y22.002 E1.30865
G1 X40.259 Y24.694 E1.45887
G1 X40.028 Y27.402 E1.60956
G1 X39.873 Y30.148 E1.76206
G1 X39.797 Y32.812 E1.90983
G1 X39.787 Y34.226 E1.98823
G1 X39.787 Y39.442 E2.27744
G1 X39.776 Y40.17 E2.31781
G1 X39.727 Y40.726 E2.34876
G1 X39.6 Y41.27 E2.37973
G1 X39.396 Y41.789 E2.41065
G1 X39.121 Y42.275 E2.44162
G1 X38.779 Y42.716 E2.47256
G1 X38.377 Y43.103 E2.5035
G1 X37.924 Y43.43 E2.53448
G1 X37.429 Y43.688 E2.56543
G1 X36.903 Y43.873 E2.59634
G1 X36.355 Y43.981 E2.62731
G1 X35.667 Y44.018 E2.66552
G1 X35.557 Y44.02 E2.67162
G1 X10.304 Y44.02 E4.07181
G1 X9.607 Y44.01 E4.11046
G1 X9.065 Y43.971 E4.14059
G1 X6.687 Y43.702 E4.27328
G1 X3.979 Y43.471 E4.42398
G1 X1.233 Y43.316 E4.57648
G1 X-1.442 Y43.24 E4.72486
G1 X-4.193 Y43.24 E4.87739
G1 X-6.868 Y43.316 E5.02577
G1 X-9.631 Y43.472 E5.17921
G1 X-10.943 Y43.575 E5.25218
G1 X-11.445 Y43.592 E5.28003
G1 X-11.555 Y43.594 E5.28613
G1 X-36.808 Y43.594 E6.68633
G1 X-37.506 Y43.584 E6.72503
G1 X-38.062 Y43.536 E6.75597
G1 X-38.606 Y43.409 E6.78695
G1 X-39.126 Y43.206 E6.8179
G1 X-39.611 Y42.93 E6.84884
G1 X-40.053 Y42.589 E6.87979
G1 X-40.441 Y42.187 E6.91077
G1 X-40.767 Y41.735 E6.94167
G1 X-41.026 Y41.24 E6.97265
G1 X-41.212 Y40.714 E7.00358
G1 X-41.32 Y40.166 E7.03455
G1 X-41.358 Y39.458 E7.07387
G1 X-41.359 Y34.35 E7.35709
G1 X-41.346 Y33.533 E7.40239
G1 X-41.299 Y32.447 E7.46266
G1 X-41.224 Y29.748 E7.61237
G1 X-41.224 Y26.998 E7.76485
G1 X-41.301 Y24.315 E7.91367
G1 X-41.456 Y21.574 E8.0659
G1 X-41.686 Y18.873 E8.2162
G1 X-41.841 Y17.433 E8.2965
G1 X-41.939 Y16.57 E8.34466
G1 X-41.971 Y15.92 E8.38075
G1 X-41.973 Y15.81 E8.38685
G1 X-41.973 Y10.341 E8.69008
G1 X-41.962 Y9.631 E8.72946
G1 X-41.915 Y9.089 E8.75962
G1 X-41.81 Y8.417 E8.79733
G1 X-41.551 Y6.908 E8.88223
G1 X-41.171 Y4.235 E9.03192
G1 X-40.865 Y1.536 E9.18253
G1 X-40.634 Y-1.174 E9.33334
G1 X-40.48 Y-3.913 E9.48545
G1 X-40.404 Y-6.596 E9.63427
G1 X-40.397 Y-8.686 E9.75015
G1 X-40.401 Y-9.205 E9.77893
G1 X-40.401 Y-14.283 E10.06049
G1 X-40.388 Y-15.1 E10.1058
G1 X-40.341 Y-16.186 E10.16607
G1 X-40.266 Y-18.885 E10.31578
G1 X-40.266 Y-21.636 E10.46831
G1 X-40.343 Y-24.314 E10.61686
G1 X-40.498 Y-27.059 E10.7693
G1 X-40.728 Y-29.759 E10.91955
G1 X-40.883 Y-31.2 E10.99991
G1 X-40.981 Y-32.063 E11.04807
G1 X-41.013 Y-32.713 E11.08415
G1 X-41.015 Y-32.823 E11.09025
G1 X-41.015 Y-38.292 E11.39349
G1 X-41.006 Y-38.981 E11.43169
G1 X-40.958 Y-39.537 E11.46264
G1 X-40.832 Y-40.081 E11.4936
G1 X-40.63 Y-40.601 E11.52453
G1 X-40.355 Y-41.087 E11.55549
G1 X-40.014 Y-41.529 E11.58644
G1 X-39.613 Y-41.917 E11.61738
G1 X-39.161 Y-42.245 E11.64835
G1 X-38.667 Y-42.504 E11.67927
G1 X-38.14 Y-42.69 E11.71026
G1 X-37.593 Y-42.799 E11.74119
G1 X-36.894 Y-42.837 E11.78
G1 X-36.785 Y-42.839 E11.78605
G1 X-9.302 Y-42.839 E13.30989
G1 X-7.893 Y-42.818 E13.38802
G1 X-6.359 Y-42.775 E13.47311
G1 X-3.612 Y-42.775 E13.62542
G1 X-.934 Y-42.852 E13.77397
G1 X1.81 Y-43.008 E13.92636
G1 X4.518 Y-43.24 E14.07706
G1 X7.218 Y-43.547 E14.22773
G1 X8.608 Y-43.735 E14.3055
G1 X9.535 Y-43.868 E14.35743
G1 X10.297 Y-43.914 E14.39975
G1 X10.407 Y-43.916 E14.40585
G1 X37.891 Y-43.916 E15.92975
G1 X38.589 Y-43.906 E15.96845
G1 X39.145 Y-43.858 E15.9994
G1 X39.689 Y-43.731 E16.03037
G1 X40.209 Y-43.528 E16.06132
G1 X40.694 Y-43.252 E16.09226
G1 X41.136 Y-42.911 E16.12322
G1 X41.524 Y-42.509 E16.1542
G1 X41.85 Y-42.057 E16.1851
G1 X42.109 Y-41.562 E16.21607
G1 X42.295 Y-41.036 E16.24701
G1 X42.403 Y-40.488 E16.27798
G1 X42.44 Y-39.804 E16.31596
G1 X42.442 Y-39.692 E16.32217
G1 X42.442 Y-34.442 E16.61326
G1 X42.431 Y-33.732 E16.65263
G1 X42.384 Y-33.191 E16.68274
G1 X42.314 Y-32.743 E16.70789
G1 X41.987 Y-30.83 E16.81549
G1 X41.602 Y-28.134 E16.96649
G1 X41.297 Y-25.442 E17.11671
G1 X41.066 Y-22.734 E17.26741
G1 X40.911 Y-19.988 E17.4199
G1 X40.835 Y-17.324 E17.56767
G1 X40.825 Y-15.91 E17.64608
G1 X40.825 Y-10.666 E17.93684
G1 X40.815 Y-9.977 E17.97505
G1 X40.809 Y-9.812 E17.9842
G1 X40.645 Y-6.931 E18.1442
G1 X40.568 Y-4.252 E18.2928
G1 X40.566 Y-1.502 E18.44528
G0 F3600 X39.966 Y-1.521
G1 F1800 X40.043 Y1.222 E18.59743
G1 X40.197 Y3.966 E18.74982
G1 X40.427 Y6.673 E18.90045
G1 X40.774 Y9.753 E19.07231
G1 X40.802 Y10.35 E19.10545
G1 X40.804 Y10.45 E19.11099
G1 X40.804 Y15.685 E19.40126
G1 X40.793 Y16.395 E19.44063
G1 X40.693 Y17.244 E19.48803
G1 X40.354 Y19.225 E19.59946
G1 X39.97 Y21.924 E19.75062
G1 X39.661 Y24.646 E19.90252
G1 X39.43 Y27.352 E20.0531
G1 X39.275 Y30.097 E20.20554
G1 X39.197 Y32.853 E20.35842
G1 X39.187 Y34.221 E20.43427
G1 X39.187 Y39.433 E20.72326
G1 X39.176 Y40.161 E20.76363
G1 X39.128 Y40.672 E20.79208
G1 X39.002 Y41.17 E20.82057
G1 X38.8 Y41.642 E20.84903
G1 X38.527 Y42.077 E20.87751
G1 X38.19 Y42.464 E20.90596
G1 X37.797 Y42.794 E20.93442
G1 X37.357 Y43.06 E20.96293
G1 X36.882 Y43.254 E20.99137
G1 X36.382 Y43.372 E21.01986
G1 X35.65 Y43.419 E21.06053
G1 X10.313 Y43.42 E22.46538
G1 X9.616 Y43.41 E22.50403
G1 X9.055 Y43.367 E22.53523
G1 X6.735 Y43.104 E22.66469
G1 X4.029 Y42.873 E22.81527
G1 X1.284 Y42.718 E22.96772
G1 X-1.461 Y42.64 E23.11998
G1 X-4.174 Y42.64 E23.27041
G1 X-6.919 Y42.718 E23.42267
G1 X-9.666 Y42.873 E23.57522
G1 X-10.977 Y42.976 E23.64814
G1 X-11.555 Y42.994 E23.6802
G1 X-36.799 Y42.994 E25.07989
G1 X-37.497 Y42.984 E25.1186
G1 X-38.009 Y42.936 E25.14711
G1 X-38.506 Y42.81 E25.17554
G1 X-38.978 Y42.609 E25.20399
G1 X-39.414 Y42.336 E25.23251
G1 X-39.801 Y42 E25.26093
G1 X-40.132 Y41.607 E25.28942
G1 X-40.398 Y41.168 E25.31788
G1 X-40.592 Y40.692 E25.34638
G1 X-40.711 Y40.193 E25.37482
G1 X-40.758 Y39.441 E25.4166
G1 X-40.759 Y34.358 E25.69843
G1 X-40.749 Y33.651 E25.73764
G1 X-40.702 Y32.518 E25.80051
G1 X-40.624 Y29.729 E25.95521
G1 X-40.624 Y27.015 E26.1057
G1 X-40.703 Y24.267 E26.25813
G1 X-40.858 Y21.524 E26.41046
G1 X-41.09 Y18.804 E26.56182
G1 X-41.244 Y17.369 E26.64185
G1 X-41.343 Y16.502 E26.69023
G1 X-41.372 Y15.903 E26.72348
G1 X-41.373 Y10.35 E27.03138
G1 X-41.362 Y9.64 E27.07075
G1 X-41.322 Y9.181 E27.09629
G1 X-41.218 Y8.519 E27.13345
G1 X-40.958 Y7.002 E27.21879
G1 X-40.577 Y4.317 E27.36916
G1 X-40.267 Y1.584 E27.52166
G1 X-40.036 Y-1.125 E27.67241
G1 X-39.882 Y-3.862 E27.82441
G1 X-39.804 Y-6.617 E27.97723
G1 X-39.797 Y-8.684 E28.09184
G1 X-39.801 Y-9.209 E28.12095
G1 X-39.801 Y-14.275 E28.40184
G1 X-39.791 Y-14.982 E28.44104
G1 X-39.744 Y-16.115 E28.50392
G1 X-39.666 Y-18.904 E28.65862
G1 X-39.666 Y-21.618 E28.8091
G1 X-39.745 Y-24.366 E28.96153
G1 X-39.9 Y-27.109 E29.11386
G1 X-40.132 Y-29.833 E29.26545
G1 X-40.286 Y-31.265 E29.34531
G1 X-40.385 Y-32.131 E29.39364
G1 X-40.414 Y-32.73 E29.42689
G1 X-40.415 Y-38.284 E29.73484
G1 X-40.406 Y-38.973 E29.77304
G1 X-40.359 Y-39.484 E29.8015
G1 X-40.234 Y-39.982 E29.82996
G1 X-40.033 Y-40.455 E29.85846
G1 X-39.761 Y-40.89 E29.88691
G1 X-39.425 Y-41.278 E29.91537
G1 X-39.032 Y-41.609 E29.94386
G1 X-38.593 Y-41.876 E29.97235
G1 X-38.118 Y-42.071 E30.00082
G1 X-37.619 Y-42.19 E30.02926
G1 X-36.877 Y-42.238 E30.07049
G1 X-9.311 Y-42.239 E31.59893
G1 X-7.91 Y-42.219 E31.67662
G1 X-6.341 Y-42.175 E31.76365
G1 X-3.629 Y-42.175 E31.91402
G1 X-.884 Y-42.254 E32.06628
G1 X1.86 Y-42.41 E32.21867
G1 X4.567 Y-42.642 E32.36932
G1 X7.315 Y-42.954 E32.52266
G1 X8.683 Y-43.14 E32.59921
G1 X9.62 Y-43.274 E32.65169
G1 X10.314 Y-43.315 E32.69024
G1 X37.882 Y-43.316 E34.21879
G1 X38.58 Y-43.306 E34.2575
G1 X39.092 Y-43.258 E34.28601
G1 X39.589 Y-43.132 E34.31444
G1 X40.061 Y-42.931 E34.34289
G1 X40.497 Y-42.658 E34.37141
G1 X40.884 Y-42.322 E34.39983
G1 X41.215 Y-41.929 E34.42832
G1 X41.481 Y-41.49 E34.45678
G1 X41.675 Y-41.014 E34.48528
G1 X41.794 Y-40.515 E34.51372
G1 X41.841 Y-39.787 E34.55417
G1 X41.842 Y-34.451 E34.85003
G1 X41.831 Y-33.741 E34.88941
G1 X41.731 Y-32.892 E34.93681
G1 X41.392 Y-30.911 E35.04824
G1 X41.008 Y-28.212 E35.1994
G1 X40.699 Y-25.49 E35.35129
G1 X40.468 Y-22.784 E35.50188
G1 X40.313 Y-20.039 E35.65432
G1 X40.235 Y-17.283 E35.80719
G1 X40.225 Y-15.915 E35.88305
G1 X40.225 Y-10.675 E36.17359
G1 X40.215 Y-9.986 E36.21179
G1 X40.21 Y-9.846 E36.21956
G1 X40.047 Y-6.981 E36.37867
G1 X39.968 Y-4.234 E36.53105
G1 X39.966 Y-1.521 E36.68147
G1 F1500 E30.18147
;MESH:Z.stl(2)
G0 F3600 X-9.601 Y-9.853
G0 X-11.18 Y-9.853
G0 X-25.93 Y-14.411
G0 X-26.474 Y-15.555
G0 X-26.376 Y-15.538
;TYPE:WALL-INNER
G1 F1500 E36.68147
G1 F1800 X-25.908 Y-14.444 E36.74745
G1 X-11.166 Y-14.444 E37.56485
G1 X-11.166 Y-9.839 E37.82018
G1 X-35.601 Y-9.839 E39.17502
G1 X-35.601 Y-14.573 E39.4375
G1 X-18.598 Y-32.299 E40.7994
G1 X-19.066 Y-33.393 E40.86538
G1 X-36.215 Y-33.393 E41.81623
G1 X-36.215 Y-38.039 E42.07384
G1 X-9.55 Y-38.039 E43.55232
G1 X-9.55 Y-33.08 E43.82728
G1 X-26.376 Y-15.538 E45.17503
G0 F3600 X-25.668 Y-15.409
;TYPE:WALL-OUTER
G1 F1800 X-25.512 Y-15.044 E45.19704
G1 X-25.273 Y-15.044 E45.21029
G1 X-10.566 Y-15.044 E46.02575
G1 X-10.566 Y-9.239 E46.34761
G1 X-36.201 Y-9.239 E47.76899
G1 X-36.201 Y-14.814 E48.0781
G1 X-19.471 Y-32.256 E49.41816
G1 X-19.306 Y-32.428 E49.43138
G1 X-19.462 Y-32.793 E49.45339
G1 X-19.701 Y-32.793 E49.46457
G1 X-36.815 Y-32.793 E50.41349
G1 X-36.815 Y-38.639 E50.73763
G1 X-8.95 Y-38.639 E52.28265
G1 X-8.95 Y-32.839 E52.60424
G1 X-25.503 Y-15.581 E53.93014
G1 X-25.668 Y-15.409 E53.94129
G0 F3600 X-25.59 Y-15.225
G0 X-26.198 Y-14.966
G0 X-26.234 Y-14.952
G0 X-14.683 Y-33.753
;TYPE:SKIN
G1 F1800 X-14.732 Y-33.869 E53.94827
G1 X-14.571 Y-33.869 E53.9572
G1 X-14.683 Y-33.753 E53.96614
G0 F3600 X-14.878 Y-32.683
G1 F1800 X-15.642 Y-34.469 E54.07384
G1 X-13.164 Y-34.469 E54.21124
G1 X-14.878 Y-32.683 E54.34849
G0 F3600 X-15.093 Y-31.661
G1 F1800 X-16.552 Y-35.069 E54.55404
G1 X-12.52 Y-35.069 E54.7776
G1 X-12.52 Y-34.274 E54.82168
G1 X-29.881 Y-16.176 E56.21221
G1 X-28.44 Y-12.809 E56.41528
G1 X-32.631 Y-12.809 E56.64766
G1 X-32.631 Y-13.379 E56.67926
G1 X-15.093 Y-31.661 E58.08395
G0 F3600 X-15.801 Y-31.79
G1 F1800 X-17.462 Y-35.669 E58.31792
G1 X-11.92 Y-35.669 E58.6252
G1 X-11.92 Y-34.033 E58.71591
G1 X-29.173 Y-16.047 E60.09782
G1 X-27.53 Y-12.209 E60.3293
G1 X-33.231 Y-12.209 E60.6454
G1 X-33.231 Y-13.62 E60.72364
G1 X-15.801 Y-31.79 E62.1197
G0 F3600 X-16.509 Y-31.919
G1 F1800 X-17.898 Y-35.163 E62.31536
G1 X-34.445 Y-35.163 E63.23283
G1 X-34.445 Y-36.269 E63.29416
G1 X-11.32 Y-36.269 E64.57636
G1 X-11.32 Y-33.792 E64.7137
G1 X-28.465 Y-15.918 E66.08698
G1 X-27.076 Y-12.674 E66.28264
G1 X-12.936 Y-12.674 E67.06666
G1 X-12.936 Y-11.609 E67.12571
G1 X-33.831 Y-11.609 E68.28427
G1 X-33.831 Y-13.861 E68.40913
G1 X-16.509 Y-31.919 E69.79657
G0 F3600 X-17.217 Y-32.048
G1 F1800 X-18.294 Y-34.563 E69.94826
G1 X-35.045 Y-34.563 E70.87705
G1 X-35.045 Y-36.869 E71.00491
G1 X-10.72 Y-36.869 E72.35365
G1 X-10.72 Y-33.551 E72.53762
G1 X-27.757 Y-15.789 E73.90227
G1 X-26.68 Y-13.274 E74.05397
G1 X-12.336 Y-13.274 E74.84929
G1 X-12.336 Y-11.009 E74.97488
G1 X-34.431 Y-11.009 E76.19997
G1 X-34.431 Y-14.102 E76.37147
G1 X-17.217 Y-32.048 E77.75028
G0 F3600 X-17.925 Y-32.177
G1 F1800 X-18.69 Y-33.963 E77.858
G1 X-35.645 Y-33.963 E78.7981
G1 X-35.645 Y-37.469 E78.9925
G1 X-10.12 Y-37.469 E80.40777
G1 X-10.12 Y-33.31 E80.63838
G1 X-18.068 Y-25.023 E81.27504
G1 X-21.274 Y-21.68 E81.53186
G1 X-27.049 Y-15.66 E81.9944
G1 X-26.284 Y-13.874 E82.10213
G1 X-11.736 Y-13.874 E82.90877
G1 X-11.736 Y-10.409 E83.10089
G1 X-35.031 Y-10.409 E84.39252
G1 X-35.031 Y-14.343 E84.61065
G1 X-24.307 Y-25.523 E85.46961
G1 X-24.307 Y-25.524 E85.46967
G1 X-22.879 Y-27.012 E85.58402
G1 X-17.925 Y-32.177 E85.98084
G0 F3600 X-30.097 Y-15.154
G1 F1800 X-29.35 Y-13.409 E86.08609
G1 X-31.771 Y-13.409 E86.22032
G1 X-30.097 Y-15.154 E86.3544
G0 F3600 X-30.292 Y-14.084
G1 F1800 X-30.26 Y-14.009 E86.35892
G1 X-30.364 Y-14.009 E86.36469
G1 X-30.292 Y-14.084 E86.37045
G0 F3600 X-30.6 Y-13.875
;TYPE:SKIN
G1 F1800 X-30.6 Y-13.694 E86.37547
G0 F3600 X-30.9 Y-13.694
G1 F1800 X-30.9 Y-13.906 E86.38135
G0 F3600 X-32.1 Y-13.493
G1 F1800 X-32.1 Y-13.094 E86.39241
G0 F3600 X-27 Y-12.389
G1 F1800 X-27 Y-11.894 E86.40613
G0 F3600 X-26.7 Y-11.894
G1 F1800 X-26.7 Y-12.389 E86.41985
G0 F3600 X-26.4 Y-12.389
G1 F1800 X-26.4 Y-11.894 E86.43358
G0 F3600 X-26.1 Y-11.894
G1 F1800 X-26.1 Y-12.389 E86.4473
G0 F3600 X-25.8 Y-12.389
G1 F1800 X-25.8 Y-11.894 E86.46102
G0 F3600 X-25.5 Y-11.894
G1 F1800 X-25.5 Y-12.389 E86.47475
G0 F3600 X-25.2 Y-12.389
G1 F1800 X-25.2 Y-11.894 E86.48847
G0 F3600 X-24.9 Y-11.894
G1 F1800 X-24.9 Y-12.389 E86.50219
G0 F3600 X-24.6 Y-12.389
G1 F1800 X-24.6 Y-11.894 E86.51592
G0 F3600 X-24.3 Y-11.894
G1 F1800 X-24.3 Y-12.389 E86.52964
G0 F3600 X-24 Y-12.389
G1 F1800 X-24 Y-11.894 E86.54336
G0 F3600 X-23.7 Y-11.894
G1 F1800 X-23.7 Y-12.389 E86.55709
G0 F3600 X-23.4 Y-12.389
G1 F1800 X-23.4 Y-11.894 E86.57081
G0 F3600 X-23.1 Y-11.894
G1 F1800 X-23.1 Y-12.389 E86.58453
G0 F3600 X-22.8 Y-12.389
G1 F1800 X-22.8 Y-11.894 E86.59825
G0 F3600 X-22.5 Y-11.894
G1 F1800 X-22.5 Y-12.389 E86.61198
G0 F3600 X-22.2 Y-12.389
G1 F1800 X-22.2 Y-11.894 E86.6257
G0 F3600 X-21.9 Y-11.894
G1 F1800 X-21.9 Y-12.389 E86.63942
G0 F3600 X-21.6 Y-12.389
G1 F1800 X-21.6 Y-11.894 E86.65315
G0 F3600 X-21.3 Y-11.894
G1 F1800 X-21.3 Y-12.389 E86.66687
G0 F3600 X-21 Y-12.389
G1 F1800 X-21 Y-11.894 E86.68059
G0 F3600 X-20.7 Y-11.894
G1 F1800 X-20.7 Y-12.389 E86.69432
G0 F3600 X-20.4 Y-12.389
G1 F1800 X-20.4 Y-11.894 E86.70804
G0 F3600 X-20.1 Y-11.894
G1 F1800 X-20.1 Y-12.389 E86.72176
G0 F3600 X-19.8 Y-12.389
G1 F1800 X-19.8 Y-11.894 E86.73548
G0 F3600 X-19.5 Y-11.894
G1 F1800 X-19.5 Y-12.389 E86.74921
G0 F3600 X-19.2 Y-12.389
G1 F1800 X-19.2 Y-11.894 E86.76293
G0 F3600 X-18.9 Y-11.894
G1 F1800 X-18.9 Y-12.389 E86.77665
G0 F3600 X-18.6 Y-12.389
G1 F1800 X-18.6 Y-11.894 E86.79038
G0 F3600 X-18.3 Y-11.894
G1 F1800 X-18.3 Y-12.389 E86.8041
G0 F3600 X-18 Y-12.389
G1 F1800 X-18 Y-11.894 E86.81782
G0 F3600 X-17.7 Y-11.894
G1 F1800 X-17.7 Y-12.389 E86.83155
G0 F3600 X-17.4 Y-12.389
G1 F1800 X-17.4 Y-11.894 E86.84527
G0 F3600 X-17.1 Y-11.894
G1 F1800 X-17.1 Y-12.389 E86.85899
G0 F3600 X-16.8 Y-12.389
G1 F1800 X-16.8 Y-11.894 E86.87272
G0 F3600 X-16.5 Y-11.894
G1 F1800 X-16.5 Y-12.389 E86.88644
G0 F3600 X-16.2 Y-12.389
G1 F1800 X-16.2 Y-11.894 E86.90016
G0 F3600 X-15.9 Y-11.894
G1 F1800 X-15.9 Y-12.389 E86.91388
G0 F3600 X-15.6 Y-12.389
G1 F1800 X-15.6 Y-11.894 E86.92761
G0 F3600 X-15.3 Y-11.894
G1 F1800 X-15.3 Y-12.389 E86.94133
G0 F3600 X-15 Y-12.389
G1 F1800 X-15 Y-11.894 E86.95505
G0 F3600 X-14.7 Y-11.894
G1 F1800 X-14.7 Y-12.389 E86.96878
G0 F3600 X-14.4 Y-12.389
G1 F1800 X-14.4 Y-11.894 E86.9825
G0 F3600 X-14.1 Y-11.894
G1 F1800 X-14.1 Y-12.389 E86.99622
G0 F3600 X-13.8 Y-12.389
G1 F1800 X-13.8 Y-11.894 E87.00995
G0 F3600 X-13.5 Y-11.894
G1 F1800 X-13.5 Y-12.389 E87.02367
G0 F3600 X-25.93 Y-14.411
G0 X-26.415 Y-15.545
G0 X-14.1 Y-33.905
