;FLAVOR:Marlin
;TIME:1030
;Filament used: 1.69188m
;Layer height: 0.2
;MINX:-48.363
;MINY:-20.202
;MINZ:0.2
;MAXX:48.5
;MAXY:20.174
;MAXZ:3.6
;POSTPROCESSED
;Generated with Cura_SteamEngine 4.8.0
M140 S60
M105
M190 S60
M104 S195
M105
M109 S195
M82 ;absolute extrusion mode
G28 ;Home
G1 Z15.0 F6000 ;Move the platform down 15mm
;Prime the extruder
G92 E0
G1 F200 E3
G92 E0
G92 E0
G92 E0
G1 F1500 E-6.5
;LAYER_COUNT:18
;LAYER:0
M107
G0 F3600 X2.379 Y19.171 Z0.2
;TYPE:SKIRT
G1 F1500 E0
G1 F1800 X0.412 Y19.314 E0.10935
G1 X-.219 Y19.351 E0.1444
G1 X-.574 Y19.356 E0.16408
G1 X-1.818 Y19.314 E0.2331
G1 X-2.815 Y19.261 E0.28846
G1 X-4.732 Y19.131 E0.39499
G1 X-7.421 Y18.987 E0.5443
G1 X-10.17 Y18.918 E0.69677
G1 X-12.882 Y18.927 E0.84714
G1 X-15.596 Y19.012 E0.9977
G1 X-18.304 Y19.174 E1.14812
G1 X-21.008 Y19.413 E1.29863
G1 X-23.833 Y19.744 E1.45634
G1 X-24.453 Y19.826 E1.49102
G1 X-24.583 Y19.841 E1.49827
G1 X-25.846 Y19.965 E1.56864
G1 X-27.889 Y20.126 E1.68227
G1 X-28.643 Y20.174 E1.72416
G1 X-29.37 Y20.164 E1.76447
G1 X-29.492 Y20.156 E1.77125
G1 X-32.984 Y19.878 E1.96548
G1 X-33.629 Y19.817 E2.0014
G1 X-34.083 Y19.747 E2.02687
G1 X-35.131 Y19.52 E2.08633
G1 X-35.459 Y19.443 E2.10501
G1 X-36.031 Y19.3 E2.1377
G1 X-36.375 Y19.196 E2.15763
G1 X-37.496 Y18.803 E2.22349
G1 X-37.625 Y18.756 E2.23111
G1 X-38.296 Y18.494 E2.27105
G1 X-38.957 Y18.174 E2.31177
G1 X-39.707 Y17.754 E2.35943
G1 X-40.344 Y17.381 E2.40036
G1 X-40.873 Y17.015 E2.43602
G1 X-41.189 Y16.768 E2.45826
G1 X-41.713 Y16.348 E2.4955
G1 X-42.211 Y15.938 E2.53126
G1 X-42.546 Y15.627 E2.55661
G1 X-43.189 Y14.956 E2.60814
G1 X-43.5 Y14.62 E2.63352
G1 X-43.937 Y14.134 E2.66976
G1 X-44.311 Y13.665 E2.70302
G1 X-44.386 Y13.563 E2.71004
G1 X-45.019 Y12.676 E2.77046
G1 X-45.419 Y12.099 E2.80939
G1 X-45.656 Y11.711 E2.8346
G1 X-46.047 Y10.975 E2.88081
G1 X-46.37 Y10.349 E2.91987
G1 X-46.702 Y9.678 E2.96138
G1 X-46.939 Y9.094 E2.99632
G1 X-47.077 Y8.688 E3.0201
G1 X-47.431 Y7.596 E3.08375
G1 X-47.64 Y6.917 E3.12314
G1 X-47.746 Y6.489 E3.14759
G1 X-47.88 Y5.776 E3.18781
G1 X-48.068 Y4.699 E3.24843
G1 X-48.171 Y4.052 E3.28476
G1 X-48.209 Y3.714 E3.30362
G1 X-48.283 Y2.668 E3.36176
G1 X-48.338 Y1.603 E3.42089
G1 X-48.363 Y0.943 E3.45751
G1 X-48.361 Y0.595 E3.47681
G1 X-48.303 Y-.511 E3.53822
G1 X-48.166 Y-2.464 E3.64677
G1 X-48.108 Y-3.138 E3.68428
G1 X-48.026 Y-3.666 E3.7139
G1 X-47.877 Y-4.318 E3.75099
G1 X-47.423 Y-6.201 E3.85839
G1 X-47.261 Y-6.831 E3.89445
G1 X-47.039 Y-7.463 E3.93159
G1 X-46.7 Y-8.214 E3.97728
G1 X-46.086 Y-9.527 E4.05765
G1 X-45.743 Y-10.231 E4.10107
G1 X-45.342 Y-10.883 E4.14351
G1 X-44.904 Y-11.459 E4.18363
G1 X-43.997 Y-12.618 E4.26523
G1 X-43.56 Y-13.159 E4.30379
G1 X-43.017 Y-13.708 E4.34661
G1 X-42.296 Y-14.307 E4.39858
G1 X-41.311 Y-15.094 E4.46849
G1 X-40.725 Y-15.55 E4.50966
G1 X-40.072 Y-15.961 E4.55244
G1 X-39.377 Y-16.308 E4.59551
G1 X-37.977 Y-16.982 E4.68166
G1 X-37.41 Y-17.246 E4.71634
G1 X-36.768 Y-17.479 E4.75421
G1 X-35.855 Y-17.721 E4.80658
G1 X-34.276 Y-18.114 E4.8968
G1 X-33.627 Y-18.266 E4.93376
G1 X-33.08 Y-18.354 E4.96448
G1 X-32.284 Y-18.424 E5.00879
G1 X-30.232 Y-18.573 E5.12286
G1 X-29.685 Y-18.606 E5.15325
G1 X-29.321 Y-18.611 E5.17343
G1 X-28.062 Y-18.569 E5.24328
G1 X-27.098 Y-18.517 E5.29681
G1 X-25.164 Y-18.387 E5.40428
G1 X-22.384 Y-18.239 E5.55864
G1 X-19.674 Y-18.173 E5.70895
G1 X-16.959 Y-18.183 E5.85949
G1 X-14.247 Y-18.269 E6.00993
G1 X-11.539 Y-18.432 E6.16036
G1 X-8.8 Y-18.675 E6.31282
G1 X-6.104 Y-18.992 E6.46333
G1 X-5.436 Y-19.08 E6.50069
G1 X-4.124 Y-19.211 E6.5738
G1 X-1.982 Y-19.382 E6.69294
G1 X-1.234 Y-19.43 E6.7345
G1 X-.548 Y-19.422 E6.77254
G1 X-.425 Y-19.414 E6.77938
G1 X2.933 Y-19.146 E6.96616
G1 X5.696 Y-18.965 E7.11969
G1 X8.375 Y-18.865 E7.26833
G1 X11.122 Y-18.839 E7.42065
G1 X13.8 Y-18.891 E7.56916
G1 X16.548 Y-19.022 E7.7217
G1 X19.258 Y-19.227 E7.87239
G1 X21.948 Y-19.508 E8.02236
G1 X23.389 Y-19.707 E8.10301
G1 X23.558 Y-19.718 E8.1124
G1 X24.608 Y-19.856 E8.17112
G1 X24.732 Y-19.87 E8.17804
G1 X25.983 Y-19.993 E8.24774
G1 X28.025 Y-20.154 E8.36131
G1 X28.779 Y-20.202 E8.40321
G1 X29.506 Y-20.192 E8.44352
G1 X29.628 Y-20.184 E8.4503
G1 X33.12 Y-19.906 E8.64453
G1 X33.765 Y-19.845 E8.68045
G1 X34.219 Y-19.775 E8.70592
G1 X35.267 Y-19.548 E8.76538
G1 X35.595 Y-19.471 E8.78406
G1 X36.167 Y-19.328 E8.81675
G1 X36.511 Y-19.224 E8.83668
G1 X37.632 Y-18.831 E8.90254
G1 X37.761 Y-18.784 E8.91016
G1 X38.432 Y-18.522 E8.9501
G1 X39.085 Y-18.207 E8.99029
G1 X39.79 Y-17.813 E9.03508
G1 X40.483 Y-17.407 E9.07961
G1 X40.989 Y-17.06 E9.11363
G1 X41.355 Y-16.774 E9.13938
G1 X41.819 Y-16.401 E9.17239
G1 X42.353 Y-15.961 E9.21076
G1 X42.69 Y-15.648 E9.23626
G1 X43.32 Y-14.989 E9.28681
G1 X43.614 Y-14.672 E9.31078
G1 X44.071 Y-14.165 E9.34863
G1 X44.467 Y-13.668 E9.38386
G1 X44.547 Y-13.56 E9.39131
G1 X45.143 Y-12.722 E9.44833
G1 X45.557 Y-12.124 E9.48866
G1 X45.791 Y-11.739 E9.51364
G1 X46.168 Y-11.032 E9.55806
G1 X46.506 Y-10.376 E9.59898
G1 X46.837 Y-9.707 E9.64037
G1 X47.07 Y-9.136 E9.67456
G1 X47.222 Y-8.687 E9.70085
G1 X47.551 Y-7.674 E9.7599
G1 X47.772 Y-6.959 E9.8014
G1 X47.878 Y-6.531 E9.82584
G1 X48.016 Y-5.799 E9.86715
G1 X48.201 Y-4.735 E9.92703
G1 X48.305 Y-4.09 E9.96325
G1 X48.345 Y-3.742 E9.98267
G1 X48.415 Y-2.736 E10.03859
G1 X48.476 Y-1.594 E10.102
G1 X48.5 Y-.983 E10.1359
G1 X48.498 Y-.629 E10.15553
G1 X48.44 Y0.472 E10.21666
G1 X48.302 Y2.433 E10.32566
G1 X48.242 Y3.118 E10.36379
G1 X48.161 Y3.637 E10.39291
G1 X48.013 Y4.292 E10.43015
G1 X47.573 Y6.11 E10.53386
G1 X47.396 Y6.799 E10.5733
G1 X47.177 Y7.427 E10.61018
G1 X46.817 Y8.228 E10.65887
G1 X46.205 Y9.535 E10.73889
G1 X45.89 Y10.185 E10.77894
G1 X45.484 Y10.846 E10.82195
G1 X45.02 Y11.455 E10.8644
G1 X44.102 Y12.628 E10.94699
G1 X43.702 Y13.124 E10.98232
G1 X43.155 Y13.678 E11.02549
G1 X42.414 Y14.292 E11.07885
G1 X41.417 Y15.09 E11.14965
G1 X40.856 Y15.525 E11.18902
G1 X40.208 Y15.932 E11.23144
G1 X39.508 Y16.282 E11.27484
G1 X38.142 Y16.939 E11.35888
G1 X37.533 Y17.221 E11.39609
G1 X36.901 Y17.45 E11.43337
G1 X36.001 Y17.69 E11.48501
G1 X34.405 Y18.088 E11.57622
G1 X33.762 Y18.238 E11.61282
G1 X33.218 Y18.325 E11.64337
G1 X32.4 Y18.397 E11.6889
G1 X30.433 Y18.54 E11.79825
G1 X29.801 Y18.577 E11.83336
G1 X29.446 Y18.582 E11.85304
G1 X28.203 Y18.541 E11.922
G1 X27.208 Y18.488 E11.97725
G1 X26.068 Y18.41 E12.0406
G1 X24.041 Y18.244 E12.15337
G1 X21.367 Y18.101 E12.30185
G1 X18.618 Y18.032 E12.45432
G1 X15.906 Y18.041 E12.60469
G1 X13.192 Y18.126 E12.75524
G1 X10.483 Y18.288 E12.90572
G1 X7.776 Y18.528 E13.0564
G1 X5.038 Y18.847 E13.20924
G1 X3.428 Y19.072 E13.29938
G1 X3.2 Y19.099 E13.31211
G1 X2.379 Y19.171 E13.3578
G0 F3600 X2.335 Y18.572
G1 F1800 X0.377 Y18.715 E13.46666
G1 X-.254 Y18.752 E13.5017
G1 X-.555 Y18.756 E13.51839
G1 X-1.786 Y18.715 E13.58669
G1 X-2.774 Y18.662 E13.64155
G1 X-4.657 Y18.534 E13.74619
G1 X-7.409 Y18.387 E13.899
G1 X-10.157 Y18.318 E14.05142
G1 X-12.903 Y18.327 E14.20367
G1 X-15.616 Y18.412 E14.35417
G1 X-18.357 Y18.576 E14.50643
G1 X-21.056 Y18.815 E14.65666
G1 X-23.902 Y19.148 E14.81554
G1 X-24.642 Y19.244 E14.85691
G1 X-25.894 Y19.367 E14.92667
G1 X-27.927 Y19.527 E15.03974
G1 X-28.681 Y19.575 E15.08163
G1 X-29.341 Y19.564 E15.11823
G1 X-29.445 Y19.558 E15.12401
G1 X-32.928 Y19.28 E15.31774
G1 X-33.573 Y19.219 E15.35366
G1 X-33.957 Y19.16 E15.3752
G1 X-34.993 Y18.936 E15.43397
G1 X-35.269 Y18.871 E15.4497
G1 X-35.885 Y18.717 E15.4849
G1 X-36.177 Y18.63 E15.5018
G1 X-37.298 Y18.237 E15.56766
G1 X-37.406 Y18.197 E15.57405
G1 X-38.077 Y17.935 E15.61399
G1 X-38.678 Y17.643 E15.65104
G1 X-39.466 Y17.201 E15.70113
G1 X-40.04 Y16.864 E15.73804
G1 X-40.515 Y16.534 E15.77011
G1 X-40.814 Y16.3 E15.79116
G1 X-41.331 Y15.885 E15.82792
G1 X-41.829 Y15.475 E15.86368
G1 X-42.113 Y15.212 E15.88515
G1 X-42.749 Y14.548 E15.93613
G1 X-43.054 Y14.218 E15.96104
G1 X-43.491 Y13.732 E15.99728
G1 X-43.834 Y13.301 E16.02782
G1 X-43.898 Y13.215 E16.03377
G1 X-44.526 Y12.334 E16.09375
G1 X-44.926 Y11.757 E16.13268
G1 X-45.126 Y11.429 E16.15398
G1 X-45.514 Y10.701 E16.19972
G1 X-45.832 Y10.082 E16.23831
G1 X-46.164 Y9.411 E16.27982
G1 X-46.376 Y8.888 E16.31111
G1 X-46.507 Y8.503 E16.33366
G1 X-46.858 Y7.42 E16.39678
G1 X-47.067 Y6.741 E16.43617
G1 X-47.156 Y6.379 E16.45684
G1 X-47.289 Y5.672 E16.49673
G1 X-47.475 Y4.605 E16.55679
G1 X-47.578 Y3.958 E16.59311
G1 X-47.611 Y3.672 E16.60907
G1 X-47.683 Y2.636 E16.66666
G1 X-47.739 Y1.58 E16.72529
G1 X-47.764 Y0.92 E16.76191
G1 X-47.762 Y0.626 E16.77821
G1 X-47.705 Y-.469 E16.83901
G1 X-47.568 Y-2.413 E16.94706
G1 X-47.51 Y-3.087 E16.98457
G1 X-47.44 Y-3.533 E17.00961
G1 X-47.294 Y-4.177 E17.04622
G1 X-46.842 Y-6.052 E17.15316
G1 X-46.68 Y-6.682 E17.18923
G1 X-46.492 Y-7.217 E17.22067
G1 X-46.157 Y-7.96 E17.26586
G1 X-45.547 Y-9.264 E17.34568
G1 X-45.204 Y-9.968 E17.3891
G1 X-44.865 Y-10.52 E17.42502
G1 X-44.431 Y-11.089 E17.4647
G1 X-43.53 Y-12.241 E17.54579
G1 X-43.093 Y-12.782 E17.58435
G1 X-42.634 Y-13.247 E17.62058
G1 X-41.921 Y-13.838 E17.67193
G1 X-40.943 Y-14.62 E17.74136
G1 X-40.357 Y-15.076 E17.78253
G1 X-39.804 Y-15.425 E17.81879
G1 X-39.117 Y-15.767 E17.86134
G1 X-37.724 Y-16.438 E17.94707
G1 X-37.157 Y-16.702 E17.98175
G1 X-36.614 Y-16.899 E18.01377
G1 X-35.71 Y-17.139 E18.06563
G1 X-34.14 Y-17.53 E18.15534
G1 X-33.491 Y-17.682 E18.1923
G1 X-33.028 Y-17.756 E18.2183
G1 X-32.24 Y-17.825 E18.26216
G1 X-30.196 Y-17.974 E18.37579
G1 X-29.649 Y-18.007 E18.40618
G1 X-29.341 Y-18.011 E18.42326
G1 X-28.094 Y-17.969 E18.49244
G1 X-27.138 Y-17.919 E18.54552
G1 X-25.149 Y-17.785 E18.65605
G1 X-22.431 Y-17.64 E18.80697
G1 X-19.686 Y-17.573 E18.95921
G1 X-16.938 Y-17.583 E19.11158
G1 X-14.225 Y-17.669 E19.26209
G1 X-11.487 Y-17.834 E19.41417
G1 X-8.747 Y-18.077 E19.56669
G1 X-6.026 Y-18.397 E19.7186
G1 X-5.358 Y-18.485 E19.75596
G1 X-4.065 Y-18.614 E19.82801
G1 X-1.935 Y-18.784 E19.94649
G1 X-1.195 Y-18.831 E19.9876
G1 X-.577 Y-18.822 E20.02187
G1 X-.473 Y-18.816 E20.02765
G1 X2.914 Y-18.546 E20.21604
G1 X5.634 Y-18.368 E20.36718
G1 X8.383 Y-18.265 E20.51971
G1 X11.128 Y-18.239 E20.67192
G1 X13.841 Y-18.292 E20.82237
G1 X16.549 Y-18.42 E20.97269
G1 X19.33 Y-18.631 E21.12733
G1 X22.007 Y-18.91 E21.27656
G1 X23.472 Y-19.113 E21.35857
G1 X23.627 Y-19.122 E21.36718
G1 X24.686 Y-19.261 E21.4264
G1 X24.791 Y-19.273 E21.43226
G1 X26.03 Y-19.395 E21.50129
G1 X28.063 Y-19.555 E21.61436
G1 X28.817 Y-19.603 E21.65625
G1 X29.477 Y-19.592 E21.69285
G1 X29.581 Y-19.586 E21.69863
G1 X33.064 Y-19.308 E21.89236
G1 X33.709 Y-19.247 E21.92828
G1 X34.093 Y-19.188 E21.94983
G1 X35.129 Y-18.964 E22.0086
G1 X35.405 Y-18.899 E22.02432
G1 X36.021 Y-18.745 E22.05952
G1 X36.313 Y-18.658 E22.07642
G1 X37.434 Y-18.265 E22.14228
G1 X37.542 Y-18.225 E22.14867
G1 X38.213 Y-17.963 E22.18861
G1 X38.807 Y-17.675 E22.22521
G1 X39.497 Y-17.289 E22.26905
G1 X40.18 Y-16.889 E22.31294
G1 X40.63 Y-16.578 E22.34327
G1 X40.979 Y-16.305 E22.36783
G1 X41.438 Y-15.938 E22.40042
G1 X41.972 Y-15.498 E22.43878
G1 X42.256 Y-15.233 E22.46032
G1 X42.88 Y-14.581 E22.51036
G1 X43.168 Y-14.27 E22.53386
G1 X43.625 Y-13.763 E22.57171
G1 X43.99 Y-13.304 E22.60422
G1 X44.058 Y-13.212 E22.61057
G1 X44.649 Y-12.38 E22.66715
G1 X45.063 Y-11.782 E22.70748
G1 X45.262 Y-11.457 E22.72861
G1 X45.635 Y-10.757 E22.77259
G1 X45.968 Y-10.11 E22.81294
G1 X46.299 Y-9.441 E22.85432
G1 X46.507 Y-8.93 E22.88491
G1 X46.651 Y-8.502 E22.90995
G1 X46.978 Y-7.497 E22.96855
G1 X47.199 Y-6.782 E23.01005
G1 X47.289 Y-6.419 E23.03078
G1 X47.425 Y-5.696 E23.07157
G1 X47.609 Y-4.639 E23.13106
G1 X47.713 Y-3.994 E23.16729
G1 X47.747 Y-3.7 E23.1837
G1 X47.816 Y-2.704 E23.23905
G1 X47.876 Y-1.571 E23.30196
G1 X47.9 Y-.96 E23.33587
G1 X47.899 Y-.66 E23.3525
G1 X47.842 Y0.43 E23.41302
G1 X47.704 Y2.381 E23.52147
G1 X47.644 Y3.066 E23.55959
G1 X47.576 Y3.505 E23.58422
G1 X47.43 Y4.151 E23.62095
G1 X46.992 Y5.961 E23.7242
G1 X46.815 Y6.65 E23.76364
G1 X46.629 Y7.181 E23.79484
G1 X46.273 Y7.973 E23.84299
G1 X45.665 Y9.273 E23.92256
G1 X45.35 Y9.923 E23.96261
G1 X45.006 Y10.482 E23.999
G1 X44.547 Y11.085 E24.04102
G1 X43.635 Y12.252 E24.12314
G1 X43.235 Y12.748 E24.15847
G1 X42.772 Y13.217 E24.19502
G1 X42.039 Y13.824 E24.24778
G1 X41.049 Y14.616 E24.31808
G1 X40.488 Y15.051 E24.35744
G1 X39.94 Y15.396 E24.39335
G1 X39.247 Y15.741 E24.43627
G1 X37.89 Y16.395 E24.51979
G1 X37.281 Y16.677 E24.557
G1 X36.746 Y16.87 E24.58854
G1 X35.856 Y17.108 E24.63962
G1 X34.269 Y17.504 E24.73031
G1 X33.626 Y17.654 E24.76692
G1 X33.165 Y17.727 E24.7928
G1 X32.356 Y17.798 E24.83783
G1 X30.398 Y17.941 E24.94668
G1 X29.766 Y17.978 E24.98179
G1 X29.466 Y17.982 E24.99842
G1 X28.234 Y17.941 E25.06677
G1 X27.249 Y17.889 E25.12146
G1 X26.117 Y17.812 E25.18437
G1 X24.087 Y17.646 E25.2973
G1 X21.379 Y17.501 E25.44767
G1 X18.631 Y17.432 E25.60008
G1 X15.885 Y17.441 E25.75234
G1 X13.172 Y17.526 E25.90284
G1 X10.43 Y17.69 E26.05515
G1 X7.727 Y17.929 E26.2056
G1 X4.978 Y18.25 E26.35906
G1 X3.558 Y18.447 E26.43855
G1 X3.148 Y18.501 E26.46148
G1 X2.335 Y18.572 E26.50673
G1 F1500 E20.00673
;MESH:C.stl(1)
G0 F3600 X2.144 Y15.942
G0 X2.03 Y14.384
G0 X-4.266 Y8.628
G0 X-6.059 Y6.884
G0 X-5.976 Y6.829
;TYPE:WALL-INNER
G1 F1500 E26.50673
G1 F1800 X-4.94 Y7.958 E26.59169
G1 X-3.72 Y8.775 E26.6731
G1 X-2.323 Y9.278 E26.75543
G1 X-.794 Y9.443 E26.8407
G1 X0.895 Y9.263 E26.93488
G1 X2.412 Y8.709 E27.02443
G1 X3.719 Y7.78 E27.11334
G1 X4.788 Y6.506 E27.20555
G1 X5.43 Y5.266 E27.28297
G1 X5.875 Y3.757 E27.3702
G1 X6.207 Y0.097 E27.57397
G1 X5.814 Y-4.283 E27.8178
G1 X5.28 Y-5.987 E27.91681
G1 X4.504 Y-7.301 E28.00143
G1 X3.505 Y-8.271 E28.07863
G1 X2.332 Y-8.958 E28.15401
G1 X1.001 Y-9.362 E28.23113
G1 X-.499 Y-9.496 E28.31463
G1 X-3.082 Y-9.083 E28.45967
G1 X-4.229 Y-8.504 E28.53091
G1 X-5.175 Y-7.693 E28.6
G1 X-6.484 Y-5.65 E28.73453
G1 X-7.05 Y-3.876 E28.83778
G1 X-13.144 Y-5.717 E29.19076
G1 X-13.438 Y-5.806 E29.20779
G1 X-13.34 Y-6.097 E29.21871
G1 X-12.71 Y-7.973 E29.32844
G1 X-11.288 Y-10.372 E29.48307
G1 X-9.476 Y-12.219 E29.62653
G1 X-7.271 Y-13.552 E29.7694
G1 X-4.509 Y-14.367 E29.92907
G1 X-1 Y-14.645 E30.12424
G1 X3.304 Y-14.301 E30.36364
G1 X5.069 Y-13.884 E30.4642
G1 X6.611 Y-13.308 E30.55547
G1 X7.985 Y-12.533 E30.64294
G1 X9.265 Y-11.506 E30.73393
G1 X10.467 Y-10.21 E30.83194
G1 X11.574 Y-8.657 E30.93768
G1 X12.495 Y-6.866 E31.04935
G1 X13.156 Y-4.832 E31.16793
G1 X13.558 Y-2.528 E31.29761
G1 X13.693 Y0.029 E31.43958
G1 X13.454 Y3.405 E31.62724
G1 X12.751 Y6.321 E31.79356
G1 X11.597 Y8.786 E31.94447
G1 X9.987 Y10.845 E32.08939
G1 X7.97 Y12.46 E32.23266
G1 X5.546 Y13.625 E32.38178
G1 X2.703 Y14.335 E32.54425
G1 X-.571 Y14.574 E32.72627
G1 X-3.155 Y14.436 E32.86975
G1 X-5.396 Y14.031 E32.99602
G1 X-7.34 Y13.36 E33.11004
G1 X-8.96 Y12.445 E33.21321
G1 X-10.349 Y11.255 E33.31462
G1 X-11.564 Y9.763 E33.42131
G1 X-12.596 Y7.971 E33.53597
G1 X-12.938 Y7.118 E33.58692
G1 X-13.069 Y6.792 E33.6064
G1 X-12.726 Y6.716 E33.61846
G1 X-6.636 Y5.361 E33.96439
G1 X-5.976 Y6.829 E34.05363
G0 F3600 X-5.468 Y6.495
;TYPE:WALL-OUTER
G1 F1800 X-4.547 Y7.499 E34.12917
G1 X-3.447 Y8.235 E34.20256
G1 X-2.187 Y8.689 E34.27682
G1 X-.794 Y8.84 E34.35451
G1 X0.758 Y8.674 E34.44105
G1 X2.13 Y8.173 E34.52204
G1 X3.309 Y7.335 E34.60224
G1 X4.286 Y6.171 E34.6865
G1 X4.871 Y5.041 E34.75705
G1 X5.283 Y3.644 E34.83781
G1 X5.605 Y0.097 E35.03529
G1 X5.222 Y-4.165 E35.27255
G1 X4.728 Y-5.742 E35.36418
G1 X4.028 Y-6.927 E35.44049
G1 X3.139 Y-7.79 E35.50919
G1 X2.09 Y-8.404 E35.57659
G1 X0.886 Y-8.77 E35.64636
G1 X-.478 Y-8.892 E35.72229
G1 X-2.895 Y-8.505 E35.85801
