;FLAVOR:Marlin
;TIME:989
;Filament used: 1.66197m
;Layer height: 0.2
;MINX:-16.601
;MINY:-34.662
;MINZ:0.2
;MAXX:36.586
;MAXY:30.928
;MAXZ:3.6
;POSTPROCESSED
;Generated with Cura_SteamEngine 4.8.0
M140 S60
M105
M190 S60
M104 S195
M105
M109 S195
M82 ;absolute extrusion mode
G28 ;Home
G1 Z15.0 F6000 ;Move the platform down 15mm
;Prime the extruder
G92 E0
G1 F200 E3
G92 E0
G92 E0
G92 E0
G1 F1500 E-6.5
;LAYER_COUNT:18
;LAYER:0
M107
G0 F3600 X-16.601 Y-14.388 Z0.2
;TYPE:SKIRT
G1 F1500 E0
G1 F1800 X-16.591 Y-15.09 E0.03893
G1 X-16.543 Y-15.646 E0.06987
G1 X-16.416 Y-16.189 E0.10079
G1 X-16.213 Y-16.709 E0.13174
G1 X-15.938 Y-17.195 E0.1627
G1 X-15.596 Y-17.636 E0.19365
G1 X-15.228 Y-17.996 E0.22219
G1 X-14.704 Y-18.445 E0.26045
G1 X-13.527 Y-19.424 E0.34534
G1 X-11.512 Y-21.198 E0.49419
G1 X-9.513 Y-23.06 E0.64566
G1 X-7.587 Y-24.961 E0.79571
G1 X-5.696 Y-26.935 E0.94728
G1 X-3.879 Y-28.942 E1.09739
G1 X-2.116 Y-31.005 E1.24786
G1 X-.345 Y-33.2 E1.40424
G1 X0.036 Y-33.609 E1.43523
G1 X0.471 Y-33.958 E1.46615
G1 X0.951 Y-34.243 E1.4971
G1 X1.467 Y-34.455 E1.52804
G1 X2.009 Y-34.592 E1.55903
G1 X2.571 Y-34.65 E1.59036
G1 X3.016 Y-34.662 E1.61504
G1 X32.035 Y-34.662 E3.22405
G1 X32.733 Y-34.652 E3.26275
G1 X33.289 Y-34.604 E3.2937
G1 X33.833 Y-34.477 E3.32467
G1 X34.353 Y-34.274 E3.35562
G1 X34.838 Y-33.998 E3.38656
G1 X35.28 Y-33.657 E3.41752
G1 X35.668 Y-33.255 E3.44849
G1 X35.994 Y-32.803 E3.47939
G1 X36.253 Y-32.308 E3.51037
G1 X36.439 Y-31.782 E3.54131
G1 X36.547 Y-31.234 E3.57227
G1 X36.584 Y-30.542 E3.6107
G1 X36.586 Y-30.432 E3.6168
G1 X36.586 Y-16.031 E4.41529
G1 X36.578 Y-15.473 E4.44623
G1 X36.574 Y-15.35 E4.45305
G1 X36.521 Y-14.222 E4.51566
G1 X36.475 Y-13.486 E4.55655
G1 X36.419 Y-12.768 E4.59648
G1 X36.357 Y-12.313 E4.62195
G1 X36.137 Y-11.209 E4.68436
G1 X36.028 Y-10.716 E4.71236
G1 X35.871 Y-10.053 E4.75014
G1 X35.711 Y-9.539 E4.77998
G1 X35.468 Y-8.914 E4.81716
G1 X34.488 Y-6.29 E4.97247
G1 X33.626 Y-3.768 E5.12025
G1 X32.811 Y-1.139 E5.27286
G1 X32.08 Y1.472 E5.4232
G1 X31.424 Y4.104 E5.5736
G1 X30.834 Y6.789 E5.72603
G1 X30.331 Y9.445 E5.87591
G1 X29.9 Y12.121 E6.0262
G1 X29.546 Y14.808 E6.17647
G1 X29.268 Y17.504 E6.32675
G1 X29.065 Y20.209 E6.47715
G1 X28.938 Y22.959 E6.62979
G1 X28.888 Y26.035 E6.80037
G1 X28.888 Y26.346 E6.81761
G1 X28.878 Y27.073 E6.85793
G1 X28.83 Y27.629 E6.88887
G1 X28.704 Y28.173 E6.91983
G1 X28.501 Y28.693 E6.95078
G1 X28.226 Y29.178 E6.9817
G1 X27.884 Y29.62 E7.01269
G1 X27.483 Y30.008 E7.04362
G1 X27.031 Y30.335 E7.07456
G1 X26.536 Y30.594 E7.10553
G1 X26.01 Y30.78 E7.13647
G1 X25.462 Y30.889 E7.16745
G1 X24.768 Y30.926 E7.20598
G1 X24.658 Y30.928 E7.21208
G1 X10.234 Y30.928 E8.01184
G1 X9.706 Y30.921 E8.04112
G1 X9.577 Y30.917 E8.04828
G1 X8.436 Y30.863 E8.11161
G1 X7.664 Y30.814 E8.1545
G1 X7.006 Y30.763 E8.1911
G1 X6.548 Y30.7 E8.21673
G1 X5.394 Y30.471 E8.28196
G1 X4.946 Y30.372 E8.3074
G1 X4.293 Y30.218 E8.3446
G1 X3.675 Y30.02 E8.38059
G1 X3.154 Y29.803 E8.41188
G1 X2.473 Y29.508 E8.45303
G1 X1.877 Y29.241 E8.48924
G1 X1.197 Y28.85 E8.53273
G1 X0.465 Y28.325 E8.58268
G1 X0.228 Y28.147 E8.59911
G1 X-1.407 Y26.897 E8.71323
G1 X-1.795 Y26.593 E8.74056
G1 X-3.948 Y25.001 E8.88902
G1 X-6.184 Y23.443 E9.04013
G1 X-8.465 Y21.946 E9.19141
G1 X-10.767 Y20.528 E9.34132
G1 X-13.145 Y19.154 E9.4936
G1 X-14.562 Y18.376 E9.58323
G1 X-15.031 Y18.074 E9.61416
G1 X-15.453 Y17.708 E9.64513
G1 X-15.818 Y17.285 E9.67611
G1 X-16.118 Y16.815 E9.70703
G1 X-16.349 Y16.307 E9.73797
G1 X-16.505 Y15.771 E9.76892
G1 X-16.589 Y15.075 E9.80779
G1 X-16.601 Y14.631 E9.83242
G1 X-16.601 Y-14.388 E11.44143
G0 F3600 X-16.001 Y-14.379
G1 F1800 X-15.991 Y-15.081 E11.48035
G1 X-15.943 Y-15.592 E11.50881
G1 X-15.817 Y-16.09 E11.53729
G1 X-15.616 Y-16.562 E11.56574
G1 X-15.343 Y-16.997 E11.59421
G1 X-14.838 Y-17.54 E11.63533
G1 X-14.32 Y-17.983 E11.67312
G1 X-13.172 Y-18.937 E11.75588
G1 X-11.094 Y-20.767 E11.90941
G1 X-9.107 Y-22.618 E12.05998
G1 X-7.156 Y-24.543 E12.21195
G1 X-5.26 Y-26.523 E12.36395
G1 X-3.434 Y-28.54 E12.51481
G1 X-1.65 Y-30.626 E12.667
G1 X0.122 Y-32.824 E12.82354
G1 X0.475 Y-33.197 E12.85202
G1 X0.881 Y-33.511 E12.88048
G1 X1.331 Y-33.759 E12.90897
G1 X1.813 Y-33.933 E12.93738
G1 X2.317 Y-34.031 E12.96585
G1 X2.915 Y-34.06 E12.99904
G1 X3.016 Y-34.062 E13.00465
G1 X32.026 Y-34.062 E14.61315
G1 X32.724 Y-34.052 E14.65186
G1 X33.236 Y-34.004 E14.68037
G1 X33.733 Y-33.878 E14.7088
G1 X34.205 Y-33.677 E14.73725
G1 X34.641 Y-33.404 E14.76577
G1 X35.028 Y-33.068 E14.79419
G1 X35.359 Y-32.675 E14.82267
G1 X35.625 Y-32.236 E14.85114
G1 X35.819 Y-31.76 E14.87964
G1 X35.938 Y-31.261 E14.90808
G1 X35.985 Y-30.525 E14.94897
G1 X35.986 Y-16.04 E15.75212
G1 X35.975 Y-15.377 E15.78888
G1 X35.923 Y-14.259 E15.85094
G1 X35.877 Y-13.532 E15.89133
G1 X35.821 Y-12.814 E15.93126
G1 X35.768 Y-12.429 E15.95281
G1 X35.551 Y-11.338 E16.01449
G1 X35.444 Y-10.855 E16.04192
G1 X35.287 Y-10.192 E16.07969
G1 X35.152 Y-9.756 E16.105
G1 X34.89 Y-9.082 E16.1451
G1 X33.932 Y-6.515 E16.29702
G1 X33.048 Y-3.929 E16.44855
G1 X32.235 Y-1.309 E16.60065
G1 X31.5 Y1.32 E16.75201
G1 X30.84 Y3.967 E16.90327
G1 X30.249 Y6.653 E17.05576
G1 X29.741 Y9.343 E17.20755
G1 X29.31 Y12.018 E17.35778
G1 X28.951 Y14.733 E17.50963
G1 X28.669 Y17.467 E17.66203
G1 X28.464 Y20.209 E17.81449
G1 X28.34 Y22.888 E17.96319
G1 X28.288 Y26.088 E18.14064
G1 X28.288 Y26.337 E18.15444
G1 X28.278 Y27.064 E18.19476
G1 X28.231 Y27.576 E18.22327
G1 X28.105 Y28.073 E18.25169
G1 X27.904 Y28.546 E18.28019
G1 X27.631 Y28.981 E18.30867
G1 X27.295 Y29.369 E18.33713
G1 X26.902 Y29.7 E18.36561
G1 X26.463 Y29.966 E18.39408
G1 X25.988 Y30.161 E18.42255
G1 X25.489 Y30.279 E18.45098
G1 X24.751 Y30.327 E18.49198
G1 X10.242 Y30.328 E19.29646
G1 X9.714 Y30.321 E19.32574
G1 X8.474 Y30.265 E19.39456
G1 X7.71 Y30.216 E19.43701
G1 X7.052 Y30.165 E19.4736
G1 X6.664 Y30.112 E19.49531
G1 X5.523 Y29.885 E19.55982
G1 X5.084 Y29.788 E19.58475
G1 X4.431 Y29.634 E19.62195
G1 X3.885 Y29.458 E19.65376
G1 X3.388 Y29.25 E19.68363
G1 X2.718 Y28.961 E19.72409
G1 X2.122 Y28.694 E19.7603
G1 X1.547 Y28.363 E19.79708
G1 X0.824 Y27.844 E19.84643
G1 X0.593 Y27.671 E19.86243
G1 X-1.037 Y26.425 E19.97619
G1 X-1.433 Y26.114 E20.00411
G1 X-3.596 Y24.514 E20.15329
G1 X-5.861 Y22.937 E20.30632
G1 X-8.121 Y21.454 E20.4562
G1 X-10.487 Y19.996 E20.61029
G1 X-12.843 Y18.635 E20.76115
G1 X-14.274 Y17.85 E20.85165
G1 X-14.704 Y17.569 E20.88013
G1 X-15.085 Y17.225 E20.90859
G1 X-15.409 Y16.826 E20.93709
G1 X-15.666 Y16.382 E20.96554
G1 X-15.852 Y15.903 E20.99403
G1 X-15.961 Y15.402 E21.02246
G1 X-15.999 Y14.733 E21.05961
G1 X-16.001 Y14.631 E21.06527
G1 X-16.001 Y-14.379 E22.67377
G1 F1500 E16.17377
;MESH:P.stl(2)
G0 F3600 X-13.366 Y-14.125
G0 X-11.787 Y-14.125
G0 X-4.36 Y-9.911
G0 X-4.29 Y-9.841
;TYPE:WALL-INNER
G1 F1500 E22.67377
G1 F1800 X-4.29 Y-1.349 E23.14463
G1 X-1.073 Y-1.349 E23.323
G1 X1.407 Y-1.603 E23.46123
G1 X3.229 Y-2.459 E23.57284
G1 X4.3 Y-3.859 E23.67058
G1 X4.647 Y-5.553 E23.76646
G1 X4.35 Y-7.206 E23.85958
G1 X3.421 Y-8.64 E23.95431
G1 X1.71 Y-9.57 E24.06229
G1 X-.699 Y-9.841 E24.1967
G1 X-4.29 Y-9.841 E24.39581
G0 F3600 X-3.69 Y-9.241
;TYPE:WALL-OUTER
G1 F1800 X-3.69 Y-1.949 E24.80013
G1 X-1.104 Y-1.949 E24.94352
G1 X1.244 Y-2.189 E25.07438
G1 X2.841 Y-2.94 E25.17223
G1 X3.74 Y-4.114 E25.25422
G1 X4.036 Y-5.56 E25.33606
G1 X3.781 Y-6.981 E25.41611
G1 X3 Y-8.186 E25.49573
G1 X1.526 Y-8.987 E25.58874
G1 X-.733 Y-9.241 E25.71479
G1 X-3.69 Y-9.241 E25.87874
G0 F3600 X-3.69 Y-9.041
G0 X-4.35 Y-9.041
G0 X-4.39 Y-9.041
G0 X-4.36 Y2.859
G0 X-4.29 Y2.929
;TYPE:WALL-INNER
G1 F1800 X-4.29 Y14.061 E26.49597
G1 X-11.801 Y14.061 E26.91243
G1 X-11.801 Y-14.139 E28.47603
G1 X2.683 Y-14.139 E29.27912
G1 X4.94 Y-13.996 E29.40451
G1 X6.831 Y-13.581 E29.51186
G1 X8.383 Y-12.908 E29.60565
G1 X9.628 Y-11.984 E29.69162
G1 X10.587 Y-10.827 E29.77494
G1 X11.28 Y-9.431 E29.86136
G1 X11.708 Y-7.763 E29.95684
G1 X11.853 Y-5.834 E30.0641
G1 X11.694 Y-3.837 E30.17517
G1 X11.229 Y-2.111 E30.27429
G1 X10.466 Y-.637 E30.36632
G1 X9.411 Y0.603 E30.45659
G1 X8.034 Y1.6 E30.55085
G1 X6.301 Y2.328 E30.65507
G1 X4.189 Y2.775 E30.77477
G1 X1.662 Y2.929 E30.91514
G1 X-4.29 Y2.929 E31.24516
G0 F3600 X-3.69 Y3.529
;TYPE:WALL-OUTER
G1 F1800 X-3.69 Y14.661 E31.86239
G1 X-12.401 Y14.661 E32.34539
G1 X-12.401 Y-14.739 E33.97552
G1 X2.705 Y-14.739 E34.8131
G1 X5.023 Y-14.592 E34.94188
G1 X7.019 Y-14.154 E35.05518
G1 X8.685 Y-13.432 E35.15586
G1 X10.043 Y-12.424 E35.24963
G1 X11.092 Y-11.158 E35.34079
G1 X11.845 Y-9.641 E35.4347
G1 X12.302 Y-7.861 E35.53659
G1 X12.455 Y-5.831 E35.64947
G1 X12.288 Y-3.736 E35.766
G1 X11.791 Y-1.89 E35.872
G1 X10.968 Y-.3 E35.97127
G1 X9.821 Y1.047 E36.06936
G1 X8.331 Y2.126 E36.17137
G1 X6.479 Y2.903 E36.28273
G1 X4.269 Y3.371 E36.40798
G1 X1.683 Y3.529 E36.55163
G1 X-3.69 Y3.529 E36.84955
G0 F3600 X-3.69 Y3.729
G0 X-4.35 Y3.729
G0 X-4.39 Y3.729
G0 X3.254 Y-2.428
G0 X7.886 Y-8.173
;TYPE:SKIN
G1 F1800 X8.144 Y-7.168 E36.90708
G1 X8.236 Y-5.931 E36.97585
G1 X7.804 Y-8.34 E37.11156
G1 X7.886 Y-8.173 E37.12187
G0 F3600 X8.451 Y-8.385
G1 F1800 X8.738 Y-7.266 E37.18592
G1 X8.843 Y-5.848 E37.26476
G1 X8.724 Y-4.348 E37.34819
G1 X8.417 Y-3.209 E37.4136
G1 X7.956 Y-2.317 E37.46928
G1 X7.363 Y-1.62 E37.52002
G1 X6.55 Y-1.03 E37.57571
G1 X5.613 Y-.636 E37.63207
G1 X7.1 Y-2.583 E37.76791
G1 X7.701 Y-5.513 E37.93375
G1 X7.196 Y-8.33 E38.09244
G1 X5.611 Y-10.778 E38.25414
G1 X5.905 Y-10.713 E38.27083
G1 X6.863 Y-10.298 E38.32872
G1 X7.556 Y-9.782 E38.37662
G1 X8.059 Y-9.177 E38.42025
G1 X8.451 Y-8.385 E38.46925
G0 F3600 X9.017 Y-8.595
G1 F1800 X9.332 Y-7.364 E38.5397
G1 X9.445 Y-5.846 E38.6241
G1 X9.318 Y-4.246 E38.7131
G1 X8.979 Y-2.988 E38.78534
G1 X8.458 Y-1.981 E38.8482
G1 X7.774 Y-1.177 E38.90673
G1 X6.847 Y-.504 E38.97025
G1 X5.58 Y0.029 E39.04646
G1 X3.863 Y0.392 E39.14377
G1 X2.646 Y0.465 E39.21137
G1 X4.781 Y-.536 E39.34211
G1 X6.54 Y-2.838 E39.50275
G1 X7.09 Y-5.521 E39.6546
G1 X6.627 Y-8.105 E39.80016
G1 X5.104 Y-10.456 E39.95548
G1 X2.765 Y-11.729 E40.10313
G1 X4.603 Y-11.614 E40.20524
G1 X6.089 Y-11.287 E40.2896
G1 X7.168 Y-10.819 E40.35482
G1 X7.971 Y-10.222 E40.4103
G1 X8.564 Y-9.508 E40.46176
G1 X9.017 Y-8.595 E40.51827
G0 F3600 X9.582 Y-8.805
G1 F1800 X9.926 Y-7.462 E40.59514
G1 X10.047 Y-5.843 E40.68516
G1 X9.912 Y-4.145 E40.7796
G1 X9.541 Y-2.767 E40.85873
G1 X8.96 Y-1.645 E40.92879
G1 X8.185 Y-.734 E40.9951
G1 X7.144 Y0.022 E41.06644
G1 X5.758 Y0.604 E41.14979
G1 X3.943 Y0.988 E41.25265
G1 X1.617 Y1.129 E41.38186
G1 X-6.09 Y1.129 E41.80918
G1 X-6.09 Y12.261 E42.42642
G1 X-10.001 Y12.261 E42.64327
G1 X-10.001 Y-12.339 E44.00726
G1 X2.633 Y-12.339 E44.70777
G1 X4.686 Y-12.21 E44.82182
G1 X6.277 Y-11.86 E44.91215
G1 X7.47 Y-11.343 E44.98424
G1 X8.386 Y-10.662 E45.04753
G1 X9.069 Y-9.839 E45.10683
G1 X9.582 Y-8.805 E45.17083
G0 F3600 X10.147 Y-9.015
G1 F1800 X10.52 Y-7.56 E45.25411
G1 X10.649 Y-5.84 E45.34975
G1 X10.506 Y-4.044 E45.44965
G1 X10.103 Y-2.546 E45.53566
G1 X9.462 Y-1.308 E45.61296
G1 X8.594 Y-.289 E45.68718
G1 X7.444 Y0.546 E45.76597
G1 X5.937 Y1.179 E45.8566
G1 X4.023 Y1.584 E45.96508
G1 X1.637 Y1.729 E46.09762
G1 X-5.49 Y1.729 E46.49279
G1 X-5.49 Y12.861 E47.11002
G1 X-10.601 Y12.861 E47.39341
G1 X-10.601 Y-12.939 E48.82393
G1 X2.655 Y-12.939 E49.55893
G1 X4.769 Y-12.806 E49.67638
G1 X6.461 Y-12.434 E49.77243
G1 X7.775 Y-11.864 E49.85185
G1 X8.801 Y-11.102 E49.92271
G1 X9.574 Y-10.17 E49.98985
G1 X10.147 Y-9.015 E50.06134
G0 F3600 X10.712 Y-9.225
G1 F1800 X11.114 Y-7.658 E50.15104
G1 X11.251 Y-5.837 E50.25229
G1 X11.1 Y-3.943 E50.35764
G1 X10.665 Y-2.325 E50.45054
G1 X9.964 Y-.971 E50.53508
G1 X9.005 Y0.155 E50.61708
G1 X7.74 Y1.072 E50.70371
G1 X6.118 Y1.754 E50.80128
G1 X4.102 Y2.18 E50.91552
G1 X1.658 Y2.329 E51.05129
G1 X-4.89 Y2.329 E51.41435
G1 X-4.89 Y13.461 E52.03158
G1 X-11.201 Y13.461 E52.38151
G1 X-11.201 Y-13.539 E53.87857
G1 X2.677 Y-13.539 E54.64805
G1 X4.852 Y-13.402 E54.76889
G1 X6.649 Y-13.007 E54.87091
G1 X8.077 Y-12.388 E54.9572
G1 X9.216 Y-11.542 E55.03587
G1 X10.079 Y-10.501 E55.11085
G1 X10.712 Y-9.225 E55.18982
G0 F3600 X6.058 Y-7.88
G1 F1800 X4.683 Y-10.002 E55.33002
G1 X2.262 Y-11.32 E55.48286
G1 X-.597 Y-11.641 E55.64238
G1 X-6.09 Y-11.641 E55.94695
G1 X-6.09 Y0.451 E56.61741
G1 X-.981 Y0.451 E56.90069
G1 X1.895 Y0.155 E57.06099
G1 X4.393 Y-1.017 E57.21399
G1 X5.98 Y-3.093 E57.35887
G1 X6.479 Y-5.529 E57.49675
G1 X6.058 Y-7.88 E57.62917
G0 F3600 X5.489 Y-7.655
G1 F1800 X4.262 Y-9.548 E57.75426
G1 X2.078 Y-10.737 E57.89213
G1 X-.631 Y-11.041 E58.04328
G1 X-5.49 Y-11.041 E58.3127
G1 X-5.49 Y-.149 E58.91662
G1 X-1.012 Y-.149 E59.16491
G1 X1.732 Y-.431 E59.31786
G1 X4.005 Y-1.498 E59.45708
G1 X5.42 Y-3.348 E59.58622
G1 X5.868 Y-5.537 E59.71011
G1 X5.489 Y-7.655 E59.82941
G0 F3600 X4.92 Y-7.43
G1 F1800 X3.841 Y-9.094 E59.93938
G1 X1.894 Y-10.154 E60.06229
G1 X-.665 Y-10.441 E60.20507
G1 X-4.89 Y-10.441 E60.43933
G1 X-4.89 Y-.749 E60.97672
G1 X-1.043 Y-.749 E61.19003
G1 X1.569 Y-1.017 E61.33561
G1 X3.617 Y-1.979 E61.46107
G1 X4.86 Y-3.603 E61.57446
G1 X5.257 Y-5.545 E61.68437
G1 X4.92 Y-7.43 E61.79054
G0 F3600 X8.152 Y-4.727
G1 F1800 X8.13 Y-4.45 E61.80595
G1 X7.984 Y-3.906 E61.83718
G1 X8.152 Y-4.727 E61.88365
G0 F3600 X3.448 Y-8.669
G0 X1.722 Y-9.608
G0 X-6.69 Y-11.739
G1 F1800 X-6.69 Y11.661 E63.1811
G1 X-9.401 Y11.661 E63.33141
G1 X-9.401 Y-11.739 E64.62886
G1 X-6.69 Y-11.739 E64.77918
G0 F3600 X-7.29 Y-11.139
G1 F1800 X-7.29 Y11.061 E66.01009
G1 X-8.801 Y11.061 E66.09387
G1 X-8.801 Y-11.139 E67.32479
G1 X-7.29 Y-11.139 E67.40857
G0 F3600 X-7.89 Y-10.539
G1 F1800 X-7.89 Y10.461 E68.57295
G1 X-8.201 Y10.461 E68.59019
G1 X-8.201 Y-10.539 E69.75457
G1 X-7.89 Y-10.539 E69.77182
G0 F3600 X-6.389 Y-12
;TYPE:SKIN
G1 F1800 X2.53 Y-12 E70.01908
G0 F3600 X2.443 Y-11.7
G1 F1800 X1.698 Y-11.7 E70.03973
G0 F3600 X4.578 Y-11.1
G1 F1800 X5.469 Y-11.1 E70.06444
G0 F3600 X5.26 Y-10.8
G1 F1800 X5.129 Y-10.8 E70.06807
G0 F3600 X6.553 Y-9.9
G1 F1800 X6.869 Y-9.9 E70.07683
G0 F3600 X6.748 Y-9.6
G1 F1800 X7.272 Y-9.6 E70.09135
G0 F3600 X7.547 Y-9.3
G1 F1800 X6.942 Y-9.3 E70.10813
G0 F3600 X7.137 Y-9
G1 F1800 X7.795 Y-9 E70.12637
G0 F3600 X7.938 Y-8.7
G1 F1800 X7.331 Y-8.7 E70.1432
G0 F3600 X8 Y-5.399
G1 F1800 X8.491 Y-5.399 E70.15681
G0 F3600 X8.467 Y-5.099
G1 F1800 X7.938 Y-5.099 E70.17148
G0 F3600 X7.976 Y-3.599
G1 F1800 X7.631 Y-3.599 E70.18104
G0 F3600 X7.569 Y-3.299
G1 F1800 X8.108 Y-3.299 E70.19598
G0 F3600 X7.953 Y-2.999
G1 F1800 X7.507 Y-2.999 E70.20835
G0 F3600 X7.446 Y-2.699
G1 F1800 X7.798 Y-2.699 E70.21811
G0 F3600 X7.612 Y-2.399
G1 F1800 X7.357 Y-2.399 E70.22518
G0 F3600 X7.357 Y-2.099
G1 F1800 X7.128 Y-2.099 E70.23152
G0 F3600 X7.074 Y-1.799
G1 F1800 X6.899 Y-1.799 E70.23638
G0 F3600 X5.495 Y-.299
G1 F1800 X4.998 Y-.299 E70.25015
G0 F3600 X2.372 Y0.6
G1 F1800 X0.644 Y0.6 E70.29806
G1 F1500 E63.79806
;MESH:P.stl
G0 F3600 X4.187 Y2.756
G0 X4.516 Y4.304
G0 X5.659 Y8.133
G0 X5.987 Y9.682
G0 X16.605 Y13.31
G0 X16.647 Y21.9
G0 X16.577 Y21.83
;TYPE:WALL-INNER
G1 F1500 E70.29806
G1 F1800 X16.577 Y13.338 E70.76891
G1 X13.36 Y13.338 E70.94728
G1 X10.88 Y13.592 E71.08551
G1 X9.058 Y14.449 E71.19715
G1 X7.987 Y15.848 E71.29484
G1 X7.64 Y17.543 E71.39077
G1 X7.937 Y19.196 E71.4839
G1 X8.866 Y20.629 E71.57859
G1 X10.577 Y21.56 E71.68659
G1 X12.987 Y21.83 E71.82105
G1 X16.577 Y21.83 E72.02011
G0 F3600 X15.977 Y21.23
;TYPE:WALL-OUTER
G1 F1800 X15.977 Y13.938 E72.42442
G1 X13.391 Y13.938 E72.56781
G1 X11.043 Y14.178 E72.69868
G1 X9.446 Y14.93 E72.79655
G1 X8.547 Y16.103 E72.87849
