;FLAVOR:Marlin
;TIME:4600
;Filament used: 3.95806m
;Layer height: 0.2
;MINX:-94.177
;MINY:-99.237
;MINZ:0.2
;MAXX:89.889
;MAXY:95.426
;MAXZ:8.7
;POSTPROCESSED
;Generated with Cura_SteamEngine 4.8.0
M140 S60
M105
M190 S60
M104 S195
M105
M109 S195
M82 ;absolute extrusion mode
G28 ;Home
G1 Z15.0 F6000 ;Move the platform down 15mm
;Prime the extruder
G92 E0
G1 F200 E3
G92 E0
G92 E0
G92 E0
G1 F1500 E-6.5
;LAYER_COUNT:18
;LAYER:0
M107
G1 F600 Z1.2
G0 F1800 X49.7 Y-15.524 Z1.2
;TYPE:SKIRT
G1 F600 Z0.2
G1 F1500 E0
G1 F900 X49.547 Y-16.061 E0.03096
G1 X49.473 Y-16.614 E0.0619
G1 X49.478 Y-17.173 E0.09289
G1 X49.563 Y-17.724 E0.1238
G1 X49.725 Y-18.258 E0.15474
G1 X49.963 Y-18.763 E0.1857
G1 X50.27 Y-19.23 E0.21669
G1 X50.64 Y-19.647 E0.2476
G1 X51.066 Y-20.008 E0.27856
G1 X51.54 Y-20.304 E0.30954
G1 X52.051 Y-20.529 E0.3405
G1 X52.588 Y-20.679 E0.37142
G1 X53.295 Y-20.756 E0.41085
G1 X54.255 Y-20.773 E0.46409
G1 X62.163 Y-20.773 E0.90256
G1 X62.977 Y-20.76 E0.9477
G1 X63.37 Y-20.743 E0.96951
G1 X65.507 Y-20.622 E1.08819
G1 X68.18 Y-20.547 E1.23645
G1 X70.929 Y-20.547 E1.38888
G1 X73.628 Y-20.624 E1.53859
G1 X75.265 Y-20.72 E1.62951
G1 X76.141 Y-20.759 E1.67813
G1 X77.021 Y-20.773 E1.72693
G1 X85.36 Y-20.773 E2.1893
G1 X86.047 Y-20.763 E2.22739
G1 X86.603 Y-20.715 E2.25834
G1 X87.146 Y-20.588 E2.28926
G1 X87.666 Y-20.384 E2.32023
G1 X88.152 Y-20.109 E2.35119
G1 X88.593 Y-19.767 E2.38213
G1 X88.981 Y-19.366 E2.41307
G1 X89.308 Y-18.913 E2.44405
G1 X89.566 Y-18.418 E2.475
G1 X89.752 Y-17.892 E2.50594
G1 X89.86 Y-17.344 E2.5369
G1 X89.889 Y-16.787 E2.56783
G1 X89.838 Y-16.231 E2.59879
G1 X89.664 Y-15.556 E2.63744
G1 X89.356 Y-14.69 E2.6884
G1 X78.634 Y13.842 E4.37842
G1 X78.362 Y14.538 E4.41985
G1 X78.123 Y15.042 E4.45078
G1 X77.813 Y15.506 E4.48172
G1 X77.441 Y15.922 E4.51266
G1 X77.013 Y16.28 E4.5436
G1 X76.538 Y16.574 E4.57458
G1 X76.026 Y16.796 E4.60552
G1 X75.487 Y16.944 E4.63651
G1 X74.863 Y17.016 E4.67134
G1 X74.236 Y17.027 E4.70611
G1 X65.283 Y17.027 E5.20252
G1 X64.584 Y17.018 E5.24128
G1 X64.028 Y16.971 E5.27222
G1 X63.484 Y16.845 E5.30318
G1 X62.964 Y16.642 E5.33414
G1 X62.478 Y16.368 E5.36507
G1 X62.036 Y16.026 E5.39606
G1 X61.647 Y15.626 E5.42699
G1 X61.32 Y15.174 E5.45793
G1 X61.033 Y14.615 E5.49277
G1 X60.956 Y14.428 E5.50398
G1 X60.74 Y13.871 E5.53711
G1 X49.932 Y-14.886 E7.24048
G1 X49.7 Y-15.524 E7.27812
G0 F1800 X50.264 Y-15.729
G1 F900 X50.126 Y-16.224 E7.30661
G1 X50.067 Y-16.734 E7.33508
G1 X50.088 Y-17.247 E7.36355
G1 X50.188 Y-17.751 E7.39204
G1 X50.365 Y-18.232 E7.42046
G1 X50.615 Y-18.681 E7.44895
G1 X50.931 Y-19.086 E7.47743
G1 X51.306 Y-19.436 E7.50587
G1 X51.731 Y-19.724 E7.53434
G1 X52.196 Y-19.943 E7.56284
G1 X52.689 Y-20.087 E7.59132
G1 X53.306 Y-20.156 E7.62574
G1 X54.255 Y-20.173 E7.67837
G1 X62.155 Y-20.173 E8.1164
G1 X62.861 Y-20.163 E8.15555
G1 X63.336 Y-20.144 E8.1819
G1 X65.456 Y-20.024 E8.29964
G1 X68.199 Y-19.947 E8.45179
G1 X70.911 Y-19.947 E8.60216
G1 X73.68 Y-20.026 E8.75575
G1 X75.293 Y-20.12 E8.84534
G1 X76.151 Y-20.159 E8.89296
G1 X77.031 Y-20.173 E8.94176
G1 X85.351 Y-20.173 E9.40308
G1 X86.038 Y-20.163 E9.44118
G1 X86.549 Y-20.115 E9.46963
G1 X87.047 Y-19.989 E9.49812
G1 X87.519 Y-19.787 E9.52658
G1 X87.954 Y-19.515 E9.55503
G1 X88.342 Y-19.178 E9.58352
G1 X88.672 Y-18.785 E9.61198
G1 X88.938 Y-18.346 E9.64044
G1 X89.132 Y-17.871 E9.66889
G1 X89.251 Y-17.371 E9.69739
G1 X89.29 Y-16.859 E9.72586
G1 X89.249 Y-16.347 E9.75434
G1 X89.099 Y-15.757 E9.78809
G1 X88.794 Y-14.901 E9.83847
G1 X78.076 Y13.623 E11.528
G1 X77.804 Y14.319 E11.56943
G1 X77.58 Y14.781 E11.5979
G1 X77.288 Y15.203 E11.62636
G1 X76.933 Y15.575 E11.65487
G1 X76.525 Y15.887 E11.68335
G1 X76.074 Y16.132 E11.7118
G1 X75.591 Y16.304 E11.74023
G1 X74.843 Y16.416 E11.78217
G1 X74.229 Y16.427 E11.81622
G1 X65.291 Y16.427 E12.3118
G1 X64.592 Y16.418 E12.35056
G1 X64.08 Y16.371 E12.37907
G1 X63.582 Y16.246 E12.40754
G1 X63.11 Y16.045 E12.43598
G1 X62.674 Y15.773 E12.46448
G1 X62.286 Y15.437 E12.49293
G1 X61.955 Y15.045 E12.52138
G1 X61.587 Y14.385 E12.56328
G1 X61.515 Y14.211 E12.57372
G1 X61.302 Y13.66 E12.60648
G1 X50.508 Y-15.058 E14.30755
G1 X50.264 Y-15.729 E14.34714
G1 F1500 E7.84714
;MESH:A.stl
G0 F1800 X53.191 Y-15.407
G0 X54.667 Y-15.962
G0 X63.582 Y-10.989
G0 X73.692 Y-6.434
G0 X73.692 Y-6.334
;TYPE:WALL-INNER
G1 F1500 E14.34714
G1 F900 X65.481 Y-6.334 E14.80241
G1 X65.48 Y-6.334 E14.80247
G1 X65.077 Y-6.334 E14.82481
G1 X65.194 Y-5.948 E14.8382
G1 X68.901 Y6.251 E15.54514
G1 X70.233 Y6.251 E15.61899
G1 X73.979 Y-5.947 E16.3265
G1 X74.097 Y-6.334 E16.34894
G1 X73.693 Y-6.334 E16.36234
G1 X73.692 Y-6.334 E16.3624
G0 F1800 X73.285 Y-5.734
;TYPE:WALL-OUTER
G1 F900 X65.886 Y-5.734 E16.77265
G1 X69.346 Y5.651 E17.43241
G1 X69.79 Y5.651 E17.45703
G1 X73.285 Y-5.734 E18.11737
G0 F1800 X73.085 Y-5.734
G0 X73.085 Y-6.394
G0 X73.085 Y-6.434
G0 X63.546 Y-10.941
G0 X63.605 Y-11.021
;TYPE:WALL-INNER
G1 F900 X75.47 Y-11.021 E18.77524
G1 X76.97 Y-15.973 E19.06213
G1 X84.277 Y-15.973 E19.46728
G1 X84.278 Y-15.973 E19.46734
G1 X84.709 Y-15.973 E19.49123
G1 X84.558 Y-15.569 E19.50533
G1 X74.113 Y12.227 E21.15174
G1 X65.25 Y12.227 E21.64317
G1 X54.802 Y-15.569 E23.28964
G1 X54.651 Y-15.973 E23.31355
G1 X55.082 Y-15.973 E23.32764
G1 X55.083 Y-15.973 E23.32769
G1 X62.142 Y-15.973 E23.71909
G1 X63.605 Y-11.021 E24.00539
G0 F1800 X64.053 Y-11.621
;TYPE:WALL-OUTER
G1 F900 X75.025 Y-11.621 E24.61375
G1 X76.525 Y-16.573 E24.90065
G1 X85.143 Y-16.573 E25.37849
G1 X85.144 Y-16.573 E25.37854
G1 X85.576 Y-16.573 E25.40249
G1 X85.424 Y-16.168 E25.41662
G1 X74.529 Y12.827 E27.13405
G1 X64.834 Y12.827 E27.6716
G1 X53.936 Y-16.168 E29.38909
G1 X53.784 Y-16.573 E29.41307
G1 X54.216 Y-16.573 E29.42718
G1 X54.217 Y-16.573 E29.42724
G1 X62.59 Y-16.573 E29.89149
G1 X64.053 Y-11.621 E30.1778
G0 F1800 X64.253 Y-11.621
G0 X64.253 Y-10.961
G0 X64.253 Y-10.921
G0 X61.365 Y-8.021
;TYPE:SKIN
G1 F900 X61.429 Y-8.021 E30.18135
G1 X63.884 Y0.058 E30.64952
G1 X58.987 Y-12.973 E31.42138
G1 X59.902 Y-12.973 E31.47212
G1 X61.365 Y-8.021 E31.75842
G0 F1800 X61.813 Y-8.621
G1 F900 X61.874 Y-8.621 E31.7618
G1 X67.122 Y8.651 E32.76271
G1 X72.007 Y8.651 E33.03356
G1 X77.344 Y-8.734 E34.0419
G1 X77.285 Y-8.734 E34.04518
G1 X78.751 Y-13.573 E34.32552
G1 X81.24 Y-13.573 E34.46353
G1 X72.449 Y9.827 E35.84952
G1 X66.914 Y9.827 E36.15642
G1 X58.12 Y-13.573 E37.54247
G1 X60.35 Y-13.573 E37.66611
G1 X61.813 Y-8.621 E37.95242
G0 F1800 X62.261 Y-9.221
G1 F900 X76.806 Y-9.221 E38.75889
G1 X78.306 Y-14.173 E39.04578
G1 X82.107 Y-14.173 E39.25653
G1 X72.865 Y10.427 E40.7136
G1 X66.498 Y10.427 E41.06663
G1 X57.253 Y-14.173 E42.52376
G1 X60.798 Y-14.173 E42.72032
G1 X62.261 Y-9.221 E43.00662
G0 F1800 X62.709 Y-9.821
G1 F900 X76.361 Y-9.821 E43.76358
G1 X77.861 Y-14.773 E44.05047
G1 X82.974 Y-14.773 E44.33397
G1 X73.281 Y11.027 E45.86212
G1 X66.082 Y11.027 E46.26128
G1 X56.386 Y-14.773 E47.78949
G1 X61.246 Y-14.773 E48.05896
G1 X62.709 Y-9.821 E48.34526
G0 F1800 X63.157 Y-10.421
G1 F900 X75.916 Y-10.421 E49.05271
G1 X77.416 Y-15.373 E49.3396
G1 X83.841 Y-15.373 E49.69584
G1 X73.697 Y11.627 E51.29507
G1 X65.666 Y11.627 E51.74037
G1 X55.519 Y-15.373 E53.33965
G1 X61.694 Y-15.373 E53.68204
G1 X63.157 Y-10.421 E53.96834
G0 F1800 X62.649 Y-8.134
G1 F900 X67.567 Y8.051 E54.90626
G1 X71.564 Y8.051 E55.12788
G1 X76.532 Y-8.134 E56.06661
G1 X62.649 Y-8.134 E56.83637
G0 F1800 X63.458 Y-7.534
G1 F900 X68.012 Y7.451 E57.70476
G1 X71.121 Y7.451 E57.87715
G1 X75.72 Y-7.534 E58.74626
G1 X63.458 Y-7.534 E59.42615
G0 F1800 X64.267 Y-6.934
G1 F900 X68.457 Y6.851 E60.22501
G1 X70.677 Y6.851 E60.3481
G1 X70.817 Y6.394 E60.3746
G1 X74.909 Y-6.934 E61.14764
G1 X64.267 Y-6.934 E61.7377
G0 F1800 X78.093 Y-9.334
G1 F900 X79.196 Y-12.973 E61.94854
G1 X80.373 Y-12.973 E62.0138
G1 X74.354 Y3.049 E62.96279
G1 X78.156 Y-9.334 E63.68102
G1 X78.093 Y-9.334 E63.68451
G0 F1800 X78.484 Y-9.338
;TYPE:SKIN
G1 F900 X78.619 Y-9.202 E63.68982
G0 F1800 X78.384 Y-9.013
G1 F900 X78.503 Y-8.894 E63.69449
G0 F1800 X78.285 Y-8.688
G1 F900 X78.388 Y-8.585 E63.69852
G0 F1800 X78.186 Y-8.363
G1 F900 X78.272 Y-8.277 E63.7019
G0 F1800 X78.086 Y-8.039
G1 F900 X78.156 Y-7.969 E63.70464
G0 F1800 X77.986 Y-7.714
G1 F900 X78.04 Y-7.66 E63.70676
G0 F1800 X76.828 Y-8.448
G1 F900 X76.371 Y-8.906 E63.7247
G0 F1800 X76.795 Y-8.906
G1 F900 X76.97 Y-8.73 E63.73158
G0 F1800 X76.404 Y-8.448
G1 F900 X75.946 Y-8.906 E63.74953
G0 F1800 X75.522 Y-8.906
G1 F900 X75.98 Y-8.448 E63.76749
G0 F1800 X75.555 Y-8.448
G1 F900 X75.098 Y-8.906 E63.78543
G0 F1800 X74.674 Y-8.906
G1 F900 X75.131 Y-8.448 E63.80336
G0 F1800 X74.707 Y-8.448
G1 F900 X74.249 Y-8.906 E63.82132
G0 F1800 X73.825 Y-8.906
G1 F900 X74.282 Y-8.448 E63.83926
G0 F1800 X73.858 Y-8.448
G1 F900 X73.401 Y-8.906 E63.85719
G0 F1800 X72.976 Y-8.906
G1 F900 X73.434 Y-8.448 E63.87515
G0 F1800 X73.01 Y-8.448
G1 F900 X72.552 Y-8.906 E63.89311
G0 F1800 X72.128 Y-8.906
G1 F900 X72.585 Y-8.448 E63.91104
G0 F1800 X72.161 Y-8.448
G1 F900 X71.704 Y-8.906 E63.92898
G0 F1800 X71.279 Y-8.906
G1 F900 X71.737 Y-8.448 E63.94694
G0 F1800 X71.313 Y-8.448
G1 F900 X70.855 Y-8.906 E63.96489
G0 F1800 X70.431 Y-8.906
G1 F900 X70.888 Y-8.448 E63.98283
G0 F1800 X70.464 Y-8.448
G1 F900 X70.007 Y-8.906 E64.00077
G0 F1800 X69.582 Y-8.906
G1 F900 X70.04 Y-8.448 E64.01873
G0 F1800 X69.616 Y-8.448
G1 F900 X69.158 Y-8.906 E64.03668
G0 F1800 X68.734 Y-8.906
G1 F900 X69.191 Y-8.448 E64.05462
G0 F1800 X68.767 Y-8.448
G1 F900 X68.31 Y-8.906 E64.07256
G0 F1800 X67.885 Y-8.906
G1 F900 X68.343 Y-8.448 E64.09051
G0 F1800 X67.919 Y-8.448
G1 F900 X67.461 Y-8.906 E64.10847
G0 F1800 X67.037 Y-8.906
G1 F900 X67.494 Y-8.448 E64.12641
G0 F1800 X67.07 Y-8.448
G1 F900 X66.612 Y-8.906 E64.14436
G0 F1800 X66.188 Y-8.906
G1 F900 X66.646 Y-8.448 E64.16232
G0 F1800 X66.221 Y-8.448
G1 F900 X65.764 Y-8.906 E64.18026
G0 F1800 X65.34 Y-8.906
G1 F900 X65.797 Y-8.448 E64.19819
G0 F1800 X65.373 Y-8.448
G1 F900 X64.915 Y-8.906 E64.21615
G0 F1800 X64.491 Y-8.906
G1 F900 X64.949 Y-8.448 E64.23411
G0 F1800 X64.524 Y-8.448
G1 F900 X64.067 Y-8.906 E64.25204
G0 F1800 X63.643 Y-8.906
G1 F900 X64.1 Y-8.448 E64.26998
G0 F1800 X63.676 Y-8.448
G1 F900 X63.218 Y-8.906 E64.28794
G0 F1800 X62.794 Y-8.906
G1 F900 X63.252 Y-8.448 E64.3059
G0 F1800 X62.827 Y-8.448
G1 F900 X62.37 Y-8.906 E64.32383
G0 F1800 X62.166 Y-8.685
G1 F900 X62.403 Y-8.448 E64.33312
G0 F1800 X60.283 Y-10.568
G1 F900 X60.191 Y-10.66 E64.33673
G0 F1800 X60.105 Y-11.17
G1 F900 X59.936 Y-11.339 E64.34336
G0 F1800 X59.928 Y-11.772
G1 F900 X59.681 Y-12.019 E64.35304
G0 F1800 X59.75 Y-12.374
G1 F900 X59.466 Y-12.657 E64.36416
G0 F1800 X63.981 Y0.341
G1 F900 X64.391 Y0.751 E64.38023
G0 F1800 X64.017 Y1.226
G1 F900 X64.762 Y1.971 E64.40944
G0 F1800 X64.273 Y1.907
G1 F900 X64.947 Y2.58 E64.43585
G0 F1800 X64.529 Y2.586
G1 F900 X65.133 Y3.19 E64.45953
G0 F1800 X64.784 Y3.266
G1 F900 X65.318 Y3.799 E64.48044
G0 F1800 X65.04 Y3.946
G1 F900 X65.503 Y4.409 E64.4986
G0 F1800 X65.295 Y4.625
G1 F900 X65.688 Y5.019 E64.51402
G0 F1800 X65.55 Y5.305
G1 F900 X65.874 Y5.628 E64.52671
G0 F1800 X65.806 Y5.985
G1 F900 X66.059 Y6.238 E64.53663
G0 F1800 X66.062 Y6.665
G1 F900 X66.244 Y6.847 E64.54376
G0 F1800 X66.317 Y7.344
G1 F900 X66.429 Y7.457 E64.54817
G0 F1800 X67.09 Y8.966
G1 F900 X67.636 Y9.512 E64.56958
G0 F1800 X68.06 Y9.512
G1 F900 X67.514 Y8.966 E64.59099
G0 F1800 X67.938 Y8.966
G1 F900 X68.484 Y9.512 E64.61239
G0 F1800 X68.908 Y9.512
G1 F900 X68.363 Y8.966 E64.63378
G0 F1800 X68.787 Y8.966
G1 F900 X69.333 Y9.512 E64.65519
G0 F1800 X69.757 Y9.512
G1 F900 X69.211 Y8.966 E64.67659
G0 F1800 X69.635 Y8.966
G1 F900 X70.181 Y9.512 E64.698
G0 F1800 X70.606 Y9.512
G1 F900 X70.06 Y8.966 E64.71941
G0 F1800 X70.484 Y8.966
G1 F900 X71.03 Y9.512 E64.74082
G0 F1800 X71.454 Y9.512
G1 F900 X70.908 Y8.966 E64.76222
G0 F1800 X71.332 Y8.966
G1 F900 X71.878 Y9.512 E64.78363
G0 F1800 X72.25 Y9.459
G1 F900 X71.757 Y8.966 E64.80296
G0 F1800 X72.181 Y8.966
G1 F900 X72.366 Y9.151 E64.81021
G0 F1800 X72.482 Y8.843
G1 F900 X72.325 Y8.685 E64.81639
G0 F1800 X72.598 Y8.534
G1 F900 X72.424 Y8.36 E64.82321
G0 F1800 X72.714 Y8.226
G1 F900 X72.524 Y8.036 E64.83066
G0 F1800 X72.829 Y7.917
G1 F900 X72.624 Y7.711 E64.83871
G0 F1800 X72.945 Y7.609
G1 F900 X72.723 Y7.387 E64.84742
G0 F1800 X72.822 Y7.061
G1 F900 X73.061 Y7.3 E64.85679
G0 F1800 X73.177 Y6.992
G1 F900 X72.922 Y6.737 E64.86679
G0 F1800 X73.022 Y6.412
G1 F900 X73.293 Y6.684 E64.87743
G0 F1800 X73.409 Y6.375
G1 F900 X73.121 Y6.088 E64.8887
G0 F1800 X73.221 Y5.763
G1 F900 X73.524 Y6.066 E64.90058
G0 F1800 X73.64 Y5.758
G1 F900 X73.321 Y5.439 E64.91309
G0 F1800 X73.421 Y5.114
G1 F900 X73.756 Y5.45 E64.92624
G0 F1800 X73.872 Y5.142
G1 F900 X73.52 Y4.789 E64.94006
G0 F1800 X73.619 Y4.464
G1 F900 X73.988 Y4.833 E64.95453
G0 F1800 X74.104 Y4.525
G1 F900 X73.719 Y4.14 E64.96963
G0 F1800 X73.819 Y3.815
G1 F900 X74.22 Y4.216 E64.98535
G0 F1800 X74.336 Y3.908
G1 F900 X73.918 Y3.49 E65.00174
G0 F1800 X74.147 Y3.295
G1 F900 X74.451 Y3.599 E65.01365
G0 F1800 X67.211 Y9.512
G1 F900 X67.082 Y9.382 E65.01873
G0 F1800 X64.576 Y1.361
G1 F900 X63.762 Y0.547 E65.05065
G0 F1800 X65.045 Y-6.357
G0 X78.534 Y-9.712
G1 F900 X78.735 Y-9.511 E65.05853
G0 F1800 X78.851 Y-9.819
G1 F900 X78.633 Y-10.037 E65.06707
G0 F1800 X78.732 Y-10.362
G1 F900 X78.967 Y-10.127 E65.07629
G0 F1800 X79.083 Y-10.436
G1 F900 X78.831 Y-10.688 E65.08617
G0 F1800 X78.93 Y-11.013
G1 F900 X79.199 Y-10.744 E65.09671
G0 F1800 X79.315 Y-11.052
G1 F900 X79.028 Y-11.339 E65.10797
G0 F1800 X79.127 Y-11.665
G1 F900 X79.431 Y-11.361 E65.11989
G0 F1800 X79.546 Y-11.67
G1 F900 X79.225 Y-11.991 E65.13247
G0 F1800 X79.324 Y-12.316
G1 F900 X79.662 Y-11.978 E65.14572
G0 F1800 X79.778 Y-12.286
G1 F900 X79.423 Y-12.641 E65.15964
G0 F1800 X79.831 Y-12.657
G1 F900 X79.894 Y-12.594 E65.16211
G1 F1500 E58.66211
;MESH:NONMESH
G0 F600 X79.894 Y-12.594 Z0.4
G0 F1800 X73.692 Y-6.434
G0 X73.692 Y-6.334
;TIME_ELAPSED:90.448268
;LAYER:1
M106 S255
;TYPE:WALL-INNER
;MESH:A.stl
G1 F1500 E65.16211
G1 F1350 X65.481 Y-6.334 E65.61738
G1 X65.48 Y-6.334 E65.61744
G1 X65.077 Y-6.334 E65.63978
G1 X65.194 Y-5.948 E65.65317
G1 X68.901 Y6.251 E66.36011
G1 X70.233 Y6.251 E66.43396
G1 X73.979 Y-5.947 E67.14147
G1 X74.097 Y-6.334 E67.16391
G1 X73.693 Y-6.334 E67.17731
G1 X73.692 Y-6.334 E67.17737
G0 F2700 X73.285 Y-5.734
;TYPE:WALL-OUTER
G1 F900 X65.886 Y-5.734 E67.58761
G1 X69.346 Y5.651 E68.24738
G1 X69.79 Y5.651 E68.272
G1 X73.285 Y-5.734 E68.93234
G0 F2700 X73.085 Y-5.734
G0 X73.085 Y-6.394
G0 X73.085 Y-6.434
G0 X63.546 Y-10.941
G0 X63.605 Y-11.021
;TYPE:WALL-INNER
G1 F1350 X75.47 Y-11.021 E69.59021
G1 X76.97 Y-15.973 E69.8771
G1 X84.277 Y-15.973 E70.28225
G1 X84.278 Y-15.973 E70.28231
G1 X84.709 Y-15.973 E70.3062
G1 X84.558 Y-15.569 E70.3203
G1 X74.113 Y12.227 E71.96671
G1 X65.25 Y12.227 E72.45814
G1 X54.802 Y-15.569 E74.10461
G1 X54.651 Y-15.973 E74.12852
G1 X55.082 Y-15.973 E74.14261
G1 X55.083 Y-15.973 E74.14266
G1 X62.142 Y-15.973 E74.53406
G1 X63.605 Y-11.021 E74.82036
G0 F2700 X64.053 Y-11.621
;TYPE:WALL-OUTER
G1 F900 X75.025 Y-11.621 E75.42872
G1 X76.525 Y-16.573 E75.71562
G1 X85.143 Y-16.573 E76.19346
G1 X85.144 Y-16.573 E76.19351
G1 X85.576 Y-16.573 E76.21746
G1 X85.424 Y-16.168 E76.23159
G1 X74.529 Y12.827 E77.94902
G1 X64.834 Y12.827 E78.48657
G1 X53.936 Y-16.168 E80.20406
G1 X53.784 Y-16.573 E80.22804
G1 X54.216 Y-16.573 E80.24215
G1 X54.217 Y-16.573 E80.24221
G1 X62.59 Y-16.573 E80.70646
G1 X64.053 Y-11.621 E80.99277
G0 F2700 X64.253 Y-11.621
G0 X64.253 Y-10.961
G0 X64.253 Y-10.921
G0 X61.365 Y-8.021
