;FLAVOR:Marlin
;TIME:3904
;Filament used: 3.39325m
;Layer height: 0.2
;MINX:-79.783
;MINY:-79.367
;MINZ:0.2
;MAXX:56.845
;MAXY:81.235
;MAXZ:8.7
;POSTPROCESSED
;Generated with Cura_SteamEngine 4.8.0
M140 S60
M105
M190 S60
M104 S195
M105
M109 S195
M82 ;absolute extrusion mode
G28 ;Home
G1 Z15.0 F6000 ;Move the platform down 15mm
;Prime the extruder
G92 E0
G1 F200 E3
G92 E0
G92 E0
G92 E0
G1 F1500 E-6.5
;LAYER_COUNT:18
;LAYER:0
M107
;MESH:G.stl
G0 F1800 X7.724 Y-3.597 Z0.2
;TYPE:WALL-INNER
G1 F1500 E0
G1 F900 X7.724 Y-7.89 E0.23803
G1 X3.889 Y-9.711 E0.47342
G1 X2.279 Y-10.085 E0.56507
G1 X0.62 Y-10.209 E0.65731
G1 X-1.086 Y-10.065 E0.75224
G1 X-2.635 Y-9.621 E0.84159
G1 X-4.002 Y-8.87 E0.92807
G1 X-5.171 Y-7.809 E1.0156
G1 X-6.093 Y-6.409 E1.10855
G1 X-6.728 Y-4.672 E1.21109
G1 X-7.095 Y-2.624 E1.32646
G1 X-7.215 Y-.26 E1.4577
G1 X-7.096 Y1.983 E1.58224
G1 X-6.731 Y3.946 E1.69295
G1 X-6.104 Y5.636 E1.7929
G1 X-5.198 Y7.023 E1.88475
G1 X-4.062 Y8.094 E1.97132
G1 X-2.745 Y8.859 E2.05577
G1 X-1.265 Y9.315 E2.14164
G1 X0.371 Y9.464 E2.23272
G1 X2.466 Y9.211 E2.34973
G1 X4.238 Y8.415 E2.45744
G1 X5.59 Y7.096 E2.56217
G1 X6.102 Y6.065 E2.62599
G1 X12.951 Y7.287 E3.01174
G1 X12.952 Y7.288 E3.01182
G1 X13.307 Y7.35 E3.0318
G1 X13.178 Y7.687 E3.04409
G1 X12.714 Y8.892 E3.11568
G1 X11.408 Y10.861 E3.24669
G1 X9.743 Y12.351 E3.37057
G1 X7.695 Y13.394 E3.49801
G1 X4.791 Y14.028 E3.66282
G1 X0.57 Y14.246 E3.89717
G1 X-3.925 Y13.894 E4.14716
G1 X-5.722 Y13.469 E4.24955
G1 X-7.258 Y12.879 E4.34078
G1 X-8.975 Y11.897 E4.45046
G1 X-10.464 Y10.716 E4.55583
G1 X-11.739 Y9.329 E4.66029
G1 X-12.791 Y7.738 E4.76605
G1 X-13.623 Y5.961 E4.87484
G1 X-14.221 Y4.018 E4.98756
G1 X-14.582 Y1.915 E5.10587
G1 X-14.702 Y-.365 E5.23247
G1 X-14.592 Y-2.54 E5.35322
G1 X-14.262 Y-4.566 E5.46703
G1 X-13.716 Y-6.452 E5.5759
G1 X-12.951 Y-8.216 E5.68251
G1 X-11.994 Y-9.8 E5.78512
G1 X-10.87 Y-11.163 E5.88308
G1 X-9.579 Y-12.311 E5.97886
G1 X-8.108 Y-13.257 E6.07584
G1 X-6.418 Y-14.002 E6.17824
G1 X-4.488 Y-14.538 E6.28931
G1 X-2.29 Y-14.864 E6.41251
G1 X0.167 Y-14.974 E6.54888
G1 X4.091 Y-14.729 E6.76687
G1 X7.396 Y-14.002 E6.95451
G1 X10.658 Y-12.599 E7.15139
G1 X14.048 Y-10.539 E7.37134
G1 X14.048 Y0.844 E8.00249
G1 X1.524 Y0.844 E8.6969
G1 X1.524 Y-3.597 E8.94314
G1 X7.724 Y-3.597 E9.28691
G0 F1800 X7.124 Y-4.197
;TYPE:WALL-OUTER
G1 F900 X7.124 Y-7.511 E9.47066
G1 X3.69 Y-9.141 E9.68143
G1 X2.188 Y-9.49 E9.76693
G1 X0.623 Y-9.607 E9.85394
G1 X-.977 Y-9.472 E9.94297
G1 X-2.405 Y-9.063 E10.02533
G1 X-3.651 Y-8.378 E10.10417
G1 X-4.712 Y-7.416 E10.18358
G1 X-5.553 Y-6.137 E10.26846
G1 X-6.147 Y-4.515 E10.36423
G1 X-6.498 Y-2.556 E10.47458
G1 X-6.614 Y-.261 E10.60199
G1 X-6.499 Y1.912 E10.72265
G1 X-6.151 Y3.786 E10.82833
G1 X-5.565 Y5.364 E10.92166
G1 X-4.735 Y6.635 E11.00583
G1 X-3.701 Y7.61 E11.08463
G1 X-2.503 Y8.306 E11.16145
G1 X-1.148 Y8.723 E11.24006
G1 X0.362 Y8.861 E11.32413
G1 X2.303 Y8.626 E11.43254
G1 X3.895 Y7.911 E11.52931
G1 X5.098 Y6.738 E11.62247
G1 X5.765 Y5.395 E11.70561
G1 X13.771 Y6.824 E12.15653
G1 X14.128 Y6.887 E12.17663
G1 X13.998 Y7.225 E12.18896
G1 X13.25 Y9.17 E12.30451
G1 X11.866 Y11.256 E12.44331
G1 X10.084 Y12.851 E12.57591
G1 X7.9 Y13.963 E12.7118
G1 X4.871 Y14.624 E12.8837
G1 X0.562 Y14.847 E13.12294
G1 X-4.02 Y14.488 E13.37778
G1 X-5.898 Y14.044 E13.48478
G1 X-7.518 Y13.422 E13.58099
G1 X-9.311 Y12.396 E13.69553
G1 X-10.875 Y11.156 E13.8062
G1 X-12.211 Y9.702 E13.91569
G1 X-13.315 Y8.033 E14.02664
G1 X-14.184 Y6.176 E14.14032
G1 X-14.805 Y4.159 E14.25734
G1 X-15.179 Y1.979 E14.37998
G1 X-15.303 Y-.364 E14.51007
G1 X-15.189 Y-2.603 E14.63437
G1 X-14.848 Y-4.698 E14.75206
G1 X-14.279 Y-6.662 E14.86544
G1 X-13.487 Y-8.49 E14.9759
G1 X-12.485 Y-10.148 E15.08331
G1 X-11.305 Y-11.579 E15.18616
G1 X-9.94 Y-12.793 E15.28744
G1 X-8.396 Y-13.786 E15.38923
G1 X-6.622 Y-14.568 E15.49672
G1 X-4.615 Y-15.125 E15.61221
G1 X-2.346 Y-15.462 E15.7394
G1 X0.177 Y-15.575 E15.87943
G1 X4.174 Y-15.325 E16.10148
G1 X7.579 Y-14.576 E16.29479
G1 X10.938 Y-13.132 E16.49752
G1 X14.648 Y-10.877 E16.73824
G1 X14.648 Y1.444 E17.4214
G1 X0.924 Y1.444 E18.18235
G1 X0.924 Y-4.197 E18.49513
G1 X7.124 Y-4.197 E18.8389
G0 F1800 X7.124 Y-4.397
G0 X7.784 Y-4.397
G0 X7.824 Y-4.397
G0 X7.757 Y-7.911
G0 X3.902 Y-9.748
G0 X2.285 Y-10.124
G0 X0.62 Y-10.249
G0 X-1.093 Y-10.104
G0 X-2.65 Y-9.657
G0 X-3.887 Y-8.978
G0 X-10.678 Y-3.032
;TYPE:SKIN
G1 F900 X-10.82 Y-.255 E18.99307
G1 X-10.679 Y2.41 E19.14104
G1 X-10.259 Y4.65 E19.26741
G1 X-10.71 Y3.189 E19.35219
G1 X-10.999 Y1.519 E19.44616
G1 X-11.096 Y-.374 E19.55126
G1 X-11.009 Y-2.165 E19.65068
G1 X-10.745 Y-3.779 E19.74136
G1 X-10.326 Y-5.228 E19.82499
G1 X-10.255 Y-5.393 E19.83495
G1 X-10.678 Y-3.032 E19.96795
G0 F1800 X-10.081 Y-2.964
G1 F900 X-10.219 Y-.256 E20.11829
G1 X-10.082 Y2.339 E20.26238
G1 X-9.631 Y4.746 E20.39816
G1 X-8.8 Y6.996 E20.53115
G1 X-7.514 Y8.963 E20.66146
G1 X-6.669 Y9.759 E20.72582
G1 X-7.292 Y9.403 E20.76561
G1 X-8.422 Y8.506 E20.8456
G1 X-9.367 Y7.48 E20.92294
G1 X-10.162 Y6.278 E21.00285
G1 X-10.822 Y4.863 E21.08942
G1 X-11.295 Y3.326 E21.17859
G1 X-11.596 Y1.585 E21.27655
G1 X-11.696 Y-.372 E21.3852
G1 X-11.606 Y-2.23 E21.48834
G1 X-11.332 Y-3.91 E21.58272
G1 X-10.892 Y-5.431 E21.67052
G1 X-10.282 Y-6.837 E21.7555
G1 X-9.544 Y-8.056 E21.83451
G1 X-8.696 Y-9.083 E21.90835
G1 X-7.763 Y-9.913 E21.97759
G1 X-6.687 Y-10.605 E22.04853
G1 X-6.431 Y-10.717 E22.06402
G1 X-7.467 Y-9.778 E22.14155
G1 X-8.793 Y-7.769 E22.27501
G1 X-9.634 Y-5.458 E22.41137
G1 X-10.081 Y-2.964 E22.55186
G0 F1800 X-9.484 Y-2.896
G1 F900 X-9.618 Y-.257 E22.69837
G1 X-9.485 Y2.268 E22.83857
G1 X-9.051 Y4.586 E22.96933
G1 X-8.261 Y6.724 E23.09571
G1 X-7.051 Y8.575 E23.21832
G1 X-5.507 Y10.03 E23.33595
G1 X-3.713 Y11.072 E23.45099
G1 X-1.834 Y11.651 E23.56
G1 X-3.547 Y11.518 E23.65527
G1 X-5.013 Y11.171 E23.7388
G1 X-6.228 Y10.703 E23.81099
G1 X-7.628 Y9.902 E23.90043
G1 X-8.829 Y8.949 E23.98544
G1 X-9.841 Y7.85 E24.06827
G1 X-10.689 Y6.568 E24.1535
G1 X-11.382 Y5.084 E24.24431
G1 X-11.88 Y3.466 E24.33818
G1 X-12.193 Y1.651 E24.4403
G1 X-12.297 Y-.37 E24.5525
G1 X-12.203 Y-2.293 E24.65925
G1 X-11.918 Y-4.042 E24.75751
G1 X-11.457 Y-5.634 E24.84941
G1 X-10.815 Y-7.114 E24.93886
G1 X-10.033 Y-8.406 E25.02259
G1 X-9.131 Y-9.499 E25.10117
G1 X-8.126 Y-10.393 E25.17575
G1 X-6.972 Y-11.135 E25.25182
G1 X-5.608 Y-11.735 E25.33444
G1 X-3.983 Y-12.187 E25.42796
G1 X-2.063 Y-12.472 E25.53559
G1 X-0.01 Y-12.564 E25.64953
G1 X-1.521 Y-12.436 E25.73361
G1 X-3.555 Y-11.853 E25.85093
G1 X-5.405 Y-10.838 E25.96793
G1 X-7.008 Y-9.384 E26.08793
G1 X-8.253 Y-7.497 E26.21328
G1 X-9.053 Y-5.301 E26.34287
G1 X-9.484 Y-2.896 E26.47834
G0 F1800 X-8.887 Y-2.828
G1 F900 X-9.017 Y-.258 E26.62102
G1 X-8.888 Y2.197 E26.75733
G1 X-8.471 Y4.426 E26.88307
G1 X-7.722 Y6.452 E27.00283
G1 X-6.588 Y8.187 E27.11776
G1 X-5.146 Y9.546 E27.22762
G1 X-3.471 Y10.519 E27.33503
G1 X-1.615 Y11.091 E27.44271
G1 X0.397 Y11.274 E27.55473
G1 X2.954 Y10.965 E27.69754
G1 X5.266 Y9.927 E27.83806
G1 X7.066 Y8.171 E27.97749
G1 X7.114 Y8.075 E27.98344
G1 X10.675 Y8.709 E28.18399
G1 X10.036 Y9.673 E28.24812
G1 X8.715 Y10.855 E28.3464
G1 X7.083 Y11.686 E28.44795
G1 X4.557 Y12.238 E28.59131
G1 X0.586 Y12.442 E28.81178
G1 X-3.642 Y12.112 E29.04692
G1 X-5.192 Y11.745 E29.13524
G1 X-6.486 Y11.247 E29.21212
G1 X-7.964 Y10.401 E29.30654
G1 X-9.236 Y9.392 E29.39657
G1 X-10.315 Y8.22 E29.4849
G1 X-11.216 Y6.858 E29.57544
G1 X-11.941 Y5.307 E29.67037
G1 X-12.465 Y3.603 E29.76922
G1 X-12.79 Y1.717 E29.87533
G1 X-12.898 Y-.369 E29.99115
G1 X-12.8 Y-2.358 E30.10157
G1 X-12.504 Y-4.173 E30.20353
G1 X-12.022 Y-5.837 E30.29959
G1 X-11.348 Y-7.391 E30.39351
G1 X-10.522 Y-8.756 E30.48197
G1 X-9.566 Y-9.915 E30.56527
G1 X-8.489 Y-10.873 E30.6452
G1 X-7.257 Y-11.665 E30.7264
G1 X-5.81 Y-12.302 E30.81407
G1 X-4.112 Y-12.774 E30.91178
G1 X-2.12 Y-13.07 E31.02345
G1 X0.155 Y-13.172 E31.14971
G1 X3.837 Y-12.943 E31.35426
G1 X6.836 Y-12.282 E31.52454
G1 X9.832 Y-10.993 E31.70538
G1 X12.248 Y-9.526 E31.8621
G1 X12.248 Y-.956 E32.33728
G1 X3.324 Y-.956 E32.83208
G1 X3.324 Y-1.797 E32.87871
G1 X9.524 Y-1.797 E33.22248
G1 X9.524 Y-9.028 E33.62342
G1 X4.485 Y-11.421 E33.93272
G1 X2.551 Y-11.869 E34.04279
G1 X0.612 Y-12.015 E34.15061
G1 X-1.412 Y-11.843 E34.26324
G1 X-3.325 Y-11.295 E34.37357
G1 X-5.054 Y-10.346 E34.48293
G1 X-6.549 Y-8.99 E34.59484
G1 X-7.713 Y-7.225 E34.71207
G1 X-8.472 Y-5.144 E34.83489
G1 X-8.887 Y-2.828 E34.96535
G0 F1800 X-8.29 Y-2.76
G1 F900 X-8.416 Y-.259 E35.1042
G1 X-8.291 Y2.126 E35.23662
G1 X-7.891 Y4.266 E35.35733
G1 X-7.183 Y6.18 E35.47048
G1 X-6.125 Y7.799 E35.57772
G1 X-4.785 Y9.062 E35.67982
G1 X-3.229 Y9.966 E35.7796
G1 X-1.498 Y10.499 E35.88002
G1 X0.388 Y10.671 E35.98503
G1 X2.791 Y10.38 E36.11924
G1 X4.923 Y9.423 E36.24881
G1 X6.574 Y7.812 E36.37672
G1 X6.777 Y7.405 E36.40193
G1 X11.666 Y8.276 E36.67728
G1 X11.642 Y8.338 E36.68097
G1 X10.494 Y10.068 E36.79609
G1 X9.056 Y11.355 E36.90309
G1 X7.288 Y12.255 E37.01309
G1 X4.637 Y12.834 E37.16354
G1 X0.578 Y13.043 E37.3889
G1 X-3.736 Y12.706 E37.62883
G1 X-5.368 Y12.32 E37.72181
G1 X-6.746 Y11.79 E37.80367
G1 X-8.3 Y10.9 E37.90297
G1 X-9.643 Y9.835 E37.998
G1 X-10.789 Y8.59 E38.09183
G1 X-11.743 Y7.148 E38.1877
G1 X-12.5 Y5.528 E38.28684
G1 X-13.05 Y3.743 E38.39041
G1 X-13.387 Y1.783 E38.50068
G1 X-13.499 Y-.368 E38.6201
G1 X-13.397 Y-2.421 E38.73408
G1 X-13.09 Y-4.305 E38.83992
G1 X-12.587 Y-6.04 E38.94008
G1 X-11.881 Y-7.668 E39.03847
G1 X-11.011 Y-9.106 E39.13166
G1 X-10.001 Y-10.331 E39.21969
G1 X-8.852 Y-11.353 E39.30495
G1 X-7.542 Y-12.195 E39.3913
G1 X-6.012 Y-12.869 E39.484
G1 X-4.241 Y-13.361 E39.58591
G1 X-2.177 Y-13.668 E39.70161
G1 X0.165 Y-13.773 E39.8316
G1 X3.92 Y-13.539 E40.0402
G1 X7.02 Y-12.856 E40.21621
G1 X10.112 Y-11.526 E40.40284
G1 X12.848 Y-9.864 E40.58034
G1 X12.848 Y-.356 E41.10752
G1 X2.724 Y-.356 E41.66887
G1 X2.724 Y-2.397 E41.78203
G1 X8.924 Y-2.397 E42.1258
G1 X8.924 Y-8.649 E42.47245
G1 X4.286 Y-10.851 E42.75713
G1 X2.46 Y-11.274 E42.86105
G1 X0.615 Y-11.413 E42.96364
G1 X-1.303 Y-11.25 E43.07037
G1 X-3.095 Y-10.737 E43.17372
G1 X-4.703 Y-9.854 E43.27544
G1 X-6.09 Y-8.596 E43.37926
G1 X-7.173 Y-6.953 E43.48837
G1 X-7.891 Y-4.987 E43.60442
G1 X-8.29 Y-2.76 E43.72987
G0 F1800 X-7.693 Y-2.692
G1 F900 X-7.815 Y-.26 E43.86489
G1 X-7.694 Y2.055 E43.99342
G1 X-7.311 Y4.106 E44.10911
G1 X-6.644 Y5.908 E44.21565
G1 X-5.662 Y7.411 E44.31519
G1 X-4.424 Y8.578 E44.40953
G1 X-2.987 Y9.413 E44.50168
G1 X-1.381 Y9.907 E44.59484
G1 X0.379 Y10.068 E44.69284
G1 X2.628 Y9.795 E44.81845
G1 X4.58 Y8.919 E44.93708
G1 X6.082 Y7.454 E45.05342
G1 X6.44 Y6.735 E45.09795
G1 X12.487 Y7.812 E45.43851
G1 X12.178 Y8.616 E45.48627
G1 X10.952 Y10.463 E45.60919
G1 X9.397 Y11.855 E45.72491
G1 X7.493 Y12.824 E45.84336
G1 X4.717 Y13.43 E46.00091
G1 X0.57 Y13.644 E46.23115
G1 X-3.83 Y13.3 E46.47586
G1 X-5.544 Y12.895 E46.57351
G1 X-7.006 Y12.333 E46.66036
G1 X-8.637 Y11.399 E46.76457
G1 X-10.05 Y10.278 E46.86458
G1 X-11.267 Y8.956 E46.96421
G1 X-12.264 Y7.448 E47.06445
G1 X-13.061 Y5.745 E47.1687
G1 X-13.635 Y3.88 E47.2769
G1 X-13.984 Y1.849 E47.39116
G1 X-14.1 Y-.367 E47.5142
G1 X-13.994 Y-2.486 E47.63183
G1 X-13.676 Y-4.436 E47.74138
G1 X-13.15 Y-6.25 E47.84611
G1 X-12.418 Y-7.939 E47.94817
G1 X-11.5 Y-9.456 E48.04649
G1 X-10.436 Y-10.747 E48.13925
G1 X-9.215 Y-11.833 E48.22985
G1 X-7.827 Y-12.725 E48.32133
G1 X-6.214 Y-13.436 E48.41907
G1 X-4.37 Y-13.948 E48.52518
G1 X-2.234 Y-14.266 E48.64492
G1 X0.175 Y-14.374 E48.77863
G1 X4.003 Y-14.135 E48.99129
G1 X7.204 Y-13.43 E49.17303
G1 X10.392 Y-12.059 E49.36545
G1 X13.448 Y-10.202 E49.56372
G1 X13.448 Y0.244 E50.14292
G1 X2.124 Y0.244 E50.77079
G1 X2.124 Y-2.997 E50.9505
G1 X8.324 Y-2.997 E51.29427
G1 X8.324 Y-8.27 E51.58664
G1 X4.087 Y-10.281 E51.84668
G1 X2.369 Y-10.679 E51.94446
G1 X0.618 Y-10.811 E52.04183
G1 X-1.194 Y-10.657 E52.14266
G1 X-2.865 Y-10.179 E52.23902
G1 X-4.352 Y-9.362 E52.3331
G1 X-5.631 Y-8.203 E52.4288
G1 X-6.633 Y-6.681 E52.52984
G1 X-7.31 Y-4.83 E52.63912
G1 X-7.693 Y-2.692 E52.75955
G0 F1800 X-6.128 Y-6.426
G0 X-5.201 Y-7.835
G0 X-4.025 Y-8.902
G0 X2.925 Y-12.398
G1 F900 X3.754 Y-12.347 E52.8056
G1 X6.652 Y-11.708 E52.97015
G1 X9.556 Y-10.459 E53.14542
G1 X11.648 Y-9.188 E53.28115
G1 X11.648 Y-1.556 E53.70432
G1 X10.124 Y-1.556 E53.78882
G1 X10.124 Y-9.407 E54.22413
G1 X4.684 Y-11.991 E54.55806
G1 X2.925 Y-12.398 E54.65816
G0 F1800 X7.757 Y-7.911
G0 X10.724 Y-2.156
G1 F900 X10.724 Y-9.047 E55.04025
G1 X11.048 Y-8.85 E55.06127
G1 X11.048 Y-2.156 E55.43243
G1 X10.724 Y-2.156 E55.4504
G0 F1800 X7.757 Y-7.911
G0 X3.902 Y-9.748
G0 X2.285 Y-10.124
G0 X0.62 Y-10.249
G0 X-1.093 Y-10.104
G0 X-2.65 Y-9.657
G0 X-4.025 Y-8.902
G0 X-5.201 Y-7.835
G0 X-6.128 Y-6.426
G0 X-6.766 Y-4.682
G0 X-7.134 Y-2.628
G0 X-7.255 Y-.26
G0 X-7.135 Y1.987
G0 X-6.769 Y3.956
G0 X-6.139 Y5.654
G0 X-5.228 Y7.048
G0 X-4.085 Y8.126
G0 X-2.761 Y8.895
G0 X-1.555 Y9.266
G0 X6.255 Y10.639
G1 F900 X7.554 Y9.373 E55.55097
G1 X8.403 Y9.524 E55.59878
G1 X8.033 Y9.855 E55.62631
G1 X6.673 Y10.548 E55.71094
G1 X6.255 Y10.639 E55.73466
G0 F1800 X0.786 Y11.831
G1 F900 X3.117 Y11.55 E55.86484
G1 X5.609 Y10.431 E56.01631
G1 X7.355 Y8.728 E56.15154
G1 X9.669 Y9.14 E56.28186
G1 X9.578 Y9.278 E56.29103
G1 X8.374 Y10.355 E56.3806
G1 X6.878 Y11.117 E56.47369
G1 X4.477 Y11.642 E56.60996
G1 X0.786 Y11.831 E56.81488
G0 F1800 X0.495 Y11.95
;TYPE:SKIN
G1 F900 X0.108 Y11.564 E56.83003
G0 F1800 X-.357 Y11.521
G1 F900 X0.216 Y12.095 E56.85252
G0 F1800 X-.243 Y12.059
G1 F900 X-.824 Y11.479 E56.87528
G0 F1800 X-1.291 Y11.436
G1 F900 X-.704 Y12.023 E56.89829
G0 F1800 X-1.164 Y11.987
G1 F900 X-1.525 Y11.626 E56.91245
G0 F1800 X-4.801 Y10.895
G1 F900 X-5.022 Y10.675 E56.92109
G0 F1800 X-5.463 Y10.658
G1 F900 X-6.325 Y9.796 E56.95489
G0 F1800 X-6.505 Y10.04
G1 F900 X-6.177 Y10.368 E56.96775
G0 F1800 X-9.139 Y6.982
G1 F900 X-9.665 Y6.456 E56.98837
G0 F1800 X-9.388 Y6.309
G1 F900 X-10.158 Y5.539 E57.01856
G0 F1800 X-9.636 Y5.637
G1 F900 X-10.302 Y4.97 E57.04469
G0 F1800 X-9.963 Y4.886
G1 F900 X-9.884 Y4.964 E57.04777
G0 F1800 X-9.896 Y-5.654
G1 F900 X-10.283 Y-6.04 E57.06292
G0 F1800 X-10.155 Y-6.337
G1 F900 X-9.783 Y-5.965 E57.07751
G0 F1800 X-9.67 Y-6.276
G1 F900 X-10.027 Y-6.633 E57.0915
G0 F1800 X-9.874 Y-6.904
G1 F900 X-9.557 Y-6.587 E57.10393
G0 F1800 X-9.444 Y-6.898
G1 F900 X-9.714 Y-7.168 E57.11452
G0 F1800 X-9.554 Y-7.433
G1 F900 X-9.33 Y-7.209 E57.1233
G0 F1800 X-9.217 Y-7.52
G1 F900 X-9.393 Y-7.696 E57.1302
G0 F1800 X-9.222 Y-7.95
G1 F900 X-9.104 Y-7.831 E57.13485
G0 F1800 X-8.949 Y-8.101
G1 F900 X-9.031 Y-8.182 E57.13804
G0 F1800 X-8.839 Y-8.415
G1 F900 X-8.781 Y-8.357 E57.14032
G0 F1800 X-6.119 Y-10.786
G1 F900 X-6.029 Y-10.696 E57.14384
G0 F1800 X-5.807 Y-10.898
G1 F900 X-6.088 Y-11.179 E57.15486
G0 F1800 X-5.793 Y-11.308
G1 F900 X-5.584 Y-11.099 E57.16306
G0 F1800 X-5.31 Y-11.25
G1 F900 X-5.498 Y-11.438 E57.17043
G0 F1800 X-5.166 Y-11.53
G1 F900 X-5.036 Y-11.399 E57.17554
G0 F1800 X-4.835 Y-11.623
G1 F900 X-4.762 Y-11.55 E57.1784
G0 F1800 X0.299 Y-12.428
G1 F900 X0.414 Y-12.313 E57.18291
G0 F1800 X0.839 Y-12.312
G1 F900 X0.305 Y-12.846 E57.20385
G0 F1800 X0.758 Y-12.818
G1 F900 X1.297 Y-12.278 E57.225
G0 F1800 X1.756 Y-12.244
G1 F900 X1.21 Y-12.79 E57.24641
G0 F1800 X1.662 Y-12.762
G1 F900 X2.215 Y-12.209 E57.26809
G0 F1800 X2.6 Y-12.248
G1 F900 X2.114 Y-12.734 E57.28714
G0 F1800 X2.567 Y-12.706
G1 F900 X2.655 Y-12.618 E57.29059
G0 F1800 X8.539 Y-10.552
G1 F900 X8.623 Y-10.468 E57.29389
G0 F1800 X9.284 Y-10.231
