;FLAVOR:Marlin
;TIME:5898
;Filament used: 5.09419m
;Layer height: 0.2
;MINX:-77.139
;MINY:-82.556
;MINZ:0.2
;MAXX:79.356
;MAXY:83.077
;MAXZ:8.7
;POSTPROCESSED
;Generated with Cura_SteamEngine 4.8.0
M140 S60
M105
M190 S60
M104 S195
M105
M109 S195
M82 ;absolute extrusion mode
G28 ;Home
G1 Z15.0 F6000 ;Move the platform down 15mm
;Prime the extruder
G92 E0
G1 F200 E3
G92 E0
G92 E0
G92 E0
G1 F1500 E-6.5
;LAYER_COUNT:18
;LAYER:0
M107
;MESH:M.stl
G0 F1800 X9.168 Y11.283 Z0.2
;TYPE:WALL-INNER
G1 F1500 E0
G1 F900 X10.743 Y11.085 E0.08802
G1 X10.743 Y-11.688 E1.3507
G1 X16.535 Y-11.688 E1.67185
G1 X16.535 Y16.512 E3.23544
G1 X5.95 Y16.512 E3.82235
G1 X1.282 Y-1.742 E4.86704
G1 X-.114 Y-1.742 E4.94444
G1 X-4.817 Y16.512 E5.98962
G1 X-15.41 Y16.512 E6.57696
G1 X-15.41 Y-11.688 E8.14056
G1 X-9.618 Y-11.688 E8.46171
G1 X-9.618 Y11.085 E9.72439
G1 X-8.043 Y11.283 E9.81241
G1 X-2.18 Y-11.688 E11.1269
G1 X3.294 Y-11.688 E11.43042
G1 X9.168 Y11.283 E12.74507
G0 F1800 X9.618 Y10.622
;TYPE:WALL-OUTER
G1 F900 X10.143 Y10.556 E12.77441
G1 X10.143 Y10.274 E12.79004
G1 X10.143 Y-12.288 E14.04103
G1 X17.135 Y-12.288 E14.42871
G1 X17.135 Y17.112 E16.05884
G1 X5.484 Y17.112 E16.70485
G1 X0.88 Y-.889 E17.73507
G1 X0.816 Y-1.142 E17.74954
G1 X0.351 Y-1.142 E17.77533
G1 X0.286 Y-.889 E17.78823
G1 X-4.352 Y17.112 E18.81892
G1 X-16.01 Y17.112 E19.46532
G1 X-16.01 Y-12.288 E21.09545
G1 X-9.018 Y-12.288 E21.48313
G1 X-9.018 Y10.274 E22.73412
G1 X-9.018 Y10.556 E22.74976
G1 X-8.493 Y10.622 E22.7791
G1 X-8.424 Y10.349 E22.79379
G1 X-2.646 Y-12.288 E24.08918
G1 X3.76 Y-12.288 E24.44437
G1 X9.549 Y10.349 E25.73991
G1 X9.618 Y10.622 E25.7546
G0 F1800 X9.816 Y10.598
G0 X9.897 Y11.253
G0 X9.901 Y11.292
G0 X1.2 Y-5.342
;TYPE:SKIN
G1 F900 X-0.086 Y-5.342 E25.8259
G1 X0.557 Y-7.858 E25.96989
G1 X1.2 Y-5.342 E26.11388
G0 F1800 X1.973 Y-4.742
G1 F900 X-.858 Y-4.742 E26.27085
G1 X0.15 Y-8.688 E26.49667
G1 X0.964 Y-8.688 E26.5418
G1 X1.973 Y-4.742 E26.76763
G0 F1800 X2.746 Y-4.142
G1 F900 X-1.63 Y-4.142 E27.01027
G1 X-.316 Y-9.288 E27.30475
G1 X1.43 Y-9.288 E27.40156
G1 X2.746 Y-4.142 E27.69607
G0 F1800 X2.68 Y-3.542
G1 F900 X-1.511 Y-3.542 E27.92845
G1 X-6.213 Y14.712 E28.97361
G1 X-13.61 Y14.712 E29.38375
G1 X-13.61 Y-9.888 E30.74773
G1 X-11.418 Y-9.888 E30.86927
G1 X-11.418 Y12.673 E32.1202
G1 X-6.693 Y13.267 E32.38425
G1 X-.782 Y-9.888 E33.70929
G1 X1.896 Y-9.888 E33.85778
G1 X7.818 Y13.267 E35.18297
G1 X12.543 Y12.673 E35.44702
G1 X12.543 Y-9.888 E36.69795
G1 X14.735 Y-9.888 E36.81949
G1 X14.735 Y14.712 E38.18347
G1 X7.348 Y14.712 E38.59306
G1 X2.68 Y-3.542 E39.63775
G0 F1800 X2.214 Y-2.942
G1 F900 X-1.046 Y-2.942 E39.81851
G1 X-5.748 Y15.312 E40.86367
G1 X-14.21 Y15.312 E41.33286
G1 X-14.21 Y-10.488 E42.76338
G1 X-10.818 Y-10.488 E42.95146
G1 X-10.818 Y12.144 E44.20632
G1 X-7.143 Y12.606 E44.41169
G1 X-1.248 Y-10.488 E45.73324
G1 X2.362 Y-10.488 E45.9334
G1 X8.268 Y12.606 E47.25509
G1 X11.943 Y12.144 E47.46047
G1 X11.943 Y-10.488 E48.71533
G1 X15.335 Y-10.488 E48.90341
G1 X15.335 Y15.312 E50.33393
G1 X6.882 Y15.312 E50.80262
G1 X2.214 Y-2.942 E51.84731
G0 F1800 X1.748 Y-2.342
G1 F900 X-.58 Y-2.342 E51.97639
G1 X-.754 Y-1.663 E52.01526
G1 X-.77 Y-1.602 E52.01876
G1 X-5.283 Y15.912 E53.02157
G1 X-14.81 Y15.912 E53.54981
G1 X-14.81 Y-11.088 E55.04687
G1 X-10.218 Y-11.088 E55.30148
G1 X-10.218 Y11.615 E56.56028
G1 X-7.593 Y11.945 E56.70698
G1 X-1.714 Y-11.088 E58.02502
G1 X2.828 Y-11.088 E58.27686
G1 X8.718 Y11.945 E59.59506
G1 X11.343 Y11.615 E59.74175
G1 X11.343 Y-11.088 E61.00056
G1 X15.935 Y-11.088 E61.25517
G1 X15.935 Y15.912 E62.75223
G1 X6.416 Y15.912 E63.28003
G1 X1.895 Y-1.766 E64.29176
G1 X1.748 Y-2.342 E64.32472
G0 F1800 X9.146 Y11.316
G0 X10.772 Y11.111
G0 X13.143 Y-9.288
G1 F900 X14.135 Y-9.288 E64.37972
G1 X14.135 Y14.112 E65.67717
G1 X7.814 Y14.112 E66.02765
G1 X7.754 Y13.879 E66.04099
G1 X13.143 Y13.202 E66.34214
G1 X13.143 Y-9.288 E67.58914
G0 F1800 X10.772 Y11.111
G0 X9.146 Y11.316
G0 X-2.753 Y-9.288
G0 X-8.021 Y11.316
G0 X-9.647 Y11.111
G0 X-12.018 Y-9.288
G1 F900 X-12.018 Y13.202 E68.83613
G1 X-6.619 Y13.881 E69.13785
G1 X-6.678 Y14.112 E69.15107
G1 X-13.01 Y14.112 E69.50215
G1 X-13.01 Y-9.288 E70.7996
G1 X-12.018 Y-9.288 E70.85461
G0 F1800 X-12.694 Y-8.876
;TYPE:SKIN
G1 F900 X-12.331 Y-8.513 E70.86884
G0 F1800 X-12.694 Y-8.452
G1 F900 X-12.331 Y-8.089 E70.88307
G0 F1800 X-12.694 Y-8.027
G1 F900 X-12.331 Y-7.665 E70.89728
G0 F1800 X-12.694 Y-7.603
G1 F900 X-12.331 Y-7.24 E70.91152
G0 F1800 X-12.694 Y-7.179
G1 F900 X-12.331 Y-6.816 E70.92575
G0 F1800 X-12.694 Y-6.754
G1 F900 X-12.331 Y-6.392 E70.93996
G0 F1800 X-12.694 Y-6.33
G1 F900 X-12.331 Y-5.967 E70.95419
G0 F1800 X-12.694 Y-5.906
G1 F900 X-12.331 Y-5.543 E70.96842
G0 F1800 X-12.694 Y-5.482
G1 F900 X-12.331 Y-5.119 E70.98266
G0 F1800 X-12.694 Y-5.057
G1 F900 X-12.331 Y-4.695 E70.99687
G0 F1800 X-12.694 Y-4.633
G1 F900 X-12.331 Y-4.27 E71.0111
G0 F1800 X-12.694 Y-4.209
G1 F900 X-12.331 Y-3.846 E71.02533
G0 F1800 X-12.694 Y-3.785
G1 F900 X-12.331 Y-3.422 E71.03957
G0 F1800 X-12.694 Y-3.36
G1 F900 X-12.331 Y-2.998 E71.05378
G0 F1800 X-12.694 Y-2.936
G1 F900 X-12.331 Y-2.573 E71.06801
G0 F1800 X-12.694 Y-2.512
G1 F900 X-12.331 Y-2.149 E71.08224
G0 F1800 X-12.694 Y-2.088
G1 F900 X-12.331 Y-1.725 E71.09647
G0 F1800 X-12.694 Y-1.663
G1 F900 X-12.331 Y-1.301 E71.11069
G0 F1800 X-12.694 Y-1.239
G1 F900 X-12.331 Y-.876 E71.12492
G0 F1800 X-12.694 Y-.815
G1 F900 X-12.331 Y-.452 E71.13915
G0 F1800 X-12.694 Y-.391
G1 F900 X-12.331 Y-0.028 E71.15338
G0 F1800 X-12.694 Y0.033
G1 F900 X-12.331 Y0.395 E71.16759
G0 F1800 X-12.694 Y0.457
G1 F900 X-12.331 Y0.82 E71.18183
G0 F1800 X-12.694 Y0.881
G1 F900 X-12.331 Y1.244 E71.19606
G0 F1800 X-12.694 Y1.306
G1 F900 X-12.331 Y1.668 E71.21027
G0 F1800 X-12.694 Y1.73
G1 F900 X-12.331 Y2.093 E71.2245
G0 F1800 X-12.694 Y2.154
G1 F900 X-12.331 Y2.517 E71.23874
G0 F1800 X-12.694 Y2.578
G1 F900 X-12.331 Y2.941 E71.25297
G0 F1800 X-12.694 Y3.003
G1 F900 X-12.331 Y3.365 E71.26718
G0 F1800 X-12.694 Y3.427
G1 F900 X-12.331 Y3.79 E71.28141
G0 F1800 X-12.694 Y3.851
G1 F900 X-12.331 Y4.214 E71.29564
G0 F1800 X-12.694 Y4.275
G1 F900 X-12.331 Y4.638 E71.30988
G0 F1800 X-12.694 Y4.7
G1 F900 X-12.331 Y5.062 E71.32409
G0 F1800 X-12.694 Y5.124
G1 F900 X-12.331 Y5.487 E71.33832
G0 F1800 X-12.694 Y5.548
G1 F900 X-12.331 Y5.911 E71.35255
G0 F1800 X-12.694 Y5.972
G1 F900 X-12.331 Y6.335 E71.36678
G0 F1800 X-12.694 Y6.397
G1 F900 X-12.331 Y6.759 E71.381
G0 F1800 X-12.694 Y6.821
G1 F900 X-12.331 Y7.184 E71.39523
G0 F1800 X-12.694 Y7.245
G1 F900 X-12.331 Y7.608 E71.40946
G0 F1800 X-12.694 Y7.669
G1 F900 X-12.331 Y8.032 E71.42369
G0 F1800 X-12.694 Y8.094
G1 F900 X-12.331 Y8.456 E71.43791
G0 F1800 X-12.694 Y8.518
G1 F900 X-12.331 Y8.881 E71.45214
G0 F1800 X-12.694 Y8.942
G1 F900 X-12.331 Y9.305 E71.46637
G0 F1800 X-12.694 Y9.367
G1 F900 X-12.331 Y9.729 E71.48058
G0 F1800 X-12.694 Y9.791
G1 F900 X-12.331 Y10.154 E71.49481
G0 F1800 X-12.694 Y10.215
G1 F900 X-12.331 Y10.578 E71.50905
G0 F1800 X-12.694 Y10.639
G1 F900 X-12.331 Y11.002 E71.52328
G0 F1800 X-12.694 Y11.064
G1 F900 X-12.331 Y11.426 E71.53749
G0 F1800 X-12.694 Y11.488
G1 F900 X-12.331 Y11.851 E71.55172
G0 F1800 X-12.694 Y11.912
G1 F900 X-12.331 Y12.275 E71.56595
G0 F1800 X-12.694 Y12.336
G1 F900 X-12.331 Y12.699 E71.58019
G0 F1800 X-12.694 Y12.761
G1 F900 X-12.331 Y13.123 E71.5944
G0 F1800 X-12.694 Y13.185
G1 F900 X-12.083 Y13.796 E71.61835
G0 F1800 X-11.924 Y13.531
G1 F900 X-11.659 Y13.796 E71.62874
G0 F1800 X-11.439 Y13.592
G1 F900 X-11.235 Y13.796 E71.63674
G0 F1800 X-10.954 Y13.652
G1 F900 X-10.81 Y13.796 E71.64239
G0 F1800 X-10.468 Y13.714
G1 F900 X-10.386 Y13.796 E71.6456
G0 F1800 X-12.508 Y13.796
G1 F900 X-12.694 Y13.609 E71.65291
G0 F1800 X-6.43 Y13.509
G1 F900 X-6.325 Y13.614 E71.65703
G0 F1800 X-6.182 Y13.333
G1 F900 X-6.344 Y13.171 E71.66338
G0 F1800 X-6.095 Y12.995
G1 F900 X-6.257 Y12.833 E71.66973
G0 F1800 X-6.008 Y12.658
G1 F900 X-6.171 Y12.495 E71.67613
G0 F1800 X-5.922 Y12.321
G1 F900 X-6.085 Y12.157 E71.68254
G0 F1800 X-5.835 Y11.984
G1 F900 X-5.999 Y11.819 E71.68899
G0 F1800 X-5.748 Y11.646
G1 F900 X-5.912 Y11.481 E71.69543
G0 F1800 X-5.661 Y11.309
G1 F900 X-5.826 Y11.144 E71.7019
G0 F1800 X-5.574 Y10.971
G1 F900 X-5.74 Y10.806 E71.70839
G0 F1800 X-5.487 Y10.634
G1 F900 X-5.654 Y10.468 E71.71492
G0 F1800 X-5.4 Y10.296
G1 F900 X-5.567 Y10.13 E71.72145
G0 F1800 X-5.313 Y9.959
G1 F900 X-5.481 Y9.792 E71.72802
G0 F1800 X-5.226 Y9.622
G1 F900 X-5.395 Y9.454 E71.73462
G0 F1800 X-5.139 Y9.285
G1 F900 X-5.308 Y9.116 E71.74125
G0 F1800 X-5.052 Y8.947
G1 F900 X-5.222 Y8.778 E71.74789
G0 F1800 X-4.966 Y8.61
G1 F900 X-5.136 Y8.44 E71.75456
G0 F1800 X-4.879 Y8.273
G1 F900 X-5.05 Y8.102 E71.76126
G0 F1800 X-4.792 Y7.935
G1 F900 X-4.963 Y7.764 E71.76797
G0 F1800 X-4.705 Y7.597
G1 F900 X-4.877 Y7.426 E71.77469
G0 F1800 X-4.618 Y7.26
G1 F900 X-4.791 Y7.088 E71.78145
G0 F1800 X-4.531 Y6.923
G1 F900 X-4.705 Y6.75 E71.78826
G0 F1800 X-4.444 Y6.585
G1 F900 X-4.618 Y6.412 E71.79506
G0 F1800 X-4.357 Y6.248
G1 F900 X-4.532 Y6.074 E71.8019
G0 F1800 X-4.27 Y5.911
G1 F900 X-4.446 Y5.736 E71.80878
G0 F1800 X-4.183 Y5.574
G1 F900 X-4.36 Y5.398 E71.8157
G0 F1800 X-4.096 Y5.236
G1 F900 X-4.273 Y5.06 E71.82262
G0 F1800 X-4.01 Y4.899
G1 F900 X-4.187 Y4.722 E71.82956
G0 F1800 X-3.923 Y4.562
G1 F900 X-4.101 Y4.384 E71.83654
G0 F1800 X-3.836 Y4.224
G1 F900 X-4.014 Y4.046 E71.84352
G0 F1800 X-3.749 Y3.886
G1 F900 X-3.928 Y3.708 E71.85052
G0 F1800 X-3.662 Y3.549
G1 F900 X-3.842 Y3.37 E71.85755
G0 F1800 X-3.575 Y3.212
G1 F900 X-3.756 Y3.032 E71.86463
G0 F1800 X-3.488 Y2.875
G1 F900 X-3.669 Y2.694 E71.87173
G0 F1800 X-3.401 Y2.537
G1 F900 X-3.583 Y2.356 E71.87884
G0 F1800 X-3.314 Y2.2
G1 F900 X-3.497 Y2.018 E71.886
G0 F1800 X-3.227 Y1.863
G1 F900 X-3.411 Y1.68 E71.89319
G0 F1800 X-3.14 Y1.525
G1 F900 X-3.324 Y1.342 E71.90039
G0 F1800 X-3.053 Y1.188
G1 F900 X-3.238 Y1.004 E71.90762
G0 F1800 X-2.967 Y0.85
G1 F900 X-3.152 Y0.666 E71.91486
G0 F1800 X-2.88 Y0.513
G1 F900 X-3.066 Y0.328 E71.92213
G0 F1800 X-2.793 Y0.176
G1 F900 X-2.979 Y-0.009 E71.9294
G0 F1800 X-2.706 Y-.161
G1 F900 X-2.893 Y-.347 E71.93671
G0 F1800 X-2.619 Y-.498
G1 F900 X-2.807 Y-.685 E71.94406
G0 F1800 X-2.532 Y-.835
G1 F900 X-2.72 Y-1.023 E71.95144
G0 F1800 X-2.445 Y-1.173
G1 F900 X-2.634 Y-1.361 E71.95883
G0 F1800 X-2.358 Y-1.51
G1 F900 X-2.548 Y-1.699 E71.96626
G0 F1800 X-2.271 Y-1.847
G1 F900 X-2.462 Y-2.037 E71.97372
G0 F1800 X-2.185 Y-2.185
G1 F900 X-2.375 Y-2.375 E71.98117
G0 F1800 X-2.098 Y-2.522
G1 F900 X-2.289 Y-2.713 E71.98866
G0 F1800 X-2.011 Y-2.86
G1 F900 X-2.203 Y-3.051 E71.99617
G0 F1800 X-1.924 Y-3.197
G1 F900 X-2.117 Y-3.389 E72.00372
G0 F1800 X-1.837 Y-3.534
G1 F900 X-2.03 Y-3.727 E72.01128
G0 F1800 X0.398 Y-5.965
G1 F900 X0.707 Y-5.656 E72.0234
G0 F1800 X0.679 Y-6.108
G1 F900 X0.484 Y-6.303 E72.03104
G0 F1800 X0.752 Y-8.157
G1 F900 X0.537 Y-8.372 E72.03947
G0 F1800 X2.947 Y-3.841
G1 F900 X3.177 Y-3.61 E72.04851
G0 F1800 X3.068 Y-3.295
G1 F900 X3.323 Y-3.04 E72.05851
G0 F1800 X3.213 Y-2.725
G1 F900 X3.469 Y-2.47 E72.06853
G0 F1800 X3.359 Y-2.155
G1 F900 X3.614 Y-1.9 E72.07852
G0 F1800 X3.505 Y-1.586
G1 F900 X3.76 Y-1.33 E72.08854
G0 F1800 X3.65 Y-1.016
G1 F900 X3.906 Y-.76 E72.09858
G0 F1800 X3.796 Y-.446
G1 F900 X4.052 Y-.19 E72.10862
G0 F1800 X3.942 Y0.124
G1 F900 X4.198 Y0.379 E72.11863
G0 F1800 X4.088 Y0.694
G1 F900 X4.343 Y0.949 E72.12863
G0 F1800 X4.234 Y1.264
G1 F900 X4.489 Y1.519 E72.13863
G0 F1800 X4.379 Y1.834
G1 F900 X4.635 Y2.089 E72.14865
G0 F1800 X4.525 Y2.404
G1 F900 X4.78 Y2.659 E72.15864
G0 F1800 X4.671 Y2.974
G1 F900 X4.927 Y3.23 E72.16868
G0 F1800 X4.816 Y3.544
G1 F900 X5.072 Y3.799 E72.1787
G0 F1800 X4.963 Y4.114
G1 F900 X5.218 Y4.369 E72.1887
G0 F1800 X5.108 Y4.684
G1 F900 X5.364 Y4.939 E72.19871
G0 F1800 X5.254 Y5.254
G1 F900 X5.509 Y5.509 E72.20871
G0 F1800 X5.4 Y5.824
G1 F900 X5.655 Y6.079 E72.21871
G0 F1800 X5.545 Y6.394
G1 F900 X5.801 Y6.649 E72.22873
G0 F1800 X5.691 Y6.964
G1 F900 X5.947 Y7.22 E72.23876
G0 F1800 X5.837 Y7.534
G1 F900 X6.093 Y7.79 E72.2488
G0 F1800 X5.983 Y8.104
G1 F900 X6.238 Y8.36 E72.25882
G0 F1800 X6.129 Y8.674
G1 F900 X6.384 Y8.93 E72.26883
G0 F1800 X6.274 Y9.244
G1 F900 X6.53 Y9.499 E72.27885
G0 F1800 X6.42 Y9.814
G1 F900 X6.675 Y10.069 E72.28885
G0 F1800 X6.566 Y10.384
G1 F900 X6.822 Y10.64 E72.29889
G0 F1800 X6.711 Y10.954
G1 F900 X6.967 Y11.21 E72.30892
G0 F1800 X6.858 Y11.525
G1 F900 X7.113 Y11.78 E72.31892
G0 F1800 X7.003 Y12.095
G1 F900 X7.259 Y12.35 E72.32894
G0 F1800 X7.149 Y12.664
G1 F900 X7.404 Y12.92 E72.33895
G0 F1800 X7.295 Y13.234
G1 F900 X7.55 Y13.49 E72.34897
G0 F1800 X11.593 Y13.714
G1 F900 X11.675 Y13.796 E72.35219
G0 F1800 X11.969 Y13.666
G1 F900 X12.099 Y13.796 E72.35728
G0 F1800 X12.346 Y13.619
G1 F900 X12.523 Y13.796 E72.36422
G0 F1800 X12.723 Y13.572
G1 F900 X12.947 Y13.796 E72.37301
G0 F1800 X13.1 Y13.524
G1 F900 X13.372 Y13.796 E72.38367
G0 F1800 X13.457 Y13.457
G1 F900 X13.796 Y13.796 E72.39696
G0 F1800 X13.819 Y13.395
G1 F900 X13.457 Y13.033 E72.41115
G0 F1800 X13.819 Y12.971
G1 F900 X13.457 Y12.609 E72.42535
G0 F1800 X13.819 Y12.546
G1 F900 X13.457 Y12.184 E72.43954
G0 F1800 X13.819 Y12.122
G1 F900 X13.457 Y11.76 E72.45373
G0 F1800 X13.819 Y11.698
G1 F900 X13.457 Y11.336 E72.46793
G0 F1800 X13.819 Y11.274
G1 F900 X13.457 Y10.912 E72.48212
G0 F1800 X13.819 Y10.849
G1 F900 X13.457 Y10.487 E72.49631
G0 F1800 X13.819 Y10.425
G1 F900 X13.457 Y10.063 E72.5105
G0 F1800 X13.819 Y10.001
G1 F900 X13.457 Y9.639 E72.5247
G0 F1800 X13.819 Y9.577
G1 F900 X13.457 Y9.215 E72.53889
G0 F1800 X13.819 Y9.152
G1 F900 X13.457 Y8.79 E72.55308
G0 F1800 X13.819 Y8.728
G1 F900 X13.457 Y8.366 E72.56728
G0 F1800 X13.819 Y8.304
G1 F900 X13.457 Y7.942 E72.58147
G0 F1800 X13.819 Y7.879
G1 F900 X13.457 Y7.517 E72.59566
G0 F1800 X13.819 Y7.455
G1 F900 X13.457 Y7.093 E72.60985
G0 F1800 X13.819 Y7.031
G1 F900 X13.457 Y6.669 E72.62405
G0 F1800 X13.819 Y6.607
G1 F900 X13.457 Y6.245 E72.63824
G0 F1800 X13.819 Y6.182
G1 F900 X13.457 Y5.82 E72.65243
G0 F1800 X13.819 Y5.758
G1 F900 X13.457 Y5.396 E72.66662
G0 F1800 X13.819 Y5.334
G1 F900 X13.457 Y4.972 E72.68082
G0 F1800 X13.819 Y4.91
G1 F900 X13.457 Y4.548 E72.69501
G0 F1800 X13.819 Y4.485
G1 F900 X13.457 Y4.123 E72.7092
G0 F1800 X13.819 Y4.061
G1 F900 X13.457 Y3.699 E72.7234
G0 F1800 X13.819 Y3.637
G1 F900 X13.457 Y3.275 E72.73759
G0 F1800 X13.819 Y3.213
G1 F900 X13.457 Y2.851 E72.75178
G0 F1800 X13.819 Y2.788
G1 F900 X13.457 Y2.426 E72.76597
G0 F1800 X13.819 Y2.364
G1 F900 X13.457 Y2.002 E72.78017
G0 F1800 X13.819 Y1.94
G1 F900 X13.457 Y1.578 E72.79436
G0 F1800 X13.819 Y1.516
G1 F900 X13.457 Y1.153 E72.80857
G0 F1800 X13.819 Y1.091
G1 F900 X13.457 Y0.729 E72.82277
G0 F1800 X13.819 Y0.667
G1 F900 X13.457 Y0.305 E72.83696
G0 F1800 X13.819 Y0.243
G1 F900 X13.457 Y-.118 E72.85113
G0 F1800 X13.819 Y-.181
G1 F900 X13.457 Y-.543 E72.86532
G0 F1800 X13.819 Y-.605
G1 F900 X13.457 Y-.967 E72.87952
G0 F1800 X13.819 Y-1.029
G1 F900 X13.457 Y-1.391 E72.89371
G0 F1800 X13.819 Y-1.453
G1 F900 X13.457 Y-1.815 E72.9079
G0 F1800 X13.819 Y-1.878
G1 F900 X13.457 Y-2.24 E72.9221
G0 F1800 X13.819 Y-2.302
G1 F900 X13.457 Y-2.664 E72.93629
G0 F1800 X13.819 Y-2.726
G1 F900 X13.457 Y-3.088 E72.95048
G0 F1800 X13.819 Y-3.15
G1 F900 X13.457 Y-3.512 E72.96467
G0 F1800 X13.819 Y-3.575
G1 F900 X13.457 Y-3.937 E72.97887
G0 F1800 X13.819 Y-3.999
G1 F900 X13.457 Y-4.361 E72.99306
G0 F1800 X13.819 Y-4.423
G1 F900 X13.457 Y-4.785 E73.00725
G0 F1800 X13.819 Y-4.847
G1 F900 X13.457 Y-5.209 E73.02145
G0 F1800 X13.819 Y-5.272
