;FLAVOR:Marlin
;TIME:1076
;Filament used: 1.7582m
;Layer height: 0.2
;MINX:-39.925
;MINY:-26.357
;MINZ:0.2
;MAXX:39.921
;MAXY:18.858
;MAXZ:3.6
;POSTPROCESSED
;Generated with Cura_SteamEngine 4.8.0
M140 S60
M105
M190 S60
M104 S195
M105
M109 S195
M82 ;absolute extrusion mode
G28 ;Home
G1 Z15.0 F6000 ;Move the platform down 15mm
;Prime the extruder
G92 E0
G1 F200 E3
G92 E0
G92 E0
G92 E0
G1 F1500 E-6.5
;LAYER_COUNT:18
;LAYER:0
M107
G0 F3600 X-1.218 Y18.632 Z0.2
;TYPE:SKIRT
G1 F1500 E0
G1 F1800 X-3.919 Y18.709 E0.14982
G1 X-5.555 Y18.805 E0.24069
G1 X-6.431 Y18.844 E0.28931
G1 X-7.311 Y18.858 E0.33811
G1 X-15.649 Y18.858 E0.80042
G1 X-16.351 Y18.848 E0.83935
G1 X-16.907 Y18.8 E0.87029
G1 X-17.45 Y18.673 E0.90121
G1 X-17.97 Y18.47 E0.93216
G1 X-18.456 Y18.195 E0.96313
G1 X-18.949 Y17.806 E0.99795
G1 X-19.3 Y17.479 E1.02454
G1 X-20.73 Y16.11 E1.13431
G1 X-22.716 Y14.312 E1.28285
G1 X-24.815 Y12.518 E1.43595
G1 X-27.221 Y10.577 E1.60735
G1 X-27.587 Y10.245 E1.63475
G1 X-27.942 Y9.815 E1.66567
G1 X-28.232 Y9.338 E1.69662
G1 X-28.435 Y8.881 E1.72435
G1 X-28.649 Y8.332 E1.75702
G1 X-39.479 Y-20.483 E3.46383
G1 X-39.702 Y-21.103 E3.50037
G1 X-39.853 Y-21.64 E3.5313
G1 X-39.925 Y-22.194 E3.56227
G1 X-39.918 Y-22.752 E3.59321
G1 X-39.831 Y-23.304 E3.6242
G1 X-39.667 Y-23.837 E3.65512
G1 X-39.428 Y-24.341 E3.68605
G1 X-39.119 Y-24.806 E3.717
G1 X-38.747 Y-25.223 E3.74799
G1 X-38.32 Y-25.582 E3.77892
G1 X-37.845 Y-25.876 E3.80989
G1 X-37.334 Y-26.099 E3.84081
G1 X-36.795 Y-26.248 E3.87181
G1 X-36.102 Y-26.322 E3.91046
G1 X-35.143 Y-26.339 E3.96364
G1 X-27.234 Y-26.339 E4.40216
G1 X-26.529 Y-26.329 E4.44126
G1 X-26.046 Y-26.309 E4.46806
G1 X-23.905 Y-26.189 E4.58696
G1 X-21.223 Y-26.113 E4.73573
G1 X-18.473 Y-26.113 E4.88821
G1 X-15.777 Y-26.189 E5.03775
G1 X-14.109 Y-26.287 E5.13039
G1 X-13.257 Y-26.325 E5.17768
G1 X-12.377 Y-26.339 E5.22648
G1 X-4.04 Y-26.339 E5.68874
G1 X-2.042 Y-26.31 E5.79953
G1 X-1.545 Y-26.296 E5.8271
G1 X1.178 Y-26.3 E5.97808
G1 X1.548 Y-26.311 E5.99861
G1 X4.287 Y-26.357 E6.1505
G1 X12.195 Y-26.357 E6.58897
G1 X13.009 Y-26.344 E6.63411
G1 X13.402 Y-26.327 E6.65592
G1 X15.539 Y-26.206 E6.7746
G1 X18.212 Y-26.131 E6.92286
G1 X20.961 Y-26.131 E7.07529
G1 X23.66 Y-26.208 E7.225
G1 X25.297 Y-26.304 E7.31592
G1 X26.173 Y-26.343 E7.36454
G1 X27.053 Y-26.357 E7.41334
G1 X35.392 Y-26.357 E7.87571
G1 X36.079 Y-26.347 E7.91381
G1 X36.635 Y-26.299 E7.94475
G1 X37.178 Y-26.172 E7.97567
G1 X37.698 Y-25.968 E8.00664
G1 X38.184 Y-25.693 E8.0376
G1 X38.625 Y-25.351 E8.06854
G1 X39.013 Y-24.95 E8.09948
G1 X39.34 Y-24.497 E8.13046
G1 X39.598 Y-24.002 E8.16141
G1 X39.784 Y-23.476 E8.19235
G1 X39.892 Y-22.928 E8.22332
G1 X39.921 Y-22.371 E8.25424
G1 X39.87 Y-21.815 E8.2852
G1 X39.696 Y-21.139 E8.3239
G1 X39.389 Y-20.277 E8.37464
G1 X28.665 Y8.261 E10.06501
G1 X28.391 Y8.96 E10.10664
G1 X28.151 Y9.464 E10.13759
G1 X27.841 Y9.928 E10.16853
G1 X27.468 Y10.344 E10.19951
G1 X27.236 Y10.55 E10.21671
G1 X26.668 Y11.017 E10.25748
G1 X25.531 Y11.926 E10.3382
G1 X23.447 Y13.692 E10.48966
G1 X21.441 Y15.49 E10.63902
G1 X20.067 Y16.809 E10.74463
G1 X19.039 Y17.779 E10.82299
G1 X18.606 Y18.132 E10.85397
G1 X18.128 Y18.419 E10.88488
G1 X17.613 Y18.636 E10.91587
G1 X17.073 Y18.777 E10.94682
G1 X16.431 Y18.841 E10.98259
G1 X15.455 Y18.858 E11.03671
G1 X7.547 Y18.858 E11.47518
G1 X6.735 Y18.845 E11.52021
G1 X6.34 Y18.828 E11.54213
G1 X4.203 Y18.707 E11.66081
G1 X1.53 Y18.632 E11.80908
G1 X-1.218 Y18.632 E11.96145
G0 F3600 X-1.201 Y18.032
G1 F1800 X-3.97 Y18.111 E12.11504
G1 X-5.583 Y18.205 E12.20463
G1 X-6.441 Y18.244 E12.25225
G1 X-7.321 Y18.258 E12.30105
G1 X-15.64 Y18.258 E12.76231
G1 X-16.342 Y18.248 E12.80124
G1 X-16.853 Y18.2 E12.8297
G1 X-17.351 Y18.074 E12.85818
G1 X-17.823 Y17.873 E12.88662
G1 X-18.258 Y17.6 E12.9151
G1 X-18.848 Y17.08 E12.95871
G1 X-20.317 Y15.675 E13.07141
G1 X-22.331 Y13.852 E13.22204
G1 X-24.436 Y12.053 E13.37557
G1 X-26.845 Y10.109 E13.54721
G1 X-27.181 Y9.801 E13.57248
G1 X-27.5 Y9.399 E13.60093
G1 X-27.814 Y8.815 E13.6377
G1 X-27.876 Y8.663 E13.6468
G1 X-28.087 Y8.121 E13.67905
G1 X-38.914 Y-20.686 E15.38539
G1 X-39.137 Y-21.306 E15.42192
G1 X-39.273 Y-21.801 E15.45039
G1 X-39.33 Y-22.312 E15.4789
G1 X-39.307 Y-22.824 E15.50731
G1 X-39.206 Y-23.328 E15.53581
G1 X-39.027 Y-23.809 E15.56427
G1 X-38.776 Y-24.257 E15.59274
G1 X-38.458 Y-24.66 E15.62121
G1 X-38.082 Y-25.009 E15.64965
G1 X-37.656 Y-25.296 E15.67813
G1 X-37.19 Y-25.513 E15.70663
G1 X-36.697 Y-25.655 E15.73508
G1 X-36.091 Y-25.722 E15.76889
G1 X-35.143 Y-25.739 E15.82146
G1 X-27.242 Y-25.739 E16.25954
G1 X-26.537 Y-25.729 E16.29864
G1 X-26.079 Y-25.71 E16.32405
G1 X-23.954 Y-25.591 E16.44206
G1 X-21.204 Y-25.513 E16.5946
G1 X-18.492 Y-25.513 E16.74497
G1 X-15.725 Y-25.591 E16.89845
G1 X-14.081 Y-25.687 E16.98976
G1 X-13.247 Y-25.725 E17.03605
G1 X-12.367 Y-25.739 E17.08485
G1 X-4.048 Y-25.739 E17.54611
G1 X-2.058 Y-25.711 E17.65646
G1 X-1.527 Y-25.696 E17.68592
G1 X1.197 Y-25.7 E17.83695
G1 X1.558 Y-25.712 E17.85698
G1 X4.231 Y-25.757 E18.00521
G1 X12.187 Y-25.757 E18.44634
G1 X12.893 Y-25.747 E18.48549
G1 X13.368 Y-25.728 E18.51185
G1 X15.488 Y-25.608 E18.62959
G1 X18.231 Y-25.531 E18.78174
G1 X20.943 Y-25.531 E18.93211
G1 X23.712 Y-25.61 E19.0857
G1 X25.325 Y-25.704 E19.17529
G1 X26.183 Y-25.743 E19.22291
G1 X27.063 Y-25.757 E19.27171
G1 X35.383 Y-25.757 E19.73303
G1 X36.07 Y-25.747 E19.77112
G1 X36.581 Y-25.699 E19.79958
G1 X37.079 Y-25.573 E19.82806
G1 X37.551 Y-25.371 E19.85653
G1 X37.986 Y-25.099 E19.88498
G1 X38.374 Y-24.762 E19.91347
G1 X38.704 Y-24.369 E19.94193
G1 X38.97 Y-23.93 E19.97039
G1 X39.164 Y-23.455 E19.99883
G1 X39.283 Y-22.955 E20.02733
G1 X39.322 Y-22.443 E20.0558
G1 X39.281 Y-21.931 E20.08428
G1 X39.131 Y-21.341 E20.11804
G1 X38.827 Y-20.488 E20.16825
G1 X28.106 Y8.042 E21.85814
G1 X27.832 Y8.741 E21.89977
G1 X27.608 Y9.203 E21.92824
G1 X27.315 Y9.625 E21.95672
G1 X26.855 Y10.086 E21.99283
G1 X26.293 Y10.548 E22.03317
G1 X25.156 Y11.457 E22.11389
G1 X23.064 Y13.23 E22.26594
G1 X21.019 Y15.063 E22.41821
G1 X19.655 Y16.372 E22.52303
G1 X18.627 Y17.342 E22.6014
G1 X18.227 Y17.664 E22.62987
G1 X17.782 Y17.921 E22.65836
G1 X17.303 Y18.105 E22.68681
G1 X16.801 Y18.213 E22.71528
G1 X16.42 Y18.241 E22.73646
G1 X15.455 Y18.258 E22.78998
G1 X7.555 Y18.258 E23.22801
G1 X6.85 Y18.248 E23.2671
G1 X6.374 Y18.229 E23.29352
G1 X4.254 Y18.109 E23.41125
G1 X1.511 Y18.032 E23.5634
G1 X-1.201 Y18.032 E23.71377
G1 F1500 E17.21377
;MESH:A.stl(2)
G0 F3600 X-1.201 Y10.671
G0 X-1.201 Y9.086
G0 X-3.982 Y4.519
G0 X-3.982 Y4.419
;TYPE:WALL-INNER
G1 F1500 E23.71377
G1 F1800 X4.229 Y4.419 E24.16904
G1 X4.23 Y4.419 E24.1691
G1 X4.633 Y4.419 E24.19144
G1 X4.516 Y4.033 E24.20483
G1 X0.809 Y-8.165 E24.91171
G1 X-.523 Y-8.165 E24.98557
G1 X-4.269 Y4.032 E25.69303
G1 X-4.387 Y4.419 E25.71546
G1 X-3.983 Y4.419 E25.72886
G1 X-3.982 Y4.419 E25.72892
G0 F3600 X-3.575 Y3.819
;TYPE:WALL-OUTER
G1 F1800 X3.824 Y3.819 E26.13917
G1 X0.364 Y-7.565 E26.79888
G1 X-0.08 Y-7.565 E26.8235
G1 X-3.575 Y3.819 E27.48378
G0 F3600 X-3.375 Y3.819
G0 X-3.375 Y4.479
G0 X-3.375 Y4.519
G0 X6.164 Y9.026
G0 X6.105 Y9.106
;TYPE:WALL-INNER
G1 F1800 X-5.76 Y9.106 E28.14166
G1 X-7.26 Y14.058 E28.42855
G1 X-14.567 Y14.058 E28.8337
G1 X-14.568 Y14.058 E28.83375
G1 X-14.999 Y14.058 E28.85765
G1 X-14.848 Y13.654 E28.87175
G1 X-4.403 Y-14.142 E30.51816
G1 X4.46 Y-14.142 E31.00958
G1 X14.908 Y13.654 E32.65606
G1 X15.059 Y14.058 E32.67997
G1 X14.628 Y14.058 E32.69406
G1 X14.627 Y14.058 E32.69411
G1 X7.568 Y14.058 E33.08551
G1 X6.105 Y9.106 E33.37181
G0 F3600 X5.657 Y9.706
;TYPE:WALL-OUTER
G1 F1800 X-5.315 Y9.706 E33.98017
G1 X-6.815 Y14.658 E34.26706
G1 X-15.433 Y14.658 E34.7449
G1 X-15.434 Y14.658 E34.74496
G1 X-15.866 Y14.658 E34.76891
G1 X-15.714 Y14.253 E34.78304
G1 X-4.819 Y-14.742 E36.50047
G1 X4.876 Y-14.742 E37.03802
G1 X15.774 Y14.253 E38.7555
G1 X15.926 Y14.658 E38.77949
G1 X15.494 Y14.658 E38.7936
G1 X15.493 Y14.658 E38.79366
G1 X7.12 Y14.658 E39.25791
G1 X5.657 Y9.706 E39.54421
G0 F3600 X5.457 Y9.706
G0 X5.457 Y9.046
G0 X5.457 Y9.006
G0 X-8.446 Y7.419
;TYPE:SKIN
G1 F1800 X-8.383 Y7.419 E39.54771
G1 X-9.486 Y11.058 E39.75854
G1 X-10.663 Y11.058 E39.8238
G1 X-4.643 Y-4.966 E40.77291
G1 X-8.446 Y7.419 E41.49126
G0 F3600 X-7.634 Y6.819
G1 F1800 X-7.575 Y6.819 E41.49454
G1 X-9.041 Y11.658 E41.77488
G1 X-11.53 Y11.658 E41.91289
G1 X-2.739 Y-11.742 E43.29888
G1 X2.796 Y-11.742 E43.60578
G1 X11.59 Y11.658 E44.99183
G1 X9.36 Y11.658 E45.11547
G1 X7.897 Y6.706 E45.40178
G1 X7.836 Y6.706 E45.40516
G1 X2.588 Y-10.565 E46.40601
G1 X-2.297 Y-10.565 E46.67687
G1 X-7.634 Y6.819 E47.68515
G0 F3600 X-7.096 Y7.306
G1 F1800 X-8.596 Y12.258 E47.97205
G1 X-12.397 Y12.258 E48.1828
G1 X-3.155 Y-12.342 E49.63987
G1 X3.212 Y-12.342 E49.9929
G1 X12.457 Y12.258 E51.45003
G1 X8.912 Y12.258 E51.64658
G1 X7.449 Y7.306 E51.93289
G1 X-7.096 Y7.306 E52.73936
G0 F3600 X-6.651 Y7.906
G1 F1800 X-8.151 Y12.858 E53.02625
G1 X-13.264 Y12.858 E53.30975
G1 X-3.571 Y-12.942 E54.8379
G1 X3.628 Y-12.942 E55.23706
G1 X13.324 Y12.858 E56.76527
G1 X8.464 Y12.858 E57.03474
G1 X7.001 Y7.906 E57.32104
G1 X-6.651 Y7.906 E58.078
G0 F3600 X-6.206 Y8.506
G1 F1800 X-7.706 Y13.458 E58.36489
G1 X-14.131 Y13.458 E58.72114
G1 X-3.987 Y-13.542 E60.32037
G1 X4.044 Y-13.542 E60.76566
G1 X14.191 Y13.458 E62.36495
G1 X8.016 Y13.458 E62.70733
G1 X6.553 Y8.506 E62.99363
G1 X-6.206 Y8.506 E63.70108
G0 F3600 X-6.822 Y6.219
G1 F1800 X7.061 Y6.219 E64.47084
G1 X2.143 Y-9.965 E65.40871
G1 X-1.854 Y-9.965 E65.63033
G1 X-6.822 Y6.219 E66.569
G0 F3600 X-6.01 Y5.619
G1 F1800 X6.252 Y5.619 E67.24889
G1 X1.698 Y-9.365 E68.11723
G1 X-1.411 Y-9.365 E68.28961
G1 X-6.01 Y5.619 E69.15868
G0 F3600 X-5.199 Y5.019
G1 F1800 X5.443 Y5.019 E69.74874
G1 X1.253 Y-8.765 E70.54755
G1 X-.967 Y-8.765 E70.67064
G1 X-1.107 Y-8.308 E70.69714
G1 X-5.199 Y5.019 E71.47012
G0 F3600 X8.281 Y6.106
G1 F1800 X5.825 Y-1.975 E71.93842
G1 X10.723 Y11.058 E72.71041
G1 X9.808 Y11.058 E72.76114
G1 X8.345 Y6.106 E73.04744
G1 X8.281 Y6.106 E73.05099
G0 F3600 X7.492 Y6.6
;TYPE:SKIN
G1 F1800 X-7.195 Y6.6 E73.45817
G0 F3600 X-7.286 Y6.9
G1 F1800 X7.582 Y6.9 E73.87036
G0 F3600 X9.439 Y8.7
G1 F1800 X9.501 Y8.7 E73.87207
G0 F3600 X9.528 Y9
G1 F1800 X9.614 Y9 E73.87446
G0 F3600 X9.617 Y9.3
G1 F1800 X9.726 Y9.3 E73.87748
G0 F3600 X9.705 Y9.6
G1 F1800 X9.839 Y9.6 E73.8812
G0 F3600 X9.794 Y9.9
G1 F1800 X9.952 Y9.9 E73.88558
G0 F3600 X9.882 Y10.2
G1 F1800 X10.065 Y10.2 E73.89065
G0 F3600 X9.971 Y10.5
G1 F1800 X10.177 Y10.5 E73.89636
G0 F3600 X5.971 Y-2.399
G1 F1800 X5.398 Y-2.399 E73.91225
G0 F3600 X5.307 Y-2.699
G1 F1800 X5.858 Y-2.699 E73.92752
G0 F3600 X5.745 Y-2.999
G1 F1800 X5.216 Y-2.999 E73.94219
G0 F3600 X5.124 Y-3.299
G1 F1800 X5.632 Y-3.299 E73.95627
G0 F3600 X5.52 Y-3.599
G1 F1800 X5.033 Y-3.599 E73.96977
G0 F3600 X4.942 Y-3.899
G1 F1800 X5.407 Y-3.899 E73.98266
G0 F3600 X5.294 Y-4.2
G1 F1800 X4.851 Y-4.2 E73.99494
G0 F3600 X4.76 Y-4.5
G1 F1800 X5.181 Y-4.5 E74.00662
G0 F3600 X5.069 Y-4.8
G1 F1800 X4.669 Y-4.8 E74.01771
G0 F3600 X4.577 Y-5.1
G1 F1800 X4.956 Y-5.1 E74.02821
G0 F3600 X4.843 Y-5.4
G1 F1800 X4.486 Y-5.4 E74.03811
G0 F3600 X4.395 Y-5.7
G1 F1800 X4.73 Y-5.7 E74.0474
G0 F3600 X4.617 Y-6
G1 F1800 X4.304 Y-6 E74.05607
G0 F3600 X4.213 Y-6.3
G1 F1800 X4.505 Y-6.3 E74.06417
G0 F3600 X4.392 Y-6.6
G1 F1800 X4.122 Y-6.6 E74.07165
G0 F3600 X4.03 Y-6.9
G1 F1800 X4.279 Y-6.9 E74.07856
G0 F3600 X4.166 Y-7.2
G1 F1800 X3.939 Y-7.2 E74.08485
G0 F3600 X3.848 Y-7.5
G1 F1800 X4.054 Y-7.5 E74.09056
G0 F3600 X3.941 Y-7.8
G1 F1800 X3.757 Y-7.8 E74.09566
G0 F3600 X3.828 Y-8.1
G1 F1800 X3.666 Y-8.1 E74.10015
G0 F3600 X3.715 Y-8.4
G1 F1800 X3.575 Y-8.4 E74.10404
G0 F3600 X3.603 Y-8.7
G1 F1800 X3.483 Y-8.7 E74.10736
G0 F3600 X3.49 Y-9
G1 F1800 X3.392 Y-9 E74.11008
G0 F3600 X3.377 Y-9.3
G1 F1800 X3.301 Y-9.3 E74.11219
G0 F3600 X2.7 Y-11.1
G1 F1800 X-2.642 Y-11.1 E74.26028
G0 F3600 X-2.554 Y-10.8
G1 F1800 X-2.755 Y-10.8 E74.26586
G0 F3600 X-2.646 Y-10.5
G1 F1800 X-2.868 Y-10.5 E74.27201
G0 F3600 X-2.98 Y-10.2
G1 F1800 X-2.738 Y-10.2 E74.27872
G0 F3600 X-2.83 Y-9.9
G1 F1800 X-3.093 Y-9.9 E74.28601
G0 F3600 X-3.206 Y-9.6
G1 F1800 X-2.923 Y-9.6 E74.29386
G0 F3600 X-3.015 Y-9.3
G1 F1800 X-3.319 Y-9.3 E74.30229
G0 F3600 X-3.431 Y-9
G1 F1800 X-3.107 Y-9 E74.31127
G0 F3600 X-3.199 Y-8.7
G1 F1800 X-3.544 Y-8.7 E74.32083
G0 F3600 X-3.657 Y-8.4
G1 F1800 X-3.291 Y-8.4 E74.33098
G0 F3600 X-3.383 Y-8.1
G1 F1800 X-3.769 Y-8.1 E74.34168
G0 F3600 X-3.882 Y-7.8
G1 F1800 X-3.475 Y-7.8 E74.35296
G0 F3600 X-3.567 Y-7.5
G1 F1800 X-3.995 Y-7.5 E74.36483
G0 F3600 X-4.108 Y-7.2
G1 F1800 X-3.659 Y-7.2 E74.37728
G0 F3600 X-3.752 Y-6.9
G1 F1800 X-4.221 Y-6.9 E74.39028
G0 F3600 X-4.334 Y-6.6
G1 F1800 X-3.844 Y-6.6 E74.40386
G0 F3600 X-3.936 Y-6.3
G1 F1800 X-4.446 Y-6.3 E74.418
G0 F3600 X-4.559 Y-6
G1 F1800 X-4.028 Y-6 E74.43272
G0 F3600 X-4.121 Y-5.7
G1 F1800 X-4.672 Y-5.7 E74.448
G0 F3600 X-4.785 Y-5.4
G1 F1800 X-4.213 Y-5.4 E74.46386
G0 F3600 X-2.53 Y-11.4
G1 F1800 X2.588 Y-11.4 E74.60574
G0 F3600 X-.546 Y-8.197
G0 X-8.248 Y5.699
G1 F1800 X-8.313 Y5.699 E74.60755
G0 F3600 X-8.34 Y5.999
G1 F1800 X-8.425 Y5.999 E74.6099
G0 F3600 X-8.432 Y6.299
G1 F1800 X-8.538 Y6.299 E74.61284
G0 F3600 X-8.524 Y6.599
G1 F1800 X-8.651 Y6.599 E74.61636
G0 F3600 X-8.616 Y6.899
G1 F1800 X-8.763 Y6.899 E74.62044
G0 F3600 X-8.708 Y7.199
G1 F1800 X-8.876 Y7.199 E74.6251
G0 F3600 X-8.801 Y7.499
G1 F1800 X-8.989 Y7.499 E74.63031
G0 F3600 X-9.102 Y7.799
G1 F1800 X-8.828 Y7.799 E74.6379
G0 F3600 X-8.918 Y8.099
G1 F1800 X-9.214 Y8.099 E74.64611
G0 F3600 X-9.327 Y8.4
G1 F1800 X-9.009 Y8.4 E74.65493
G0 F3600 X-9.1 Y8.7
G1 F1800 X-9.44 Y8.7 E74.66435
G0 F3600 X-9.553 Y9
G1 F1800 X-9.191 Y9 E74.67439
G0 F3600 X-9.282 Y9.3
G1 F1800 X-9.665 Y9.3 E74.68501
G0 F3600 X-9.778 Y9.6
G1 F1800 X-9.373 Y9.6 E74.69623
G0 F3600 X-9.464 Y9.9
G1 F1800 X-9.891 Y9.9 E74.70807
G0 F3600 X-10.003 Y10.2
G1 F1800 X-9.555 Y10.2 E74.72049
G0 F3600 X-9.646 Y10.5
G1 F1800 X-10.116 Y10.5 E74.73352
G1 F1500 E68.23352
;MESH:A.stl
G0 F3600 X4.665 Y4.442
G0 X7.543 Y-5.937
G0 X10.182 Y-6.928
G0 X15.077 Y-11.941
G0 X23.724 Y-12.018
G0 X23.724 Y-11.918
;TYPE:WALL-INNER
G1 F1500 E74.73352
G1 F1800 X15.513 Y-11.918 E75.18879
G1 X15.512 Y-11.918 E75.18885
G1 X15.109 Y-11.918 E75.21119
G1 X15.226 Y-11.532 E75.22458
G1 X18.933 Y0.666 E75.93146
G1 X20.265 Y0.666 E76.00532
G1 X24.011 Y-11.531 E76.71278
G1 X24.129 Y-11.918 E76.73521
G1 X23.725 Y-11.918 E76.74861
G1 X23.724 Y-11.918 E76.74867
G0 F3600 X23.317 Y-11.318
;TYPE:WALL-OUTER
G1 F1800 X15.918 Y-11.318 E77.15892
G1 X19.378 Y0.066 E77.81863
G1 X19.822 Y0.066 E77.84325
G1 X23.317 Y-11.318 E78.50353
G0 F3600 X23.117 Y-11.318
G0 X23.117 Y-11.978
G0 X23.117 Y-12.018
G0 X13.578 Y-16.525
G0 X13.637 Y-16.605
;TYPE:WALL-INNER
G1 F1800 X25.502 Y-16.605 E79.16141
G1 X27.002 Y-21.557 E79.4483
G1 X34.309 Y-21.557 E79.85345
G1 X34.31 Y-21.557 E79.8535
G1 X34.741 Y-21.557 E79.8774
G1 X34.59 Y-21.153 E79.8915
G1 X24.145 Y6.643 E81.53791
G1 X15.282 Y6.643 E82.02933
G1 X4.834 Y-21.153 E83.67581
G1 X4.683 Y-21.557 E83.69972
G1 X5.114 Y-21.557 E83.71381
G1 X5.115 Y-21.557 E83.71386
G1 X12.174 Y-21.557 E84.10526
G1 X13.637 Y-16.605 E84.39156
G0 F3600 X14.085 Y-17.205
;TYPE:WALL-OUTER
G1 F1800 X25.057 Y-17.205 E84.99992
G1 X26.557 Y-22.157 E85.28681
G1 X35.175 Y-22.157 E85.76465
G1 X35.176 Y-22.157 E85.76471
G1 X35.608 Y-22.157 E85.78866
G1 X35.456 Y-21.752 E85.80279
G1 X24.561 Y7.243 E87.52022
G1 X14.866 Y7.243 E88.05777
G1 X3.968 Y-21.752 E89.77525
G1 X3.816 Y-22.157 E89.79924
