;FLAVOR:Marlin
;TIME:1294
;Filament used: 2.17822m
;Layer height: 0.2
;MINX:-44.944
;MINY:-18.905
;MINZ:0.2
;MAXX:46.525
;MAXY:21.677
;MAXZ:3.6
;POSTPROCESSED
;Generated with Cura_SteamEngine 4.8.0
M140 S60
M105
M190 S60
M104 S195
M105
M109 S195
M82 ;absolute extrusion mode
G28 ;Home
G1 Z15.0 F6000 ;Move the platform down 15mm
;Prime the extruder
G92 E0
G1 F200 E3
G92 E0
G92 E0
G92 E0
G1 F1500 E-6.5
;LAYER_COUNT:18
;LAYER:0
M107
G0 F3600 X-1.091 Y-18.889 Z0.2
;TYPE:SKIRT
G1 F1500 E0
G1 F1800 X13.17 Y-18.889 E0.79072
G1 X14.066 Y-18.902 E0.84041
G1 X14.147 Y-18.897 E0.84491
G1 X15.197 Y-18.905 E0.90313
G1 X31.615 Y-18.905 E1.81345
G1 X32.216 Y-18.894 E1.84678
G1 X33.456 Y-18.835 E1.91561
G1 X33.94 Y-18.803 E1.94251
G1 X34.621 Y-18.749 E1.98039
G1 X35.41 Y-18.619 E2.02472
G1 X36.337 Y-18.412 E2.07739
G1 X37.02 Y-18.247 E2.11635
G1 X37.545 Y-18.08 E2.14689
G1 X38.067 Y-17.864 E2.17822
G1 X38.584 Y-17.639 E2.20948
G1 X39.241 Y-17.342 E2.24946
G1 X39.805 Y-17.028 E2.28525
G1 X40.372 Y-16.631 E2.32363
G1 X40.698 Y-16.391 E2.34607
G1 X41.207 Y-16.008 E2.38139
G1 X41.716 Y-15.55 E2.41936
G1 X42.407 Y-14.808 E2.47558
G1 X42.5 Y-14.705 E2.48327
G1 X42.852 Y-14.299 E2.51307
G1 X43.251 Y-13.748 E2.55079
G1 X43.726 Y-12.955 E2.60204
G1 X43.789 Y-12.846 E2.60902
G1 X44.062 Y-12.355 E2.64017
G1 X44.323 Y-11.778 E2.67528
G1 X44.443 Y-11.437 E2.69533
G1 X44.62 Y-10.879 E2.72779
G1 X44.82 Y-10.207 E2.76666
G1 X44.957 Y-9.535 E2.80469
G1 X45.072 Y-8.51 E2.86188
G1 X45.126 Y-7.859 E2.8981
G1 X45.171 Y-7.039 E2.94363
G1 X45.228 Y-5.591 E3.02398
G1 X45.411 Y-2.888 E3.1742
G1 X45.672 Y-.181 E3.32499
G1 X46.009 Y2.522 E3.47602
G1 X46.121 Y3.283 E3.51867
G1 X46.406 Y5.266 E3.62975
G1 X46.491 Y5.91 E3.66577
G1 X46.525 Y6.467 E3.69671
G1 X46.505 Y6.816 E3.71609
G1 X46.393 Y7.906 E3.77684
G1 X46.321 Y8.486 E3.80925
G1 X46.232 Y9.144 E3.84607
G1 X46.118 Y9.69 E3.87699
G1 X46.003 Y10.03 E3.89689
G1 X45.578 Y11.126 E3.96207
G1 X45.408 Y11.54 E3.98689
G1 X45.149 Y12.146 E4.02343
G1 X44.894 Y12.642 E4.05435
G1 X44.699 Y12.932 E4.07373
G1 X44.043 Y13.817 E4.13481
G1 X43.769 Y14.171 E4.15963
G1 X43.348 Y14.704 E4.19729
G1 X42.972 Y15.117 E4.22826
G1 X42.707 Y15.347 E4.24771
G1 X41.87 Y16.007 E4.30682
G1 X41.499 Y16.288 E4.33262
G1 X40.894 Y16.734 E4.3743
G1 X40.422 Y17.032 E4.40525
G1 X39.835 Y17.302 E4.44107
G1 X39.723 Y17.349 E4.44781
G1 X39.126 Y17.587 E4.48344
G1 X38.536 Y17.813 E4.51847
G1 X38.019 Y17.971 E4.54845
G1 X37.611 Y18.063 E4.57164
G1 X36.449 Y18.289 E4.63727
G1 X35.867 Y18.393 E4.67005
G1 X35.636 Y18.427 E4.683
G1 X34.509 Y18.559 E4.74592
G1 X31.961 Y18.81 E4.88788
G1 X31.414 Y18.856 E4.91831
G1 X31.168 Y18.869 E4.93197
G1 X29.89 Y18.895 E5.00285
G1 X15.6 Y18.895 E5.79518
G1 X14.704 Y18.908 E5.84487
G1 X14.623 Y18.903 E5.84937
G1 X13.573 Y18.911 E5.90759
G1 X0.896 Y18.911 E6.61048
G1 X-1.908 Y18.951 E6.76597
G1 X-4.582 Y19.064 E6.91437
G1 X-7.294 Y19.256 E7.06512
G1 X-10.026 Y19.527 E7.21734
G1 X-12.675 Y19.866 E7.36542
G1 X-15.382 Y20.292 E7.51736
G1 X-18.354 Y20.848 E7.685
G1 X-19.452 Y21.062 E7.74703
G1 X-20.09 Y21.177 E7.78297
G1 X-20.324 Y21.211 E7.79609
G1 X-21.418 Y21.339 E7.85716
G1 X-24.055 Y21.599 E8.00408
G1 X-24.767 Y21.65 E8.04366
G1 X-26.095 Y21.677 E8.11731
G1 X-40.393 Y21.677 E8.91008
G1 X-41.091 Y21.667 E8.94879
G1 X-41.647 Y21.619 E8.97973
G1 X-42.191 Y21.492 E9.01071
G1 X-42.711 Y21.289 E9.04166
G1 X-43.196 Y21.013 E9.0726
G1 X-43.638 Y20.672 E9.10355
G1 X-44.026 Y20.27 E9.13453
G1 X-44.352 Y19.818 E9.16543
G1 X-44.611 Y19.323 E9.19641
G1 X-44.797 Y18.797 E9.22734
G1 X-44.905 Y18.249 E9.25831
G1 X-44.943 Y17.541 E9.29762
G1 X-44.944 Y-11.576 E10.91206
G1 X-44.935 Y-12.265 E10.95027
G1 X-44.887 Y-12.821 E10.98121
G1 X-44.761 Y-13.365 E11.01217
G1 X-44.559 Y-13.885 E11.0431
G1 X-44.284 Y-14.371 E11.07407
G1 X-43.943 Y-14.813 E11.10502
G1 X-43.542 Y-15.201 E11.13596
G1 X-43.09 Y-15.529 E11.16692
G1 X-42.596 Y-15.788 E11.19785
G1 X-42.069 Y-15.974 E11.22884
G1 X-41.522 Y-16.083 E11.25976
G1 X-40.823 Y-16.121 E11.29858
G1 X-40.714 Y-16.123 E11.30462
G1 X-28.081 Y-16.123 E12.00508
G1 X-25.277 Y-16.163 E12.16057
G1 X-22.603 Y-16.276 E12.30896
G1 X-19.892 Y-16.468 E12.45966
G1 X-17.158 Y-16.739 E12.61199
G1 X-14.504 Y-17.079 E12.76035
G1 X-11.807 Y-17.503 E12.91172
G1 X-8.85 Y-18.056 E13.07852
G1 X-7.751 Y-18.271 E13.14061
G1 X-7.091 Y-18.389 E13.17779
G1 X-6.861 Y-18.423 E13.19068
G1 X-5.775 Y-18.55 E13.2513
G1 X-3.131 Y-18.811 E13.39862
G1 X-2.419 Y-18.862 E13.4382
G1 X-1.091 Y-18.889 E13.51185
G0 F3600 X-1.091 Y-18.289
G1 F1800 X13.179 Y-18.289 E14.30307
G1 X14.075 Y-18.302 E14.35275
G1 X14.147 Y-18.297 E14.35676
G1 X15.201 Y-18.305 E14.4152
G1 X31.606 Y-18.305 E15.3248
G1 X32.188 Y-18.294 E15.35708
G1 X33.417 Y-18.237 E15.42529
G1 X33.893 Y-18.205 E15.45175
G1 X34.574 Y-18.151 E15.48962
G1 X35.293 Y-18.031 E15.53004
G1 X36.196 Y-17.829 E15.58135
G1 X36.879 Y-17.664 E15.62031
G1 X37.5 Y-17.452 E15.65669
G1 X38.296 Y-17.111 E15.7047
G1 X38.994 Y-16.795 E15.74719
G1 X39.471 Y-16.53 E15.77744
G1 X40.023 Y-16.142 E15.81485
G1 X40.337 Y-15.912 E15.83644
G1 X40.846 Y-15.529 E15.87175
G1 X41.277 Y-15.141 E15.90391
G1 X41.968 Y-14.399 E15.96013
G1 X42.046 Y-14.312 E15.96661
G1 X42.398 Y-13.906 E15.9964
G1 X42.736 Y-13.44 E16.02832
G1 X43.211 Y-12.647 E16.07957
G1 X43.537 Y-12.064 E16.11661
G1 X43.759 Y-11.576 E16.14634
G1 X43.872 Y-11.255 E16.1652
G1 X44.045 Y-10.708 E16.19701
G1 X44.245 Y-10.036 E16.23589
G1 X44.361 Y-9.467 E16.26809
G1 X44.474 Y-8.461 E16.32422
G1 X44.528 Y-7.81 E16.36044
G1 X44.571 Y-7.015 E16.40458
G1 X44.628 Y-5.564 E16.4851
G1 X44.811 Y-2.857 E16.63553
G1 X45.075 Y-.119 E16.78805
G1 X45.419 Y2.637 E16.94205
G1 X45.527 Y3.369 E16.98307
G1 X45.812 Y5.344 E17.09372
G1 X45.897 Y5.988 E17.12973
G1 X45.908 Y6.755 E17.17226
G1 X45.797 Y7.832 E17.2323
G1 X45.726 Y8.405 E17.26431
G1 X45.637 Y9.063 E17.30113
G1 X45.529 Y9.565 E17.3296
G1 X45.444 Y9.813 E17.34413
G1 X45.023 Y10.898 E17.40866
G1 X44.856 Y11.304 E17.43301
G1 X44.597 Y11.91 E17.46955
G1 X44.217 Y12.575 E17.51201
G1 X43.61 Y13.396 E17.56863
G1 X43.299 Y13.799 E17.59685
G1 X42.878 Y14.332 E17.63451
G1 X42.334 Y14.876 E17.67717
G1 X41.507 Y15.529 E17.73559
G1 X41.143 Y15.805 E17.76092
G1 X40.538 Y16.251 E17.8026
G1 X39.898 Y16.62 E17.84356
G1 X39.501 Y16.792 E17.86755
G1 X38.911 Y17.027 E17.90276
G1 X38.321 Y17.253 E17.93779
G1 X37.607 Y17.45 E17.97886
G1 X37.496 Y17.474 E17.98516
G1 X36.343 Y17.699 E18.05029
G1 X35.761 Y17.803 E18.08307
G1 X35.566 Y17.831 E18.094
G1 X34.45 Y17.962 E18.1563
G1 X31.911 Y18.212 E18.29776
G1 X31.364 Y18.258 E18.3282
G1 X31.156 Y18.269 E18.33975
G1 X29.89 Y18.295 E18.40996
G1 X15.591 Y18.295 E19.20279
G1 X14.695 Y18.308 E19.25247
G1 X14.623 Y18.303 E19.25647
G1 X13.569 Y18.311 E19.31492
G1 X0.888 Y18.311 E20.01804
G1 X-1.906 Y18.351 E20.17297
G1 X-4.617 Y18.466 E20.32342
G1 X-7.358 Y18.66 E20.47578
G1 X-10.091 Y18.931 E20.62806
G1 X-12.78 Y19.275 E20.77837
G1 X-15.476 Y19.699 E20.92969
G1 X-18.478 Y20.26 E21.09902
G1 X-18.723 Y20.31 E21.11289
G1 X-19.61 Y20.481 E21.16297
G1 X-20.196 Y20.586 E21.19598
G1 X-20.394 Y20.616 E21.20709
G1 X-21.477 Y20.742 E21.26754
G1 X-24.105 Y21.001 E21.41396
G1 X-24.779 Y21.05 E21.45143
G1 X-26.095 Y21.077 E21.52441
G1 X-40.384 Y21.077 E22.31669
G1 X-41.082 Y21.067 E22.3554
G1 X-41.594 Y21.019 E22.38391
G1 X-42.091 Y20.893 E22.41234
G1 X-42.563 Y20.692 E22.44078
G1 X-42.999 Y20.419 E22.46931
G1 X-43.386 Y20.083 E22.49772
G1 X-43.717 Y19.69 E22.52621
G1 X-43.983 Y19.251 E22.55467
G1 X-44.177 Y18.775 E22.58317
G1 X-44.296 Y18.276 E22.61162
G1 X-44.343 Y17.524 E22.65339
G1 X-44.344 Y-11.568 E24.26645
G1 X-44.335 Y-12.257 E24.30465
G1 X-44.288 Y-12.768 E24.33311
G1 X-44.163 Y-13.266 E24.36158
G1 X-43.962 Y-13.739 E24.39007
G1 X-43.69 Y-14.174 E24.41852
G1 X-43.354 Y-14.562 E24.44698
G1 X-42.961 Y-14.893 E24.47547
G1 X-42.522 Y-15.16 E24.50396
G1 X-42.047 Y-15.355 E24.53243
G1 X-41.548 Y-15.474 E24.56087
G1 X-40.806 Y-15.522 E24.6021
G1 X-28.073 Y-15.523 E25.3081
G1 X-25.279 Y-15.563 E25.46303
G1 X-22.568 Y-15.678 E25.61348
G1 X-19.825 Y-15.872 E25.76595
G1 X-17.097 Y-16.142 E25.91795
G1 X-14.405 Y-16.487 E26.06843
G1 X-11.708 Y-16.911 E26.21981
G1 X-8.718 Y-17.47 E26.38847
G1 X-7.585 Y-17.692 E26.45248
G1 X-6.985 Y-17.799 E26.48628
G1 X-6.791 Y-17.828 E26.49715
G1 X-5.716 Y-17.953 E26.55716
G1 X-3.081 Y-18.213 E26.70397
G1 X-2.407 Y-18.262 E26.74144
G1 X-1.091 Y-18.289 E26.81442
G1 F1500 E20.31442
;MESH:B.stl
G0 F3600 X-1.091 Y-15.654
G0 X-1.091 Y-14.069
G0 X5.434 Y-9.471
G0 X5.476 Y9.903
G0 X5.406 Y9.833
;TYPE:WALL-INNER
G1 F1500 E26.81442
G1 F1800 X5.406 Y2.344 E27.22966
G1 X0.43 Y2.344 E27.50557
G1 X-1.61 Y2.552 E27.61926
G1 X-3.146 Y3.28 E27.71351
G1 X-4.034 Y4.554 E27.79962
G1 X-4.307 Y6.155 E27.88967
G1 X-4.03 Y7.679 E27.97555
G1 X-3.138 Y8.91 E28.05984
G1 X-1.626 Y9.628 E28.15265
G1 X0.367 Y9.833 E28.26374
G1 X5.406 Y9.833 E28.54313
G0 F3600 X4.806 Y9.233
;TYPE:WALL-OUTER
G1 F1800 X4.806 Y2.944 E28.89184
G1 X0.46 Y2.944 E29.13281
G1 X-1.446 Y3.138 E29.23904
G1 X-2.745 Y3.754 E29.31875
G1 X-3.465 Y4.787 E29.38857
G1 X-3.698 Y6.152 E29.46535
G1 X-3.464 Y7.437 E29.53777
G1 X-2.742 Y8.434 E29.60602
G1 X-1.462 Y9.042 E29.68459
G1 X0.398 Y9.233 E29.78826
G1 X4.806 Y9.233 E30.03267
G0 F3600 X4.806 Y9.033
G0 X5.466 Y9.033
G0 X5.506 Y9.033
G0 X5.476 Y-1.495
G0 X5.406 Y-1.565
;TYPE:WALL-INNER
G1 F1800 X5.406 Y-9.443 E30.46948
G1 X-.268 Y-9.443 E30.78409
G1 X-2.509 Y-9.21 E30.90901
G1 X-4.188 Y-8.41 E31.01213
G1 X-5.18 Y-7.069 E31.10462
G1 X-5.498 Y-5.407 E31.19845
G1 X-5.177 Y-3.826 E31.28789
G1 X-4.182 Y-2.546 E31.37779
G1 X-2.506 Y-1.785 E31.47985
G1 X-.245 Y-1.565 E31.6058
G1 X5.406 Y-1.565 E31.91913
G0 F3600 X4.806 Y-2.165
;TYPE:WALL-OUTER
G1 F1800 X4.806 Y-8.843 E32.28941
G1 X-.237 Y-8.843 E32.56902
G1 X-2.344 Y-8.624 E32.68648
G1 X-3.795 Y-7.933 E32.77559
G1 X-4.616 Y-6.822 E32.85218
G1 X-4.886 Y-5.41 E32.93189
G1 X-4.617 Y-4.083 E33.00697
G1 X-3.799 Y-3.031 E33.08086
G1 X-2.349 Y-2.373 E33.16914
G1 X-.216 Y-2.165 E33.28797
G1 X4.806 Y-2.165 E33.56643
G0 F3600 X4.806 Y-2.365
G0 X5.466 Y-2.365
G0 X5.506 Y-2.365
G0 X-6.63 Y0.284
G0 X-6.711 Y0.342
;TYPE:WALL-INNER
G1 F1800 X-9.975 Y-.888 E33.75983
G1 X-10.902 Y-1.519 E33.822
G1 X-11.644 Y-2.267 E33.88042
G1 X-12.216 Y-3.131 E33.93788
G1 X-12.614 Y-4.076 E33.99473
G1 X-12.961 Y-6.465 E34.12858
G1 X-12.72 Y-8.441 E34.23896
G1 X-11.999 Y-10.196 E34.34416
G1 X-10.861 Y-11.675 E34.44763
G1 X-9.369 Y-12.808 E34.5515
G1 X-8.103 Y-13.312 E34.62706
G1 X-6.168 Y-13.688 E34.73635
G1 X-2.097 Y-14.089 E34.96317
G1 X12.958 Y-14.089 E35.79792
G1 X12.958 Y14.111 E37.36151
G1 X-3.466 Y14.111 E38.27217
G1 X-5.409 Y13.984 E38.38013
G1 X-7.049 Y13.615 E38.47334
G1 X-8.421 Y13.016 E38.55634
G1 X-9.546 Y12.194 E38.6336
G1 X-10.439 Y11.193 E38.70798
G1 X-11.068 Y10.097 E38.77804
G1 X-11.447 Y8.885 E38.84845
G1 X-11.571 Y7.575 E38.92141
G1 X-11.198 Y5.34 E39.04705
G1 X-10.771 Y4.44 E39.10228
G1 X-10.157 Y3.596 E39.16015
G1 X-8.976 Y2.609 E39.24549
G1 X-6.666 Y1.537 E39.38669
G1 X-6.711 Y0.342 E39.453
G0 F3600 X-7.296 Y0.763
;TYPE:WALL-OUTER
G1 F1800 X-7.52 Y0.679 E39.46627
G1 X-10.255 Y-.353 E39.62835
G1 X-11.285 Y-1.054 E39.69743
G1 X-12.111 Y-1.887 E39.76247
G1 X-12.748 Y-2.849 E39.82645
G1 X-13.197 Y-3.914 E39.89053
G1 X-13.567 Y-6.459 E40.03313
G1 X-13.306 Y-8.593 E40.15233
G1 X-12.523 Y-10.5 E40.26663
G1 X-11.289 Y-12.104 E40.37884
G1 X-9.669 Y-13.334 E40.49163
G1 X-8.271 Y-13.891 E40.57507
G1 X-6.255 Y-14.282 E40.68893
G1 X-2.126 Y-14.689 E40.91898
G1 X13.558 Y-14.689 E41.7886
G1 X13.558 Y14.711 E43.41873
G1 X-3.49 Y14.711 E44.36399
G1 X-5.491 Y14.58 E44.47517
G1 X-7.238 Y14.187 E44.57446
G1 X-8.72 Y13.54 E44.66412
G1 X-9.952 Y12.64 E44.74872
G1 X-10.929 Y11.545 E44.83009
G1 X-11.621 Y10.338 E44.90723
G1 X-12.038 Y9.007 E44.98456
G1 X-12.176 Y7.552 E45.0656
G1 X-11.776 Y5.16 E45.20007
G1 X-11.289 Y4.132 E45.26314
G1 X-10.599 Y3.183 E45.3282
G1 X-9.3 Y2.098 E45.42205
G1 X-7.498 Y1.262 E45.53219
G1 X-7.281 Y1.161 E45.5434
G1 X-7.296 Y0.763 E45.56548
G0 F3600 X-7.483 Y0.693
G0 X-7.25 Y0.076
G0 X-7.235 Y0.039
G0 X-8.564 Y-8.55
;TYPE:SKIN
G1 F1800 X-9.167 Y-5.399 E45.74337
G1 X-9.327 Y-6.506 E45.80538
G1 X-9.204 Y-7.53 E45.86257
G1 X-8.853 Y-8.379 E45.91351
G1 X-8.296 Y-9.102 E45.96411
G1 X-7.972 Y-9.349 E45.9867
G1 X-8.564 Y-8.55 E46.04184
G0 F3600 X-8 Y-8.303
G1 F1800 X-8.558 Y-5.388 E46.2064
G1 X-8.154 Y-3.408 E46.31845
G1 X-8.582 Y-3.569 E46.3438
G1 X-8.977 Y-3.838 E46.3703
G1 X-9.307 Y-4.169 E46.39621
G1 X-9.562 Y-4.556 E46.42191
G1 X-9.698 Y-4.878 E46.44129
G1 X-9.933 Y-6.499 E46.53211
G1 X-9.79 Y-7.683 E46.59824
G1 X-9.379 Y-8.679 E46.65798
G1 X-8.722 Y-9.532 E46.71768
G1 X-7.887 Y-10.168 E46.77588
G1 X-7.246 Y-10.422 E46.81411
G1 X-6.294 Y-10.607 E46.86788
G1 X-8 Y-8.303 E47.02684
G0 F3600 X-7.436 Y-8.056
G1 F1800 X-7.946 Y-5.392 E47.17723
G1 X-7.417 Y-2.797 E47.32407
G1 X-7.078 Y-2.361 E47.35469
G1 X-8.863 Y-3.034 E47.46047
G1 X-9.362 Y-3.374 E47.49395
G1 X-9.775 Y-3.788 E47.52637
G1 X-10.092 Y-4.268 E47.55826
G1 X-10.281 Y-4.718 E47.58533
G1 X-10.538 Y-6.492 E47.68472
G1 X-10.376 Y-7.836 E47.75978
G1 X-9.903 Y-8.982 E47.82852
G1 X-9.15 Y-9.961 E47.897
G1 X-8.185 Y-10.695 E47.96422
G1 X-7.417 Y-11 E48.01004
G1 X-5.827 Y-11.309 E48.09985
G1 X-1.972 Y-11.689 E48.31463
G1 X-1.872 Y-11.689 E48.32018
G1 X-3.168 Y-11.554 E48.39243
G1 X-5.761 Y-10.319 E48.55167
G1 X-7.436 Y-8.056 E48.70778
G0 F3600 X-6.872 Y-7.809
G1 F1800 X-7.334 Y-5.396 E48.844
G1 X-6.857 Y-3.054 E48.97653
G1 X-5.33 Y-1.09 E49.11447
G1 X-2.978 Y-0.021 E49.25771
G1 X-.333 Y0.235 E49.40506
G1 X7.206 Y0.235 E49.82307
G1 X7.206 Y-11.243 E50.45948
G1 X-.362 Y-11.243 E50.8791
G1 X-3.003 Y-10.968 E51.02633
G1 X-5.368 Y-9.842 E51.17157
G1 X-6.872 Y-7.809 E51.31178
G0 F3600 X-6.308 Y-7.562
G1 F1800 X-6.722 Y-5.4 E51.43384
G1 X-6.297 Y-3.311 E51.55204
G1 X-4.947 Y-1.575 E51.67397
G1 X-2.821 Y-.609 E51.80345
G1 X-.304 Y-.365 E51.94366
G1 X6.606 Y-.365 E52.3268
G1 X6.606 Y-10.643 E52.89668
G1 X-.331 Y-10.643 E53.28131
G1 X-2.838 Y-10.382 E53.42107
G1 X-4.975 Y-9.365 E53.55229
G1 X-6.308 Y-7.562 E53.67662
G0 F3600 X-5.744 Y-7.315
G1 F1800 X-6.11 Y-5.403 E53.78456
G1 X-5.737 Y-3.568 E53.88838
G1 X-4.564 Y-2.06 E53.99431
G1 X-2.664 Y-1.197 E54.11002
G1 X-.275 Y-.965 E54.2431
G1 X6.006 Y-.965 E54.59136
G1 X6.006 Y-10.043 E55.09471
G1 X-.3 Y-10.043 E55.44435
G1 X-2.673 Y-9.796 E55.57664
G1 X-4.582 Y-8.888 E55.69385
G1 X-5.744 Y-7.315 E55.80229
G0 F3600 X-9.152 Y-5.298
G1 F1800 X-9.085 Y-4.97 E55.82085
G1 X-9.115 Y-5.04 E55.82507
G1 X-9.152 Y-5.298 E55.83952
G0 F3600 X-10.429 Y-9.282
G1 F1800 X-9.577 Y-10.389 E55.91698
G1 X-8.48 Y-11.224 E55.99342
G1 X-7.587 Y-11.578 E56.04668
G1 X-5.914 Y-11.903 E56.14118
G1 X-2.001 Y-12.289 E56.35919
G1 X11.158 Y-12.289 E57.08881
G1 X11.158 Y12.311 E58.4528
G1 X-3.408 Y12.311 E59.26044
G1 X-5.151 Y12.198 E59.35728
G1 X-6.487 Y11.897 E59.43322
G1 X-7.525 Y11.444 E59.49601
G1 X-8.326 Y10.858 E59.55104
G1 X-8.975 Y10.129 E59.60516
G1 X-9.41 Y9.371 E59.65362
G1 X-9.673 Y8.533 E59.70231
G1 X-9.757 Y7.641 E59.75199
G1 X-9.464 Y5.883 E59.85081
G1 X-9.216 Y5.361 E59.88286
G1 X-8.831 Y4.833 E59.91909
G1 X-8.006 Y4.143 E59.97872
G1 X-4.955 Y2.727 E60.16522
G1 X-5.74 Y3.854 E60.24137
G1 X-6.135 Y6.165 E60.37137
G1 X-5.728 Y8.405 E60.4976
G1 X-4.326 Y10.338 E60.63
G1 X-2.118 Y11.386 E60.76552
G1 X0.275 Y11.633 E60.89891
G1 X7.206 Y11.633 E61.28321
G1 X7.206 Y0.544 E61.89806
G1 X0.338 Y0.544 E62.27886
G1 X-2.102 Y0.794 E62.41486
G1 X-4.35 Y1.858 E62.55276
G1 X-4.827 Y2.542 E62.599
G1 X-4.957 Y-.92 E62.79109
