;FLAVOR:Marlin
;TIME:906
;Filament used: 1.46808m
;Layer height: 0.2
;MINX:-31.652
;MINY:-39.275
;MINZ:0.2
;MAXX:18.909
;MAXY:28.761
;MAXZ:3.6
;POSTPROCESSED
;Generated with Cura_SteamEngine 4.8.0
M140 S60
M105
M190 S60
M104 S195
M105
M109 S195
M82 ;absolute extrusion mode
G28 ;Home
G1 Z15.0 F6000 ;Move the platform down 15mm
;Prime the extruder
G92 E0
G1 F200 E3
G92 E0
G92 E0
G92 E0
G1 F1500 E-6.5
;LAYER_COUNT:18
;LAYER:0
M107
G0 F3600 X18.906 Y10.8 Z0.2
;TYPE:SKIRT
G1 F1500 E0
G1 F1800 X18.896 Y11.503 E0.03898
G1 X18.848 Y12.06 E0.06998
G1 X18.721 Y12.603 E0.1009
G1 X18.518 Y13.123 E0.13185
G1 X18.243 Y13.609 E0.16281
G1 X17.901 Y14.05 E0.19376
G1 X17.617 Y14.336 E0.21611
G1 X16.922 Y14.967 E0.26815
G1 X16.182 Y15.618 E0.3228
G1 X14.203 Y17.462 E0.47278
G1 X12.28 Y19.362 E0.62267
G1 X10.389 Y21.337 E0.77428
G1 X8.573 Y23.345 E0.9244
G1 X6.821 Y25.396 E1.07396
G1 X5.464 Y27.078 E1.19379
G1 X5.248 Y27.339 E1.21257
G1 X4.862 Y27.742 E1.24351
G1 X4.422 Y28.086 E1.27448
G1 X3.938 Y28.364 E1.30543
G1 X3.42 Y28.57 E1.33634
G1 X2.877 Y28.7 E1.3673
G1 X2.351 Y28.751 E1.3966
G1 X1.918 Y28.761 E1.42061
G1 X-27.095 Y28.761 E3.02929
G1 X-27.793 Y28.752 E3.06799
G1 X-28.35 Y28.705 E3.09899
G1 X-28.893 Y28.579 E3.12989
G1 X-29.414 Y28.376 E3.1609
G1 X-29.9 Y28.102 E3.19183
G1 X-30.341 Y27.76 E3.22277
G1 X-30.73 Y27.36 E3.25371
G1 X-31.057 Y26.908 E3.28464
G1 X-31.317 Y26.413 E3.31565
G1 X-31.503 Y25.887 E3.34658
G1 X-31.612 Y25.34 E3.37751
G1 X-31.651 Y24.624 E3.41726
G1 X-31.652 Y2.594 E4.63875
G1 X-31.642 Y1.89 E4.67779
G1 X-31.594 Y1.333 E4.70879
G1 X-31.467 Y0.79 E4.73971
G1 X-31.264 Y0.27 E4.77066
G1 X-30.874 Y-.432 E4.81519
G1 X-29.543 Y-2.819 E4.96673
G1 X-28.293 Y-5.216 E5.11662
G1 X-27.099 Y-7.672 E5.26803
G1 X-25.993 Y-10.125 E5.41723
G1 X-24.936 Y-12.656 E5.56931
G1 X-23.952 Y-15.209 E5.72102
G1 X-23.051 Y-17.77 E5.87155
G1 X-22.228 Y-20.333 E6.0208
G1 X-21.47 Y-22.939 E6.17129
G1 X-20.787 Y-25.571 E6.32206
G1 X-20.173 Y-28.238 E6.4738
G1 X-19.638 Y-30.908 E6.62479
G1 X-19.182 Y-33.582 E6.77519
G1 X-18.881 Y-35.689 E6.8932
G1 X-18.832 Y-35.991 E6.91017
G1 X-18.703 Y-36.534 E6.94111
G1 X-18.498 Y-37.053 E6.97205
G1 X-18.221 Y-37.538 E7.00302
G1 X-17.878 Y-37.978 E7.03395
G1 X-17.476 Y-38.365 E7.06489
G1 X-17.022 Y-38.69 E7.09585
G1 X-16.526 Y-38.947 E7.12683
G1 X-15.999 Y-39.131 E7.15778
G1 X-15.451 Y-39.238 E7.18873
G1 X-14.772 Y-39.273 E7.22643
G1 X-14.662 Y-39.275 E7.23253
G1 X14.357 Y-39.275 E8.84154
G1 X15.055 Y-39.265 E8.88024
G1 X15.611 Y-39.217 E8.91119
G1 X16.155 Y-39.09 E8.94216
G1 X16.675 Y-38.887 E8.97311
G1 X17.16 Y-38.611 E9.00405
G1 X17.602 Y-38.27 E9.03501
G1 X17.99 Y-37.868 E9.06598
G1 X18.316 Y-37.416 E9.09689
G1 X18.575 Y-36.921 E9.12786
G1 X18.761 Y-36.395 E9.1588
G1 X18.869 Y-35.847 E9.18976
G1 X18.906 Y-35.155 E9.22819
G1 X18.908 Y-35.045 E9.23429
G1 X18.909 Y-12.466 E10.48622
G1 X18.906 Y-11.189 E10.55702
G1 X18.906 Y10.8 E11.77624
G0 F3600 X18.306 Y10.792
G1 F1800 X18.296 Y11.495 E11.81522
G1 X18.248 Y12.006 E11.84368
G1 X18.123 Y12.504 E11.87215
G1 X17.921 Y12.976 E11.90062
G1 X17.648 Y13.411 E11.92909
G1 X17.214 Y13.891 E11.96497
G1 X16.525 Y14.516 E12.01655
G1 X15.801 Y15.153 E12.07002
G1 X13.779 Y17.037 E12.22326
G1 X11.867 Y18.926 E12.37228
G1 X9.952 Y20.927 E12.52586
G1 X8.114 Y22.958 E12.67773
G1 X6.356 Y25.017 E12.82785
G1 X5.001 Y26.695 E12.94744
G1 X4.785 Y26.956 E12.96622
G1 X4.428 Y27.325 E12.99469
G1 X4.018 Y27.634 E13.02316
G1 X3.565 Y27.876 E13.05163
G1 X3.08 Y28.044 E13.08009
G1 X2.334 Y28.151 E13.12188
G1 X1.918 Y28.161 E13.14495
G1 X-27.088 Y28.161 E14.75324
G1 X-27.786 Y28.152 E14.79194
G1 X-28.297 Y28.105 E14.82039
G1 X-28.795 Y27.98 E14.84886
G1 X-29.267 Y27.779 E14.87731
G1 X-29.703 Y27.507 E14.9058
G1 X-30.091 Y27.171 E14.93426
G1 X-30.422 Y26.779 E14.96271
G1 X-30.689 Y26.34 E14.9912
G1 X-30.884 Y25.865 E15.01967
G1 X-31.003 Y25.366 E15.04811
G1 X-31.051 Y24.608 E15.09022
G1 X-31.052 Y2.602 E16.31038
G1 X-31.042 Y1.898 E16.34942
G1 X-30.994 Y1.387 E16.37788
G1 X-30.869 Y0.889 E16.40635
G1 X-30.603 Y0.3 E16.44218
G1 X-30.354 Y-.133 E16.46988
G1 X-29.016 Y-2.532 E16.62218
G1 X-27.75 Y-4.959 E16.77396
G1 X-26.562 Y-7.404 E16.92468
G1 X-25.436 Y-9.901 E17.07656
G1 X-24.379 Y-12.432 E17.22864
G1 X-23.388 Y-15.004 E17.38147
G1 X-22.49 Y-17.555 E17.53142
G1 X-21.653 Y-20.161 E17.68318
G1 X-20.886 Y-22.799 E17.83551
G1 X-20.203 Y-25.43 E17.98623
G1 X-19.592 Y-28.089 E18.1375
G1 X-19.042 Y-30.826 E18.29229
G1 X-18.592 Y-33.471 E18.44105
G1 X-18.288 Y-35.593 E18.55991
G1 X-18.239 Y-35.895 E18.57688
G1 X-18.118 Y-36.393 E18.60529
G1 X-17.921 Y-36.867 E18.63375
G1 X-17.652 Y-37.305 E18.66225
G1 X-17.319 Y-37.696 E18.69073
G1 X-16.93 Y-38.03 E18.71916
G1 X-16.493 Y-38.3 E18.74764
G1 X-16.019 Y-38.499 E18.77615
G1 X-15.521 Y-38.622 E18.80459
G1 X-14.755 Y-38.674 E18.84716
G1 X14.348 Y-38.675 E20.46082
G1 X15.046 Y-38.665 E20.49953
G1 X15.558 Y-38.617 E20.52804
G1 X16.055 Y-38.491 E20.55647
G1 X16.527 Y-38.29 E20.58491
G1 X16.963 Y-38.017 E20.61344
G1 X17.35 Y-37.681 E20.64185
G1 X17.681 Y-37.288 E20.67034
G1 X17.947 Y-36.849 E20.6988
G1 X18.141 Y-36.373 E20.7273
G1 X18.26 Y-35.874 E20.75575
G1 X18.307 Y-35.138 E20.79664
G1 X18.309 Y-12.467 E22.05367
G1 X18.306 Y-11.19 E22.12448
G1 X18.306 Y10.792 E23.3433
G1 F1500 E16.8433
;MESH:F.stl(1)
G0 F3600 X15.671 Y10.538
G0 X14.092 Y10.538
G0 X9.53 Y-3.126
G0 X9.46 Y-3.056
;TYPE:WALL-INNER
G1 F1500 E23.3433
G1 F1800 X2.421 Y-3.056 E23.73359
G1 X2.421 Y8.567 E24.37805
G1 X-1.836 Y8.567 E24.61409
G1 X-1.836 Y-3.056 E25.25854
G1 X-14.094 Y-3.056 E25.93821
G1 X-14.094 Y-10.567 E26.35467
G1 X14.106 Y-10.567 E27.91826
G1 X14.106 Y10.552 E29.08924
G1 X9.46 Y10.552 E29.34684
G1 X9.46 Y-3.056 E30.10136
G0 F3600 X8.86 Y-2.456
;TYPE:WALL-OUTER
G1 F1800 X3.021 Y-2.456 E30.42511
G1 X3.021 Y9.167 E31.06957
G1 X-2.436 Y9.167 E31.37214
G1 X-2.436 Y-2.456 E32.0166
G1 X-14.694 Y-2.456 E32.69626
G1 X-14.694 Y-11.167 E33.17926
G1 X14.706 Y-11.167 E34.80939
G1 X14.706 Y11.152 E36.0469
G1 X8.86 Y11.152 E36.37104
G1 X8.86 Y-2.456 E37.12556
G0 F3600 X8.66 Y-2.456
G0 X8.66 Y-3.116
G0 X8.66 Y-3.156
G0 X10.506 Y-6.656
;TYPE:SKIN
G1 F1800 X-10.494 Y-6.656 E38.28994
G1 X-10.494 Y-6.967 E38.30719
G1 X10.506 Y-6.967 E39.47157
G1 X10.506 Y-6.656 E39.48881
G0 F3600 X11.106 Y-6.056
G1 F1800 X-11.094 Y-6.056 E40.71972
G1 X-11.094 Y-7.567 E40.8035
G1 X11.106 Y-7.567 E42.03442
G1 X11.106 Y-6.056 E42.1182
G0 F3600 X11.706 Y-5.456
G1 F1800 X-11.694 Y-5.456 E43.41565
G1 X-11.694 Y-8.167 E43.56597
G1 X11.706 Y-8.167 E44.86342
G1 X11.706 Y-5.456 E45.01373
G0 F3600 X11.26 Y-4.856
G1 F1800 X0.621 Y-4.856 E45.60363
G1 X0.621 Y6.767 E46.24809
G1 X-0.036 Y6.767 E46.28451
G1 X-0.036 Y-4.856 E46.92897
G1 X-12.294 Y-4.856 E47.60864
G1 X-12.294 Y-8.767 E47.82549
G1 X12.306 Y-8.767 E49.18947
G1 X12.306 Y8.752 E50.16084
G1 X11.26 Y8.752 E50.21884
G1 X11.26 Y-4.856 E50.97336
G0 F3600 X10.66 Y-4.256
G1 F1800 X1.221 Y-4.256 E51.49672
G1 X1.221 Y7.367 E52.14118
G1 X-.636 Y7.367 E52.24414
G1 X-.636 Y-4.256 E52.8886
G1 X-12.894 Y-4.256 E53.56826
G1 X-12.894 Y-9.367 E53.85165
G1 X12.906 Y-9.367 E55.28217
G1 X12.906 Y9.352 E56.32008
G1 X10.66 Y9.352 E56.44461
G1 X10.66 Y-4.256 E57.19913
G0 F3600 X10.06 Y-3.656
G1 F1800 X1.821 Y-3.656 E57.65595
G1 X1.821 Y7.967 E58.30041
G1 X-1.236 Y7.967 E58.46991
G1 X-1.236 Y-3.656 E59.11437
G1 X-13.494 Y-3.656 E59.79403
G1 X-13.494 Y-9.967 E60.14396
G1 X13.506 Y-9.967 E61.64101
G1 X13.506 Y9.952 E62.74546
G1 X10.06 Y9.952 E62.93653
G1 X10.06 Y-3.656 E63.69104
G0 F3600 X11.575 Y-3.599
;TYPE:SKIN
G1 F1800 X11.991 Y-3.599 E63.70258
G0 F3600 X11.991 Y-3.899
G1 F1800 X11.575 Y-3.899 E63.71411
G0 F3600 X11.575 Y-4.199
G1 F1800 X11.991 Y-4.199 E63.72564
G0 F3600 X11.991 Y-4.499
G1 F1800 X11.575 Y-4.499 E63.73717
G0 F3600 X11.575 Y-4.799
G1 F1800 X11.991 Y-4.799 E63.74871
G0 F3600 X11.991 Y-5.099
G1 F1800 X11.575 Y-5.099 E63.76024
G0 F3600 X11.575 Y-3.299
G1 F1800 X11.991 Y-3.299 E63.77177
G0 F3600 X11.991 Y-2.999
G1 F1800 X11.575 Y-2.999 E63.78331
G0 F3600 X11.575 Y-2.699
G1 F1800 X11.991 Y-2.699 E63.79484
G0 F3600 X11.991 Y-2.399
G1 F1800 X11.575 Y-2.399 E63.80637
G0 F3600 X11.575 Y-2.099
G1 F1800 X11.991 Y-2.099 E63.81791
G0 F3600 X11.991 Y-1.799
G1 F1800 X11.575 Y-1.799 E63.82944
G0 F3600 X11.575 Y-1.499
G1 F1800 X11.991 Y-1.499 E63.84097
G0 F3600 X11.991 Y-1.199
G1 F1800 X11.575 Y-1.199 E63.8525
G0 F3600 X11.575 Y-.899
G1 F1800 X11.991 Y-.899 E63.86404
G0 F3600 X11.991 Y-.599
G1 F1800 X11.575 Y-.599 E63.87557
G0 F3600 X11.575 Y-.299
G1 F1800 X11.991 Y-.299 E63.8871
G0 F3600 X11.991 Y0.00
G1 F1800 X11.575 Y0.00 E63.89864
G0 F3600 X11.575 Y0.3
G1 F1800 X11.991 Y0.3 E63.91017
G0 F3600 X11.991 Y0.6
G1 F1800 X11.575 Y0.6 E63.9217
G0 F3600 X11.575 Y0.9
G1 F1800 X11.991 Y0.9 E63.93323
G0 F3600 X11.991 Y1.2
G1 F1800 X11.575 Y1.2 E63.94477
G0 F3600 X11.575 Y1.5
G1 F1800 X11.991 Y1.5 E63.9563
G0 F3600 X11.991 Y1.8
G1 F1800 X11.575 Y1.8 E63.96783
G0 F3600 X11.575 Y2.1
G1 F1800 X11.991 Y2.1 E63.97937
G0 F3600 X11.991 Y2.4
G1 F1800 X11.575 Y2.4 E63.9909
G0 F3600 X11.575 Y2.7
G1 F1800 X11.991 Y2.7 E64.00243
G0 F3600 X11.991 Y3
G1 F1800 X11.575 Y3 E64.01396
G0 F3600 X11.575 Y3.3
G1 F1800 X11.991 Y3.3 E64.0255
G0 F3600 X11.991 Y3.6
G1 F1800 X11.575 Y3.6 E64.03703
G0 F3600 X11.575 Y3.9
G1 F1800 X11.991 Y3.9 E64.04856
G0 F3600 X11.991 Y4.2
G1 F1800 X11.575 Y4.2 E64.0601
G0 F3600 X11.575 Y4.5
G1 F1800 X11.991 Y4.5 E64.07163
G0 F3600 X11.991 Y4.8
G1 F1800 X11.575 Y4.8 E64.08316
G0 F3600 X11.575 Y5.1
G1 F1800 X11.991 Y5.1 E64.09469
G0 F3600 X11.991 Y5.4
G1 F1800 X11.575 Y5.4 E64.10623
G0 F3600 X11.575 Y5.7
G1 F1800 X11.991 Y5.7 E64.11776
G0 F3600 X11.991 Y6
G1 F1800 X11.575 Y6 E64.12929
G0 F3600 X11.575 Y6.3
G1 F1800 X11.991 Y6.3 E64.14083
G0 F3600 X11.991 Y6.6
G1 F1800 X11.575 Y6.6 E64.15236
G0 F3600 X11.575 Y6.9
G1 F1800 X11.991 Y6.9 E64.16389
G0 F3600 X11.991 Y7.2
G1 F1800 X11.575 Y7.2 E64.17542
G0 F3600 X11.575 Y7.5
G1 F1800 X11.991 Y7.5 E64.18696
G0 F3600 X11.991 Y7.8
G1 F1800 X11.575 Y7.8 E64.19849
G0 F3600 X11.575 Y8.1
G1 F1800 X11.991 Y8.1 E64.21002
G0 F3600 X11.991 Y8.4
G1 F1800 X11.575 Y8.4 E64.22156
G1 F1500 E57.72156
;MESH:F.stl(2)
G0 F3600 X9.474 Y10.538
G0 X7.895 Y10.538
G0 X-9.345 Y10.538
G0 X-10.93 Y10.538
G0 X-15.14 Y16.478
G0 X-22.276 Y16.52
G0 X-22.206 Y16.45
;TYPE:WALL-INNER
G1 F1500 E64.22156
G1 F1800 X-15.168 Y16.45 E64.61179
G1 X-15.168 Y4.827 E65.25625
G1 X-10.91 Y4.827 E65.49234
G1 X-10.91 Y16.45 E66.13679
G1 X1.348 Y16.45 E66.81646
G1 X1.348 Y23.961 E67.23292
G1 X-26.852 Y23.961 E68.79651
G1 X-26.852 Y2.842 E69.96749
G1 X-22.206 Y2.842 E70.2251
G1 X-22.206 Y16.45 E70.97961
G0 F3600 X-21.606 Y15.85
;TYPE:WALL-OUTER
G1 F1800 X-15.768 Y15.85 E71.30331
G1 X-15.768 Y4.227 E71.94777
G1 X-10.31 Y4.227 E72.2504
G1 X-10.31 Y15.85 E72.89485
G1 X1.948 Y15.85 E73.57452
G1 X1.948 Y24.561 E74.05751
G1 X-27.452 Y24.561 E75.68764
G1 X-27.452 Y2.242 E76.92516
G1 X-21.606 Y2.242 E77.2493
G1 X-21.606 Y15.85 E78.00382
G0 F3600 X-21.406 Y15.85
G0 X-21.406 Y16.51
G0 X-21.406 Y16.55
G0 X-2.252 Y20.361
;TYPE:SKIN
G1 F1800 X-23.252 Y20.361 E79.16819
G1 X-23.252 Y20.05 E79.18544
G1 X-2.252 Y20.05 E80.34982
G1 X-2.252 Y20.361 E80.36706
G0 F3600 X-1.652 Y20.961
G1 F1800 X-23.852 Y20.961 E81.59798
G1 X-23.852 Y19.45 E81.68176
G1 X-1.652 Y19.45 E82.91267
G1 X-1.652 Y20.961 E82.99645
G0 F3600 X-1.052 Y21.561
G1 F1800 X-24.452 Y21.561 E84.2939
G1 X-24.452 Y18.85 E84.44422
G1 X-1.052 Y18.85 E85.74167
G1 X-1.052 Y21.561 E85.89199
G0 F3600 X-.452 Y22.161
G1 F1800 X-25.052 Y22.161 E87.25597
G1 X-25.052 Y4.642 E88.22734
G1 X-24.006 Y4.642 E88.28534
G1 X-24.006 Y18.25 E89.03986
G1 X-13.368 Y18.25 E89.6297
G1 X-13.368 Y6.627 E90.27416
G1 X-12.71 Y6.627 E90.31064
G1 X-12.71 Y18.25 E90.9551
G1 X-.452 Y18.25 E91.63476
G1 X-.452 Y22.161 E91.85161
G0 F3600 X0.148 Y22.761
G1 F1800 X-25.652 Y22.761 E93.28214
G1 X-25.652 Y4.042 E94.32004
G1 X-23.406 Y4.042 E94.44457
G1 X-23.406 Y17.65 E95.19909
G1 X-13.968 Y17.65 E95.7224
G1 X-13.968 Y6.027 E96.36685
G1 X-12.11 Y6.027 E96.46987
G1 X-12.11 Y17.65 E97.11433
G1 X0.148 Y17.65 E97.79399
G1 X0.148 Y22.761 E98.07738
G0 F3600 X0.748 Y23.361
G1 F1800 X-26.252 Y23.361 E99.57444
G1 X-26.252 Y3.442 E100.67888
G1 X-22.806 Y3.442 E100.86995
G1 X-22.806 Y17.05 E101.62447
G1 X-14.568 Y17.05 E102.08124
G1 X-14.568 Y5.427 E102.7257
G1 X-11.51 Y5.427 E102.89525
G1 X-11.51 Y17.05 E103.53971
G1 X0.748 Y17.05 E104.21937
G1 X0.748 Y23.361 E104.5693
G0 F3600 X-24.321 Y18.3
;TYPE:SKIN
G1 F1800 X-24.737 Y18.3 E104.58083
G0 F3600 X-24.737 Y18
G1 F1800 X-24.321 Y18 E104.59236
G0 F3600 X-24.321 Y17.7
G1 F1800 X-24.737 Y17.7 E104.60389
G0 F3600 X-24.737 Y17.4
G1 F1800 X-24.321 Y17.4 E104.61543
G0 F3600 X-24.321 Y17.1
G1 F1800 X-24.737 Y17.1 E104.62696
G0 F3600 X-24.737 Y16.8
G1 F1800 X-24.321 Y16.8 E104.63849
G0 F3600 X-24.321 Y16.5
G1 F1800 X-24.737 Y16.5 E104.65003
G0 F3600 X-24.737 Y16.199
G1 F1800 X-24.321 Y16.199 E104.66156
G0 F3600 X-24.321 Y15.899
G1 F1800 X-24.737 Y15.899 E104.67309
G0 F3600 X-24.737 Y15.599
G1 F1800 X-24.321 Y15.599 E104.68462
G0 F3600 X-24.321 Y15.299
G1 F1800 X-24.737 Y15.299 E104.69616
G0 F3600 X-24.737 Y14.999
G1 F1800 X-24.321 Y14.999 E104.70769
G0 F3600 X-24.321 Y14.699
G1 F1800 X-24.737 Y14.699 E104.71922
G0 F3600 X-24.737 Y14.399
G1 F1800 X-24.321 Y14.399 E104.73076
G0 F3600 X-24.321 Y14.099
G1 F1800 X-24.737 Y14.099 E104.74229
G0 F3600 X-24.737 Y13.799
G1 F1800 X-24.321 Y13.799 E104.75382
G0 F3600 X-24.321 Y13.499
G1 F1800 X-24.737 Y13.499 E104.76536
G0 F3600 X-24.737 Y13.199
G1 F1800 X-24.321 Y13.199 E104.77689
G0 F3600 X-24.321 Y12.899
G1 F1800 X-24.737 Y12.899 E104.78842
G0 F3600 X-24.737 Y12.599
G1 F1800 X-24.321 Y12.599 E104.79995
G0 F3600 X-24.321 Y12.299
G1 F1800 X-24.737 Y12.299 E104.81149
G0 F3600 X-24.737 Y11.999
G1 F1800 X-24.321 Y11.999 E104.82302
G0 F3600 X-24.321 Y11.699
G1 F1800 X-24.737 Y11.699 E104.83455
G0 F3600 X-24.737 Y11.399
G1 F1800 X-24.321 Y11.399 E104.84609
G0 F3600 X-24.321 Y11.099
G1 F1800 X-24.737 Y11.099 E104.85762
G0 F3600 X-24.737 Y10.799
G1 F1800 X-24.321 Y10.799 E104.86915
G0 F3600 X-24.321 Y10.499
G1 F1800 X-24.737 Y10.499 E104.88068
G0 F3600 X-24.737 Y10.199
G1 F1800 X-24.321 Y10.199 E104.89222
G0 F3600 X-24.321 Y9.899
G1 F1800 X-24.737 Y9.899 E104.90375
G0 F3600 X-24.737 Y9.599
G1 F1800 X-24.321 Y9.599 E104.91528
G0 F3600 X-24.321 Y9.299
G1 F1800 X-24.737 Y9.299 E104.92682
G0 F3600 X-24.737 Y8.999
G1 F1800 X-24.321 Y8.999 E104.93835
G0 F3600 X-24.321 Y8.699
G1 F1800 X-24.737 Y8.699 E104.94988
G0 F3600 X-24.737 Y8.399
G1 F1800 X-24.321 Y8.399 E104.96141
G0 F3600 X-24.321 Y8.099
G1 F1800 X-24.737 Y8.099 E104.97295
G0 F3600 X-24.737 Y7.799
G1 F1800 X-24.321 Y7.799 E104.98448
G0 F3600 X-24.321 Y7.499
G1 F1800 X-24.737 Y7.499 E104.99601
G0 F3600 X-24.737 Y7.199
G1 F1800 X-24.321 Y7.199 E105.00755
G0 F3600 X-24.321 Y6.899
G1 F1800 X-24.737 Y6.899 E105.01908
G0 F3600 X-24.737 Y6.599
G1 F1800 X-24.321 Y6.599 E105.03061
G0 F3600 X-24.321 Y6.299
G1 F1800 X-24.737 Y6.299 E105.04214
G0 F3600 X-24.737 Y5.999
G1 F1800 X-24.321 Y5.999 E105.05368
G0 F3600 X-24.321 Y5.699
G1 F1800 X-24.737 Y5.699 E105.06521
G0 F3600 X-24.737 Y5.399
G1 F1800 X-24.321 Y5.399 E105.07674
G0 F3600 X-24.321 Y5.099
G1 F1800 X-24.737 Y5.099 E105.08828
G1 F1500 E98.58828
;MESH:F.stl
G0 F3600 X-22.22 Y2.856
G0 X-20.641 Y2.856
G0 X-15.647 Y-12.12
G0 X-3.399 Y-15.354
G0 X-1.82 Y-15.354
G0 X2.396 Y-26.992
G0 X9.532 Y-27.034
G0 X9.462 Y-26.964
;TYPE:WALL-INNER
G1 F1500 E105.08828
G1 F1800 X2.424 Y-26.964 E105.47851
G1 X2.424 Y-15.34 E106.12302
G1 X-1.834 Y-15.34 E106.35911
