;FLAVOR:Marlin
;TIME:597
;Filament used: 0.980586m
;Layer height: 0.2
;MINX:-18.871
;MINY:-18.854
;MINZ:0.2
;MAXX:18.82
;MAXY:18.95
;MAXZ:3.6
;POSTPROCESSED
;Generated with Cura_SteamEngine 4.8.0
M140 S60
M105
M190 S60
M104 S195
M105
M109 S195
M82 ;absolute extrusion mode
G28 ;Home
G1 Z15.0 F6000 ;Move the platform down 15mm
;Prime the extruder
G92 E0
G1 F200 E3
G92 E0
G92 E0
G92 E0
G1 F1500 E-6.5
;LAYER_COUNT:18
;LAYER:0
M107
G0 F3600 X-4.35 Y-18.852 Z0.2
;TYPE:SKIRT
G1 F1500 E0
G1 F1800 X4.626 Y-18.852 E0.49769
G1 X5.69 Y-18.85 E0.55668
G1 X5.95 Y-18.852 E0.5711
G1 X14.269 Y-18.852 E1.03236
G1 X14.967 Y-18.842 E1.07107
G1 X15.523 Y-18.794 E1.10201
G1 X16.067 Y-18.667 E1.13298
G1 X16.587 Y-18.464 E1.16394
G1 X17.072 Y-18.188 E1.19488
G1 X17.514 Y-17.847 E1.22583
G1 X17.902 Y-17.445 E1.25681
G1 X18.228 Y-16.993 E1.28771
G1 X18.487 Y-16.498 E1.31868
G1 X18.673 Y-15.972 E1.34962
G1 X18.781 Y-15.424 E1.38059
G1 X18.818 Y-14.732 E1.41901
G1 X18.82 Y-14.622 E1.42511
G1 X18.82 Y14.36 E3.03207
G1 X18.811 Y15.087 E3.07238
G1 X18.764 Y15.644 E3.10337
G1 X18.638 Y16.187 E3.13428
G1 X18.436 Y16.708 E3.16526
G1 X18.162 Y17.194 E3.1962
G1 X17.821 Y17.636 E3.22715
G1 X17.42 Y18.025 E3.25813
G1 X16.968 Y18.352 E3.28906
G1 X16.474 Y18.612 E3.32001
G1 X15.948 Y18.799 E3.35097
G1 X15.401 Y18.908 E3.38189
G1 X14.699 Y18.946 E3.42087
G1 X14.591 Y18.948 E3.42686
G1 X5.615 Y18.95 E3.92455
G1 X4.551 Y18.946 E3.98355
G1 X4.298 Y18.948 E3.99758
G1 X-4.678 Y18.948 E4.49526
G1 X-5.742 Y18.946 E4.55426
G1 X-6.002 Y18.948 E4.56868
G1 X-14.32 Y18.948 E5.02988
G1 X-15.018 Y18.938 E5.06859
G1 X-15.574 Y18.89 E5.09953
G1 X-16.118 Y18.763 E5.1305
G1 X-16.638 Y18.56 E5.16146
G1 X-17.123 Y18.284 E5.1924
G1 X-17.565 Y17.943 E5.22335
G1 X-17.953 Y17.541 E5.25433
G1 X-18.279 Y17.089 E5.28523
G1 X-18.538 Y16.594 E5.3162
G1 X-18.724 Y16.068 E5.34714
G1 X-18.832 Y15.52 E5.37811
G1 X-18.87 Y14.812 E5.41742
G1 X-18.871 Y-14.331 E7.0333
G1 X-18.862 Y-14.996 E7.07018
G1 X-18.814 Y-15.552 E7.10112
G1 X-18.688 Y-16.096 E7.13208
G1 X-18.485 Y-16.616 E7.16303
G1 X-18.21 Y-17.102 E7.19399
G1 X-17.869 Y-17.543 E7.2249
G1 X-17.468 Y-17.932 E7.25588
G1 X-17.015 Y-18.259 E7.28686
G1 X-16.521 Y-18.518 E7.31779
G1 X-15.995 Y-18.704 E7.34872
G1 X-15.447 Y-18.813 E7.3797
G1 X-14.75 Y-18.85 E7.4184
G1 X-14.642 Y-18.852 E7.42439
G1 X-5.667 Y-18.854 E7.92202
G1 X-4.603 Y-18.85 E7.98102
G1 X-4.35 Y-18.852 E7.99505
G0 F3600 X-4.346 Y-18.252
G1 F1800 X4.625 Y-18.252 E8.49246
G1 X5.693 Y-18.25 E8.55168
G1 X5.954 Y-18.252 E8.56615
G1 X14.26 Y-18.252 E9.02669
G1 X14.958 Y-18.242 E9.06539
G1 X15.47 Y-18.194 E9.09391
G1 X15.967 Y-18.068 E9.12234
G1 X16.439 Y-17.867 E9.15078
G1 X16.875 Y-17.594 E9.1793
G1 X17.262 Y-17.258 E9.20772
G1 X17.593 Y-16.865 E9.23621
G1 X17.859 Y-16.426 E9.26467
G1 X18.053 Y-15.95 E9.29317
G1 X18.172 Y-15.451 E9.32162
G1 X18.219 Y-14.715 E9.36251
G1 X18.22 Y14.353 E10.97423
G1 X18.211 Y15.08 E11.01454
G1 X18.164 Y15.591 E11.043
G1 X18.039 Y16.089 E11.07146
G1 X17.839 Y16.562 E11.09994
G1 X17.567 Y16.997 E11.12838
G1 X17.231 Y17.386 E11.15689
G1 X16.839 Y17.717 E11.18533
G1 X16.4 Y17.984 E11.21382
G1 X15.926 Y18.179 E11.24224
G1 X15.426 Y18.299 E11.27075
G1 X14.682 Y18.347 E11.31209
G1 X5.617 Y18.35 E11.81471
G1 X4.549 Y18.346 E11.87393
G1 X4.294 Y18.348 E11.88807
G1 X-4.677 Y18.348 E12.38548
G1 X-5.745 Y18.346 E12.4447
G1 X-6.006 Y18.348 E12.45917
G1 X-14.311 Y18.348 E12.91966
G1 X-15.009 Y18.338 E12.95836
G1 X-15.521 Y18.29 E12.98687
G1 X-16.018 Y18.164 E13.0153
G1 X-16.49 Y17.963 E13.04375
G1 X-16.926 Y17.69 E13.07227
G1 X-17.313 Y17.354 E13.10069
G1 X-17.644 Y16.961 E13.12918
G1 X-17.91 Y16.522 E13.15764
G1 X-18.104 Y16.046 E13.18614
G1 X-18.223 Y15.547 E13.21458
G1 X-18.27 Y14.795 E13.25636
G1 X-18.271 Y-14.323 E14.87085
G1 X-18.262 Y-14.988 E14.90773
G1 X-18.215 Y-15.499 E14.93618
G1 X-18.089 Y-15.997 E14.96467
G1 X-17.888 Y-16.469 E14.99311
G1 X-17.616 Y-16.904 E15.02156
G1 X-17.279 Y-17.292 E15.05005
G1 X-16.887 Y-17.623 E15.0785
G1 X-16.448 Y-17.89 E15.10699
G1 X-15.973 Y-18.084 E15.13544
G1 X-15.473 Y-18.203 E15.16394
G1 X-14.733 Y-18.251 E15.20505
G1 X-5.669 Y-18.254 E15.70762
G1 X-4.601 Y-18.25 E15.76684
G1 X-4.346 Y-18.252 E15.78098
G1 F1500 E9.28098
;MESH:I.stl
G0 F3600 X-3.757 Y-15.617
G0 X-3.757 Y-14.038
G0 X3.649 Y14.078
G0 X3.719 Y14.148
;TYPE:WALL-INNER
G1 F1500 E15.78098
G1 F1800 X-3.771 Y14.148 E16.19627
G1 X-3.771 Y-14.052 E17.75987
G1 X3.719 Y-14.052 E18.17516
G1 X3.719 Y14.148 E19.73876
G0 F3600 X4.319 Y14.748
;TYPE:WALL-OUTER
G1 F1800 X-4.371 Y14.748 E20.22059
G1 X-4.371 Y-14.652 E21.85072
G1 X4.319 Y-14.652 E22.33255
G1 X4.319 Y14.748 E23.96268
G0 F3600 X4.119 Y14.748
G0 X3.659 Y14.088
G0 X3.619 Y14.088
G0 X0.119 Y10.548
;TYPE:SKIN
G1 F1800 X-.171 Y10.548 E23.97876
G1 X-.171 Y-10.452 E25.14314
G1 X0.119 Y-10.452 E25.15922
G1 X0.119 Y10.548 E26.3236
G0 F3600 X0.719 Y11.148
G1 F1800 X-.771 Y11.148 E26.40622
G1 X-.771 Y-11.052 E27.63713
G1 X0.719 Y-11.052 E27.71975
G1 X0.719 Y11.148 E28.95066
G0 F3600 X1.319 Y11.748
G1 F1800 X-1.371 Y11.748 E29.09981
G1 X-1.371 Y-11.652 E30.39726
G1 X1.319 Y-11.652 E30.54642
G1 X1.319 Y11.748 E31.84387
G0 F3600 X1.919 Y12.348
G1 F1800 X-1.971 Y12.348 E32.05955
G1 X-1.971 Y-12.252 E33.42354
G1 X1.919 Y-12.252 E33.63923
G1 X1.919 Y12.348 E35.00322
G0 F3600 X2.519 Y12.948
G1 F1800 X-2.571 Y12.948 E35.28544
G1 X-2.571 Y-12.852 E36.71596
G1 X2.519 Y-12.852 E36.99819
G1 X2.519 Y12.948 E38.42871
G0 F3600 X3.119 Y13.548
G1 F1800 X-3.171 Y13.548 E38.77747
G1 X-3.171 Y-13.452 E40.27453
G1 X3.119 Y-13.452 E40.62329
G1 X3.119 Y13.548 E42.12035
G1 F1500 E35.62035
;MESH:I.stl(2)
G0 F3600 X6.549 Y14.078
G0 X13.95 Y14.078
G0 X14.02 Y14.148
;TYPE:WALL-INNER
G1 F1500 E42.12035
G1 F1800 X6.529 Y14.148 E42.5357
G1 X6.529 Y-14.052 E44.09929
G1 X14.02 Y-14.052 E44.51464
G1 X14.02 Y14.148 E46.07824
G0 F3600 X14.62 Y14.748
;TYPE:WALL-OUTER
G1 F1800 X5.929 Y14.748 E46.56012
G1 X5.929 Y-14.652 E48.19026
G1 X14.62 Y-14.652 E48.67214
G1 X14.62 Y14.748 E50.30227
G0 F3600 X14.42 Y14.748
G0 X13.96 Y14.088
G0 X13.92 Y14.088
G0 X10.42 Y10.548
;TYPE:SKIN
G1 F1800 X10.129 Y10.548 E50.31841
G1 X10.129 Y-10.452 E51.48279
G1 X10.42 Y-10.452 E51.49892
G1 X10.42 Y10.548 E52.6633
G0 F3600 X11.02 Y11.148
G1 F1800 X9.529 Y11.148 E52.74597
G1 X9.529 Y-11.052 E53.97689
G1 X11.02 Y-11.052 E54.05956
G1 X11.02 Y11.148 E55.29047
G0 F3600 X11.62 Y11.748
G1 F1800 X8.929 Y11.748 E55.43968
G1 X8.929 Y-11.652 E56.73713
G1 X11.62 Y-11.652 E56.88634
G1 X11.62 Y11.748 E58.18379
G0 F3600 X12.22 Y12.348
G1 F1800 X8.329 Y12.348 E58.39953
G1 X8.329 Y-12.252 E59.76352
G1 X12.22 Y-12.252 E59.97926
G1 X12.22 Y12.348 E61.34325
G0 F3600 X12.82 Y12.948
G1 F1800 X7.729 Y12.948 E61.62553
G1 X7.729 Y-12.852 E63.05605
G1 X12.82 Y-12.852 E63.33833
G1 X12.82 Y12.948 E64.76885
G0 F3600 X13.42 Y13.548
G1 F1800 X7.129 Y13.548 E65.11767
G1 X7.129 Y-13.452 E66.61473
G1 X13.42 Y-13.452 E66.96354
G1 X13.42 Y13.548 E68.4606
G1 F1500 E61.9606
;MESH:I.stl(1)
G0 F3600 X6.549 Y14.078
G0 X6.549 Y15.713
G0 X-6.601 Y15.713
G0 X-6.601 Y14.078
G0 X-6.581 Y14.148
;TYPE:WALL-INNER
G1 F1500 E68.4606
G1 F1800 X-14.071 Y14.148 E68.8759
G1 X-14.071 Y-14.052 E70.43949
G1 X-6.581 Y-14.052 E70.85479
G1 X-6.581 Y14.148 E72.41838
G0 F3600 X-5.981 Y14.748
;TYPE:WALL-OUTER
G1 F1800 X-14.671 Y14.748 E72.90021
G1 X-14.671 Y-14.652 E74.53035
G1 X-5.981 Y-14.652 E75.01218
G1 X-5.981 Y14.748 E76.64231
G0 F3600 X-6.181 Y14.748
G0 X-6.641 Y14.088
G0 X-6.681 Y14.088
G0 X-10.181 Y10.548
;TYPE:SKIN
G1 F1800 X-10.471 Y10.548 E76.65839
G1 X-10.471 Y-10.452 E77.82277
G1 X-10.181 Y-10.452 E77.83885
G1 X-10.181 Y10.548 E79.00323
G0 F3600 X-9.581 Y11.148
G1 F1800 X-11.071 Y11.148 E79.08584
G1 X-11.071 Y-11.052 E80.31676
G1 X-9.581 Y-11.052 E80.39937
G1 X-9.581 Y11.148 E81.63029
G0 F3600 X-8.981 Y11.748
G1 F1800 X-11.671 Y11.748 E81.77944
G1 X-11.671 Y-11.652 E83.07689
G1 X-8.981 Y-11.652 E83.22604
G1 X-8.981 Y11.748 E84.52349
G0 F3600 X-8.381 Y12.348
G1 F1800 X-12.271 Y12.348 E84.73918
G1 X-12.271 Y-12.252 E86.10317
G1 X-8.381 Y-12.252 E86.31885
G1 X-8.381 Y12.348 E87.68284
G0 F3600 X-7.781 Y12.948
G1 F1800 X-12.871 Y12.948 E87.96506
G1 X-12.871 Y-12.852 E89.39559
G1 X-7.781 Y-12.852 E89.67781
G1 X-7.781 Y12.948 E91.10833
G0 F3600 X-7.181 Y13.548
G1 F1800 X-13.471 Y13.548 E91.45709
G1 X-13.471 Y-13.452 E92.95415
G1 X-7.181 Y-13.452 E93.30291
G1 X-7.181 Y13.548 E94.79997
G1 F1500 E88.29997
;MESH:NONMESH
G0 F600 X-7.181 Y13.548 Z0.4
G0 F3600 X-3.751 Y14.078
G0 X3.649 Y14.078
G0 X3.719 Y14.148
;TIME_ELAPSED:63.643227
;LAYER:1
M106 S255
;TYPE:WALL-INNER
;MESH:I.stl
G1 F1500 E94.79997
G1 F2700 X-3.771 Y14.148 E95.21527
G1 X-3.771 Y-14.052 E96.77886
G1 X3.719 Y-14.052 E97.19416
G1 X3.719 Y14.148 E98.75775
G0 F5400 X4.319 Y14.748
;TYPE:WALL-OUTER
G1 F1800 X-4.371 Y14.748 E99.23958
G1 X-4.371 Y-14.652 E100.86971
G1 X4.319 Y-14.652 E101.35155
G1 X4.319 Y14.748 E102.98168
G0 F5400 X4.119 Y14.748
G0 X3.659 Y14.088
G0 X3.619 Y14.088
G0 X0.119 Y10.548
;TYPE:SKIN
G1 F1800 X-.171 Y10.548 E102.99776
G1 X-.171 Y-10.452 E104.16214
G1 X0.119 Y-10.452 E104.17822
G1 X0.119 Y10.548 E105.34259
G0 F5400 X0.719 Y11.148
G1 F1800 X-.771 Y11.148 E105.42521
G1 X-.771 Y-11.052 E106.65613
G1 X0.719 Y-11.052 E106.73874
G1 X0.719 Y11.148 E107.96966
G0 F5400 X1.319 Y11.748
G1 F1800 X-1.371 Y11.748 E108.11881
G1 X-1.371 Y-11.652 E109.41626
G1 X1.319 Y-11.652 E109.56541
G1 X1.319 Y11.748 E110.86286
G0 F5400 X1.919 Y12.348
G1 F1800 X-1.971 Y12.348 E111.07855
G1 X-1.971 Y-12.252 E112.44254
G1 X1.919 Y-12.252 E112.65822
G1 X1.919 Y12.348 E114.02221
G0 F5400 X2.519 Y12.948
G1 F1800 X-2.571 Y12.948 E114.30443
G1 X-2.571 Y-12.852 E115.73496
G1 X2.519 Y-12.852 E116.01718
G1 X2.519 Y12.948 E117.4477
G0 F5400 X3.119 Y13.548
G1 F1800 X-3.171 Y13.548 E117.79646
G1 X-3.171 Y-13.452 E119.29352
G1 X3.119 Y-13.452 E119.64228
G1 X3.119 Y13.548 E121.13934
G1 F1500 E114.63934
;MESH:I.stl(2)
G0 F5400 X6.549 Y14.078
G0 X13.95 Y14.078
G0 X14.02 Y14.148
;TYPE:WALL-INNER
G1 F1500 E121.13934
G1 F2700 X6.529 Y14.148 E121.55469
G1 X6.529 Y-14.052 E123.11829
G1 X14.02 Y-14.052 E123.53364
G1 X14.02 Y14.148 E125.09723
G0 F5400 X14.62 Y14.748
;TYPE:WALL-OUTER
G1 F1800 X5.929 Y14.748 E125.57912
G1 X5.929 Y-14.652 E127.20925
G1 X14.62 Y-14.652 E127.69114
G1 X14.62 Y14.748 E129.32127
G0 F5400 X14.42 Y14.748
G0 X13.96 Y14.088
G0 X13.92 Y14.088
G0 X10.42 Y10.548
;TYPE:SKIN
G1 F1800 X10.129 Y10.548 E129.3374
G1 X10.129 Y-10.452 E130.50178
G1 X10.42 Y-10.452 E130.51792
G1 X10.42 Y10.548 E131.6823
G0 F5400 X11.02 Y11.148
G1 F1800 X9.529 Y11.148 E131.76497
G1 X9.529 Y-11.052 E132.99588
G1 X11.02 Y-11.052 E133.07855
G1 X11.02 Y11.148 E134.30947
G0 F5400 X11.62 Y11.748
G1 F1800 X8.929 Y11.748 E134.45868
G1 X8.929 Y-11.652 E135.75613
G1 X11.62 Y-11.652 E135.90533
G1 X11.62 Y11.748 E137.20278
G0 F5400 X12.22 Y12.348
G1 F1800 X8.329 Y12.348 E137.41853
G1 X8.329 Y-12.252 E138.78252
G1 X12.22 Y-12.252 E138.99826
G1 X12.22 Y12.348 E140.36225
G0 F5400 X12.82 Y12.948
G1 F1800 X7.729 Y12.948 E140.64452
G1 X7.729 Y-12.852 E142.07505
G1 X12.82 Y-12.852 E142.35733
G1 X12.82 Y12.948 E143.78785
G0 F5400 X13.42 Y13.548
G1 F1800 X7.129 Y13.548 E144.13666
G1 X7.129 Y-13.452 E145.63372
G1 X13.42 Y-13.452 E145.98254
G1 X13.42 Y13.548 E147.4796
G1 F1500 E140.9796
;MESH:I.stl(1)
G0 F5400 X6.549 Y14.078
G0 X6.549 Y15.713
G0 X-6.601 Y15.713
G0 X-6.601 Y14.078
G0 X-6.581 Y14.148
;TYPE:WALL-INNER
G1 F1500 E147.4796
G1 F2700 X-14.071 Y14.148 E147.89489
G1 X-14.071 Y-14.052 E149.45849
G1 X-6.581 Y-14.052 E149.87378
G1 X-6.581 Y14.148 E151.43738
G0 F5400 X-5.981 Y14.748
;TYPE:WALL-OUTER
G1 F1800 X-14.671 Y14.748 E151.91921
G1 X-14.671 Y-14.652 E153.54934
G1 X-5.981 Y-14.652 E154.03117
G1 X-5.981 Y14.748 E155.6613
G0 F5400 X-6.181 Y14.748
G0 X-6.641 Y14.088
G0 X-6.681 Y14.088
G0 X-10.181 Y10.548
;TYPE:SKIN
G1 F1800 X-10.471 Y10.548 E155.67738
G1 X-10.471 Y-10.452 E156.84176
G1 X-10.181 Y-10.452 E156.85784
G1 X-10.181 Y10.548 E158.02222
G0 F5400 X-9.581 Y11.148
G1 F1800 X-11.071 Y11.148 E158.10484
G1 X-11.071 Y-11.052 E159.33575
G1 X-9.581 Y-11.052 E159.41837
G1 X-9.581 Y11.148 E160.64928
G0 F5400 X-8.981 Y11.748
G1 F1800 X-11.671 Y11.748 E160.79843
G1 X-11.671 Y-11.652 E162.09588
G1 X-8.981 Y-11.652 E162.24504
G1 X-8.981 Y11.748 E163.54249
G0 F5400 X-8.381 Y12.348
G1 F1800 X-12.271 Y12.348 E163.75817
G1 X-12.271 Y-12.252 E165.12216
G1 X-8.381 Y-12.252 E165.33785
G1 X-8.381 Y12.348 E166.70184
G0 F5400 X-7.781 Y12.948
G1 F1800 X-12.871 Y12.948 E166.98406
G1 X-12.871 Y-12.852 E168.41458
G1 X-7.781 Y-12.852 E168.69681
G1 X-7.781 Y12.948 E170.12733
G0 F5400 X-7.181 Y13.548
G1 F1800 X-13.471 Y13.548 E170.47609
G1 X-13.471 Y-13.452 E171.97315
G1 X-7.181 Y-13.452 E172.32191
G1 X-7.181 Y13.548 E173.81897
G1 F1500 E167.31897
;MESH:NONMESH
G0 F600 X-7.181 Y13.548 Z0.6
G0 F5400 X-3.751 Y14.078
G0 X3.649 Y14.078
G0 X3.719 Y14.148
;TIME_ELAPSED:111.985649
;LAYER:2
;TYPE:WALL-INNER
;MESH:I.stl
G1 F1500 E173.81897
G1 F3600 X-3.771 Y14.148 E174.23426
G1 X-3.771 Y-14.052 E175.79786
G1 X3.719 Y-14.052 E176.21315
G1 X3.719 Y14.148 E177.77675
G0 F7200 X4.319 Y14.748
;TYPE:WALL-OUTER
G1 F1800 X-4.371 Y14.748 E178.25858
G1 X-4.371 Y-14.652 E179.88871
G1 X4.319 Y-14.652 E180.37054
G1 X4.319 Y14.748 E182.00067
G0 F7200 X4.119 Y14.748
G0 X3.659 Y14.088
G0 X3.619 Y14.088
G0 X0.119 Y10.548
;TYPE:SKIN
G1 F1800 X-.171 Y10.548 E182.01675
G1 X-.171 Y-10.452 E183.18113
G1 X0.119 Y-10.452 E183.19721
G1 X0.119 Y10.548 E184.36159
G0 F7200 X0.719 Y11.148
G1 F1800 X-.771 Y11.148 E184.4442
G1 X-.771 Y-11.052 E185.67512
G1 X0.719 Y-11.052 E185.75774
G1 X0.719 Y11.148 E186.98865
G0 F7200 X1.319 Y11.748
G1 F1800 X-1.371 Y11.748 E187.1378
G1 X-1.371 Y-11.652 E188.43525
G1 X1.319 Y-11.652 E188.5844
G1 X1.319 Y11.748 E189.88186
G0 F7200 X1.919 Y12.348
G1 F1800 X-1.971 Y12.348 E190.09754
G1 X-1.971 Y-12.252 E191.46153
G1 X1.919 Y-12.252 E191.67722
G1 X1.919 Y12.348 E193.04121
G0 F7200 X2.519 Y12.948
G1 F1800 X-2.571 Y12.948 E193.32343
G1 X-2.571 Y-12.852 E194.75395
G1 X2.519 Y-12.852 E195.03618
G1 X2.519 Y12.948 E196.4667
G0 F7200 X3.119 Y13.548
G1 F1800 X-3.171 Y13.548 E196.81546
G1 X-3.171 Y-13.452 E198.31252
G1 X3.119 Y-13.452 E198.66128
G1 X3.119 Y13.548 E200.15834
G1 F1500 E193.65834
;MESH:I.stl(2)
G0 F7200 X6.549 Y14.078
G0 X13.95 Y14.078
G0 X14.02 Y14.148
;TYPE:WALL-INNER
G1 F1500 E200.15834
G1 F3600 X6.529 Y14.148 E200.57369
G1 X6.529 Y-14.052 E202.13728
G1 X14.02 Y-14.052 E202.55263
G1 X14.02 Y14.148 E204.11623
G0 F7200 X14.62 Y14.748
;TYPE:WALL-OUTER
G1 F1800 X5.929 Y14.748 E204.59811
G1 X5.929 Y-14.652 E206.22824
G1 X14.62 Y-14.652 E206.71013
G1 X14.62 Y14.748 E208.34026
G0 F7200 X14.42 Y14.748
G0 X13.96 Y14.088
G0 X13.92 Y14.088
G0 X10.42 Y10.548
;TYPE:SKIN
G1 F1800 X10.129 Y10.548 E208.3564
G1 X10.129 Y-10.452 E209.52078
G1 X10.42 Y-10.452 E209.53691
G1 X10.42 Y10.548 E210.70129
G0 F7200 X11.02 Y11.148
G1 F1800 X9.529 Y11.148 E210.78396
G1 X9.529 Y-11.052 E212.01488
G1 X11.02 Y-11.052 E212.09755
G1 X11.02 Y11.148 E213.32846
G0 F7200 X11.62 Y11.748
G1 F1800 X8.929 Y11.748 E213.47767
G1 X8.929 Y-11.652 E214.77512
G1 X11.62 Y-11.652 E214.92433
G1 X11.62 Y11.748 E216.22178
G0 F7200 X12.22 Y12.348
G1 F1800 X8.329 Y12.348 E216.43752
G1 X8.329 Y-12.252 E217.80151
G1 X12.22 Y-12.252 E218.01725
G1 X12.22 Y12.348 E219.38124
G0 F7200 X12.82 Y12.948
G1 F1800 X7.729 Y12.948 E219.66352
G1 X7.729 Y-12.852 E221.09404
G1 X12.82 Y-12.852 E221.37632
G1 X12.82 Y12.948 E222.80684
G0 F7200 X13.42 Y13.548
G1 F1800 X7.129 Y13.548 E223.15566
G1 X7.129 Y-13.452 E224.65272
