;FLAVOR:Marlin
;TIME:784
;Filament used: 1.29547m
;Layer height: 0.2
;MINX:-26.57
;MINY:-18.908
;MINZ:0.2
;MAXX:40.553
;MAXY:25.845
;MAXZ:3.6
;POSTPROCESSED
;Generated with Cura_SteamEngine 4.8.0
M140 S60
M105
M190 S60
M104 S195
M105
M109 S195
M82 ;absolute extrusion mode
G28 ;Home
G1 Z15.0 F6000 ;Move the platform down 15mm
;Prime the extruder
G92 E0
G1 F200 E3
G92 E0
G92 E0
G92 E0
G1 F1500 E-6.5
;LAYER_COUNT:18
;LAYER:0
M107
G0 F3600 X11.232 Y-18.908 Z0.2
;TYPE:SKIRT
G1 F1500 E0
G1 F1800 X11.656 Y-18.902 E0.02351
G1 X13.044 Y-18.892 E0.10047
G1 X21.534 Y-18.892 E0.57122
G1 X22.234 Y-18.882 E0.61003
G1 X22.79 Y-18.834 E0.64098
G1 X23.333 Y-18.707 E0.6719
G1 X23.853 Y-18.504 E0.70285
G1 X24.339 Y-18.229 E0.73381
G1 X24.78 Y-17.887 E0.76475
G1 X25.168 Y-17.485 E0.79573
G1 X25.495 Y-17.033 E0.82666
G1 X25.682 Y-16.693 E0.84818
G1 X26.126 Y-15.783 E0.90432
G1 X26.493 Y-15.002 E0.95217
G1 X27.738 Y-12.534 E1.10543
G1 X29.006 Y-10.188 E1.2533
G1 X30.393 Y-7.79 E1.4069
G1 X31.793 Y-5.521 E1.55473
G1 X33.304 Y-3.216 E1.70754
G1 X34.848 Y-1.003 E1.85716
G1 X36.469 Y1.187 E2.00823
G1 X38.142 Y3.318 E2.15845
G1 X39.365 Y4.789 E2.26452
G1 X39.678 Y5.177 E2.29216
G1 X39.997 Y5.636 E2.32315
G1 X40.247 Y6.135 E2.3541
G1 X40.423 Y6.665 E2.38506
G1 X40.521 Y7.214 E2.41599
G1 X40.551 Y7.831 E2.45024
G1 X40.553 Y7.951 E2.45689
G1 X40.553 Y14.32 E2.81003
G1 X40.544 Y15.047 E2.85034
G1 X40.497 Y15.604 E2.88134
G1 X40.371 Y16.147 E2.91225
G1 X40.169 Y16.668 E2.94323
G1 X39.895 Y17.154 E2.97416
G1 X39.554 Y17.596 E3.00512
G1 X39.153 Y17.985 E3.03609
G1 X38.701 Y18.312 E3.06703
G1 X38.207 Y18.572 E3.09798
G1 X37.681 Y18.759 E3.12893
G1 X37.134 Y18.868 E3.15986
G1 X36.758 Y18.897 E3.18077
G1 X35.324 Y18.939 E3.26031
G1 X34.185 Y18.964 E3.32348
G1 X31.475 Y19.1 E3.47393
G1 X28.771 Y19.313 E3.62432
G1 X26.034 Y19.607 E3.77695
G1 X23.379 Y19.968 E3.92552
G1 X20.704 Y20.409 E4.07584
G1 X18.001 Y20.933 E4.2285
G1 X15.372 Y21.521 E4.37787
G1 X12.729 Y22.19 E4.52904
G1 X10.141 Y22.926 E4.67823
G1 X7.509 Y23.753 E4.8312
G1 X4.937 Y24.644 E4.98212
G1 X2.97 Y25.38 E5.09857
G1 X2.463 Y25.575 E5.12869
G1 X1.929 Y25.738 E5.15964
G1 X1.183 Y25.833 E5.20134
G1 X0.738 Y25.845 E5.22602
G1 X-22.013 Y25.845 E6.48749
G1 X-22.711 Y25.836 E6.5262
G1 X-23.268 Y25.789 E6.55719
G1 X-23.811 Y25.663 E6.5881
G1 X-24.332 Y25.46 E6.6191
G1 X-24.818 Y25.186 E6.65003
G1 X-25.259 Y24.844 E6.68098
G1 X-25.648 Y24.444 E6.71191
G1 X-25.975 Y23.992 E6.74285
G1 X-26.235 Y23.497 E6.77385
G1 X-26.421 Y22.971 E6.80478
G1 X-26.53 Y22.424 E6.83571
G1 X-26.569 Y21.708 E6.87547
G1 X-26.57 Y-7.414 E8.49018
G1 X-26.56 Y-8.106 E8.52856
G1 X-26.512 Y-8.662 E8.5595
G1 X-26.385 Y-9.206 E8.59047
G1 X-26.182 Y-9.726 E8.62143
G1 X-25.906 Y-10.212 E8.65242
G1 X-25.564 Y-10.653 E8.68336
G1 X-25.163 Y-11.041 E8.7143
G1 X-24.554 Y-11.459 E8.75525
G1 X-24.378 Y-11.557 E8.76642
G1 X-21.982 Y-12.943 E8.9199
G1 X-19.688 Y-14.358 E9.06934
G1 X-17.384 Y-15.87 E9.22214
G1 X-15.161 Y-17.421 E9.37244
G1 X-14.125 Y-18.165 E9.44316
G1 X-13.649 Y-18.457 E9.47412
G1 X-13.137 Y-18.679 E9.50506
G1 X-12.687 Y-18.806 E9.53099
G1 X-11.951 Y-18.897 E9.57211
G1 X-11.523 Y-18.908 E9.59585
G1 X11.232 Y-18.908 E10.85754
G0 F3600 X11.224 Y-18.308
G1 F1800 X11.648 Y-18.302 E10.88105
G1 X13.039 Y-18.292 E10.95818
G1 X21.525 Y-18.292 E11.4287
G1 X22.225 Y-18.282 E11.46751
G1 X22.736 Y-18.234 E11.49597
G1 X23.234 Y-18.108 E11.52445
G1 X23.706 Y-17.907 E11.5529
G1 X24.141 Y-17.634 E11.58137
G1 X24.529 Y-17.298 E11.60983
G1 X24.86 Y-16.905 E11.63832
G1 X25.143 Y-16.43 E11.66898
G1 X25.583 Y-15.528 E11.72463
G1 X25.958 Y-14.73 E11.77351
G1 X27.19 Y-12.288 E11.92517
G1 X28.497 Y-9.87 E12.07757
G1 X29.869 Y-7.499 E12.22946
G1 X31.301 Y-5.176 E12.38077
G1 X32.81 Y-2.876 E12.53329
G1 X34.35 Y-.668 E12.68256
G1 X35.99 Y1.548 E12.83541
G1 X37.697 Y3.723 E12.98872
G1 X38.898 Y5.166 E13.09281
G1 X39.211 Y5.554 E13.12045
G1 X39.502 Y5.977 E13.14892
G1 X39.723 Y6.441 E13.17742
G1 X39.869 Y6.933 E13.20587
G1 X39.941 Y7.525 E13.23894
G1 X39.953 Y7.951 E13.26257
G1 X39.953 Y14.313 E13.61532
G1 X39.944 Y15.04 E13.65563
G1 X39.897 Y15.551 E13.68409
G1 X39.772 Y16.049 E13.71256
G1 X39.572 Y16.522 E13.74103
G1 X39.3 Y16.957 E13.76948
G1 X38.964 Y17.346 E13.79798
G1 X38.572 Y17.677 E13.82642
G1 X38.133 Y17.944 E13.85491
G1 X37.659 Y18.139 E13.88333
G1 X37.159 Y18.259 E13.91184
G1 X36.74 Y18.298 E13.93518
G1 X35.311 Y18.339 E14.01444
G1 X34.178 Y18.364 E14.07728
G1 X31.434 Y18.502 E14.22962
G1 X28.695 Y18.717 E14.38195
G1 X25.994 Y19.007 E14.53257
G1 X23.276 Y19.377 E14.68467
G1 X20.597 Y19.819 E14.83522
G1 X17.894 Y20.343 E14.98788
G1 X15.205 Y20.944 E15.14065
G1 X12.588 Y21.607 E15.29034
G1 X9.943 Y22.358 E15.44279
G1 X7.333 Y23.179 E15.5945
G1 X4.745 Y24.076 E15.74637
G1 X2.76 Y24.818 E15.86387
G1 X2.247 Y25.015 E15.89434
G1 X1.755 Y25.162 E15.92281
G1 X1.164 Y25.233 E15.95582
G1 X0.738 Y25.245 E15.97945
G1 X-22.006 Y25.245 E17.24052
G1 X-22.704 Y25.236 E17.27923
G1 X-23.215 Y25.189 E17.30768
G1 X-23.713 Y25.064 E17.33615
G1 X-24.185 Y24.863 E17.3646
G1 X-24.621 Y24.591 E17.39309
G1 X-25.009 Y24.255 E17.42155
G1 X-25.34 Y23.863 E17.45
G1 X-25.607 Y23.424 E17.47849
G1 X-25.802 Y22.949 E17.50696
G1 X-25.921 Y22.45 E17.5354
G1 X-25.969 Y21.692 E17.57751
G1 X-25.97 Y-7.406 E19.1909
G1 X-25.96 Y-8.098 E19.22927
G1 X-25.912 Y-8.609 E19.25773
G1 X-25.786 Y-9.107 E19.28621
G1 X-25.585 Y-9.579 E19.31466
G1 X-25.312 Y-10.014 E19.34313
G1 X-24.975 Y-10.401 E19.37159
G1 X-24.583 Y-10.732 E19.40003
G1 X-24.053 Y-11.052 E19.43436
G1 X-21.69 Y-12.418 E19.5857
G1 X-19.343 Y-13.866 E19.7386
G1 X-17.043 Y-15.376 E19.89116
G1 X-14.802 Y-16.939 E20.04265
G1 X-13.775 Y-17.677 E20.11277
G1 X-13.336 Y-17.944 E20.14126
G1 X-12.861 Y-18.138 E20.16971
G1 X-12.557 Y-18.22 E20.18717
G1 X-11.934 Y-18.298 E20.22198
G1 X-11.523 Y-18.308 E20.24478
G1 X11.224 Y-18.308 E21.50602
G1 F1500 E15.00602
;MESH:L.stl
G0 F3600 X10.971 Y-15.673
G0 X10.971 Y-14.094
G0 X3.585 Y-8.591
G0 X3.515 Y-8.521
;TYPE:WALL-INNER
G1 F1500 E21.50602
G1 F1800 X-10.953 Y-8.521 E22.30822
G1 X-10.953 Y-14.108 E22.61801
G1 X10.985 Y-14.108 E23.83439
G1 X10.985 Y14.092 E25.39799
G1 X3.515 Y14.092 E25.81218
G1 X3.515 Y-8.521 E27.06599
G0 F3600 X2.915 Y-7.921
;TYPE:WALL-OUTER
G1 F1800 X-11.553 Y-7.921 E27.86819
G1 X-11.553 Y-14.708 E28.24451
G1 X11.585 Y-14.708 E29.52743
G1 X11.585 Y14.692 E31.15756
G1 X2.915 Y14.692 E31.63829
G1 X2.915 Y-7.921 E32.8921
G0 F3600 X2.715 Y-7.921
G0 X2.715 Y-8.581
G0 X2.715 Y-8.621
G0 X7.385 Y10.492
;TYPE:SKIN
G1 F1800 X7.115 Y10.492 E32.90707
G1 X7.115 Y-10.508 E34.07145
G1 X7.385 Y-10.508 E34.08642
G1 X7.385 Y10.492 E35.2508
G0 F3600 X7.985 Y11.092
G1 F1800 X6.515 Y11.092 E35.33231
G1 X6.515 Y-11.108 E36.56322
G1 X7.985 Y-11.108 E36.64473
G1 X7.985 Y11.092 E37.87564
G0 F3600 X8.585 Y11.692
G1 F1800 X5.915 Y11.692 E38.02369
G1 X5.915 Y-10.921 E39.2775
G1 X-8.553 Y-10.921 E40.0797
G1 X-8.553 Y-11.708 E40.12334
G1 X8.585 Y-11.708 E41.07358
G1 X8.585 Y11.692 E42.37104
G0 F3600 X9.185 Y12.292
G1 F1800 X5.315 Y12.292 E42.58561
G1 X5.315 Y-10.321 E43.83943
G1 X-9.153 Y-10.321 E44.64163
G1 X-9.153 Y-12.308 E44.7518
G1 X9.185 Y-12.308 E45.76858
G1 X9.185 Y12.292 E47.13257
G0 F3600 X9.785 Y12.892
G1 F1800 X4.715 Y12.892 E47.41368
G1 X4.715 Y-9.721 E48.6675
G1 X-9.753 Y-9.721 E49.4697
G1 X-9.753 Y-12.908 E49.64641
G1 X9.785 Y-12.908 E50.72973
G1 X9.785 Y12.892 E52.16025
G0 F3600 X10.385 Y13.492
G1 F1800 X4.115 Y13.492 E52.5079
G1 X4.115 Y-9.121 E53.76171
G1 X-10.353 Y-9.121 E54.56392
G1 X-10.353 Y-13.508 E54.80716
G1 X10.385 Y-13.508 E55.95701
G1 X10.385 Y13.492 E57.45407
G1 F1500 E50.95407
;MESH:L.stl(1)
G0 F3600 X3.529 Y14.078
G0 X1.95 Y14.078
G0 X1.733 Y15.472
G0 X0.154 Y15.472
G0 X-14.37 Y15.528
G0 X-14.3 Y15.458
;TYPE:WALL-INNER
G1 F1500 E57.45407
G1 F1800 X0.168 Y15.458 E58.25627
G1 X0.168 Y21.045 E58.56605
G1 X-21.77 Y21.045 E59.78244
G1 X-21.77 Y-7.155 E61.34604
G1 X-14.3 Y-7.155 E61.76022
G1 X-14.3 Y15.458 E63.01404
G0 F3600 X-13.7 Y14.858
;TYPE:WALL-OUTER
G1 F1800 X0.768 Y14.858 E63.81624
G1 X0.768 Y21.645 E64.19256
G1 X-22.37 Y21.645 E65.47548
G1 X-22.37 Y-7.755 E67.10561
G1 X-13.7 Y-7.755 E67.58633
G1 X-13.7 Y14.858 E68.84015
G0 F3600 X-13.5 Y14.858
G0 X-13.5 Y15.518
G0 X-13.5 Y15.558
G0 X-17.9 Y17.445
;TYPE:SKIN
G1 F1800 X-18.17 Y17.445 E68.85512
G1 X-18.17 Y-3.555 E70.0195
G1 X-17.9 Y-3.555 E70.03447
G1 X-17.9 Y17.445 E71.19885
G0 F3600 X-17.3 Y18.045
G1 F1800 X-18.77 Y18.045 E71.28036
G1 X-18.77 Y-4.155 E72.51127
G1 X-17.3 Y-4.155 E72.59278
G1 X-17.3 Y18.045 E73.82369
G0 F3600 X-16.7 Y17.858
G1 F1800 X-2.232 Y17.858 E74.62589
G1 X-2.232 Y18.645 E74.66953
G1 X-19.37 Y18.645 E75.61978
G1 X-19.37 Y-4.755 E76.91723
G1 X-16.7 Y-4.755 E77.06527
G1 X-16.7 Y17.858 E78.31908
G0 F3600 X-16.1 Y17.258
G1 F1800 X-1.632 Y17.258 E79.12129
G1 X-1.632 Y19.245 E79.23146
G1 X-19.97 Y19.245 E80.24824
G1 X-19.97 Y-5.355 E81.61223
G1 X-16.1 Y-5.355 E81.8268
G1 X-16.1 Y17.258 E83.08062
G0 F3600 X-15.5 Y16.658
G1 F1800 X-1.032 Y16.658 E83.88282
G1 X-1.032 Y19.845 E84.05953
G1 X-20.57 Y19.845 E85.14285
G1 X-20.57 Y-5.955 E86.57337
G1 X-15.5 Y-5.955 E86.85448
G1 X-15.5 Y16.658 E88.1083
G0 F3600 X-14.9 Y16.058
G1 F1800 X-.432 Y16.058 E88.9105
G1 X-.432 Y20.445 E89.15374
G1 X-21.17 Y20.445 E90.3036
G1 X-21.17 Y-6.555 E91.80066
G1 X-14.9 Y-6.555 E92.14831
G1 X-14.9 Y16.058 E93.40212
G0 F3600 X-17 Y18.3
;TYPE:SKIN
G1 F1800 X-2.546 Y18.3 E93.80283
G1 F1500 E87.30283
;MESH:L.stl(2)
G0 F3600 X0.154 Y15.472
G0 X1.733 Y15.472
G0 X13.829 Y15.673
G0 X13.829 Y14.094
G0 X21.215 Y8.591
G0 X21.285 Y8.521
;TYPE:WALL-INNER
G1 F1500 E93.80283
G1 F1800 X35.753 Y8.521 E94.60504
G1 X35.753 Y14.108 E94.91482
G1 X13.815 Y14.108 E96.1312
G1 X13.815 Y-14.092 E97.6948
G1 X21.285 Y-14.092 E98.10899
G1 X21.285 Y8.521 E99.3628
G0 F3600 X21.885 Y7.921
;TYPE:WALL-OUTER
G1 F1800 X36.353 Y7.921 E100.165
G1 X36.353 Y14.708 E100.54132
G1 X13.215 Y14.708 E101.82424
G1 X13.215 Y-14.692 E103.45437
G1 X21.885 Y-14.692 E103.9351
G1 X21.885 Y7.921 E105.18891
G0 F3600 X22.085 Y7.921
G0 X22.085 Y8.581
G0 X22.085 Y8.621
G0 X17.685 Y10.508
;TYPE:SKIN
G1 F1800 X17.415 Y10.508 E105.20388
G1 X17.415 Y-10.492 E106.36826
G1 X17.685 Y-10.492 E106.38323
G1 X17.685 Y10.508 E107.54761
G0 F3600 X18.285 Y11.108
G1 F1800 X16.815 Y11.108 E107.62912
G1 X16.815 Y-11.092 E108.86003
G1 X18.285 Y-11.092 E108.94154
G1 X18.285 Y11.108 E110.17245
G0 F3600 X18.885 Y10.921
G1 F1800 X33.353 Y10.921 E110.97466
G1 X33.353 Y11.708 E111.01829
G1 X16.215 Y11.708 E111.96854
G1 X16.215 Y-11.692 E113.26599
G1 X18.885 Y-11.692 E113.41403
G1 X18.885 Y10.921 E114.66785
G0 F3600 X19.485 Y10.321
G1 F1800 X33.953 Y10.321 E115.47005
G1 X33.953 Y12.308 E115.58022
G1 X15.615 Y12.308 E116.597
G1 X15.615 Y-12.292 E117.96099
G1 X19.485 Y-12.292 E118.17557
G1 X19.485 Y10.321 E119.42938
G0 F3600 X20.085 Y9.721
G1 F1800 X34.553 Y9.721 E120.23158
G1 X34.553 Y12.908 E120.40829
G1 X15.015 Y12.908 E121.49161
G1 X15.015 Y-12.892 E122.92213
G1 X20.085 Y-12.892 E123.20325
G1 X20.085 Y9.721 E124.45706
G0 F3600 X20.685 Y9.121
G1 F1800 X35.153 Y9.121 E125.25926
G1 X35.153 Y13.508 E125.50251
G1 X14.415 Y13.508 E126.65236
G1 X14.415 Y-13.492 E128.14942
G1 X20.685 Y-13.492 E128.49707
G1 X20.685 Y9.121 E129.75088
G1 F1500 E123.25088
;MESH:NONMESH
G0 F600 X20.685 Y9.121 Z0.4
G0 F3600 X13.835 Y-8.591
G0 X10.965 Y-8.591
G0 X3.585 Y-8.591
G0 X3.515 Y-8.521
;TIME_ELAPSED:85.641497
;LAYER:1
M106 S255
;TYPE:WALL-INNER
;MESH:L.stl
G1 F1500 E129.75088
G1 F2700 X-10.953 Y-8.521 E130.55308
G1 X-10.953 Y-14.108 E130.86287
G1 X10.985 Y-14.108 E132.07925
G1 X10.985 Y14.092 E133.64285
G1 X3.515 Y14.092 E134.05704
G1 X3.515 Y-8.521 E135.31085
G0 F5400 X2.915 Y-7.921
;TYPE:WALL-OUTER
G1 F1800 X-11.553 Y-7.921 E136.11305
G1 X-11.553 Y-14.708 E136.48937
G1 X11.585 Y-14.708 E137.77229
G1 X11.585 Y14.692 E139.40242
G1 X2.915 Y14.692 E139.88315
G1 X2.915 Y-7.921 E141.13696
G0 F5400 X2.715 Y-7.921
G0 X2.715 Y-8.581
G0 X2.715 Y-8.621
G0 X7.385 Y10.492
;TYPE:SKIN
G1 F1800 X7.115 Y10.492 E141.15193
G1 X7.115 Y-10.508 E142.31631
G1 X7.385 Y-10.508 E142.33128
G1 X7.385 Y10.492 E143.49566
G0 F5400 X7.985 Y11.092
G1 F1800 X6.515 Y11.092 E143.57717
G1 X6.515 Y-11.108 E144.80808
G1 X7.985 Y-11.108 E144.88959
G1 X7.985 Y11.092 E146.1205
G0 F5400 X8.585 Y11.692
G1 F1800 X5.915 Y11.692 E146.26855
G1 X5.915 Y-10.921 E147.52236
G1 X-8.553 Y-10.921 E148.32456
G1 X-8.553 Y-11.708 E148.3682
G1 X8.585 Y-11.708 E149.31844
G1 X8.585 Y11.692 E150.6159
G0 F5400 X9.185 Y12.292
G1 F1800 X5.315 Y12.292 E150.83047
G1 X5.315 Y-10.321 E152.08429
G1 X-9.153 Y-10.321 E152.88649
G1 X-9.153 Y-12.308 E152.99666
G1 X9.185 Y-12.308 E154.01344
G1 X9.185 Y12.292 E155.37743
G0 F5400 X9.785 Y12.892
G1 F1800 X4.715 Y12.892 E155.65854
G1 X4.715 Y-9.721 E156.91236
G1 X-9.753 Y-9.721 E157.71456
G1 X-9.753 Y-12.908 E157.89127
G1 X9.785 Y-12.908 E158.97459
G1 X9.785 Y12.892 E160.40511
G0 F5400 X10.385 Y13.492
G1 F1800 X4.115 Y13.492 E160.75276
G1 X4.115 Y-9.121 E162.00657
G1 X-10.353 Y-9.121 E162.80878
G1 X-10.353 Y-13.508 E163.05202
G1 X10.385 Y-13.508 E164.20187
G1 X10.385 Y13.492 E165.69893
G0 F5400 X6 Y-11.236
;TYPE:SKIN
G1 F1800 X6 Y-11.393 E165.70328
G0 F5400 X5.7 Y-11.393
G1 F1800 X5.7 Y-11.236 E165.70764
G0 F5400 X5.4 Y-11.236
G1 F1800 X5.4 Y-11.393 E165.71199
G0 F5400 X5.1 Y-11.393
G1 F1800 X5.1 Y-11.236 E165.71634
G0 F5400 X4.8 Y-11.236
G1 F1800 X4.8 Y-11.393 E165.72069
G0 F5400 X4.5 Y-11.393
G1 F1800 X4.5 Y-11.236 E165.72505
G0 F5400 X4.2 Y-11.236
G1 F1800 X4.2 Y-11.393 E165.7294
G0 F5400 X3.9 Y-11.393
G1 F1800 X3.9 Y-11.236 E165.73375
G0 F5400 X3.6 Y-11.236
G1 F1800 X3.6 Y-11.393 E165.73811
G0 F5400 X3.3 Y-11.393
G1 F1800 X3.3 Y-11.236 E165.74246
G0 F5400 X3 Y-11.236
G1 F1800 X3 Y-11.393 E165.74681
G0 F5400 X2.7 Y-11.393
G1 F1800 X2.7 Y-11.236 E165.75116
G0 F5400 X2.4 Y-11.236
G1 F1800 X2.4 Y-11.393 E165.75552
G0 F5400 X2.1 Y-11.393
G1 F1800 X2.1 Y-11.236 E165.75987
G0 F5400 X1.8 Y-11.236
G1 F1800 X1.8 Y-11.393 E165.76422
G0 F5400 X1.5 Y-11.393
G1 F1800 X1.5 Y-11.236 E165.76857
G0 F5400 X1.2 Y-11.236
G1 F1800 X1.2 Y-11.393 E165.77293
G0 F5400 X0.9 Y-11.393
G1 F1800 X0.9 Y-11.236 E165.77728
G0 F5400 X0.6 Y-11.236
G1 F1800 X0.6 Y-11.393 E165.78163
G0 F5400 X0.3 Y-11.393
G1 F1800 X0.3 Y-11.236 E165.78598
G0 F5400 X0.00 Y-11.236
G1 F1800 X0.00 Y-11.393 E165.79034
G0 F5400 X-.3 Y-11.393
G1 F1800 X-.3 Y-11.236 E165.79469
G0 F5400 X-.6 Y-11.236
G1 F1800 X-.6 Y-11.393 E165.79904
G0 F5400 X-.9 Y-11.393
G1 F1800 X-.9 Y-11.236 E165.80339
G0 F5400 X-1.2 Y-11.236
G1 F1800 X-1.2 Y-11.393 E165.80775
G0 F5400 X-1.5 Y-11.393
G1 F1800 X-1.5 Y-11.236 E165.8121
G0 F5400 X-1.8 Y-11.236
G1 F1800 X-1.8 Y-11.393 E165.81645
G0 F5400 X-2.1 Y-11.393
G1 F1800 X-2.1 Y-11.236 E165.8208
G0 F5400 X-2.4 Y-11.236
G1 F1800 X-2.4 Y-11.393 E165.82516
G0 F5400 X-2.7 Y-11.393
G1 F1800 X-2.7 Y-11.236 E165.82951
G0 F5400 X-3 Y-11.236
G1 F1800 X-3 Y-11.393 E165.83386
G0 F5400 X-3.3 Y-11.393
G1 F1800 X-3.3 Y-11.236 E165.83821
G0 F5400 X-3.6 Y-11.236
G1 F1800 X-3.6 Y-11.393 E165.84257
G0 F5400 X-3.9 Y-11.393
G1 F1800 X-3.9 Y-11.236 E165.84692
G0 F5400 X-4.2 Y-11.236
G1 F1800 X-4.2 Y-11.393 E165.85127
G0 F5400 X-4.5 Y-11.393
G1 F1800 X-4.5 Y-11.236 E165.85562
G0 F5400 X-4.8 Y-11.236
G1 F1800 X-4.8 Y-11.393 E165.85998
G0 F5400 X-5.1 Y-11.393
G1 F1800 X-5.1 Y-11.236 E165.86433
G0 F5400 X-5.4 Y-11.236
G1 F1800 X-5.4 Y-11.393 E165.86868
G0 F5400 X-5.7 Y-11.393
G1 F1800 X-5.7 Y-11.236 E165.87303
G0 F5400 X-6 Y-11.236
G1 F1800 X-6 Y-11.393 E165.87739
G0 F5400 X-6.3 Y-11.393
G1 F1800 X-6.3 Y-11.236 E165.88174
