;FLAVOR:Marlin
;TIME:4977
;Filament used: 4.34528m
;Layer height: 0.2
;MINX:-82.483
;MINY:-82.976
;MINZ:0.2
;MAXX:81.38
;MAXY:91.46
;MAXZ:8.7
;POSTPROCESSED
;Generated with Cura_SteamEngine 4.8.0
M140 S60
M105
M190 S60
M104 S195
M105
M109 S195
M82 ;absolute extrusion mode
G28 ;Home
G1 Z15.0 F6000 ;Move the platform down 15mm
;Prime the extruder
G92 E0
G1 F200 E3
G92 E0
G92 E0
G92 E0
G1 F1500 E-6.5
;LAYER_COUNT:18
;LAYER:0
M107
;MESH:T.stl
G0 F1800 X2.534 Y18.639 Z0.2
;TYPE:WALL-INNER
G1 F1500 E0
G1 F900 X11.988 Y18.639 E0.52419
G1 X11.988 Y24.247 E0.83514
G1 X-14.391 Y24.247 E2.29776
G1 X-14.391 Y18.639 E2.60871
G1 X-4.936 Y18.639 E3.13296
G1 X-4.936 Y-3.953 E4.38561
G1 X2.534 Y-3.953 E4.79979
G1 X2.534 Y18.639 E6.05244
G0 F1800 X3.134 Y18.039
;TYPE:WALL-OUTER
G1 F900 X12.588 Y18.039 E6.57664
G1 X12.588 Y24.847 E6.95412
G1 X-14.991 Y24.847 E8.48328
G1 X-14.991 Y18.039 E8.86076
G1 X-5.536 Y18.039 E9.38501
G1 X-5.536 Y-4.553 E10.63766
G1 X3.134 Y-4.553 E11.11838
G1 X3.134 Y18.039 E12.37103
G0 F1800 X3.334 Y18.039
G0 X3.334 Y18.699
G0 X3.334 Y18.739
G0 X-1.066 Y20.647
;TYPE:SKIN
G1 F900 X-1.336 Y20.647 E12.386
G1 X-1.336 Y-.353 E13.55038
G1 X-1.066 Y-.353 E13.56535
G1 X-1.066 Y20.647 E14.72973
G0 F1800 X-.466 Y21.247
G1 F900 X-1.936 Y21.247 E14.81124
G1 X-1.936 Y-.953 E16.04215
G1 X-.466 Y-.953 E16.12366
G1 X-.466 Y21.247 E17.35457
G0 F1800 X0.134 Y21.039
G1 F900 X9.588 Y21.039 E17.87877
G1 X9.588 Y21.847 E17.92357
G1 X-11.991 Y21.847 E19.12005
G1 X-11.991 Y21.039 E19.16485
G1 X-2.536 Y21.039 E19.6891
G1 X-2.536 Y-1.553 E20.94175
G1 X0.134 Y-1.553 E21.08979
G1 X0.134 Y21.039 E22.34244
G0 F1800 X0.734 Y20.439
G1 F900 X10.188 Y20.439 E22.86664
G1 X10.188 Y22.447 E22.97797
G1 X-12.591 Y22.447 E24.24099
G1 X-12.591 Y20.439 E24.35233
G1 X-3.136 Y20.439 E24.87658
G1 X-3.136 Y-2.153 E26.12923
G1 X0.734 Y-2.153 E26.3438
G1 X0.734 Y20.439 E27.59646
G0 F1800 X1.334 Y19.839
G1 F900 X10.788 Y19.839 E28.12065
G1 X10.788 Y23.047 E28.29852
G1 X-13.191 Y23.047 E29.62808
G1 X-13.191 Y19.839 E29.80595
G1 X-3.736 Y19.839 E30.3302
G1 X-3.736 Y-2.753 E31.58285
G1 X1.334 Y-2.753 E31.86396
G1 X1.334 Y19.839 E33.11661
G0 F1800 X1.934 Y19.239
G1 F900 X11.388 Y19.239 E33.6408
G1 X11.388 Y23.647 E33.88521
G1 X-13.791 Y23.647 E35.2813
G1 X-13.791 Y19.239 E35.52571
G1 X-4.336 Y19.239 E36.04996
G1 X-4.336 Y-3.353 E37.30261
G1 X1.934 Y-3.353 E37.65026
G1 X1.934 Y19.239 E38.90291
G0 F1800 X1.837 Y21.353
;TYPE:SKIN
G1 F900 X2.015 Y21.531 E38.90989
G0 F1800 X2.261 Y21.353
G1 F900 X2.439 Y21.531 E38.91687
G0 F1800 X2.685 Y21.353
G1 F900 X2.863 Y21.531 E38.92385
G0 F1800 X3.109 Y21.353
G1 F900 X3.288 Y21.531 E38.93085
G0 F1800 X3.534 Y21.353
G1 F900 X3.712 Y21.531 E38.93782
G0 F1800 X3.958 Y21.353
G1 F900 X4.136 Y21.531 E38.9448
G0 F1800 X4.382 Y21.353
G1 F900 X4.56 Y21.531 E38.95178
G0 F1800 X4.806 Y21.353
G1 F900 X4.985 Y21.531 E38.95878
G0 F1800 X5.231 Y21.353
G1 F900 X5.409 Y21.531 E38.96576
G0 F1800 X5.655 Y21.353
G1 F900 X5.833 Y21.531 E38.97274
G0 F1800 X6.079 Y21.353
G1 F900 X6.257 Y21.531 E38.97972
G0 F1800 X6.503 Y21.353
G1 F900 X6.682 Y21.531 E38.98672
G0 F1800 X6.928 Y21.353
G1 F900 X7.106 Y21.531 E38.99369
G0 F1800 X7.352 Y21.353
G1 F900 X7.53 Y21.531 E39.00067
G0 F1800 X7.776 Y21.353
G1 F900 X7.954 Y21.531 E39.00765
G0 F1800 X8.201 Y21.353
G1 F900 X8.379 Y21.531 E39.01463
G0 F1800 X8.625 Y21.353
G1 F900 X8.803 Y21.531 E39.02161
G0 F1800 X9.049 Y21.353
G1 F900 X9.227 Y21.531 E39.02859
G0 F1800 X1.59 Y21.531
G1 F900 X1.412 Y21.353 E39.03557
G0 F1800 X1.166 Y21.531
G1 F900 X0.988 Y21.353 E39.04255
G0 F1800 X0.742 Y21.531
G1 F900 X0.564 Y21.353 E39.04952
G0 F1800 X0.318 Y21.531
G1 F900 X0.14 Y21.353 E39.0565
G0 F1800 X-.106 Y21.531
G1 F900 X-.165 Y21.472 E39.05882
G0 F1800 X-2.235 Y21.522
G1 F900 X-2.405 Y21.353 E39.06546
G0 F1800 X-2.651 Y21.531
G1 F900 X-2.829 Y21.353 E39.07244
G0 F1800 X-3.075 Y21.531
G1 F900 X-3.254 Y21.353 E39.07944
G0 F1800 X-3.5 Y21.531
G1 F900 X-3.678 Y21.353 E39.08642
G0 F1800 X-3.924 Y21.531
G1 F900 X-4.102 Y21.353 E39.0934
G0 F1800 X-4.348 Y21.531
G1 F900 X-4.526 Y21.353 E39.10038
G0 F1800 X-4.772 Y21.531
G1 F900 X-4.951 Y21.353 E39.10737
G0 F1800 X-5.197 Y21.531
G1 F900 X-5.375 Y21.353 E39.11435
G0 F1800 X-5.621 Y21.531
G1 F900 X-5.799 Y21.353 E39.12133
G0 F1800 X-6.045 Y21.531
G1 F900 X-6.223 Y21.353 E39.12831
G0 F1800 X-6.47 Y21.531
G1 F900 X-6.648 Y21.353 E39.13529
G0 F1800 X-6.894 Y21.531
G1 F900 X-7.072 Y21.353 E39.14227
G0 F1800 X-7.318 Y21.531
G1 F900 X-7.496 Y21.353 E39.14925
G0 F1800 X-7.742 Y21.531
G1 F900 X-7.921 Y21.353 E39.15625
G0 F1800 X-8.167 Y21.531
G1 F900 X-8.345 Y21.353 E39.16322
G0 F1800 X-8.591 Y21.531
G1 F900 X-8.769 Y21.353 E39.1702
G0 F1800 X-9.015 Y21.531
G1 F900 X-9.193 Y21.353 E39.17718
G0 F1800 X-9.439 Y21.531
G1 F900 X-9.618 Y21.353 E39.18418
G0 F1800 X-9.864 Y21.531
G1 F900 X-10.042 Y21.353 E39.19116
G0 F1800 X-10.288 Y21.531
G1 F900 X-10.466 Y21.353 E39.19814
G0 F1800 X-10.712 Y21.531
G1 F900 X-10.89 Y21.353 E39.20512
G0 F1800 X-11.136 Y21.531
G1 F900 X-11.315 Y21.353 E39.21211
G0 F1800 X-11.561 Y21.531
G1 F900 X-11.675 Y21.416 E39.2166
G1 F1500 E32.7166
;MESH:NONMESH
G0 F600 X-11.675 Y21.416 Z0.4
G0 F1800 X2.464 Y18.709
G0 X2.534 Y18.639
;TIME_ELAPSED:52.210161
;LAYER:1
M106 S255
;TYPE:WALL-INNER
;MESH:T.stl
G1 F1500 E39.2166
G1 F1350 X11.988 Y18.639 E39.7408
G1 X11.988 Y24.247 E40.05174
G1 X-14.391 Y24.247 E41.51437
G1 X-14.391 Y18.639 E41.82531
G1 X-4.936 Y18.639 E42.34956
G1 X-4.936 Y-3.953 E43.60221
G1 X2.534 Y-3.953 E44.0164
G1 X2.534 Y18.639 E45.26905
G0 F2700 X3.134 Y18.039
;TYPE:WALL-OUTER
G1 F900 X12.588 Y18.039 E45.79324
G1 X12.588 Y24.847 E46.17072
G1 X-14.991 Y24.847 E47.69988
G1 X-14.991 Y18.039 E48.07736
G1 X-5.536 Y18.039 E48.60161
G1 X-5.536 Y-4.553 E49.85426
G1 X3.134 Y-4.553 E50.33499
G1 X3.134 Y18.039 E51.58764
G0 F2700 X3.334 Y18.039
G0 X3.334 Y18.699
G0 X3.334 Y18.739
G0 X-1.066 Y20.647
;TYPE:SKIN
G1 F900 X-1.336 Y20.647 E51.60261
G1 X-1.336 Y-.353 E52.76699
G1 X-1.066 Y-.353 E52.78196
G1 X-1.066 Y20.647 E53.94634
G0 F2700 X-.466 Y21.247
G1 F900 X-1.936 Y21.247 E54.02784
G1 X-1.936 Y-.953 E55.25876
G1 X-.466 Y-.953 E55.34026
G1 X-.466 Y21.247 E56.57118
G0 F2700 X0.134 Y21.039
G1 F900 X9.588 Y21.039 E57.09537
G1 X9.588 Y21.847 E57.14017
G1 X-11.991 Y21.847 E58.33666
G1 X-11.991 Y21.039 E58.38146
G1 X-2.536 Y21.039 E58.9057
G1 X-2.536 Y-1.553 E60.15835
G1 X0.134 Y-1.553 E60.3064
G1 X0.134 Y21.039 E61.55905
G0 F2700 X0.734 Y20.439
G1 F900 X10.188 Y20.439 E62.08324
G1 X10.188 Y22.447 E62.19458
G1 X-12.591 Y22.447 E63.4576
G1 X-12.591 Y20.439 E63.56893
G1 X-3.136 Y20.439 E64.09318
G1 X-3.136 Y-2.153 E65.34583
G1 X0.734 Y-2.153 E65.56041
G1 X0.734 Y20.439 E66.81306
G0 F2700 X1.334 Y19.839
G1 F900 X10.788 Y19.839 E67.33725
G1 X10.788 Y23.047 E67.51512
G1 X-13.191 Y23.047 E68.84468
G1 X-13.191 Y19.839 E69.02255
G1 X-3.736 Y19.839 E69.5468
G1 X-3.736 Y-2.753 E70.79945
G1 X1.334 Y-2.753 E71.08057
G1 X1.334 Y19.839 E72.33322
G0 F2700 X1.934 Y19.239
G1 F900 X11.388 Y19.239 E72.85741
G1 X11.388 Y23.647 E73.10182
G1 X-13.791 Y23.647 E74.49791
G1 X-13.791 Y19.239 E74.74232
G1 X-4.336 Y19.239 E75.26656
G1 X-4.336 Y-3.353 E76.51921
G1 X1.934 Y-3.353 E76.86686
G1 X1.934 Y19.239 E78.11952
G0 F2700 X1.981 Y21.353
;TYPE:SKIN
G1 F900 X1.803 Y21.531 E78.12649
G0 F2700 X1.557 Y21.353
G1 F900 X1.378 Y21.531 E78.13349
G0 F2700 X1.132 Y21.353
G1 F900 X0.954 Y21.531 E78.14047
G0 F2700 X0.708 Y21.353
G1 F900 X0.53 Y21.531 E78.14745
G0 F2700 X0.284 Y21.353
G1 F900 X0.106 Y21.531 E78.15443
G0 F2700 X2.227 Y21.531
G1 F900 X2.405 Y21.353 E78.16141
G0 F2700 X2.651 Y21.531
G1 F900 X2.829 Y21.353 E78.16839
G0 F2700 X3.075 Y21.531
G1 F900 X3.254 Y21.353 E78.17538
G0 F2700 X3.5 Y21.531
G1 F900 X3.678 Y21.353 E78.18236
G0 F2700 X3.924 Y21.531
G1 F900 X4.102 Y21.353 E78.18934
G0 F2700 X4.348 Y21.531
G1 F900 X4.526 Y21.353 E78.19632
G0 F2700 X4.772 Y21.531
G1 F900 X4.951 Y21.353 E78.20332
G0 F2700 X5.197 Y21.531
G1 F900 X5.375 Y21.353 E78.2103
G0 F2700 X5.621 Y21.531
G1 F900 X5.799 Y21.353 E78.21728
G0 F2700 X6.045 Y21.531
G1 F900 X6.223 Y21.353 E78.22426
G0 F2700 X6.47 Y21.531
G1 F900 X6.648 Y21.353 E78.23123
G0 F2700 X6.894 Y21.531
G1 F900 X7.072 Y21.353 E78.23821
G0 F2700 X7.318 Y21.531
G1 F900 X7.496 Y21.353 E78.24519
G0 F2700 X7.742 Y21.531
G1 F900 X7.921 Y21.353 E78.25219
G0 F2700 X8.167 Y21.531
G1 F900 X8.345 Y21.353 E78.25917
G0 F2700 X8.591 Y21.531
G1 F900 X8.769 Y21.353 E78.26615
G0 F2700 X9.015 Y21.531
G1 F900 X9.193 Y21.353 E78.27313
G0 F2700 X-2.261 Y21.353
G1 F900 X-2.439 Y21.531 E78.28011
G0 F2700 X-2.685 Y21.353
G1 F900 X-2.863 Y21.531 E78.28708
G0 F2700 X-3.109 Y21.353
G1 F900 X-3.288 Y21.531 E78.29408
G0 F2700 X-3.534 Y21.353
G1 F900 X-3.712 Y21.531 E78.30106
G0 F2700 X-3.958 Y21.353
G1 F900 X-4.136 Y21.531 E78.30804
G0 F2700 X-4.382 Y21.353
G1 F900 X-4.56 Y21.531 E78.31502
G0 F2700 X-4.806 Y21.353
G1 F900 X-4.985 Y21.531 E78.32202
G0 F2700 X-5.231 Y21.353
G1 F900 X-5.409 Y21.531 E78.329
G0 F2700 X-5.655 Y21.353
G1 F900 X-5.833 Y21.531 E78.33598
G0 F2700 X-6.079 Y21.353
G1 F900 X-6.257 Y21.531 E78.34295
G0 F2700 X-6.503 Y21.353
G1 F900 X-6.682 Y21.531 E78.34995
G0 F2700 X-6.928 Y21.353
G1 F900 X-7.106 Y21.531 E78.35693
G0 F2700 X-7.352 Y21.353
G1 F900 X-7.53 Y21.531 E78.36391
G0 F2700 X-7.776 Y21.353
G1 F900 X-7.954 Y21.531 E78.37089
G0 F2700 X-8.201 Y21.353
G1 F900 X-8.379 Y21.531 E78.37787
G0 F2700 X-8.625 Y21.353
G1 F900 X-8.803 Y21.531 E78.38485
G0 F2700 X-9.049 Y21.353
G1 F900 X-9.227 Y21.531 E78.39183
G0 F2700 X-9.473 Y21.353
G1 F900 X-9.652 Y21.531 E78.39882
G0 F2700 X-9.898 Y21.353
G1 F900 X-10.076 Y21.531 E78.4058
G0 F2700 X-10.322 Y21.353
G1 F900 X-10.5 Y21.531 E78.41278
G0 F2700 X-10.746 Y21.353
G1 F900 X-10.924 Y21.531 E78.41976
G0 F2700 X-11.17 Y21.353
G1 F900 X-11.349 Y21.531 E78.42676
G0 F2700 X-11.595 Y21.353
G1 F900 X-11.675 Y21.433 E78.4299
G1 F1500 E71.9299
;MESH:NONMESH
G0 F600 X-11.675 Y21.433 Z0.6
G0 F2700 X2.464 Y18.709
G0 X2.534 Y18.639
;TIME_ELAPSED:99.475621
;LAYER:2
;TYPE:WALL-INNER
;MESH:T.stl
G1 F1500 E78.4299
G1 F1800 X11.988 Y18.639 E78.95409
G1 X11.988 Y24.247 E79.26503
G1 X-14.391 Y24.247 E80.72766
G1 X-14.391 Y18.639 E81.0386
G1 X-4.936 Y18.639 E81.56285
G1 X-4.936 Y-3.953 E82.8155
G1 X2.534 Y-3.953 E83.22969
G1 X2.534 Y18.639 E84.48234
G0 F3600 X3.134 Y18.039
;TYPE:WALL-OUTER
G1 F900 X12.588 Y18.039 E85.00653
G1 X12.588 Y24.847 E85.38401
G1 X-14.991 Y24.847 E86.91317
G1 X-14.991 Y18.039 E87.29066
G1 X-5.536 Y18.039 E87.8149
G1 X-5.536 Y-4.553 E89.06755
G1 X3.134 Y-4.553 E89.54828
G1 X3.134 Y18.039 E90.80093
G0 F3600 X3.334 Y18.039
G0 X3.334 Y18.699
G0 X3.334 Y18.739
G0 X-1.066 Y20.647
;TYPE:SKIN
G1 F900 X-1.336 Y20.647 E90.8159
G1 X-1.336 Y-.353 E91.98028
G1 X-1.066 Y-.353 E91.99525
G1 X-1.066 Y20.647 E93.15963
G0 F3600 X-.466 Y21.247
G1 F900 X-1.936 Y21.247 E93.24113
G1 X-1.936 Y-.953 E94.47205
G1 X-.466 Y-.953 E94.55355
G1 X-.466 Y21.247 E95.78447
G0 F3600 X0.134 Y21.039
G1 F900 X9.588 Y21.039 E96.30866
G1 X9.588 Y21.847 E96.35346
G1 X-11.991 Y21.847 E97.54995
G1 X-11.991 Y21.039 E97.59475
G1 X-2.536 Y21.039 E98.119
G1 X-2.536 Y-1.553 E99.37165
G1 X0.134 Y-1.553 E99.51969
G1 X0.134 Y21.039 E100.77234
G0 F3600 X0.734 Y20.439
G1 F900 X10.188 Y20.439 E101.29653
G1 X10.188 Y22.447 E101.40787
G1 X-12.591 Y22.447 E102.67089
G1 X-12.591 Y20.439 E102.78222
G1 X-3.136 Y20.439 E103.30647
G1 X-3.136 Y-2.153 E104.55912
G1 X0.734 Y-2.153 E104.7737
G1 X0.734 Y20.439 E106.02635
G0 F3600 X1.334 Y19.839
G1 F900 X10.788 Y19.839 E106.55054
G1 X10.788 Y23.047 E106.72842
G1 X-13.191 Y23.047 E108.05797
G1 X-13.191 Y19.839 E108.23584
G1 X-3.736 Y19.839 E108.76009
G1 X-3.736 Y-2.753 E110.01274
G1 X1.334 Y-2.753 E110.29386
G1 X1.334 Y19.839 E111.54651
G0 F3600 X1.934 Y19.239
G1 F900 X11.388 Y19.239 E112.0707
G1 X11.388 Y23.647 E112.31511
G1 X-13.791 Y23.647 E113.7112
G1 X-13.791 Y19.239 E113.95561
G1 X-4.336 Y19.239 E114.47986
G1 X-4.336 Y-3.353 E115.73251
G1 X1.934 Y-3.353 E116.08016
G1 X1.934 Y19.239 E117.33281
G0 F3600 X1.837 Y21.353
;TYPE:SKIN
G1 F900 X2.015 Y21.531 E117.33979
G0 F3600 X2.261 Y21.353
G1 F900 X2.439 Y21.531 E117.34676
G0 F3600 X2.685 Y21.353
G1 F900 X2.863 Y21.531 E117.35374
G0 F3600 X3.109 Y21.353
G1 F900 X3.288 Y21.531 E117.36074
G0 F3600 X3.534 Y21.353
G1 F900 X3.712 Y21.531 E117.36772
G0 F3600 X3.958 Y21.353
G1 F900 X4.136 Y21.531 E117.3747
G0 F3600 X4.382 Y21.353
G1 F900 X4.56 Y21.531 E117.38168
G0 F3600 X4.806 Y21.353
G1 F900 X4.985 Y21.531 E117.38868
G0 F3600 X5.231 Y21.353
G1 F900 X5.409 Y21.531 E117.39565
G0 F3600 X5.655 Y21.353
G1 F900 X5.833 Y21.531 E117.40263
G0 F3600 X6.079 Y21.353
G1 F900 X6.257 Y21.531 E117.40961
G0 F3600 X6.503 Y21.353
G1 F900 X6.682 Y21.531 E117.41661
G0 F3600 X6.928 Y21.353
G1 F900 X7.106 Y21.531 E117.42359
G0 F3600 X7.352 Y21.353
G1 F900 X7.53 Y21.531 E117.43057
G0 F3600 X7.776 Y21.353
G1 F900 X7.954 Y21.531 E117.43755
G0 F3600 X8.201 Y21.353
G1 F900 X8.379 Y21.531 E117.44453
G0 F3600 X8.625 Y21.353
G1 F900 X8.803 Y21.531 E117.4515
G0 F3600 X9.049 Y21.353
G1 F900 X9.227 Y21.531 E117.45848
G0 F3600 X1.59 Y21.531
G1 F900 X1.412 Y21.353 E117.46546
G0 F3600 X1.166 Y21.531
G1 F900 X0.988 Y21.353 E117.47244
G0 F3600 X0.742 Y21.531
G1 F900 X0.564 Y21.353 E117.47942
G0 F3600 X0.318 Y21.531
G1 F900 X0.14 Y21.353 E117.4864
G0 F3600 X-.106 Y21.531
G1 F900 X-.165 Y21.472 E117.48871
G0 F3600 X-2.235 Y21.522
G1 F900 X-2.405 Y21.353 E117.49536
G0 F3600 X-2.651 Y21.531
G1 F900 X-2.829 Y21.353 E117.50234
G0 F3600 X-3.075 Y21.531
G1 F900 X-3.254 Y21.353 E117.50933
G0 F3600 X-3.5 Y21.531
G1 F900 X-3.678 Y21.353 E117.51631
G0 F3600 X-3.924 Y21.531
G1 F900 X-4.102 Y21.353 E117.52329
G0 F3600 X-4.348 Y21.531
G1 F900 X-4.526 Y21.353 E117.53027
G0 F3600 X-4.772 Y21.531
G1 F900 X-4.951 Y21.353 E117.53727
G0 F3600 X-5.197 Y21.531
G1 F900 X-5.375 Y21.353 E117.54425
G0 F3600 X-5.621 Y21.531
G1 F900 X-5.799 Y21.353 E117.55123
G0 F3600 X-6.045 Y21.531
G1 F900 X-6.223 Y21.353 E117.55821
G0 F3600 X-6.47 Y21.531
G1 F900 X-6.648 Y21.353 E117.56518
G0 F3600 X-6.894 Y21.531
G1 F900 X-7.072 Y21.353 E117.57216
G0 F3600 X-7.318 Y21.531
G1 F900 X-7.496 Y21.353 E117.57914
G0 F3600 X-7.742 Y21.531
G1 F900 X-7.921 Y21.353 E117.58614
G0 F3600 X-8.167 Y21.531
G1 F900 X-8.345 Y21.353 E117.59312
G0 F3600 X-8.591 Y21.531
G1 F900 X-8.769 Y21.353 E117.6001
G0 F3600 X-9.015 Y21.531
G1 F900 X-9.193 Y21.353 E117.60708
G0 F3600 X-9.439 Y21.531
G1 F900 X-9.618 Y21.353 E117.61408
G0 F3600 X-9.864 Y21.531
G1 F900 X-10.042 Y21.353 E117.62105
G0 F3600 X-10.288 Y21.531
G1 F900 X-10.466 Y21.353 E117.62803
G0 F3600 X-10.712 Y21.531
G1 F900 X-10.89 Y21.353 E117.63501
G0 F3600 X-11.136 Y21.531
G1 F900 X-11.315 Y21.353 E117.64201
G0 F3600 X-11.561 Y21.531
G1 F900 X-11.675 Y21.416 E117.6465
G1 F1500 E111.1465
;MESH:NONMESH
G0 F600 X-11.675 Y21.416 Z0.8
G0 F3600 X-4.908 Y18.667
G0 X-1.988 Y5.803
;TIME_ELAPSED:145.448271
;LAYER:3
;TYPE:WALL-INNER
;MESH:T.stl
G1 F1500 E117.6465
G1 F1800 X-1.185 Y5.696 E117.69142
G1 X-.435 Y5.387 E117.73639
G1 X0.21 Y4.893 E117.78144
G1 X0.703 Y4.248 E117.82645
G1 X1.013 Y3.5 E117.87135
G1 X1.12 Y2.695 E117.91638
G1 X1.013 Y1.891 E117.96135
G1 X0.703 Y1.142 E118.00629
G1 X0.21 Y0.498 E118.05126
G1 X-.435 Y0.004 E118.09631
G1 X-1.184 Y-.306 E118.14126
G1 X-1.988 Y-.413 E118.18623
G1 X-2.792 Y-.306 E118.2312
G1 X-3.541 Y0.004 E118.27615
G1 X-4.186 Y0.498 E118.32119
G1 X-4.373 Y0.742 E118.33824
G1 X-4.679 Y1.142 E118.36616
G1 X-4.936 Y1.763 E118.40343
G1 X-4.936 Y1.142 E118.41025
G1 X-4.936 Y0.638 E118.43064
G1 X-4.936 Y-3.953 E118.6852
G1 X2.534 Y-3.953 E119.09938
