;FLAVOR:Marlin
;TIME:10563
;Filament used: 9.34277m
;Layer height: 0.2
;MINX:-86.962
;MINY:-85.496
;MINZ:0.2
;MAXX:88.573
;MAXY:80.113
;MAXZ:3.6
;POSTPROCESSED
;Generated with Cura_SteamEngine 4.13.1
M82 ;absolute extrusion mode
START_PRINT BED_TEMP=80 EXTRUDER_TEMP=220.0
G92 E1877.07949
G92 E1877.07949

G0 Z3 F3600
G0 X-5.876 Y-.253 Z2.8 F3600

;LAYER:13
;TYPE:WALL-INNER
;MESH:01 alef.3mf
G1 F1800 E1880.07949
G1 F3600 X-6.48 Y-0.02 E1880.10102
G1 X-6.748 Y0.283 E1880.11448
G1 X-7.031 Y1.056 E1880.14185
G1 X-7.205 Y1.577 E1880.16012
G1 X-7.39 Y2.239 E1880.18299
G1 X-7.528 Y2.984 E1880.20819
G1 X-7.617 Y3.959 E1880.24075
G1 X-7.644 Y4.478 E1880.25803
G1 X-7.601 Y5.072 E1880.27784
G1 X-7.542 Y5.707 E1880.29905
G1 X-7.462 Y6.285 E1880.31846
G1 X-7.294 Y7.066 E1880.34503
G1 X-7.107 Y7.693 E1880.36679
G1 X-6.845 Y8.428 E1880.39275
G1 X-6.637 Y8.976 E1880.41224
G1 X-6.343 Y9.623 E1880.43588
G1 X-6.345 Y9.785 E1880.44127
G1 X-6.416 Y9.96 E1880.44755
G1 X-6.644 Y10.284 E1880.46073
G1 X-7.512 Y11.338 E1880.50614
G1 X-8.397 Y12.393 E1880.55194
G1 X-9.524 Y13.708 E1880.60954
G1 X-10.202 Y14.495 E1880.64409
G1 X-10.399 Y14.706 E1880.65369
G1 X-10.611 Y14.425 E1880.66076
G1 X-10.924 Y13.857 E1880.68233
G1 X-11.31 Y12.969 E1880.71453
G1 X-11.512 Y12.318 E1880.7372
G1 X-11.716 Y11.535 E1880.76411
G1 X-11.857 Y10.902 E1880.78568
G1 X-11.954 Y10.307 E1880.80574
G1 X-12.003 Y9.816 E1880.82215
G1 X-12.046 Y9.088 E1880.8464
G1 X-12.019 Y8.351 E1880.87093
G1 X-11.972 Y7.736 E1880.89145
G1 X-11.885 Y7.167 E1880.91059
G1 X-11.723 Y6.417 E1880.93611
G1 X-11.662 Y6.162 E1880.94483
G1 X-11.43 Y5.426 E1880.9705
G1 X-11.234 Y4.876 E1880.98992
G1 X-10.98 Y4.28 E1881.01147
G1 X-10.687 Y3.659 E1881.03431
G1 X-10.305 Y2.947 E1881.06118
G1 X-9.907 Y2.226 E1881.08857
G1 X-9.388 Y1.329 E1881.12304
G1 X-9.044 Y0.747 E1881.14553
G1 X-8.558 Y-0.047 E1881.17649
G1 X-8.279 Y-.529 E1881.19501
G1 X-7.897 Y-1.209 E1881.22095
G1 X-7.69 Y-1.688 E1881.23831
G1 X-7.69 Y-2.112 E1881.25241
G1 X-7.934 Y-2.55 E1881.26909
G1 X-8.057 Y-2.719 E1881.27604
G1 X-9.005 Y-3.718 E1881.32185
G1 X-9.702 Y-4.469 E1881.35592
G1 X-10.496 Y-5.356 E1881.39552
G1 X-12.038 Y-7.101 E1881.47297
G1 X-12.873 Y-8.066 E1881.51541
G1 X-13.24 Y-8.501 E1881.53434
G1 X-13.69 Y-9.047 E1881.55788
G1 X-14.308 Y-9.806 E1881.59043
G1 X-14.29 Y-10.083 E1881.59966
G1 X-13.665 Y-11.335 E1881.64621
G1 X-13.108 Y-12.426 E1881.68695
G1 X-12.538 Y-13.511 E1881.72771
G1 X-11.947 Y-14.611 E1881.76924
G1 X-11.923 Y-14.644 E1881.7706
G1 X-10.631 Y-13.132 E1881.83675
G1 X-9.584 Y-11.932 E1881.88972
G1 X-8.828 Y-11.085 E1881.92748
G1 X-8.369 Y-10.577 E1881.95025
G1 X-7.139 Y-9.235 E1882.0108
G1 X-5.444 Y-7.469 E1882.09221
G1 X-4.683 Y-6.688 E1882.12848
G1 X-4.109 Y-6.105 E1882.15569
G1 X-3.146 Y-5.145 E1882.20092
G1 X-2.565 Y-4.572 E1882.22806
G1 X0.487 Y-1.584 E1882.37012
G1 X1.247 Y-.854 E1882.40517
G1 X2.019 Y-.133 E1882.4403
G1 X2.509 Y0.312 E1882.46232
G1 X3.003 Y0.749 E1882.48425
G1 X3.598 Y1.27 E1882.51056
G1 X4.596 Y2.125 E1882.55427
G1 X5.23 Y2.661 E1882.58188
G1 X5.789 Y3 E1882.60362
G1 X6.153 Y3.151 E1882.61673
G1 X6.768 Y2.896 E1882.63888
G1 X7.051 Y2.625 E1882.65191
G1 X7.27 Y2.258 E1882.66612
G1 X7.498 Y1.736 E1882.68507
G1 X7.788 Y1.026 E1882.71058
G1 X8.067 Y0.188 E1882.73995
G1 X8.185 Y-.238 E1882.75466
G1 X8.397 Y-1.073 E1882.78331
G1 X8.593 Y-1.944 E1882.813
G1 X8.757 Y-2.833 E1882.84307
G1 X8.859 Y-3.734 E1882.87323
G1 X8.899 Y-4.301 E1882.89213
G1 X8.907 Y-5.04 E1882.91671
G1 X8.857 Y-5.637 E1882.93664
G1 X8.718 Y-6.277 E1882.95842
G1 X8.482 Y-6.9 E1882.98058
G1 X8.363 Y-7.177 E1882.99061
G1 X7.922 Y-7.738 E1883.01434
G1 X7.584 Y-8.016 E1883.0289
G1 X7.042 Y-8.23 E1883.04828
G1 X6.507 Y-8.319 E1883.06632
G1 X4.461 Y-8.319 E1883.13437
G1 X4.423 Y-8.327 E1883.13566
G1 X4.529 Y-8.696 E1883.14506
G1 X4.737 Y-9.279 E1883.16565
G1 X4.984 Y-9.848 E1883.18628
G1 X5.268 Y-10.443 E1883.20821
G1 X5.644 Y-11.253 E1883.23791
G1 X5.954 Y-11.881 E1883.2612
G1 X6.319 Y-12.544 E1883.28637
G1 X6.696 Y-13.176 E1883.31085
G1 X6.96 Y-13.439 E1883.32324
G1 X7.376 Y-13.543 E1883.33751
G1 X13.486 Y-13.543 E1883.54073
G1 X13.346 Y-13.21 E1883.55274
G1 X12.982 Y-12.316 E1883.58484
G1 X12.753 Y-11.68 E1883.60733
G1 X12.543 Y-10.971 E1883.63192
G1 X12.474 Y-10.425 E1883.65023
G1 X12.495 Y-9.717 E1883.67378
G1 X12.503 Y-9.572 E1883.67861
G1 X12.524 Y-8.923 E1883.70021
G1 X12.53 Y-8.278 E1883.72167
G1 X12.51 Y-7.262 E1883.75546
G1 X12.476 Y-6.481 E1883.78146
G1 X12.401 Y-5.592 E1883.81114
G1 X12.304 Y-4.702 E1883.84092
G1 X12.214 Y-4.222 E1883.85716
G1 X12.114 Y-3.725 E1883.87402
G1 X11.985 Y-3.161 E1883.89326
G1 X11.731 Y-2.279 E1883.92379
G1 X11.564 Y-1.797 E1883.94076
G1 X11.386 Y-1.309 E1883.95803
G1 X11.214 Y-.854 E1883.97421
G1 X10.939 Y-.247 E1883.99638
G1 X10.618 Y0.434 E1884.02142
G1 X10.323 Y1.017 E1884.04315
G1 X10.041 Y1.53 E1884.06262
G1 X9.664 Y2.146 E1884.08664
G1 X9.344 Y2.631 E1884.10597
G1 X8.862 Y3.326 E1884.1341
G1 X8.542 Y3.78 E1884.15257
G1 X8.322 Y4.246 E1884.16971
G1 X8.247 Y4.563 E1884.18054
G1 X8.403 Y5.056 E1884.19774
G1 X8.743 Y5.478 E1884.21577
G1 X9.603 Y6.239 E1884.25396
G1 X10.392 Y6.923 E1884.28869
G1 X11.382 Y7.763 E1884.33188
G1 X12.604 Y8.789 E1884.38495
G1 X13.1 Y9.209 E1884.40656
G1 X13.959 Y9.949 E1884.44427
G1 X14.313 Y10.319 E1884.4613
G1 X14.211 Y10.561 E1884.47004
G1 X13.585 Y11.589 E1884.51007
G1 X12.932 Y12.623 E1884.55075
G1 X12.254 Y13.658 E1884.5919
G1 X11.595 Y14.646 E1884.6314
G1 X11.434 Y14.793 E1884.63865
G1 X11.27 Y14.697 E1884.64497
G1 X9.502 Y13.287 E1884.72019
G1 X8.451 Y12.443 E1884.76502
G1 X6.88 Y11.164 E1884.8324
G1 X6.191 Y10.595 E1884.86212
G1 X5.5 Y10.019 E1884.89204
G1 X4.302 Y9 E1884.94435
G1 X2.944 Y7.824 E1885.0041
G1 X1.256 Y6.34 E1885.07885
G1 X0.247 Y5.448 E1885.12364
G1 X-.89 Y4.379 E1885.17555
G1 X-1.397 Y3.896 E1885.19884
G1 X-1.898 Y3.413 E1885.22199
G1 X-2.762 Y2.556 E1885.26246
G1 X-4.137 Y1.17 E1885.3274
G1 X-4.776 Y0.547 E1885.35708
G1 X-5.298 Y0.063 E1885.38076
G1 X-5.876 Y-.253 E1885.40267
G0 F7200 X-5.905 Y0.187
;TYPE:WALL-OUTER
G1 F3600 X-6.245 Y0.318 E1885.41479
G1 X-6.398 Y0.491 E1885.42247
G1 X-6.653 Y1.188 E1885.44715
G1 X-6.822 Y1.694 E1885.4649
G1 X-7 Y2.329 E1885.48683
G1 X-7.131 Y3.039 E1885.51084
G1 X-7.218 Y3.988 E1885.54254
G1 X-7.243 Y4.474 E1885.55873
G1 X-7.202 Y5.039 E1885.57757
G1 X-7.145 Y5.661 E1885.59834
G1 X-7.068 Y6.215 E1885.61694
G1 X-6.906 Y6.967 E1885.64253
G1 X-6.727 Y7.569 E1885.66342
G1 X-6.47 Y8.29 E1885.68888
G1 X-6.27 Y8.815 E1885.70756
G1 X-6.045 Y9.267 E1885.72436
G1 X-5.942 Y9.556 E1885.73456
G1 X-5.946 Y9.867 E1885.74491
G1 X-6.061 Y10.15 E1885.75507
G1 X-6.327 Y10.529 E1885.77047
G1 X-7.203 Y11.592 E1885.81628
G1 X-8.093 Y12.653 E1885.86234
G1 X-9.221 Y13.969 E1885.91999
G1 X-9.902 Y14.759 E1885.95468
G1 X-10.219 Y15.098 E1885.97012
G1 X-10.435 Y15.197 E1885.97802
G1 X-10.596 Y15.109 E1885.98412
G1 X-10.947 Y14.644 E1886.0035
G1 X-11.281 Y14.038 E1886.02651
G1 X-11.504 Y13.575 E1886.04361
G1 X-11.689 Y13.097 E1886.06065
G1 X-11.894 Y12.437 E1886.08364
G1 X-12.103 Y11.636 E1886.11117
G1 X-12.25 Y10.977 E1886.13363
G1 X-12.349 Y10.372 E1886.15402
G1 X-12.401 Y9.856 E1886.17127
G1 X-12.447 Y9.087 E1886.19689
G1 X-12.418 Y8.32 E1886.22242
G1 X-12.37 Y7.697 E1886.2432
G1 X-12.276 Y7.083 E1886.26386
G1 X-12.112 Y6.324 E1886.28969
G1 X-12.046 Y6.049 E1886.2991
G1 X-11.812 Y5.306 E1886.32501
G1 X-11.611 Y4.742 E1886.34492
G1 X-11.342 Y4.109 E1886.3678
G1 X-11.049 Y3.488 E1886.39063
G1 X-10.655 Y2.754 E1886.41834
G1 X-10.253 Y2.026 E1886.446
G1 X-9.732 Y1.125 E1886.48062
G1 X-9.385 Y0.538 E1886.5033
G1 X-8.902 Y-.252 E1886.5341
G1 X-8.626 Y-.727 E1886.55237
G1 X-8.256 Y-1.387 E1886.57753
G1 X-8.09 Y-1.771 E1886.59145
G1 X-8.09 Y-2.008 E1886.59933
G1 X-8.271 Y-2.334 E1886.61173
G1 X-8.365 Y-2.462 E1886.61701
G1 X-9.295 Y-3.443 E1886.66197
G1 X-10 Y-4.202 E1886.69643
G1 X-10.794 Y-5.089 E1886.73602
G1 X-12.338 Y-6.836 E1886.81357
G1 X-13.179 Y-7.808 E1886.85632
G1 X-13.546 Y-8.243 E1886.87525
G1 X-13.999 Y-8.793 E1886.89895
G1 X-14.664 Y-9.609 E1886.93396
G1 X-14.741 Y-9.835 E1886.9419
G1 X-14.674 Y-10.202 E1886.95431
G1 X-14.633 Y-10.295 E1886.95769
G1 X-14.021 Y-11.517 E1887.00315
G1 X-13.462 Y-12.612 E1887.04404
G1 X-12.89 Y-13.7 E1887.08492
G1 X-12.286 Y-14.824 E1887.12736
G1 X-12.094 Y-15.09 E1887.13827
G1 X-11.915 Y-15.161 E1887.14468
G1 X-11.643 Y-14.932 E1887.1565
G1 X-10.328 Y-13.393 E1887.22383
G1 X-9.733 Y-12.709 E1887.25398
G1 X-9.284 Y-12.197 E1887.27663
G1 X-8.53 Y-11.352 E1887.3143
G1 X-8.073 Y-10.846 E1887.33698
G1 X-6.847 Y-9.509 E1887.39731
G1 X-5.156 Y-7.747 E1887.47854
G1 X-4.397 Y-6.968 E1887.51471
G1 X-3.825 Y-6.387 E1887.54183
G1 X-2.864 Y-5.429 E1887.58696
G1 X-2.285 Y-4.857 E1887.61403
G1 X-.546 Y-3.156 E1887.69494
G1 X0.765 Y-1.871 E1887.756
G1 X1.522 Y-1.144 E1887.79091
G1 X2.29 Y-.427 E1887.82585
G1 X2.776 Y0.014 E1887.84768
G1 X3.267 Y0.449 E1887.8695
G1 X3.86 Y0.968 E1887.89571
G1 X4.855 Y1.82 E1887.93928
G1 X5.464 Y2.335 E1887.9658
G1 X5.971 Y2.642 E1887.98552
G1 X6.153 Y2.718 E1887.99208
G1 X6.545 Y2.555 E1888.0062
G1 X6.735 Y2.373 E1888.01495
G1 X6.914 Y2.074 E1888.02654
G1 X7.13 Y1.58 E1888.04447
G1 X7.413 Y0.887 E1888.06937
G1 X7.684 Y0.072 E1888.09793
G1 X7.798 Y-.341 E1888.11218
G1 X8.008 Y-1.166 E1888.1405
G1 X8.201 Y-2.024 E1888.16975
G1 X8.361 Y-2.892 E1888.19911
G1 X8.461 Y-3.771 E1888.22853
G1 X8.499 Y-4.317 E1888.24673
G1 X8.507 Y-5.026 E1888.27032
G1 X8.461 Y-5.577 E1888.28871
G1 X8.333 Y-6.163 E1888.30866
G1 X8.111 Y-6.75 E1888.32953
G1 X8.016 Y-6.971 E1888.33753
G1 X7.634 Y-7.457 E1888.35809
G1 X7.379 Y-7.667 E1888.36908
G1 X6.935 Y-7.842 E1888.38495
G1 X6.474 Y-7.919 E1888.4005
G1 X4.42 Y-7.919 E1888.46881
G1 X4.097 Y-7.985 E1888.47978
G1 X4.004 Y-8.18 E1888.48696
G1 X3.988 Y-8.259 E1888.48964
G1 X4.152 Y-8.83 E1888.5094
G1 X4.366 Y-9.43 E1888.53059
G1 X4.623 Y-10.021 E1888.55203
G1 X4.906 Y-10.613 E1888.57385
G1 X5.285 Y-11.43 E1888.6038
G1 X5.595 Y-12.058 E1888.6271
G1 X5.975 Y-12.749 E1888.65333
G1 X6.377 Y-13.424 E1888.67946
G1 X6.736 Y-13.781 E1888.6963
G1 X7.041 Y-13.898 E1888.70716
G1 X7.344 Y-13.943 E1888.71735
G1 X13.695 Y-13.943 E1888.92859
G1 X13.923 Y-13.904 E1888.93628
G1 X13.964 Y-13.8 E1888.94
G1 X13.841 Y-13.32 E1888.95648
G1 X13.712 Y-13.049 E1888.96646
G1 X13.356 Y-12.173 E1888.99791
G1 X13.133 Y-11.555 E1889.01976
G1 X12.936 Y-10.889 E1889.04286
G1 X12.875 Y-10.406 E1889.05905
G1 X12.895 Y-9.734 E1889.08142
G1 X12.903 Y-9.585 E1889.08638
G1 X12.924 Y-8.927 E1889.10827
G1 X12.93 Y-8.27 E1889.13013
G1 X12.91 Y-7.244 E1889.16426
G1 X12.875 Y-6.447 E1889.19079
G1 X12.799 Y-5.548 E1889.2208
G1 X12.701 Y-4.653 E1889.25075
G1 X12.606 Y-4.143 E1889.268
G1 X12.504 Y-3.636 E1889.2852
G1 X12.375 Y-3.071 E1889.30448
G1 X12.242 Y-2.577 E1889.32149
G1 X12.109 Y-2.148 E1889.33643
G1 X11.94 Y-1.659 E1889.35364
G1 X11.761 Y-1.171 E1889.37093
G1 X11.581 Y-.695 E1889.38785
G1 X11.301 Y-0.077 E1889.41042
G1 X10.975 Y0.615 E1889.43586
G1 X10.674 Y1.21 E1889.45804
G1 X10.392 Y1.723 E1889.47751
G1 X9.998 Y2.366 E1889.50259
G1 X9.673 Y2.859 E1889.52223
G1 X9.189 Y3.557 E1889.55048
G1 X8.889 Y3.982 E1889.56778
G1 X8.702 Y4.379 E1889.58238
G1 X8.662 Y4.548 E1889.58816
G1 X8.762 Y4.864 E1889.59918
G1 X9.033 Y5.201 E1889.61356
G1 X9.866 Y5.938 E1889.65056
G1 X10.652 Y6.619 E1889.68515
G1 X11.64 Y7.457 E1889.72824
G1 X12.863 Y8.484 E1889.78135
G1 X13.361 Y8.906 E1889.80306
G1 X14.229 Y9.654 E1889.84117
G1 X14.611 Y10.043 E1889.85931
G1 X14.73 Y10.229 E1889.86665
G1 X14.698 Y10.45 E1889.87408
G1 X14.566 Y10.747 E1889.88489
G1 X13.926 Y11.797 E1889.92579
G1 X13.267 Y12.842 E1889.96688
G1 X12.587 Y13.88 E1890.00815
G1 X11.906 Y14.902 E1890.049
G1 X11.666 Y15.14 E1890.06024
G1 X11.392 Y15.226 E1890.06979
G1 X11.069 Y15.051 E1890.08201
G1 X11.016 Y15.006 E1890.08432
G1 X9.253 Y13.6 E1890.15932
G1 X8.198 Y12.753 E1890.20432
G1 X6.627 Y11.474 E1890.2717
G1 X5.934 Y10.902 E1890.30159
G1 X5.244 Y10.325 E1890.3315
G1 X4.556 Y9.743 E1890.36148
G1 X4.042 Y9.304 E1890.38396
G1 X2.682 Y8.126 E1890.4438
G1 X0.991 Y6.64 E1890.51868
G1 X-0.018 Y5.748 E1890.56347
G1 X-1.166 Y4.669 E1890.61587
G1 X-1.673 Y4.186 E1890.63916
G1 X-2.176 Y3.701 E1890.6624
G1 X-3.044 Y2.84 E1890.70306
G1 X-4.419 Y1.454 E1890.768
G1 X-5.052 Y0.837 E1890.7974
G1 X-5.534 Y0.39 E1890.81926
G1 X-5.905 Y0.187 E1890.83333
G0 F7200 X-6.091 Y0.258
G0 X-6.048 Y-.357
;TYPE:FILL
G1 F3600 X-7.529 Y-1.838 E1890.90299
G1 X-7.599 Y-1.908
G0 F7200 X-8.193 Y-3.095
G1 F3600 X-4.756 Y-6.532 E1891.06466
G1 X-4.686 Y-6.602
G0 F7200 X-1.916 Y-3.715
G1 F3600 X-5.436 Y-.195 E1891.23023
G1 X-5.506 Y-.125
G0 F7200 X-6.383 Y0.117
G0 X-7.433 Y1.801
G1 F3600 X-11.355 Y5.724 E1891.41473
G1 X-11.337 Y5.666
G1 X-10.49 Y6.513 E1891.45457
G1 X-10.42 Y6.583
G0 F7200 X-7.744 Y3.603
G1 F3600 X-9.502 Y1.845 E1891.53726
G1 X-9.572 Y1.775
G0 F7200 X-6.383 Y0.117
G0 X-5.487 Y0.144
G0 X-2.532 Y2.557
G1 F3600 X0.946 Y-.921 E1891.70086
G1 X1.016 Y-.991
G0 F7200 X3.923 Y1.758
G1 F3600 X0.353 Y5.328 E1891.86878
G1 X0.283 Y5.398
G0 F7200 X3.363 Y7.975
G1 F3600 X9.917 Y1.421 E1892.17706
G1 X9.987 Y1.351
G0 F7200 X10.847 Y-.432
G1 F3600 X8.845 Y-2.434 E1892.27122
G1 X8.775 Y-2.504
G0 F7200 X8.968 Y-3.286
G1 F3600 X12.321 Y-6.639 E1892.42894
G1 X12.391 Y-6.709
G0 F7200 X12.152 Y-4.784
G1 F3600 X9.328 Y-7.608 E1892.56177
G1 X9.258 Y-7.678
G0 F7200 X6.204 Y-10.731
G1 F3600 X5.777 Y-11.159 E1892.58188
G0 F7200 X12.037 Y-12.012
G1 F3600 X13.128 Y-13.102 E1892.63317
G1 X13.198 Y-13.172
G0 F7200 X7.575 Y1.953
G1 F3600 X8.782 Y3.16 E1892.68995
G1 X8.852 Y3.23
G0 F7200 X8.414 Y4.557
G0 X10.107 Y6.888
G1 F3600 X6.419 Y10.576 E1892.86342
G1 X6.349 Y10.646
G0 F7200 X9.54 Y13.112
G1 F3600 X13.171 Y9.481 E1893.03421
G1 X13.241 Y9.411
G0 F7200 X12.68 Y12.714
G1 F3600 X-12.766 Y-12.732 E1894.23111
G1 X-12.836 Y-12.802
G0 F7200 X-10.203 Y-12.398
G1 F3600 X-13.515 Y-9.086 E1894.3869
G1 X-13.585 Y-9.016
G0 F7200 X-10.895 Y-6.05
G1 F3600 X-7.526 Y-9.418 E1894.54534
G1 X-7.456 Y-9.488
G0 F7200 X-7.851 Y-1.722
G0 X-10.301 Y12.36
G1 F3600 X-9.374 Y13.287 E1894.58895
G1 X-9.304 Y13.357
G0 F7200 X-9.147 Y12.541
;TYPE:SKIN
G1 F2400 X-6.722 Y10.116 E1894.70301
G0 F7200 X-6.605 Y9.433
G1 F2400 X-9.717 Y12.546 E1894.84941
G0 F7200 X-10.208 Y12.471
G1 F2400 X-6.781 Y9.044 E1895.01061
G0 F7200 X-6.938 Y8.635
G1 F2400 X-10.635 Y12.332 E1895.1845
G0 F7200 X-11.017 Y12.148
G1 F2400 X-7.089 Y8.22 E1895.36927
G0 F7200 X-7.237 Y7.803
G1 F2400 X-11.359 Y11.925 E1895.56315
G0 F7200 X-11.546 Y11.546
G1 F2400 X-7.37 Y7.37 E1895.75958
G0 F7200 X-7.508 Y6.942
G1 F2400 X-11.65 Y11.085 E1895.95443
G0 F7200 X-11.741 Y10.61
G1 F2400 X-7.841 Y6.709 E1896.1379
G0 F7200 X-8.216 Y6.519
G1 F2400 X-11.81 Y10.113 E1896.30695
G0 F7200 X-11.854 Y9.591
G1 F2400 X-8.633 Y6.37 E1896.45845
G0 F7200 X-9.106 Y6.278
G1 F2400 X-11.884 Y9.055 E1896.5891
G0 F7200 X-11.862 Y8.468
G1 F2400 X-9.657 Y6.263 E1896.69281
G0 F7200 X-10.344 Y6.384
G1 F2400 X-11.819 Y7.86 E1896.76222
G1 X-11.889 Y7.93
G0 F7200 X-6.383 Y0.117
G0 X-1.307 Y-3.565
G0 X2.615 Y0.19
G0 X5.323 Y2.53
G0 X6.152 Y2.976
G0 X6.926 Y2.521
G0 X7.916 Y0.131
G0 X8.438 Y-1.984
G0 X8.698 Y-3.741
G0 X8.746 Y-5.03
G0 X7.725 Y-13.382
G1 F2400 X6.482 Y-12.139 E1896.82068
G1 X6.412 Y-12.069
G0 F7200 X6.182 Y-11.273
G1 F2400 X8.291 Y-13.382 E1896.91989
G0 F7200 X8.857 Y-13.382
G1 F2400 X6.124 Y-10.65 E1897.04841
G0 F7200 X6.173 Y-10.133
G1 F2400 X9.422 Y-13.382 E1897.20124
G0 F7200 X9.988 Y-13.382
G1 F2400 X6.286 Y-9.68 E1897.37537
G0 F7200 X6.451 Y-9.28
G1 F2400 X10.554 Y-13.382 E1897.56834
G0 F7200 X11.028 Y-13.291
