;FLAVOR:Marlin
;TIME:1418
;Filament used: 2.51581m
;Layer height: 0.2
;MINX:-34.832
;MINY:-9.842
;MINZ:0.2
;MAXX:34.832
;MAXY:9.842
;MAXZ:18.6
;POSTPROCESSED
;Generated with Cura_SteamEngine 4.13.0-BETA
M140 S50
M105
M190 S50
M104 S220
M105
M109 S220
M82 ;absolute extrusion mode
;FLAVOR:Marlin
M82 ;absolute extrusion mode
G21
G90
M82
M107 T0
G28
G92 E0
G0 E3 F200
G92 E0 ; reset extrusion distance
M106 S255 ; Enable cooling fan full speed
G1 X-98 Y0 Z0.4 F3000 ; move to arc start
G3 X0 Y-98 I98 Z0.4 E40 F400 ; lay arc stripe 90deg
G92 E0 ; reset extrusion distance
G4 P500 ; wait for 0.5 sec
G0 Z10 E-1 ; Lift 15mm and retract 1mm filament
G4 P2000 ; wait for 5 sec
G0 Z15
M107 ; Disable cooling fan
G1 X0 Y-85 Z4 E0 F3000 ; get off the bed
G92 E0
G92 E0
G1 F3000 E-10
;LAYER_COUNT:93
;LAYER:0
M106 S255
;MESH:window-handle.3mf
G0 F12000 X34.163 Y-6.762 Z0.2
;TYPE:WALL-OUTER
G1 F3000 E0
G1 F1800 X34.162 Y6.763 E1.05432
G1 X34.168 Y8.43 E1.18427
G1 X34.167 Y9.177 E1.2425
G1 X31.435 Y9.173 E1.45547
G1 X-31.435 Y9.172 E6.3564
G1 X-33.3 Y9.178 E6.50179
G1 X-34.167 Y9.177 E6.56937
G1 X-34.163 Y6.762 E6.75763
G1 X-34.162 Y-6.763 E7.81195
G1 X-34.168 Y-8.43 E7.9419
G1 X-34.167 Y-9.177 E8.00013
G1 X-31.435 Y-9.173 E8.2131
G1 X31.435 Y-9.172 E13.11403
G1 X33.3 Y-9.178 E13.25942
G1 X34.167 Y-9.177 E13.327
G1 X34.163 Y-6.762 E13.51526
G0 F12000 X34.163 Y-6.562
G0 X34.063 Y-6.563
G0 X33.606 Y-2.401
G0 X33.506 Y-2.401
G1 F1800 X33.458 Y-3.166 E13.57501
G1 X33.314 Y-3.922 E13.635
G1 X33.077 Y-4.653 E13.69491
G1 X32.75 Y-5.346 E13.75464
G1 X32.338 Y-5.996 E13.81463
G1 X31.849 Y-6.586 E13.87437
G1 X31.288 Y-7.112 E13.93432
G1 X30.668 Y-7.564 E13.99413
G1 X29.996 Y-7.933 E14.05389
G1 X29.28 Y-8.217 E14.11394
G1 X28.536 Y-8.408 E14.17381
G1 X27.909 Y-8.493 E14.22314
G1 X27.396 Y-8.516 E14.26317
G1 X-27.396 Y-8.517 E18.53439
G1 X-28.156 Y-8.468 E18.59376
G1 X-28.912 Y-8.324 E18.65375
G1 X-29.643 Y-8.087 E18.71366
G1 X-30.336 Y-7.76 E18.77339
G1 X-30.986 Y-7.348 E18.83338
G1 X-31.576 Y-6.859 E18.89312
G1 X-32.102 Y-6.298 E18.95307
G1 X-32.554 Y-5.678 E19.01288
G1 X-32.923 Y-5.006 E19.07264
G1 X-33.207 Y-4.29 E19.13269
G1 X-33.398 Y-3.546 E19.19256
G1 X-33.483 Y-2.919 E19.24189
G1 X-33.506 Y-2.401 E19.28231
G1 X-33.458 Y-1.636 E19.34206
G1 X-33.314 Y-.88 E19.40205
G1 X-33.077 Y-.149 E19.46195
G1 X-32.75 Y0.544 E19.52169
G1 X-32.338 Y1.194 E19.58168
G1 X-31.849 Y1.784 E19.64142
G1 X-31.288 Y2.31 E19.70136
G1 X-30.668 Y2.762 E19.76117
G1 X-29.996 Y3.131 E19.82094
G1 X-29.28 Y3.415 E19.88098
G1 X-28.536 Y3.606 E19.94086
G1 X-27.909 Y3.691 E19.99018
G1 X-27.396 Y3.714 E20.03021
G1 X27.396 Y3.715 E24.30144
G1 X28.156 Y3.666 E24.36081
G1 X28.912 Y3.522 E24.4208
G1 X29.643 Y3.285 E24.4807
G1 X30.336 Y2.958 E24.54044
G1 X30.986 Y2.546 E24.60043
G1 X31.576 Y2.057 E24.66016
G1 X32.102 Y1.496 E24.72011
G1 X32.554 Y0.876 E24.77992
G1 X32.923 Y0.204 E24.83969
G1 X33.207 Y-.512 E24.89973
G1 X33.398 Y-1.256 E24.95961
G1 X33.483 Y-1.883 E25.00893
G1 X33.506 Y-2.401 E25.04935
G0 F12000 X33.494 Y-2.6
G0 X33.593 Y-2.605
G0 X33.573 Y-4.984
;TYPE:SKIN
G1 F1800 X33.268 Y-5.631 E25.10511
G1 X32.816 Y-6.344 E25.17092
G1 X32.28 Y-6.991 E25.23642
G1 X31.665 Y-7.568 E25.30215
G1 X30.985 Y-8.063 E25.36772
G1 X30.248 Y-8.468 E25.43327
G1 X29.96 Y-8.582 E25.45742
G1 X31.435 Y-8.582 E25.5724
G1 X33.576 Y-8.588 E25.7393
G1 X33.573 Y-6.763 E25.88156
G1 X33.573 Y-4.984 E26.02024
G0 F12000 X33.572 Y0.167
G1 F1800 X33.572 Y6.763 E26.53442
G1 X33.578 Y8.587 E26.67661
G1 X31.435 Y8.583 E26.84367
G1 X-31.435 Y8.582 E31.7446
G1 X-33.576 Y8.588 E31.9115
G1 X-33.573 Y6.763 E32.05376
G1 X-33.573 Y0.183 E32.5667
G1 X-33.268 Y0.829 E32.62239
G1 X-32.816 Y1.542 E32.68819
G1 X-32.28 Y2.189 E32.75369
G1 X-31.665 Y2.766 E32.81943
G1 X-30.985 Y3.261 E32.88499
G1 X-30.248 Y3.666 E32.95055
G1 X-29.463 Y3.977 E33.01637
G1 X-28.65 Y4.186 E33.08181
G1 X-27.962 Y4.279 E33.13593
G1 X-27.41 Y4.304 E33.179
G1 X27.415 Y4.305 E37.4528
G1 X28.231 Y4.252 E37.51654
G1 X29.059 Y4.094 E37.58225
G1 X29.861 Y3.834 E37.64797
G1 X30.621 Y3.476 E37.71346
G1 X31.334 Y3.024 E37.77927
G1 X31.981 Y2.488 E37.84477
G1 X32.558 Y1.873 E37.9105
G1 X33.053 Y1.193 E37.97607
G1 X33.458 Y0.456 E38.04162
G1 X33.572 Y0.167 E38.06584
G0 F12000 X33.497 Y-3.171
G0 X33.114 Y-4.667
G0 X32.37 Y-6.019
G0 X31.313 Y-7.142
G0 X30.013 Y-7.969
G0 X28.543 Y-8.447
G0 X-29.974 Y-8.583
G1 F1800 X-30.621 Y-8.278 E38.1216
G1 X-31.334 Y-7.826 E38.18741
G1 X-31.981 Y-7.29 E38.2529
G1 X-32.558 Y-6.675 E38.31864
G1 X-33.053 Y-5.995 E38.38421
G1 X-33.458 Y-5.258 E38.44976
G1 X-33.572 Y-4.97 E38.47391
G1 X-33.572 Y-6.763 E38.61368
G1 X-33.578 Y-8.587 E38.75587
G1 X-31.435 Y-8.583 E38.92292
G1 X-29.974 Y-8.583 E39.03681
G0 F12000 X-32.132 Y-6.323
G0 X-32.959 Y-5.023
G0 X-33.437 Y-3.553
G0 X-33.533 Y-2.183
G0 X-33 Y1.744
G1 F1800 X-33 Y8.317 E39.5492
G0 F12000 X-32.4 Y8.315
G1 F1800 X-32.4 Y2.447 E40.00663
G0 F12000 X-31.8 Y3.003
G1 F1800 X-31.8 Y8.313 E40.42056
G0 F12000 X-31.2 Y8.312
G1 F1800 X-31.2 Y3.439 E40.80043
G0 F12000 X-30.6 Y3.781
G1 F1800 X-30.6 Y8.312 E41.15364
G0 F12000 X-30 Y8.312
G1 F1800 X-30 Y4.055 E41.48548
G0 F12000 X-29.4 Y4.273
G1 F1800 X-29.4 Y8.312 E41.80034
G0 F12000 X-28.8 Y8.312
G1 F1800 X-28.8 Y4.427 E42.10319
G0 F12000 X-28.2 Y4.519
G1 F1800 X-28.2 Y8.312 E42.39886
G0 F12000 X-27.6 Y8.312
G1 F1800 X-27.6 Y4.566 E42.69088
G0 F12000 X-27 Y4.575
G1 F1800 X-27 Y8.312 E42.98219
G0 F12000 X-26.4 Y8.312
G1 F1800 X-26.4 Y4.575 E43.2735
G0 F12000 X-25.8 Y4.575
G1 F1800 X-25.8 Y8.312 E43.56481
G0 F12000 X-25.2 Y8.312
G1 F1800 X-25.2 Y4.575 E43.85613
G0 F12000 X-24.6 Y4.575
G1 F1800 X-24.6 Y8.312 E44.14744
G0 F12000 X-24 Y8.312
G1 F1800 X-24 Y4.575 E44.43875
G0 F12000 X-23.4 Y4.575
G1 F1800 X-23.4 Y8.312 E44.73006
G0 F12000 X-22.8 Y8.312
G1 F1800 X-22.8 Y4.575 E45.02137
G0 F12000 X-22.2 Y4.575
G1 F1800 X-22.2 Y8.312 E45.31269
G0 F12000 X-21.6 Y8.312
G1 F1800 X-21.6 Y4.575 E45.604
G0 F12000 X-21 Y4.575
G1 F1800 X-21 Y8.312 E45.89531
G0 F12000 X-20.4 Y8.312
G1 F1800 X-20.4 Y4.575 E46.18662
G0 F12000 X-19.8 Y4.575
G1 F1800 X-19.8 Y8.312 E46.47793
G0 F12000 X-19.2 Y8.312
G1 F1800 X-19.2 Y4.575 E46.76925
G0 F12000 X-18.6 Y4.575
G1 F1800 X-18.6 Y8.312 E47.06056
G0 F12000 X-18 Y8.312
G1 F1800 X-18 Y4.575 E47.35187
G0 F12000 X-17.4 Y4.575
G1 F1800 X-17.4 Y8.312 E47.64318
G0 F12000 X-16.8 Y8.312
G1 F1800 X-16.8 Y4.575 E47.93449
G0 F12000 X-16.2 Y4.575
G1 F1800 X-16.2 Y8.312 E48.22581
G0 F12000 X-15.6 Y8.312
G1 F1800 X-15.6 Y4.575 E48.51712
G0 F12000 X-15 Y4.575
G1 F1800 X-15 Y8.312 E48.80843
G0 F12000 X-14.4 Y8.312
G1 F1800 X-14.4 Y4.575 E49.09974
G0 F12000 X-13.8 Y4.575
G1 F1800 X-13.8 Y8.312 E49.39105
G0 F12000 X-13.2 Y8.312
G1 F1800 X-13.2 Y4.575 E49.68237
G0 F12000 X-12.6 Y4.575
G1 F1800 X-12.6 Y8.312 E49.97368
G0 F12000 X-12 Y8.312
G1 F1800 X-12 Y4.575 E50.26499
G0 F12000 X-11.4 Y4.575
G1 F1800 X-11.4 Y8.312 E50.5563
G0 F12000 X-10.8 Y8.312
G1 F1800 X-10.8 Y4.575 E50.84761
G0 F12000 X-10.2 Y4.575
G1 F1800 X-10.2 Y8.312 E51.13893
G0 F12000 X-9.6 Y8.312
G1 F1800 X-9.6 Y4.575 E51.43024
G0 F12000 X-9 Y4.575
G1 F1800 X-9 Y8.312 E51.72155
G0 F12000 X-8.4 Y8.312
G1 F1800 X-8.4 Y4.575 E52.01286
G0 F12000 X-7.8 Y4.575
G1 F1800 X-7.8 Y8.312 E52.30417
G0 F12000 X-7.2 Y8.312
G1 F1800 X-7.2 Y4.575 E52.59549
G0 F12000 X-6.6 Y4.575
G1 F1800 X-6.6 Y8.312 E52.8868
G0 F12000 X-6 Y8.312
G1 F1800 X-6 Y4.575 E53.17811
G0 F12000 X-5.4 Y4.575
G1 F1800 X-5.4 Y8.312 E53.46942
G0 F12000 X-4.8 Y8.312
G1 F1800 X-4.8 Y4.575 E53.76073
G0 F12000 X-4.2 Y4.575
G1 F1800 X-4.2 Y8.312 E54.05205
G0 F12000 X-3.6 Y8.312
G1 F1800 X-3.6 Y4.575 E54.34336
G0 F12000 X-3 Y4.575
G1 F1800 X-3 Y8.312 E54.63467
G0 F12000 X-2.4 Y8.312
G1 F1800 X-2.4 Y4.575 E54.92598
G0 F12000 X-1.8 Y4.575
G1 F1800 X-1.8 Y8.312 E55.21729
G0 F12000 X-1.2 Y8.312
G1 F1800 X-1.2 Y4.575 E55.50861
G0 F12000 X-.6 Y4.575
G1 F1800 X-.6 Y8.312 E55.79992
G0 F12000 X0.00 Y8.312
G1 F1800 X0.00 Y4.575 E56.09123
G0 F12000 X0.6 Y4.575
G1 F1800 X0.6 Y8.312 E56.38254
G0 F12000 X1.2 Y8.312
G1 F1800 X1.2 Y4.575 E56.67385
G0 F12000 X1.8 Y4.575
G1 F1800 X1.8 Y8.312 E56.96517
G0 F12000 X2.4 Y8.312
G1 F1800 X2.4 Y4.575 E57.25648
G0 F12000 X3 Y4.575
G1 F1800 X3 Y8.312 E57.54779
G0 F12000 X3.6 Y8.312
G1 F1800 X3.6 Y4.575 E57.8391
G0 F12000 X4.2 Y4.575
G1 F1800 X4.2 Y8.312 E58.13041
G0 F12000 X4.8 Y8.312
G1 F1800 X4.8 Y4.575 E58.42173
G0 F12000 X5.4 Y4.575
G1 F1800 X5.4 Y8.312 E58.71304
G0 F12000 X6 Y8.312
G1 F1800 X6 Y4.575 E59.00435
G0 F12000 X6.6 Y4.575
G1 F1800 X6.6 Y8.312 E59.29566
G0 F12000 X7.2 Y8.312
G1 F1800 X7.2 Y4.575 E59.58697
G0 F12000 X7.8 Y4.575
G1 F1800 X7.8 Y8.312 E59.87829
G0 F12000 X8.4 Y8.312
G1 F1800 X8.4 Y4.575 E60.1696
G0 F12000 X9 Y4.575
G1 F1800 X9 Y8.312 E60.46091
G0 F12000 X9.6 Y8.312
G1 F1800 X9.6 Y4.575 E60.75222
G0 F12000 X10.2 Y4.575
G1 F1800 X10.2 Y8.312 E61.04353
G0 F12000 X10.8 Y8.312
G1 F1800 X10.8 Y4.575 E61.33485
G0 F12000 X11.4 Y4.575
G1 F1800 X11.4 Y8.312 E61.62616
G0 F12000 X12 Y8.312
G1 F1800 X12 Y4.575 E61.91747
G0 F12000 X12.6 Y4.575
G1 F1800 X12.6 Y8.312 E62.20878
G0 F12000 X13.2 Y8.312
G1 F1800 X13.2 Y4.575 E62.50009
G0 F12000 X13.8 Y4.575
G1 F1800 X13.8 Y8.312 E62.79141
G0 F12000 X14.4 Y8.312
G1 F1800 X14.4 Y4.575 E63.08272
G0 F12000 X15 Y4.575
G1 F1800 X15 Y8.312 E63.37403
G0 F12000 X15.6 Y8.312
G1 F1800 X15.6 Y4.575 E63.66534
G0 F12000 X16.2 Y4.575
G1 F1800 X16.2 Y8.312 E63.95666
G0 F12000 X16.8 Y8.312
G1 F1800 X16.8 Y4.575 E64.24797
G0 F12000 X17.4 Y4.575
G1 F1800 X17.4 Y8.312 E64.53928
G0 F12000 X18 Y8.312
G1 F1800 X18 Y4.575 E64.83059
G0 F12000 X18.6 Y4.575
G1 F1800 X18.6 Y8.312 E65.1219
G0 F12000 X19.2 Y8.312
G1 F1800 X19.2 Y4.575 E65.41322
G0 F12000 X19.8 Y4.575
G1 F1800 X19.8 Y8.312 E65.70453
G0 F12000 X20.4 Y8.312
G1 F1800 X20.4 Y4.575 E65.99584
G0 F12000 X21 Y4.575
G1 F1800 X21 Y8.312 E66.28715
G0 F12000 X21.6 Y8.312
G1 F1800 X21.6 Y4.575 E66.57846
G0 F12000 X22.2 Y4.575
G1 F1800 X22.2 Y8.312 E66.86978
G0 F12000 X22.8 Y8.312
G1 F1800 X22.8 Y4.575 E67.16109
G0 F12000 X23.4 Y4.575
G1 F1800 X23.4 Y8.312 E67.4524
G0 F12000 X24 Y8.312
G1 F1800 X24 Y4.575 E67.74371
G0 F12000 X24.6 Y4.575
G1 F1800 X24.6 Y8.312 E68.03502
G0 F12000 X25.2 Y8.312
G1 F1800 X25.2 Y4.575 E68.32634
G0 F12000 X25.8 Y4.575
G1 F1800 X25.8 Y8.312 E68.61765
G0 F12000 X26.4 Y8.312
G1 F1800 X26.4 Y4.575 E68.90896
G0 F12000 X27 Y4.575
G1 F1800 X27 Y8.312 E69.20027
G0 F12000 X27.6 Y8.312
G1 F1800 X27.6 Y4.563 E69.49252
G0 F12000 X28.2 Y4.524
G1 F1800 X28.2 Y8.312 E69.78781
G0 F12000 X28.8 Y8.312
G1 F1800 X28.8 Y4.418 E70.09136
G0 F12000 X29.4 Y4.267
G1 F1800 X29.4 Y8.312 E70.40668
G0 F12000 X30 Y8.312
G1 F1800 X30 Y4.067 E70.73759
G0 F12000 X30.6 Y3.784
G1 F1800 X30.6 Y8.312 E71.09056
G0 F12000 X31.2 Y8.312
G1 F1800 X31.2 Y3.429 E71.47121
G0 F12000 X31.8 Y2.989
G1 F1800 X31.8 Y8.313 E71.88624
G0 F12000 X32.4 Y8.314
G1 F1800 X32.4 Y2.435 E72.34452
G0 F12000 X33 Y1.725
G1 F1800 X33 Y8.315 E72.85824
G1 X33 Y8.465
G0 F12000 X33.546 Y-2.401
G0 X33 Y-6.546
G1 F1800 X33 Y-8.317 E72.99629
G0 F12000 X32.4 Y-8.315
G1 F1800 X32.4 Y-7.249 E73.07939
G0 F12000 X31.8 Y-7.805
G1 F1800 X31.8 Y-8.313 E73.11899
G0 F12000 X27.396 Y-8.555
G0 X-27.397 Y-8.556
G0 X-31.8 Y-8.313
G1 F1800 X-31.8 Y-7.79 E73.15976
G0 F12000 X-32.4 Y-8.314
G1 F1800 X-32.4 Y-7.237 E73.24372
G0 F12000 X-33 Y-6.527
G1 F1800 X-33 Y-8.315 E73.3831
G1 X-33 Y-8.465
G0 F12000 X-29.7 Y-8.668
;TYPE:SKIN
G1 F1800 X-29.7 Y-8.902 E73.39222
G0 F12000 X-29.4 Y-8.902
G1 F1800 X-29.4 Y-8.449 E73.40987
G0 F12000 X-29.1 Y-8.546
G1 F1800 X-29.1 Y-8.902 E73.42375
G0 F12000 X-28.8 Y-8.902
G1 F1800 X-28.8 Y-8.62 E73.43474
G0 F12000 X-28.5 Y-8.677
G1 F1800 X-28.5 Y-8.902 E73.44351
G0 F12000 X-28.2 Y-8.902
G1 F1800 X-28.2 Y-8.734 E73.45006
G0 F12000 X-27.9 Y-8.754
G1 F1800 X-27.9 Y-8.902 E73.45583
G0 F12000 X-27.6 Y-8.902
G1 F1800 X-27.6 Y-8.774 E73.46082
G0 F12000 X-27.3 Y-8.787
G1 F1800 X-27.3 Y-8.902 E73.4653
G0 F12000 X-27 Y-8.902
G1 F1800 X-27 Y-8.787 E73.46978
G0 F12000 X-26.7 Y-8.787
G1 F1800 X-26.7 Y-8.902 E73.47426
G0 F12000 X-26.4 Y-8.902
G1 F1800 X-26.4 Y-8.787 E73.47875
G0 F12000 X-26.1 Y-8.787
G1 F1800 X-26.1 Y-8.902 E73.48323
G0 F12000 X-25.8 Y-8.902
G1 F1800 X-25.8 Y-8.787 E73.48771
G0 F12000 X-25.5 Y-8.787
G1 F1800 X-25.5 Y-8.902 E73.49219
G0 F12000 X-25.2 Y-8.902
G1 F1800 X-25.2 Y-8.787 E73.49668
G0 F12000 X-24.9 Y-8.787
G1 F1800 X-24.9 Y-8.902 E73.50116
G0 F12000 X-24.6 Y-8.902
G1 F1800 X-24.6 Y-8.787 E73.50564
G0 F12000 X-24.3 Y-8.787
G1 F1800 X-24.3 Y-8.902 E73.51012
G0 F12000 X-24 Y-8.902
G1 F1800 X-24 Y-8.787 E73.5146
G0 F12000 X-23.7 Y-8.787
G1 F1800 X-23.7 Y-8.902 E73.51909
G0 F12000 X-23.4 Y-8.902
G1 F1800 X-23.4 Y-8.787 E73.52357
G0 F12000 X-23.1 Y-8.787
G1 F1800 X-23.1 Y-8.902 E73.52805
G0 F12000 X-22.8 Y-8.902
G1 F1800 X-22.8 Y-8.787 E73.53253
G0 F12000 X-22.5 Y-8.787
G1 F1800 X-22.5 Y-8.902 E73.53702
G0 F12000 X-22.2 Y-8.902
G1 F1800 X-22.2 Y-8.787 E73.5415
G0 F12000 X-21.9 Y-8.787
G1 F1800 X-21.9 Y-8.902 E73.54598
G0 F12000 X-21.6 Y-8.902
G1 F1800 X-21.6 Y-8.787 E73.55046
G0 F12000 X-21.3 Y-8.787
G1 F1800 X-21.3 Y-8.902 E73.55495
G0 F12000 X-21 Y-8.902
G1 F1800 X-21 Y-8.787 E73.55943
G0 F12000 X-20.7 Y-8.787
G1 F1800 X-20.7 Y-8.902 E73.56391
G0 F12000 X-20.4 Y-8.902
G1 F1800 X-20.4 Y-8.787 E73.56839
G0 F12000 X-20.1 Y-8.787
G1 F1800 X-20.1 Y-8.902 E73.57287
G0 F12000 X-19.8 Y-8.902
G1 F1800 X-19.8 Y-8.787 E73.57736
G0 F12000 X-19.5 Y-8.787
G1 F1800 X-19.5 Y-8.902 E73.58184
G0 F12000 X-19.2 Y-8.902
G1 F1800 X-19.2 Y-8.787 E73.58632
G0 F12000 X-18.9 Y-8.787
G1 F1800 X-18.9 Y-8.902 E73.5908
G0 F12000 X-18.6 Y-8.902
G1 F1800 X-18.6 Y-8.787 E73.59529
G0 F12000 X-18.3 Y-8.787
G1 F1800 X-18.3 Y-8.902 E73.59977
G0 F12000 X-18 Y-8.902
G1 F1800 X-18 Y-8.787 E73.60425
G0 F12000 X-17.7 Y-8.787
G1 F1800 X-17.7 Y-8.902 E73.60873
G0 F12000 X-17.4 Y-8.902
G1 F1800 X-17.4 Y-8.787 E73.61322
G0 F12000 X-17.1 Y-8.787
G1 F1800 X-17.1 Y-8.902 E73.6177
G0 F12000 X-16.8 Y-8.902
G1 F1800 X-16.8 Y-8.787 E73.62218
G0 F12000 X-16.5 Y-8.787
G1 F1800 X-16.5 Y-8.902 E73.62666
G0 F12000 X-16.2 Y-8.902
G1 F1800 X-16.2 Y-8.787 E73.63114
G0 F12000 X-15.9 Y-8.787
G1 F1800 X-15.9 Y-8.902 E73.63563
G0 F12000 X-15.6 Y-8.902
G1 F1800 X-15.6 Y-8.787 E73.64011
G0 F12000 X-15.3 Y-8.787
G1 F1800 X-15.3 Y-8.902 E73.64459
G0 F12000 X-15 Y-8.902
G1 F1800 X-15 Y-8.787 E73.64907
G0 F12000 X-14.7 Y-8.787
G1 F1800 X-14.7 Y-8.902 E73.65356
G0 F12000 X-14.4 Y-8.902
G1 F1800 X-14.4 Y-8.787 E73.65804
G0 F12000 X-14.1 Y-8.787
G1 F1800 X-14.1 Y-8.902 E73.66252
G0 F12000 X-13.8 Y-8.902
G1 F1800 X-13.8 Y-8.787 E73.667
G0 F12000 X-13.5 Y-8.787
G1 F1800 X-13.5 Y-8.902 E73.67149
G0 F12000 X-13.2 Y-8.902
G1 F1800 X-13.2 Y-8.787 E73.67597
G0 F12000 X-12.9 Y-8.787
G1 F1800 X-12.9 Y-8.902 E73.68045
G0 F12000 X-12.6 Y-8.902
G1 F1800 X-12.6 Y-8.787 E73.68493
G0 F12000 X-12.3 Y-8.787
G1 F1800 X-12.3 Y-8.902 E73.68942
G0 F12000 X-12 Y-8.902
G1 F1800 X-12 Y-8.787 E73.6939
G0 F12000 X-11.7 Y-8.787
G1 F1800 X-11.7 Y-8.902 E73.69838
G0 F12000 X-11.4 Y-8.902
G1 F1800 X-11.4 Y-8.787 E73.70286
G0 F12000 X-11.1 Y-8.787
G1 F1800 X-11.1 Y-8.902 E73.70734
G0 F12000 X-10.8 Y-8.902
G1 F1800 X-10.8 Y-8.787 E73.71183
G0 F12000 X-10.5 Y-8.787
G1 F1800 X-10.5 Y-8.902 E73.71631
G0 F12000 X-10.2 Y-8.902
G1 F1800 X-10.2 Y-8.787 E73.72079
G0 F12000 X-9.9 Y-8.787
G1 F1800 X-9.9 Y-8.902 E73.72527
G0 F12000 X-9.6 Y-8.902
G1 F1800 X-9.6 Y-8.787 E73.72976
G0 F12000 X-9.3 Y-8.787
G1 F1800 X-9.3 Y-8.902 E73.73424
G0 F12000 X-9 Y-8.902
G1 F1800 X-9 Y-8.787 E73.73872
G0 F12000 X-8.7 Y-8.787
G1 F1800 X-8.7 Y-8.902 E73.7432
G0 F12000 X-8.4 Y-8.902
