;FLAVOR:Marlin
;TIME:1467
;Filament used: 2.58302m
;Layer height: 0.2
;MINX:-35.189
;MINY:-9.944
;MINZ:0.2
;MAXX:35.189
;MAXY:9.945
;MAXZ:18.8
;POSTPROCESSED
;Generated with Cura_SteamEngine 4.13.0-BETA
M140 S50
M105
M190 S50
M104 S220
M105
M109 S220
M82 ;absolute extrusion mode
;FLAVOR:Marlin
M82 ;absolute extrusion mode
G21
G90
M82
M107 T0
G28
G92 E0
G0 E3 F200
G92 E0 ; reset extrusion distance
M106 S255 ; Enable cooling fan full speed
G1 X-98 Y0 Z0.4 F3000 ; move to arc start
G3 X0 Y-98 I98 Z0.4 E40 F400 ; lay arc stripe 90deg
G92 E0 ; reset extrusion distance
G4 P500 ; wait for 0.5 sec
G0 Z10 E-1 ; Lift 15mm and retract 1mm filament
G4 P2000 ; wait for 5 sec
G0 Z15
M107 ; Disable cooling fan
G1 X0 Y-85 Z4 E0 F3000 ; get off the bed
G92 E0
G92 E0
G1 F3000 E-10
;LAYER_COUNT:94
;LAYER:0
M106 S255
;MESH:window-handle.3mf
G0 F12000 X34.513 Y-6.831 Z0.2
;TYPE:WALL-OUTER
G1 F3000 E0
G1 F1800 X34.512 Y6.832 E1.06508
G1 X34.518 Y8.59 E1.20212
G1 X34.517 Y9.272 E1.25529
G1 X31.756 Y9.268 E1.47051
G1 X-31.756 Y9.267 E6.42149
G1 X-33.723 Y9.273 E6.57483
G1 X-34.517 Y9.272 E6.63672
G1 X-34.513 Y6.831 E6.82701
G1 X-34.512 Y-6.832 E7.89209
G1 X-34.518 Y-8.59 E8.02913
G1 X-34.517 Y-9.272 E8.08229
G1 X-31.756 Y-9.268 E8.29752
G1 X31.756 Y-9.267 E13.2485
G1 X33.723 Y-9.273 E13.40184
G1 X34.517 Y-9.272 E13.46373
G1 X34.513 Y-6.831 E13.65402
G0 F12000 X34.513 Y-6.631
G0 X34.413 Y-6.632
G0 X33.934 Y-2.032
G0 X33.835 Y-2.038
G1 F1800 X33.841 Y-2.673 E13.70352
G1 X33.799 Y-3.199 E13.74465
G1 X33.654 Y-3.961 E13.80512
G1 X33.413 Y-4.699 E13.86564
G1 X33.083 Y-5.401 E13.92611
G1 X32.668 Y-6.055 E13.98649
G1 X32.173 Y-6.653 E14.047
G1 X31.715 Y-7.092 E14.09646
G1 X31.3 Y-7.423 E14.13784
G1 X30.646 Y-7.838 E14.19822
G1 X30.074 Y-8.114 E14.24773
G1 X29.579 Y-8.3 E14.28895
G1 X28.827 Y-8.493 E14.34947
G1 X28.058 Y-8.59 E14.40989
G1 X27.676 Y-8.602 E14.43968
G1 X-27.675 Y-8.603 E18.75448
G1 X-28.444 Y-8.554 E18.81455
G1 X-29.206 Y-8.409 E18.87502
G1 X-29.944 Y-8.168 E18.93554
G1 X-30.646 Y-7.838 E18.996
G1 X-31.3 Y-7.423 E19.05638
G1 X-31.898 Y-6.928 E19.1169
G1 X-32.337 Y-6.47 E19.16635
G1 X-32.668 Y-6.055 E19.20773
G1 X-33.083 Y-5.401 E19.26811
G1 X-33.359 Y-4.829 E19.31762
G1 X-33.545 Y-4.334 E19.35884
G1 X-33.738 Y-3.582 E19.41936
G1 X-33.835 Y-2.813 E19.47979
G1 X-33.841 Y-2.178 E19.52929
G1 X-33.799 Y-1.652 E19.57042
G1 X-33.654 Y-.89 E19.63089
G1 X-33.413 Y-.152 E19.69141
G1 X-33.083 Y0.55 E19.75188
G1 X-32.668 Y1.204 E19.81226
G1 X-32.173 Y1.802 E19.87277
G1 X-31.715 Y2.241 E19.92223
G1 X-31.3 Y2.572 E19.96361
G1 X-30.646 Y2.987 E20.02399
G1 X-30.074 Y3.263 E20.07349
G1 X-29.579 Y3.449 E20.11472
G1 X-28.827 Y3.642 E20.17524
G1 X-28.058 Y3.739 E20.23566
G1 X-27.675 Y3.751 E20.26553
G1 X27.676 Y3.752 E24.58033
G1 X28.444 Y3.703 E24.64032
G1 X29.206 Y3.558 E24.70079
G1 X29.944 Y3.317 E24.7613
G1 X30.646 Y2.987 E24.82177
G1 X31.3 Y2.572 E24.88215
G1 X31.898 Y2.077 E24.94267
G1 X32.337 Y1.619 E24.99212
G1 X32.668 Y1.204 E25.0335
G1 X33.083 Y0.55 E25.09388
G1 X33.359 Y-0.022 E25.14339
G1 X33.545 Y-.517 E25.18461
G1 X33.738 Y-1.269 E25.24513
G1 X33.835 Y-2.038 E25.30555
G0 F12000 X33.836 Y-2.238
G0 X33.936 Y-2.237
G0 X33.922 Y0.156
;TYPE:SKIN
G1 F1800 X33.922 Y6.832 E25.82597
G1 X33.928 Y8.682 E25.97019
G1 X31.756 Y8.678 E26.1395
G1 X-31.756 Y8.677 E31.09048
G1 X-33.926 Y8.683 E31.25964
G1 X-33.923 Y6.832 E31.40393
G1 X-33.923 Y0.15 E31.92482
G1 X-33.601 Y0.835 E31.98382
G1 X-33.146 Y1.552 E32.05002
G1 X-32.606 Y2.205 E32.11607
G1 X-32.104 Y2.686 E32.17027
G1 X-31.643 Y3.053 E32.2162
G1 X-30.933 Y3.504 E32.28177
G1 X-30.306 Y3.806 E32.33602
G1 X-29.756 Y4.013 E32.38183
G1 X-28.937 Y4.222 E32.44772
G1 X-28.105 Y4.327 E32.51309
G1 X-27.685 Y4.341 E32.54585
G1 X27.695 Y4.342 E36.86291
G1 X28.519 Y4.289 E36.92728
G1 X29.353 Y4.13 E36.99346
G1 X30.162 Y3.866 E37.0598
G1 X30.931 Y3.505 E37.12602
G1 X31.648 Y3.05 E37.19222
G1 X32.301 Y2.51 E37.25828
G1 X32.782 Y2.008 E37.31247
G1 X33.149 Y1.547 E37.35841
G1 X33.6 Y0.837 E37.42397
G1 X33.902 Y0.21 E37.47823
G1 X33.922 Y0.156 E37.48271
G0 F12000 X33.923 Y-5
G1 F1800 X33.601 Y-5.686 E37.54179
G1 X33.146 Y-6.403 E37.60799
G1 X32.606 Y-7.056 E37.67404
G1 X32.104 Y-7.537 E37.72824
G1 X31.643 Y-7.904 E37.77417
G1 X30.933 Y-8.355 E37.83974
G1 X30.306 Y-8.657 E37.89399
G1 X30.253 Y-8.677 E37.89841
G1 X31.756 Y-8.677 E38.01557
G1 X33.926 Y-8.683 E38.18473
G1 X33.923 Y-6.832 E38.32902
G1 X33.923 Y-5 E38.47183
G0 F12000 X31.741 Y-7.122
G0 X30.665 Y-7.872
G0 X28.834 Y-8.532
G0 X-30.245 Y-8.678
G1 F1800 X-30.931 Y-8.356 E38.53091
G1 X-31.648 Y-7.901 E38.5971
G1 X-32.301 Y-7.361 E38.66316
G1 X-32.782 Y-6.859 E38.71735
G1 X-33.149 Y-6.398 E38.76329
G1 X-33.6 Y-5.688 E38.82886
G1 X-33.902 Y-5.061 E38.88311
G1 X-33.922 Y-5.008 E38.88752
G1 X-33.922 Y-6.832 E39.02971
G1 X-33.928 Y-8.682 E39.17393
G1 X-31.756 Y-8.678 E39.34324
G1 X-30.245 Y-8.678 E39.46103
G0 F12000 X-32.367 Y-6.496
G0 X-33.117 Y-5.42
G0 X-33.777 Y-3.589
G0 X-33.6 Y1.341
G1 F1800 X-33.6 Y8.412 E40.01224
G0 F12000 X-33 Y8.411
G1 F1800 X-33 Y2.153 E40.50007
G0 F12000 X-32.4 Y2.776
G1 F1800 X-32.4 Y8.409 E40.93918
G0 F12000 X-31.8 Y8.408
G1 F1800 X-31.8 Y3.274 E41.33939
G0 F12000 X-31.2 Y3.655
G1 F1800 X-31.2 Y8.407 E41.70983
G0 F12000 X-30.6 Y8.407
G1 F1800 X-30.6 Y3.965 E42.0561
G0 F12000 X-30 Y4.21
G1 F1800 X-30 Y8.407 E42.38327
G0 F12000 X-29.4 Y8.407
G1 F1800 X-29.4 Y4.383 E42.69695
G0 F12000 X-28.8 Y4.511
G1 F1800 X-28.8 Y8.407 E43.00066
G0 F12000 X-28.2 Y8.407
G1 F1800 X-28.2 Y4.587 E43.29844
G0 F12000 X-27.6 Y4.612
G1 F1800 X-27.6 Y8.407 E43.59428
G0 F12000 X-27 Y8.407
G1 F1800 X-27 Y4.612 E43.89011
G0 F12000 X-26.4 Y4.612
G1 F1800 X-26.4 Y8.407 E44.18594
G0 F12000 X-25.8 Y8.407
G1 F1800 X-25.8 Y4.612 E44.48178
G0 F12000 X-25.2 Y4.612
G1 F1800 X-25.2 Y8.407 E44.77761
G0 F12000 X-24.6 Y8.407
G1 F1800 X-24.6 Y4.612 E45.07344
G0 F12000 X-24 Y4.612
G1 F1800 X-24 Y8.407 E45.36928
G0 F12000 X-23.4 Y8.407
G1 F1800 X-23.4 Y4.612 E45.66511
G0 F12000 X-22.8 Y4.612
G1 F1800 X-22.8 Y8.407 E45.96094
G0 F12000 X-22.2 Y8.407
G1 F1800 X-22.2 Y4.612 E46.25678
G0 F12000 X-21.6 Y4.612
G1 F1800 X-21.6 Y8.407 E46.55261
G0 F12000 X-21 Y8.407
G1 F1800 X-21 Y4.612 E46.84844
G0 F12000 X-20.4 Y4.612
G1 F1800 X-20.4 Y8.407 E47.14428
G0 F12000 X-19.8 Y8.407
G1 F1800 X-19.8 Y4.612 E47.44011
G0 F12000 X-19.2 Y4.612
G1 F1800 X-19.2 Y8.407 E47.73594
G0 F12000 X-18.6 Y8.407
G1 F1800 X-18.6 Y4.612 E48.03178
G0 F12000 X-18 Y4.612
G1 F1800 X-18 Y8.407 E48.32761
G0 F12000 X-17.4 Y8.407
G1 F1800 X-17.4 Y4.612 E48.62344
G0 F12000 X-16.8 Y4.612
G1 F1800 X-16.8 Y8.407 E48.91928
G0 F12000 X-16.2 Y8.407
G1 F1800 X-16.2 Y4.612 E49.21511
G0 F12000 X-15.6 Y4.612
G1 F1800 X-15.6 Y8.407 E49.51094
G0 F12000 X-15 Y8.407
G1 F1800 X-15 Y4.612 E49.80678
G0 F12000 X-14.4 Y4.612
G1 F1800 X-14.4 Y8.407 E50.10261
G0 F12000 X-13.8 Y8.407
G1 F1800 X-13.8 Y4.612 E50.39844
G0 F12000 X-13.2 Y4.612
G1 F1800 X-13.2 Y8.407 E50.69428
G0 F12000 X-12.6 Y8.407
G1 F1800 X-12.6 Y4.612 E50.99011
G0 F12000 X-12 Y4.612
G1 F1800 X-12 Y8.407 E51.28594
G0 F12000 X-11.4 Y8.407
G1 F1800 X-11.4 Y4.612 E51.58177
G0 F12000 X-10.8 Y4.612
G1 F1800 X-10.8 Y8.407 E51.87761
G0 F12000 X-10.2 Y8.407
G1 F1800 X-10.2 Y4.612 E52.17344
G0 F12000 X-9.6 Y4.612
G1 F1800 X-9.6 Y8.407 E52.46927
G0 F12000 X-9 Y8.407
G1 F1800 X-9 Y4.612 E52.76511
G0 F12000 X-8.4 Y4.612
G1 F1800 X-8.4 Y8.407 E53.06094
G0 F12000 X-7.8 Y8.407
G1 F1800 X-7.8 Y4.612 E53.35677
G0 F12000 X-7.2 Y4.612
G1 F1800 X-7.2 Y8.407 E53.65261
G0 F12000 X-6.6 Y8.407
G1 F1800 X-6.6 Y4.612 E53.94844
G0 F12000 X-6 Y4.612
G1 F1800 X-6 Y8.407 E54.24427
G0 F12000 X-5.4 Y8.407
G1 F1800 X-5.4 Y4.612 E54.54011
G0 F12000 X-4.8 Y4.612
G1 F1800 X-4.8 Y8.407 E54.83594
G0 F12000 X-4.2 Y8.407
G1 F1800 X-4.2 Y4.612 E55.13177
G0 F12000 X-3.6 Y4.612
G1 F1800 X-3.6 Y8.407 E55.42761
G0 F12000 X-3 Y8.407
G1 F1800 X-3 Y4.612 E55.72344
G0 F12000 X-2.4 Y4.612
G1 F1800 X-2.4 Y8.407 E56.01927
G0 F12000 X-1.8 Y8.407
G1 F1800 X-1.8 Y4.612 E56.31511
G0 F12000 X-1.2 Y4.612
G1 F1800 X-1.2 Y8.407 E56.61094
G0 F12000 X-.6 Y8.407
G1 F1800 X-.6 Y4.612 E56.90677
G0 F12000 X0.00 Y4.612
G1 F1800 X0.00 Y8.407 E57.20261
G0 F12000 X0.6 Y8.407
G1 F1800 X0.6 Y4.612 E57.49844
G0 F12000 X1.2 Y4.612
G1 F1800 X1.2 Y8.407 E57.79427
G0 F12000 X1.8 Y8.407
G1 F1800 X1.8 Y4.612 E58.09011
G0 F12000 X2.4 Y4.612
G1 F1800 X2.4 Y8.407 E58.38594
G0 F12000 X3 Y8.407
G1 F1800 X3 Y4.612 E58.68177
G0 F12000 X3.6 Y4.612
G1 F1800 X3.6 Y8.407 E58.97761
G0 F12000 X4.2 Y8.407
G1 F1800 X4.2 Y4.612 E59.27344
G0 F12000 X4.8 Y4.612
G1 F1800 X4.8 Y8.407 E59.56927
G0 F12000 X5.4 Y8.407
G1 F1800 X5.4 Y4.612 E59.86511
G0 F12000 X6 Y4.612
G1 F1800 X6 Y8.407 E60.16094
G0 F12000 X6.6 Y8.407
G1 F1800 X6.6 Y4.612 E60.45677
G0 F12000 X7.2 Y4.612
G1 F1800 X7.2 Y8.407 E60.75261
G0 F12000 X7.8 Y8.407
G1 F1800 X7.8 Y4.612 E61.04844
G0 F12000 X8.4 Y4.612
G1 F1800 X8.4 Y8.407 E61.34427
G0 F12000 X9 Y8.407
G1 F1800 X9 Y4.612 E61.64011
G0 F12000 X9.6 Y4.612
G1 F1800 X9.6 Y8.407 E61.93594
G0 F12000 X10.2 Y8.407
G1 F1800 X10.2 Y4.612 E62.23177
G0 F12000 X10.8 Y4.612
G1 F1800 X10.8 Y8.407 E62.52761
G0 F12000 X11.4 Y8.407
G1 F1800 X11.4 Y4.612 E62.82344
G0 F12000 X12 Y4.612
G1 F1800 X12 Y8.407 E63.11927
G0 F12000 X12.6 Y8.407
G1 F1800 X12.6 Y4.612 E63.41511
G0 F12000 X13.2 Y4.612
G1 F1800 X13.2 Y8.407 E63.71094
G0 F12000 X13.8 Y8.407
G1 F1800 X13.8 Y4.612 E64.00677
G0 F12000 X14.4 Y4.612
G1 F1800 X14.4 Y8.407 E64.30261
G0 F12000 X15 Y8.407
G1 F1800 X15 Y4.612 E64.59844
G0 F12000 X15.6 Y4.612
G1 F1800 X15.6 Y8.407 E64.89427
G0 F12000 X16.2 Y8.407
G1 F1800 X16.2 Y4.612 E65.19011
G0 F12000 X16.8 Y4.612
G1 F1800 X16.8 Y8.407 E65.48594
G0 F12000 X17.4 Y8.407
G1 F1800 X17.4 Y4.612 E65.78177
G0 F12000 X18 Y4.612
G1 F1800 X18 Y8.407 E66.07761
G0 F12000 X18.6 Y8.407
G1 F1800 X18.6 Y4.612 E66.37344
G0 F12000 X19.2 Y4.612
G1 F1800 X19.2 Y8.407 E66.66927
G0 F12000 X19.8 Y8.407
G1 F1800 X19.8 Y4.612 E66.96511
G0 F12000 X20.4 Y4.612
G1 F1800 X20.4 Y8.407 E67.26094
G0 F12000 X21 Y8.407
G1 F1800 X21 Y4.612 E67.55677
G0 F12000 X21.6 Y4.612
G1 F1800 X21.6 Y8.407 E67.85261
G0 F12000 X22.2 Y8.407
G1 F1800 X22.2 Y4.612 E68.14844
G0 F12000 X22.8 Y4.612
G1 F1800 X22.8 Y8.407 E68.44427
G0 F12000 X23.4 Y8.407
G1 F1800 X23.4 Y4.612 E68.74011
G0 F12000 X24 Y4.612
G1 F1800 X24 Y8.407 E69.03594
G0 F12000 X24.6 Y8.407
G1 F1800 X24.6 Y4.612 E69.33177
G0 F12000 X25.2 Y4.612
G1 F1800 X25.2 Y8.407 E69.62761
G0 F12000 X25.8 Y8.407
G1 F1800 X25.8 Y4.612 E69.92344
G0 F12000 X26.4 Y4.612
G1 F1800 X26.4 Y8.407 E70.21927
G0 F12000 X27 Y8.407
G1 F1800 X27 Y4.612 E70.51511
G0 F12000 X27.6 Y4.612
G1 F1800 X27.6 Y8.407 E70.81094
G0 F12000 X28.2 Y8.407
G1 F1800 X28.2 Y4.579 E71.10935
G0 F12000 X28.8 Y4.51
G1 F1800 X28.8 Y8.407 E71.41313
G0 F12000 X29.4 Y8.407
G1 F1800 X29.4 Y4.396 E71.7258
G0 F12000 X30 Y4.202
G1 F1800 X30 Y8.407 E72.0536
G0 F12000 X30.6 Y8.407
G1 F1800 X30.6 Y3.958 E72.40041
G0 F12000 X31.2 Y3.654
G1 F1800 X31.2 Y8.407 E72.77092
G0 F12000 X31.8 Y8.408
G1 F1800 X31.8 Y3.274 E73.17114
G0 F12000 X32.4 Y2.778
G1 F1800 X32.4 Y8.409 E73.61009
G0 F12000 X33 Y8.409
G1 F1800 X33 Y2.167 E74.09668
G0 F12000 X33.6 Y1.341
G1 F1800 X33.6 Y8.41 E74.64773
G1 X33.6 Y8.56
G0 F12000 X33.88 Y-2.674
G0 X33.6 Y-6.192
G1 F1800 X33.6 Y-8.412 E74.82079
G0 F12000 X33 Y-8.411
G1 F1800 X33 Y-7.004 E74.93047
G0 F12000 X32.4 Y-7.627
G1 F1800 X32.4 Y-8.409 E74.99143
G0 F12000 X31.8 Y-8.408
G1 F1800 X31.8 Y-8.125 E75.01349
G0 F12000 X27.676 Y-8.641
G0 X-27.676 Y-8.642
G0 X-31.8 Y-8.124
G1 F1800 X-31.8 Y-8.408 E75.03563
G0 F12000 X-32.4 Y-8.409
G1 F1800 X-32.4 Y-7.629 E75.09643
G0 F12000 X-33 Y-7.018
G1 F1800 X-33 Y-8.409 E75.20486
G0 F12000 X-33.6 Y-8.41
G1 F1800 X-33.6 Y-6.192 E75.37776
G1 X-33.6 Y-6.042
G0 F12000 X-33.9 Y-4.714
;TYPE:SKIN
G1 F1800 X-33.9 Y-4.037 E75.40415
G0 F12000 X-34.2 Y-4.768
G1 F1800 X-34.2 Y-0.081 E75.58684
G0 F12000 X-33.9 Y-.147
G1 F1800 X-33.9 Y-.774 E75.61127
G0 F12000 X-33.874 Y-2.815
G0 X-33.395 Y-4.844
G0 X-32.367 Y-6.496
G0 X-29.7 Y-8.531
G1 F1800 X-29.7 Y-8.997 E75.62944
G0 F12000 X-30 Y-8.997
G1 F1800 X-30 Y-8.894 E75.63345
G0 F12000 X-29.4 Y-8.997
G1 F1800 X-29.4 Y-8.629 E75.6478
G0 F12000 X-29.1 Y-8.704
G1 F1800 X-29.1 Y-8.997 E75.65922
G0 F12000 X-28.8 Y-8.997
G1 F1800 X-28.8 Y-8.761 E75.66841
G0 F12000 X-28.5 Y-8.818
G1 F1800 X-28.5 Y-8.997 E75.67539
G0 F12000 X-28.2 Y-8.997
G1 F1800 X-28.2 Y-8.839 E75.68155
G0 F12000 X-27.9 Y-8.859
G1 F1800 X-27.9 Y-8.997 E75.68693
G0 F12000 X-27.6 Y-8.997
G1 F1800 X-27.6 Y-8.873 E75.69176
G0 F12000 X-27.3 Y-8.873
G1 F1800 X-27.3 Y-8.997 E75.69659
G0 F12000 X-27 Y-8.997
G1 F1800 X-27 Y-8.873 E75.70143
G0 F12000 X-26.7 Y-8.873
G1 F1800 X-26.7 Y-8.997 E75.70626
G0 F12000 X-26.4 Y-8.997
G1 F1800 X-26.4 Y-8.873 E75.71109
G0 F12000 X-26.1 Y-8.873
G1 F1800 X-26.1 Y-8.997 E75.71593
G0 F12000 X-25.8 Y-8.997
G1 F1800 X-25.8 Y-8.873 E75.72076
G0 F12000 X-25.5 Y-8.873
G1 F1800 X-25.5 Y-8.997 E75.72559
G0 F12000 X-25.2 Y-8.997
G1 F1800 X-25.2 Y-8.873 E75.73043
G0 F12000 X-24.9 Y-8.873
G1 F1800 X-24.9 Y-8.997 E75.73526
G0 F12000 X-24.6 Y-8.997
G1 F1800 X-24.6 Y-8.873 E75.74009
G0 F12000 X-24.3 Y-8.873
G1 F1800 X-24.3 Y-8.997 E75.74493
G0 F12000 X-24 Y-8.997
G1 F1800 X-24 Y-8.873 E75.74976
G0 F12000 X-23.7 Y-8.873
G1 F1800 X-23.7 Y-8.997 E75.75459
G0 F12000 X-23.4 Y-8.997
G1 F1800 X-23.4 Y-8.873 E75.75942
G0 F12000 X-23.1 Y-8.873
G1 F1800 X-23.1 Y-8.997 E75.76426
G0 F12000 X-22.8 Y-8.997
G1 F1800 X-22.8 Y-8.873 E75.76909
G0 F12000 X-22.5 Y-8.873
G1 F1800 X-22.5 Y-8.997 E75.77392
G0 F12000 X-22.2 Y-8.997
G1 F1800 X-22.2 Y-8.873 E75.77876
G0 F12000 X-21.9 Y-8.873
G1 F1800 X-21.9 Y-8.997 E75.78359
G0 F12000 X-21.6 Y-8.997
G1 F1800 X-21.6 Y-8.873 E75.78842
G0 F12000 X-21.3 Y-8.873
G1 F1800 X-21.3 Y-8.997 E75.79326
G0 F12000 X-21 Y-8.997
G1 F1800 X-21 Y-8.873 E75.79809
G0 F12000 X-20.7 Y-8.873
G1 F1800 X-20.7 Y-8.997 E75.80292
G0 F12000 X-20.4 Y-8.997
G1 F1800 X-20.4 Y-8.873 E75.80776
G0 F12000 X-20.1 Y-8.873
G1 F1800 X-20.1 Y-8.997 E75.81259
G0 F12000 X-19.8 Y-8.997
G1 F1800 X-19.8 Y-8.873 E75.81742
G0 F12000 X-19.5 Y-8.873
G1 F1800 X-19.5 Y-8.997 E75.82226
G0 F12000 X-19.2 Y-8.997
G1 F1800 X-19.2 Y-8.873 E75.82709
G0 F12000 X-18.9 Y-8.873
G1 F1800 X-18.9 Y-8.997 E75.83192
G0 F12000 X-18.6 Y-8.997
G1 F1800 X-18.6 Y-8.873 E75.83675
G0 F12000 X-18.3 Y-8.873
G1 F1800 X-18.3 Y-8.997 E75.84159
G0 F12000 X-18 Y-8.997
G1 F1800 X-18 Y-8.873 E75.84642
G0 F12000 X-17.7 Y-8.873
G1 F1800 X-17.7 Y-8.997 E75.85125
G0 F12000 X-17.4 Y-8.997
G1 F1800 X-17.4 Y-8.873 E75.85609
G0 F12000 X-17.1 Y-8.873
G1 F1800 X-17.1 Y-8.997 E75.86092
G0 F12000 X-16.8 Y-8.997
G1 F1800 X-16.8 Y-8.873 E75.86575
G0 F12000 X-16.5 Y-8.873
G1 F1800 X-16.5 Y-8.997 E75.87059
G0 F12000 X-16.2 Y-8.997
G1 F1800 X-16.2 Y-8.873 E75.87542
G0 F12000 X-15.9 Y-8.873
G1 F1800 X-15.9 Y-8.997 E75.88025
G0 F12000 X-15.6 Y-8.997
G1 F1800 X-15.6 Y-8.873 E75.88509
G0 F12000 X-15.3 Y-8.873
G1 F1800 X-15.3 Y-8.997 E75.88992
G0 F12000 X-15 Y-8.997
G1 F1800 X-15 Y-8.873 E75.89475
G0 F12000 X-14.7 Y-8.873
G1 F1800 X-14.7 Y-8.997 E75.89958
G0 F12000 X-14.4 Y-8.997
G1 F1800 X-14.4 Y-8.873 E75.90442
G0 F12000 X-14.1 Y-8.873
G1 F1800 X-14.1 Y-8.997 E75.90925
G0 F12000 X-13.8 Y-8.997
G1 F1800 X-13.8 Y-8.873 E75.91408
G0 F12000 X-13.5 Y-8.873
G1 F1800 X-13.5 Y-8.997 E75.91892
G0 F12000 X-13.2 Y-8.997
G1 F1800 X-13.2 Y-8.873 E75.92375
G0 F12000 X-12.9 Y-8.873
G1 F1800 X-12.9 Y-8.997 E75.92858
G0 F12000 X-12.6 Y-8.997
G1 F1800 X-12.6 Y-8.873 E75.93342
G0 F12000 X-12.3 Y-8.873
G1 F1800 X-12.3 Y-8.997 E75.93825
G0 F12000 X-12 Y-8.997
