;FLAVOR:Marlin
;TIME:1732
;Filament used: 2.68339m
;Layer height: 0.2
;MINX:-35.547
;MINY:-10.047
;MINZ:0.2
;MAXX:35.547
;MAXY:10.047
;MAXZ:19
;POSTPROCESSED
;Generated with Cura_SteamEngine 4.13.0-BETA
M140 S50
M105
M190 S50
M104 S220
M105
M109 S220
M82 ;absolute extrusion mode
;FLAVOR:Marlin
M82 ;absolute extrusion mode
G21
G90
M82
M107 T0
G28
G92 E0
G0 E3 F200
G92 E0 ; reset extrusion distance
M106 S255 ; Enable cooling fan full speed
G1 X-98 Y0 Z0.4 F3000 ; move to arc start
G3 X0 Y-98 I98 Z0.4 E40 F400 ; lay arc stripe 90deg
G92 E0 ; reset extrusion distance
G4 P500 ; wait for 0.5 sec
G0 Z10 E-1 ; Lift 15mm and retract 1mm filament
G4 P2000 ; wait for 5 sec
G0 Z15
M107 ; Disable cooling fan
G1 X0 Y-85 Z4 E0 F3000 ; get off the bed
G92 E0
G92 E0
G1 F3000 E-10
;LAYER_COUNT:95
;LAYER:0
M106 S255
;MESH:window-handle.3mf
G0 F12000 X34.862 Y-6.9 Z0.2
;TYPE:WALL-OUTER
G1 F3000 E0
G1 F1800 X34.861 Y6.9 E1.07576
G1 X34.867 Y8.751 E1.22005
G1 X34.866 Y9.365 E1.26791
G1 X34.147 Y9.366 E1.32396
G1 X32.076 Y9.362 E1.4854
G1 X-32.076 Y9.361 E6.48627
G1 X-34.146 Y9.367 E6.64764
G1 X-34.865 Y9.366 E6.70369
G1 X-34.866 Y8.752 E6.75155
G1 X-34.862 Y6.9 E6.89592
G1 X-34.861 Y-6.9 E7.97168
G1 X-34.867 Y-8.751 E8.11597
G1 X-34.866 Y-9.365 E8.16383
G1 X-34.147 Y-9.366 E8.21988
G1 X-32.076 Y-9.362 E8.38132
G1 X32.076 Y-9.361 E13.38219
G1 X34.146 Y-9.367 E13.54356
G1 X34.865 Y-9.366 E13.59961
G1 X34.866 Y-8.752 E13.64747
G1 X34.862 Y-6.9 E13.79184
G0 F12000 X34.862 Y-6.7
G0 X34.762 Y-6.701
G0 X34.275 Y-2.053
G0 X34.176 Y-2.059
G1 F1800 X34.176 Y-2.841 E13.8528
G1 X34.078 Y-3.618 E13.91385
G1 X33.883 Y-4.376 E13.97486
G1 X33.595 Y-5.106 E14.03604
G1 X33.216 Y-5.793 E14.0972
G1 X32.756 Y-6.426 E14.1582
G1 X32.22 Y-6.997 E14.21925
G1 X31.616 Y-7.496 E14.28032
G1 X31.082 Y-7.843 E14.32996
G1 X30.607 Y-8.093 E14.37181
G1 X29.878 Y-8.382 E14.43294
G1 X29.119 Y-8.578 E14.49405
G1 X28.341 Y-8.676 E14.55517
G1 X27.955 Y-8.688 E14.58528
G1 X-27.955 Y-8.689 E18.94365
G1 X-28.731 Y-8.639 E19.00427
G1 X-29.501 Y-8.492 E19.06538
G1 X-30.11 Y-8.3 E19.11516
G1 X-30.607 Y-8.093 E19.15713
G1 X-31.293 Y-7.716 E19.21814
G1 X-31.926 Y-7.256 E19.27914
G1 X-32.497 Y-6.72 E19.34019
G1 X-32.996 Y-6.116 E19.40127
G1 X-33.343 Y-5.582 E19.45091
G1 X-33.593 Y-5.107 E19.49275
G1 X-33.882 Y-4.378 E19.55388
G1 X-34.078 Y-3.619 E19.61499
G1 X-34.176 Y-2.841 E19.67612
G1 X-34.176 Y-2.059 E19.73708
G1 X-34.078 Y-1.282 E19.79813
G1 X-33.883 Y-.524 E19.85914
G1 X-33.653 Y0.071 E19.90887
G1 X-33.416 Y0.554 E19.95081
G1 X-32.996 Y1.216 E20.01192
G1 X-32.497 Y1.82 E20.073
G1 X-31.926 Y2.356 E20.13405
G1 X-31.294 Y2.816 E20.19498
G1 X-30.607 Y3.193 E20.25607
G1 X-29.878 Y3.482 E20.3172
G1 X-29.119 Y3.678 E20.37831
G1 X-28.341 Y3.776 E20.43943
G1 X-27.955 Y3.788 E20.46954
G1 X27.955 Y3.789 E24.82792
G1 X28.731 Y3.739 E24.88853
G1 X29.501 Y3.592 E24.94964
G1 X30.11 Y3.4 E24.99942
G1 X30.607 Y3.193 E25.04139
G1 X31.293 Y2.816 E25.10241
G1 X31.926 Y2.356 E25.1634
G1 X32.497 Y1.82 E25.22445
G1 X32.996 Y1.216 E25.28553
G1 X33.343 Y0.682 E25.33517
G1 X33.594 Y0.207 E25.37705
G1 X33.882 Y-.522 E25.43815
G1 X34.078 Y-1.281 E25.49926
G1 X34.176 Y-2.059 E25.56039
G0 F12000 X34.176 Y-2.259
G0 X34.276 Y-2.259
G0 X34.271 Y0.098
;TYPE:SKIN
G1 F1800 X34.271 Y6.9 E26.09063
G1 X34.277 Y8.776 E26.23687
G1 X32.077 Y8.772 E26.40837
G1 X-32.076 Y8.771 E31.40931
G1 X-34.276 Y8.777 E31.58081
G1 X-34.272 Y6.902 E31.72697
G1 X-34.272 Y0.107 E32.25667
G1 X-34.194 Y0.307 E32.2734
G1 X-33.931 Y0.843 E32.31994
G1 X-33.474 Y1.564 E32.38649
G1 X-32.928 Y2.225 E32.45332
G1 X-32.303 Y2.812 E32.52016
G1 X-31.611 Y3.315 E32.58685
G1 X-30.859 Y3.728 E32.65373
G1 X-30.061 Y4.044 E32.72064
G1 X-29.229 Y4.258 E32.7876
G1 X-28.387 Y4.364 E32.85376
G1 X-27.965 Y4.378 E32.88667
G1 X27.974 Y4.379 E37.24731
G1 X28.806 Y4.325 E37.31231
G1 X29.645 Y4.165 E37.37889
G1 X30.312 Y3.955 E37.4334
G1 X30.863 Y3.726 E37.47991
G1 X31.61 Y3.315 E37.54638
G1 X32.303 Y2.812 E37.61313
G1 X32.928 Y2.225 E37.67997
G1 X33.472 Y1.566 E37.74658
G1 X33.852 Y0.981 E37.80096
G1 X34.131 Y0.454 E37.84744
G1 X34.271 Y0.098 E37.87726
G0 F12000 X34.272 Y-4.998
G1 F1800 X34.13 Y-5.358 E37.90743
G1 X33.715 Y-6.11 E37.97439
G1 X33.212 Y-6.803 E38.04114
G1 X32.625 Y-7.428 E38.10798
G1 X31.966 Y-7.972 E38.17459
G1 X31.381 Y-8.352 E38.22897
G1 X30.854 Y-8.63 E38.27542
G1 X30.498 Y-8.771 E38.30527
G1 X32.076 Y-8.771 E38.42828
G1 X34.146 Y-8.777 E38.58964
G1 X34.276 Y-8.754 E38.59993
G1 X34.272 Y-6.902 E38.7443
G1 X34.272 Y-4.998 E38.89273
G0 F12000 X32.247 Y-7.026
G0 X30.623 Y-8.129
G0 X29.126 Y-8.617
G0 X-30.512 Y-8.772
G1 F1800 X-30.863 Y-8.626 E38.92236
G1 X-31.61 Y-8.215 E38.98882
G1 X-32.303 Y-7.712 E39.05558
G1 X-32.928 Y-7.125 E39.12242
G1 X-33.472 Y-6.466 E39.18903
G1 X-33.852 Y-5.881 E39.24341
G1 X-34.13 Y-5.354 E39.28986
G1 X-34.271 Y-4.998 E39.3197
G1 X-34.271 Y-6.9 E39.46797
G1 X-34.277 Y-8.776 E39.61421
G1 X-32.077 Y-8.772 E39.78571
G1 X-30.512 Y-8.772 E39.90771
G0 F12000 X-32.526 Y-6.747
G0 X-33.629 Y-5.123
G0 X-34.117 Y-3.626
G0 X-34.215 Y-2.136
G0 X-33.6 Y1.836
G1 F1800 X-33.6 Y8.505 E40.42758
G0 F12000 X-33 Y8.504
G1 F1800 X-33 Y2.528 E40.89343
G0 F12000 X-32.4 Y3.076
G1 F1800 X-32.4 Y8.502 E41.3164
G0 F12000 X-31.8 Y8.501
G1 F1800 X-31.8 Y3.512 E41.70531
G0 F12000 X-31.2 Y3.85
G1 F1800 X-31.2 Y8.501 E42.06788
G0 F12000 X-30.6 Y8.501
G1 F1800 X-30.6 Y4.121 E42.40931
G0 F12000 X-30 Y4.339
G1 F1800 X-30 Y8.501 E42.73375
G0 F12000 X-29.4 Y8.501
G1 F1800 X-29.4 Y4.493 E43.04619
G0 F12000 X-28.8 Y4.584
G1 F1800 X-28.8 Y8.501 E43.35153
G0 F12000 X-28.2 Y8.501
G1 F1800 X-28.2 Y4.641 E43.65244
G0 F12000 X-27.6 Y4.649
G1 F1800 X-27.6 Y8.501 E43.95271
G0 F12000 X-27 Y8.501
G1 F1800 X-27 Y4.649 E44.25299
G0 F12000 X-26.4 Y4.649
G1 F1800 X-26.4 Y8.501 E44.55327
G0 F12000 X-25.8 Y8.501
G1 F1800 X-25.8 Y4.649 E44.85354
G0 F12000 X-25.2 Y4.649
G1 F1800 X-25.2 Y8.501 E45.15382
G0 F12000 X-24.6 Y8.501
G1 F1800 X-24.6 Y4.649 E45.4541
G0 F12000 X-24 Y4.649
G1 F1800 X-24 Y8.501 E45.75437
G0 F12000 X-23.4 Y8.501
G1 F1800 X-23.4 Y4.649 E46.05465
G0 F12000 X-22.8 Y4.649
G1 F1800 X-22.8 Y8.501 E46.35493
G0 F12000 X-22.2 Y8.501
G1 F1800 X-22.2 Y4.649 E46.6552
G0 F12000 X-21.6 Y4.649
G1 F1800 X-21.6 Y8.501 E46.95548
G0 F12000 X-21 Y8.501
G1 F1800 X-21 Y4.649 E47.25576
G0 F12000 X-20.4 Y4.649
G1 F1800 X-20.4 Y8.501 E47.55603
G0 F12000 X-19.8 Y8.501
G1 F1800 X-19.8 Y4.649 E47.85631
G0 F12000 X-19.2 Y4.649
G1 F1800 X-19.2 Y8.501 E48.15659
G0 F12000 X-18.6 Y8.501
G1 F1800 X-18.6 Y4.649 E48.45686
G0 F12000 X-18 Y4.649
G1 F1800 X-18 Y8.501 E48.75714
G0 F12000 X-17.4 Y8.501
G1 F1800 X-17.4 Y4.649 E49.05742
G0 F12000 X-16.8 Y4.649
G1 F1800 X-16.8 Y8.501 E49.35769
G0 F12000 X-16.2 Y8.501
G1 F1800 X-16.2 Y4.649 E49.65797
G0 F12000 X-15.6 Y4.649
G1 F1800 X-15.6 Y8.501 E49.95825
G0 F12000 X-15 Y8.501
G1 F1800 X-15 Y4.649 E50.25852
G0 F12000 X-14.4 Y4.649
G1 F1800 X-14.4 Y8.501 E50.5588
G0 F12000 X-13.8 Y8.501
G1 F1800 X-13.8 Y4.649 E50.85907
G0 F12000 X-13.2 Y4.649
G1 F1800 X-13.2 Y8.501 E51.15935
G0 F12000 X-12.6 Y8.501
G1 F1800 X-12.6 Y4.649 E51.45963
G0 F12000 X-12 Y4.649
G1 F1800 X-12 Y8.501 E51.7599
G0 F12000 X-11.4 Y8.501
G1 F1800 X-11.4 Y4.649 E52.06018
G0 F12000 X-10.8 Y4.649
G1 F1800 X-10.8 Y8.501 E52.36046
G0 F12000 X-10.2 Y8.501
G1 F1800 X-10.2 Y4.649 E52.66073
G0 F12000 X-9.6 Y4.649
G1 F1800 X-9.6 Y8.501 E52.96101
G0 F12000 X-9 Y8.501
G1 F1800 X-9 Y4.649 E53.26129
G0 F12000 X-8.4 Y4.649
G1 F1800 X-8.4 Y8.501 E53.56156
G0 F12000 X-7.8 Y8.501
G1 F1800 X-7.8 Y4.649 E53.86184
G0 F12000 X-7.2 Y4.649
G1 F1800 X-7.2 Y8.501 E54.16212
G0 F12000 X-6.6 Y8.501
G1 F1800 X-6.6 Y4.649 E54.46239
G0 F12000 X-6 Y4.649
G1 F1800 X-6 Y8.501 E54.76267
G0 F12000 X-5.4 Y8.501
G1 F1800 X-5.4 Y4.649 E55.06295
G0 F12000 X-4.8 Y4.649
G1 F1800 X-4.8 Y8.501 E55.36322
G0 F12000 X-4.2 Y8.501
G1 F1800 X-4.2 Y4.649 E55.6635
G0 F12000 X-3.6 Y4.649
G1 F1800 X-3.6 Y8.501 E55.96378
G0 F12000 X-3 Y8.501
G1 F1800 X-3 Y4.649 E56.26405
G0 F12000 X-2.4 Y4.649
G1 F1800 X-2.4 Y8.501 E56.56433
G0 F12000 X-1.8 Y8.501
G1 F1800 X-1.8 Y4.649 E56.86461
G0 F12000 X-1.2 Y4.649
G1 F1800 X-1.2 Y8.501 E57.16488
G0 F12000 X-.6 Y8.501
G1 F1800 X-.6 Y4.649 E57.46516
G0 F12000 X0.00 Y4.649
G1 F1800 X0.00 Y8.501 E57.76544
G0 F12000 X0.6 Y8.501
G1 F1800 X0.6 Y4.649 E58.06571
G0 F12000 X1.2 Y4.649
G1 F1800 X1.2 Y8.501 E58.36599
G0 F12000 X1.8 Y8.501
G1 F1800 X1.8 Y4.649 E58.66627
G0 F12000 X2.4 Y4.649
G1 F1800 X2.4 Y8.501 E58.96654
G0 F12000 X3 Y8.501
G1 F1800 X3 Y4.649 E59.26682
G0 F12000 X3.6 Y4.649
G1 F1800 X3.6 Y8.501 E59.5671
G0 F12000 X4.2 Y8.501
G1 F1800 X4.2 Y4.649 E59.86737
G0 F12000 X4.8 Y4.649
G1 F1800 X4.8 Y8.501 E60.16765
G0 F12000 X5.4 Y8.501
G1 F1800 X5.4 Y4.649 E60.46793
G0 F12000 X6 Y4.649
G1 F1800 X6 Y8.501 E60.7682
G0 F12000 X6.6 Y8.501
G1 F1800 X6.6 Y4.649 E61.06848
G0 F12000 X7.2 Y4.649
G1 F1800 X7.2 Y8.501 E61.36876
G0 F12000 X7.8 Y8.501
G1 F1800 X7.8 Y4.649 E61.66903
G0 F12000 X8.4 Y4.649
G1 F1800 X8.4 Y8.501 E61.96931
G0 F12000 X9 Y8.501
G1 F1800 X9 Y4.649 E62.26959
G0 F12000 X9.6 Y4.649
G1 F1800 X9.6 Y8.501 E62.56986
G0 F12000 X10.2 Y8.501
G1 F1800 X10.2 Y4.649 E62.87014
G0 F12000 X10.8 Y4.649
G1 F1800 X10.8 Y8.501 E63.17042
G0 F12000 X11.4 Y8.501
G1 F1800 X11.4 Y4.649 E63.47069
G0 F12000 X12 Y4.649
G1 F1800 X12 Y8.501 E63.77097
G0 F12000 X12.6 Y8.501
G1 F1800 X12.6 Y4.649 E64.07125
G0 F12000 X13.2 Y4.649
G1 F1800 X13.2 Y8.501 E64.37152
G0 F12000 X13.8 Y8.501
G1 F1800 X13.8 Y4.649 E64.6718
G0 F12000 X14.4 Y4.649
G1 F1800 X14.4 Y8.501 E64.97208
G0 F12000 X15 Y8.501
G1 F1800 X15 Y4.649 E65.27235
G0 F12000 X15.6 Y4.649
G1 F1800 X15.6 Y8.501 E65.57263
G0 F12000 X16.2 Y8.501
G1 F1800 X16.2 Y4.649 E65.87291
G0 F12000 X16.8 Y4.649
G1 F1800 X16.8 Y8.501 E66.17318
G0 F12000 X17.4 Y8.501
G1 F1800 X17.4 Y4.649 E66.47346
G0 F12000 X18 Y4.649
G1 F1800 X18 Y8.501 E66.77374
G0 F12000 X18.6 Y8.501
G1 F1800 X18.6 Y4.649 E67.07401
G0 F12000 X19.2 Y4.649
G1 F1800 X19.2 Y8.501 E67.37429
G0 F12000 X19.8 Y8.501
G1 F1800 X19.8 Y4.649 E67.67457
G0 F12000 X20.4 Y4.649
G1 F1800 X20.4 Y8.501 E67.97484
G0 F12000 X21 Y8.501
G1 F1800 X21 Y4.649 E68.27512
G0 F12000 X21.6 Y4.649
G1 F1800 X21.6 Y8.501 E68.5754
G0 F12000 X22.2 Y8.501
G1 F1800 X22.2 Y4.649 E68.87567
G0 F12000 X22.8 Y4.649
G1 F1800 X22.8 Y8.501 E69.17595
G0 F12000 X23.4 Y8.501
G1 F1800 X23.4 Y4.649 E69.47623
G0 F12000 X24 Y4.649
G1 F1800 X24 Y8.501 E69.7765
G0 F12000 X24.6 Y8.501
G1 F1800 X24.6 Y4.649 E70.07678
G0 F12000 X25.2 Y4.649
G1 F1800 X25.2 Y8.501 E70.37706
G0 F12000 X25.8 Y8.501
G1 F1800 X25.8 Y4.649 E70.67733
G0 F12000 X26.4 Y4.649
G1 F1800 X26.4 Y8.501 E70.97761
G0 F12000 X27 Y8.501
G1 F1800 X27 Y4.649 E71.27789
G0 F12000 X27.6 Y4.649
G1 F1800 X27.6 Y8.501 E71.57816
G0 F12000 X28.2 Y8.501
G1 F1800 X28.2 Y4.634 E71.87961
G0 F12000 X28.8 Y4.595
G1 F1800 X28.8 Y8.501 E72.1841
G0 F12000 X29.4 Y8.501
G1 F1800 X29.4 Y4.486 E72.49708
G0 F12000 X30 Y4.335
G1 F1800 X30 Y8.501 E72.82183
G0 F12000 X30.6 Y8.501
G1 F1800 X30.6 Y4.127 E73.1628
G0 F12000 X31.2 Y3.849
G1 F1800 X31.2 Y8.501 E73.52544
G0 F12000 X31.8 Y8.501
G1 F1800 X31.8 Y3.51 E73.91451
G0 F12000 X32.4 Y3.075
G1 F1800 X32.4 Y8.502 E74.33756
G0 F12000 X33 Y8.503
G1 F1800 X33 Y2.527 E74.80341
G0 F12000 X33.6 Y1.835
G1 F1800 X33.6 Y8.504 E75.32328
G1 X33.6 Y8.654
G0 F12000 X34.215 Y-2.057
G0 X33.6 Y-6.729
G1 F1800 X33.6 Y-8.506 E75.4618
G0 F12000 X33 Y-8.504
G1 F1800 X33 Y-7.423 E75.54607
G0 F12000 X32.4 Y-7.964
G1 F1800 X32.4 Y-8.503 E75.58809
G0 F12000 X27.955 Y-8.727
G0 X-27.956 Y-8.728
G0 X-32.4 Y-8.502
G1 F1800 X-32.4 Y-7.975 E75.62917
G0 F12000 X-33 Y-8.503
G1 F1800 X-33 Y-7.427 E75.71305
G0 F12000 X-33.6 Y-6.735
G1 F1800 X-33.6 Y-8.504 E75.85095
G1 X-33.6 Y-8.654
G0 F12000 X-30 Y-8.617
;TYPE:SKIN
G1 F1800 X-30 Y-9.091 E75.86942
G0 F12000 X-29.7 Y-9.091
G1 F1800 X-29.7 Y-8.711 E75.88423
G0 F12000 X-29.4 Y-8.786
G1 F1800 X-29.4 Y-9.091 E75.89612
G0 F12000 X-29.1 Y-9.091
G1 F1800 X-29.1 Y-8.843 E75.90579
G0 F12000 X-28.8 Y-8.9
G1 F1800 X-28.8 Y-9.091 E75.91323
G0 F12000 X-28.5 Y-9.091
G1 F1800 X-28.5 Y-8.924 E75.91974
G0 F12000 X-28.2 Y-8.943
G1 F1800 X-28.2 Y-9.091 E75.92551
G0 F12000 X-27.9 Y-9.091
G1 F1800 X-27.9 Y-8.959 E75.93066
G0 F12000 X-27.6 Y-8.959
G1 F1800 X-27.6 Y-9.091 E75.9358
G0 F12000 X-27.3 Y-9.091
G1 F1800 X-27.3 Y-8.959 E75.94095
G0 F12000 X-27 Y-8.959
G1 F1800 X-27 Y-9.091 E75.94609
G0 F12000 X-26.7 Y-9.091
G1 F1800 X-26.7 Y-8.959 E75.95124
G0 F12000 X-26.4 Y-8.959
G1 F1800 X-26.4 Y-9.091 E75.95638
G0 F12000 X-26.1 Y-9.091
G1 F1800 X-26.1 Y-8.959 E75.96153
G0 F12000 X-25.8 Y-8.959
G1 F1800 X-25.8 Y-9.091 E75.96667
G0 F12000 X-25.5 Y-9.091
G1 F1800 X-25.5 Y-8.959 E75.97182
G0 F12000 X-25.2 Y-8.959
G1 F1800 X-25.2 Y-9.091 E75.97696
G0 F12000 X-24.9 Y-9.091
G1 F1800 X-24.9 Y-8.959 E75.98211
G0 F12000 X-24.6 Y-8.959
G1 F1800 X-24.6 Y-9.091 E75.98725
G0 F12000 X-24.3 Y-9.091
G1 F1800 X-24.3 Y-8.959 E75.99239
G0 F12000 X-24 Y-8.959
G1 F1800 X-24 Y-9.091 E75.99754
G0 F12000 X-23.7 Y-9.091
G1 F1800 X-23.7 Y-8.959 E76.00268
G0 F12000 X-23.4 Y-8.959
G1 F1800 X-23.4 Y-9.091 E76.00783
G0 F12000 X-23.1 Y-9.091
G1 F1800 X-23.1 Y-8.959 E76.01297
G0 F12000 X-22.8 Y-8.959
G1 F1800 X-22.8 Y-9.091 E76.01812
G0 F12000 X-22.5 Y-9.091
G1 F1800 X-22.5 Y-8.959 E76.02326
G0 F12000 X-22.2 Y-8.959
G1 F1800 X-22.2 Y-9.091 E76.02841
G0 F12000 X-21.9 Y-9.091
G1 F1800 X-21.9 Y-8.959 E76.03355
G0 F12000 X-21.6 Y-8.959
G1 F1800 X-21.6 Y-9.091 E76.0387
G0 F12000 X-21.3 Y-9.091
G1 F1800 X-21.3 Y-8.959 E76.04384
G0 F12000 X-21 Y-8.959
G1 F1800 X-21 Y-9.091 E76.04899
G0 F12000 X-20.7 Y-9.091
G1 F1800 X-20.7 Y-8.959 E76.05413
G0 F12000 X-20.4 Y-8.959
G1 F1800 X-20.4 Y-9.091 E76.05928
G0 F12000 X-20.1 Y-9.091
G1 F1800 X-20.1 Y-8.959 E76.06442
G0 F12000 X-19.8 Y-8.959
G1 F1800 X-19.8 Y-9.091 E76.06957
G0 F12000 X-19.5 Y-9.091
G1 F1800 X-19.5 Y-8.959 E76.07471
G0 F12000 X-19.2 Y-8.959
G1 F1800 X-19.2 Y-9.091 E76.07986
G0 F12000 X-18.9 Y-9.091
G1 F1800 X-18.9 Y-8.959 E76.085
G0 F12000 X-18.6 Y-8.959
G1 F1800 X-18.6 Y-9.091 E76.09015
G0 F12000 X-18.3 Y-9.091
G1 F1800 X-18.3 Y-8.959 E76.09529
G0 F12000 X-18 Y-8.959
G1 F1800 X-18 Y-9.091 E76.10044
G0 F12000 X-17.7 Y-9.091
G1 F1800 X-17.7 Y-8.959 E76.10558
G0 F12000 X-17.4 Y-8.959
G1 F1800 X-17.4 Y-9.091 E76.11073
G0 F12000 X-17.1 Y-9.091
G1 F1800 X-17.1 Y-8.959 E76.11587
G0 F12000 X-16.8 Y-8.959
G1 F1800 X-16.8 Y-9.091 E76.12102
G0 F12000 X-16.5 Y-9.091
G1 F1800 X-16.5 Y-8.959 E76.12616
G0 F12000 X-16.2 Y-8.959
G1 F1800 X-16.2 Y-9.091 E76.13131
G0 F12000 X-15.9 Y-9.091
G1 F1800 X-15.9 Y-8.959 E76.13645
G0 F12000 X-15.6 Y-8.959
G1 F1800 X-15.6 Y-9.091 E76.1416
G0 F12000 X-15.3 Y-9.091
G1 F1800 X-15.3 Y-8.959 E76.14674
G0 F12000 X-15 Y-8.959
G1 F1800 X-15 Y-9.091 E76.15189
G0 F12000 X-14.7 Y-9.091
G1 F1800 X-14.7 Y-8.959 E76.15703
G0 F12000 X-14.4 Y-8.959
G1 F1800 X-14.4 Y-9.091 E76.16218
G0 F12000 X-14.1 Y-9.091
G1 F1800 X-14.1 Y-8.959 E76.16732
G0 F12000 X-13.8 Y-8.959
G1 F1800 X-13.8 Y-9.091 E76.17247
G0 F12000 X-13.5 Y-9.091
G1 F1800 X-13.5 Y-8.959 E76.17761
G0 F12000 X-13.2 Y-8.959
G1 F1800 X-13.2 Y-9.091 E76.18276
G0 F12000 X-12.9 Y-9.091
G1 F1800 X-12.9 Y-8.959 E76.1879
G0 F12000 X-12.6 Y-8.959
G1 F1800 X-12.6 Y-9.091 E76.19305
G0 F12000 X-12.3 Y-9.091
G1 F1800 X-12.3 Y-8.959 E76.19819
G0 F12000 X-12 Y-8.959
G1 F1800 X-12 Y-9.091 E76.20334
G0 F12000 X-11.7 Y-9.091
G1 F1800 X-11.7 Y-8.959 E76.20848
G0 F12000 X-11.4 Y-8.959
G1 F1800 X-11.4 Y-9.091 E76.21363
G0 F12000 X-11.1 Y-9.091
G1 F1800 X-11.1 Y-8.959 E76.21877
G0 F12000 X-10.8 Y-8.959
G1 F1800 X-10.8 Y-9.091 E76.22392
