;FLAVOR:Marlin
;TIME:1790
;Filament used: 2.74715m
;Layer height: 0.2
;MINX:-35.905
;MINY:-10.15
;MINZ:0.2
;MAXX:35.905
;MAXY:10.151
;MAXZ:19
;POSTPROCESSED
;Generated with Cura_SteamEngine 4.13.0-BETA
M140 S50
M105
M190 S50
M104 S220
M105
M109 S220
M82 ;absolute extrusion mode
;FLAVOR:Marlin
M82 ;absolute extrusion mode
G21
G90
M82
M107 T0
G28
G92 E0
G0 E3 F200
G92 E0 ; reset extrusion distance
M106 S255 ; Enable cooling fan full speed
G1 X-98 Y0 Z0.4 F3000 ; move to arc start
G3 X0 Y-98 I98 Z0.4 E40 F400 ; lay arc stripe 90deg
G92 E0 ; reset extrusion distance
G4 P500 ; wait for 0.5 sec
G0 Z10 E-1 ; Lift 15mm and retract 1mm filament
G4 P2000 ; wait for 5 sec
G0 Z15
M107 ; Disable cooling fan
G1 X0 Y-85 Z4 E0 F3000 ; get off the bed
G92 E0
G92 E0
G1 F3000 E-10
;LAYER_COUNT:95
;LAYER:0
M106 S255
;MESH:window-handle.3mf
G0 F12000 X35.21 Y-6.969 Z0.2
;TYPE:WALL-OUTER
G1 F3000 E0
G1 F1800 X35.209 Y6.97 E1.08659
G1 X35.217 Y8.884 E1.2358
G1 X35.216 Y9.461 E1.28078
G1 X34.539 Y9.461 E1.33355
G1 X32.397 Y9.455 E1.50053
G1 X-32.398 Y9.454 E6.55152
G1 X-34.539 Y9.462 E6.71842
G1 X-35.216 Y9.461 E6.7712
G1 X-35.21 Y6.969 E6.96546
G1 X-35.209 Y-6.97 E8.05205
G1 X-35.217 Y-8.884 E8.20125
G1 X-35.216 Y-9.461 E8.24623
G1 X-34.539 Y-9.461 E8.29901
G1 X-32.397 Y-9.455 E8.46598
G1 X32.398 Y-9.454 E13.51698
G1 X34.539 Y-9.462 E13.68388
G1 X35.216 Y-9.461 E13.73665
G1 X35.21 Y-6.969 E13.93091
G0 F12000 X35.21 Y-6.769
G0 X35.11 Y-6.77
G0 X34.616 Y-2.072
G0 X34.517 Y-2.078
G1 F1800 X34.518 Y-2.87 E13.99265
G1 X34.419 Y-3.654 E14.05425
G1 X34.222 Y-4.421 E14.11598
G1 X33.931 Y-5.157 E14.17768
G1 X33.549 Y-5.851 E14.23943
G1 X33.084 Y-6.491 E14.3011
G1 X32.655 Y-6.957 E14.35048
G1 X32.245 Y-7.33 E14.39368
G1 X31.737 Y-7.707 E14.443
G1 X31.265 Y-7.996 E14.48614
G1 X30.55 Y-8.333 E14.54776
G1 X29.947 Y-8.535 E14.59733
G1 X29.408 Y-8.664 E14.64054
G1 X28.626 Y-8.762 E14.70197
G1 X28.232 Y-8.775 E14.7327
G1 X-28.234 Y-8.776 E19.13442
G1 X-29.018 Y-8.726 E19.19566
G1 X-29.795 Y-8.578 E19.25732
G1 X-30.549 Y-8.333 E19.31912
G1 X-31.265 Y-7.996 E19.38081
G1 X-31.932 Y-7.572 E19.44242
G1 X-32.542 Y-7.068 E19.5041
G1 X-32.981 Y-6.61 E19.55356
G1 X-33.326 Y-6.178 E19.59665
G1 X-33.751 Y-5.51 E19.65837
G1 X-34.088 Y-4.795 E19.71999
G1 X-34.29 Y-4.192 E19.76956
G1 X-34.419 Y-3.653 E19.81277
G1 X-34.517 Y-2.871 E19.8742
G1 X-34.518 Y-2.079 E19.93594
G1 X-34.419 Y-1.295 E19.99754
G1 X-34.222 Y-.528 E20.05928
G1 X-33.931 Y0.208 E20.12097
G1 X-33.549 Y0.902 E20.18272
G1 X-33.084 Y1.542 E20.24439
G1 X-32.655 Y2.008 E20.29377
G1 X-32.245 Y2.381 E20.33698
G1 X-31.737 Y2.758 E20.38629
G1 X-31.265 Y3.047 E20.42943
G1 X-30.55 Y3.384 E20.49105
G1 X-29.947 Y3.586 E20.54062
G1 X-29.408 Y3.715 E20.58383
G1 X-28.626 Y3.813 E20.64526
G1 X-28.232 Y3.826 E20.67599
G1 X28.234 Y3.827 E25.07771
G1 X29.018 Y3.777 E25.13895
G1 X29.795 Y3.629 E25.20061
G1 X30.549 Y3.384 E25.26241
G1 X31.265 Y3.047 E25.3241
G1 X31.932 Y2.623 E25.38571
G1 X32.542 Y2.119 E25.4474
G1 X32.981 Y1.661 E25.49685
G1 X33.326 Y1.229 E25.53995
G1 X33.751 Y0.561 E25.60167
G1 X34.088 Y-.154 E25.66328
G1 X34.29 Y-.757 E25.71286
G1 X34.419 Y-1.296 E25.75606
G1 X34.517 Y-2.078 E25.8175
G0 F12000 X34.517 Y-2.278
G0 X34.617 Y-2.277
G0 X34.619 Y0.103
;TYPE:SKIN
G1 F1800 X34.619 Y6.97 E26.3528
G1 X34.627 Y8.871 E26.50099
G1 X32.397 Y8.865 E26.67483
G1 X-32.4 Y8.864 E31.72598
G1 X-34.624 Y8.872 E31.89935
G1 X-34.62 Y6.971 E32.04754
G1 X-34.62 Y0.071 E32.58542
G1 X-34.466 Y0.46 E32.61803
G1 X-34.048 Y1.219 E32.68558
G1 X-33.541 Y1.916 E32.75277
G1 X-33.072 Y2.427 E32.80683
G1 X-32.62 Y2.837 E32.85441
G1 X-32.067 Y3.248 E32.90812
G1 X-31.546 Y3.567 E32.95574
G1 X-30.77 Y3.933 E33.02262
G1 X-30.11 Y4.154 E33.07688
G1 X-29.514 Y4.297 E33.12466
G1 X-28.673 Y4.401 E33.19071
G1 X-28.242 Y4.416 E33.22433
G1 X28.253 Y4.417 E37.62831
G1 X29.093 Y4.363 E37.69393
G1 X29.942 Y4.201 E37.7613
G1 X30.767 Y3.933 E37.82892
G1 X31.55 Y3.565 E37.89637
G1 X32.28 Y3.101 E37.9638
G1 X32.945 Y2.552 E38.03102
G1 X33.425 Y2.05 E38.08516
G1 X33.806 Y1.573 E38.13275
G1 X34.268 Y0.846 E38.1999
G1 X34.619 Y0.103 E38.26395
G0 F12000 X34.62 Y-5.02
G1 F1800 X34.466 Y-5.409 E38.29657
G1 X34.048 Y-6.168 E38.36411
G1 X33.541 Y-6.865 E38.4313
G1 X33.072 Y-7.376 E38.48537
G1 X32.62 Y-7.786 E38.53294
G1 X32.067 Y-8.197 E38.58665
G1 X31.546 Y-8.516 E38.63427
G1 X30.808 Y-8.864 E38.69788
G1 X32.4 Y-8.864 E38.82198
G1 X34.624 Y-8.872 E38.99535
G1 X34.62 Y-6.971 E39.14354
G1 X34.62 Y-5.02 E39.29563
G0 F12000 X32.27 Y-7.36
G0 X30.564 Y-8.37
G0 X28.458 Y-8.792
G0 X-30.803 Y-8.865
G1 F1800 X-31.55 Y-8.514 E39.35997
G1 X-32.28 Y-8.05 E39.42739
G1 X-32.945 Y-7.501 E39.49462
G1 X-33.425 Y-6.999 E39.54876
G1 X-33.806 Y-6.522 E39.59635
G1 X-34.268 Y-5.795 E39.6635
G1 X-34.619 Y-5.053 E39.72748
G1 X-34.619 Y-6.97 E39.87692
G1 X-34.627 Y-8.871 E40.02511
G1 X-32.397 Y-8.865 E40.19895
G1 X-30.803 Y-8.865 E40.3232
G0 F12000 X-33.011 Y-6.636
G0 X-33.786 Y-5.529
G0 X-34.458 Y-3.66
G0 X-34.556 Y-2.423
G0 X-34.2 Y1.47
G1 F1800 X-34.2 Y8.601 E40.87909
G0 F12000 X-33.6 Y8.599
G1 F1800 X-33.6 Y2.252 E41.37386
G0 F12000 X-33 Y2.858
G1 F1800 X-33 Y8.597 E41.82124
G0 F12000 X-32.4 Y8.594
G1 F1800 X-32.4 Y3.337 E42.23104
G0 F12000 X-31.8 Y3.728
G1 F1800 X-31.8 Y8.594 E42.61036
G0 F12000 X-31.2 Y8.594
G1 F1800 X-31.2 Y4.029 E42.96622
G0 F12000 X-30.6 Y4.276
G1 F1800 X-30.6 Y8.594 E43.30282
G0 F12000 X-30 Y8.594
G1 F1800 X-30 Y4.459 E43.62516
G0 F12000 X-29.4 Y4.584
G1 F1800 X-29.4 Y8.594 E43.93775
G0 F12000 X-28.8 Y8.594
G1 F1800 X-28.8 Y4.657 E44.24465
G0 F12000 X-28.2 Y4.687
G1 F1800 X-28.2 Y8.594 E44.54922
G0 F12000 X-27.6 Y8.594
G1 F1800 X-27.6 Y4.687 E44.85378
G0 F12000 X-27 Y4.687
G1 F1800 X-27 Y8.594 E45.15835
G0 F12000 X-26.4 Y8.594
G1 F1800 X-26.4 Y4.687 E45.46291
G0 F12000 X-25.8 Y4.687
G1 F1800 X-25.8 Y8.594 E45.76747
G0 F12000 X-25.2 Y8.594
G1 F1800 X-25.2 Y4.687 E46.07204
G0 F12000 X-24.6 Y4.687
G1 F1800 X-24.6 Y8.594 E46.3766
G0 F12000 X-24 Y8.594
G1 F1800 X-24 Y4.687 E46.68117
G0 F12000 X-23.4 Y4.687
G1 F1800 X-23.4 Y8.594 E46.98573
G0 F12000 X-22.8 Y8.594
G1 F1800 X-22.8 Y4.687 E47.29029
G0 F12000 X-22.2 Y4.687
G1 F1800 X-22.2 Y8.594 E47.59486
G0 F12000 X-21.6 Y8.594
G1 F1800 X-21.6 Y4.687 E47.89942
G0 F12000 X-21 Y4.687
G1 F1800 X-21 Y8.594 E48.20399
G0 F12000 X-20.4 Y8.594
G1 F1800 X-20.4 Y4.687 E48.50855
G0 F12000 X-19.8 Y4.687
G1 F1800 X-19.8 Y8.594 E48.81311
G0 F12000 X-19.2 Y8.594
G1 F1800 X-19.2 Y4.687 E49.11768
G0 F12000 X-18.6 Y4.687
G1 F1800 X-18.6 Y8.594 E49.42224
G0 F12000 X-18 Y8.594
G1 F1800 X-18 Y4.687 E49.72681
G0 F12000 X-17.4 Y4.687
G1 F1800 X-17.4 Y8.594 E50.03137
G0 F12000 X-16.8 Y8.594
G1 F1800 X-16.8 Y4.687 E50.33593
G0 F12000 X-16.2 Y4.687
G1 F1800 X-16.2 Y8.594 E50.6405
G0 F12000 X-15.6 Y8.594
G1 F1800 X-15.6 Y4.687 E50.94506
G0 F12000 X-15 Y4.687
G1 F1800 X-15 Y8.594 E51.24963
G0 F12000 X-14.4 Y8.594
G1 F1800 X-14.4 Y4.687 E51.55419
G0 F12000 X-13.8 Y4.687
G1 F1800 X-13.8 Y8.594 E51.85876
G0 F12000 X-13.2 Y8.594
G1 F1800 X-13.2 Y4.687 E52.16332
G0 F12000 X-12.6 Y4.687
G1 F1800 X-12.6 Y8.594 E52.46788
G0 F12000 X-12 Y8.594
G1 F1800 X-12 Y4.687 E52.77245
G0 F12000 X-11.4 Y4.687
G1 F1800 X-11.4 Y8.594 E53.07701
G0 F12000 X-10.8 Y8.594
G1 F1800 X-10.8 Y4.687 E53.38158
G0 F12000 X-10.2 Y4.687
G1 F1800 X-10.2 Y8.594 E53.68614
G0 F12000 X-9.6 Y8.594
G1 F1800 X-9.6 Y4.687 E53.9907
G0 F12000 X-9 Y4.687
G1 F1800 X-9 Y8.594 E54.29527
G0 F12000 X-8.4 Y8.594
G1 F1800 X-8.4 Y4.687 E54.59983
G0 F12000 X-7.8 Y4.687
G1 F1800 X-7.8 Y8.594 E54.9044
G0 F12000 X-7.2 Y8.594
G1 F1800 X-7.2 Y4.687 E55.20896
G0 F12000 X-6.6 Y4.687
G1 F1800 X-6.6 Y8.594 E55.51352
G0 F12000 X-6 Y8.594
G1 F1800 X-6 Y4.687 E55.81809
G0 F12000 X-5.4 Y4.687
G1 F1800 X-5.4 Y8.594 E56.12265
G0 F12000 X-4.8 Y8.594
G1 F1800 X-4.8 Y4.687 E56.42722
G0 F12000 X-4.2 Y4.687
G1 F1800 X-4.2 Y8.594 E56.73178
G0 F12000 X-3.6 Y8.594
G1 F1800 X-3.6 Y4.687 E57.03634
G0 F12000 X-3 Y4.687
G1 F1800 X-3 Y8.594 E57.34091
G0 F12000 X-2.4 Y8.594
G1 F1800 X-2.4 Y4.687 E57.64547
G0 F12000 X-1.8 Y4.687
G1 F1800 X-1.8 Y8.594 E57.95004
G0 F12000 X-1.2 Y8.594
G1 F1800 X-1.2 Y4.687 E58.2546
G0 F12000 X-.6 Y4.687
G1 F1800 X-.6 Y8.594 E58.55917
G0 F12000 X0.00 Y8.594
G1 F1800 X0.00 Y4.687 E58.86373
G0 F12000 X0.6 Y4.687
G1 F1800 X0.6 Y8.594 E59.16829
G0 F12000 X1.2 Y8.594
G1 F1800 X1.2 Y4.687 E59.47286
G0 F12000 X1.8 Y4.687
G1 F1800 X1.8 Y8.594 E59.77742
G0 F12000 X2.4 Y8.594
G1 F1800 X2.4 Y4.687 E60.08199
G0 F12000 X3 Y4.687
G1 F1800 X3 Y8.594 E60.38655
G0 F12000 X3.6 Y8.594
G1 F1800 X3.6 Y4.687 E60.69111
G0 F12000 X4.2 Y4.687
G1 F1800 X4.2 Y8.594 E60.99568
G0 F12000 X4.8 Y8.594
G1 F1800 X4.8 Y4.687 E61.30024
G0 F12000 X5.4 Y4.687
G1 F1800 X5.4 Y8.594 E61.60481
G0 F12000 X6 Y8.594
G1 F1800 X6 Y4.687 E61.90937
G0 F12000 X6.6 Y4.687
G1 F1800 X6.6 Y8.594 E62.21393
G0 F12000 X7.2 Y8.594
G1 F1800 X7.2 Y4.687 E62.5185
G0 F12000 X7.8 Y4.687
G1 F1800 X7.8 Y8.594 E62.82306
G0 F12000 X8.4 Y8.594
G1 F1800 X8.4 Y4.687 E63.12763
G0 F12000 X9 Y4.687
G1 F1800 X9 Y8.594 E63.43219
G0 F12000 X9.6 Y8.594
G1 F1800 X9.6 Y4.687 E63.73676
G0 F12000 X10.2 Y4.687
G1 F1800 X10.2 Y8.594 E64.04132
G0 F12000 X10.8 Y8.594
G1 F1800 X10.8 Y4.687 E64.34588
G0 F12000 X11.4 Y4.687
G1 F1800 X11.4 Y8.594 E64.65045
G0 F12000 X12 Y8.594
G1 F1800 X12 Y4.687 E64.95501
G0 F12000 X12.6 Y4.687
G1 F1800 X12.6 Y8.594 E65.25958
G0 F12000 X13.2 Y8.594
G1 F1800 X13.2 Y4.687 E65.56414
G0 F12000 X13.8 Y4.687
G1 F1800 X13.8 Y8.594 E65.8687
G0 F12000 X14.4 Y8.594
G1 F1800 X14.4 Y4.687 E66.17327
G0 F12000 X15 Y4.687
G1 F1800 X15 Y8.594 E66.47783
G0 F12000 X15.6 Y8.594
G1 F1800 X15.6 Y4.687 E66.7824
G0 F12000 X16.2 Y4.687
G1 F1800 X16.2 Y8.594 E67.08696
G0 F12000 X16.8 Y8.594
G1 F1800 X16.8 Y4.687 E67.39152
G0 F12000 X17.4 Y4.687
G1 F1800 X17.4 Y8.594 E67.69609
G0 F12000 X18 Y8.594
G1 F1800 X18 Y4.687 E68.00065
G0 F12000 X18.6 Y4.687
G1 F1800 X18.6 Y8.594 E68.30522
G0 F12000 X19.2 Y8.594
G1 F1800 X19.2 Y4.687 E68.60978
G0 F12000 X19.8 Y4.687
G1 F1800 X19.8 Y8.594 E68.91434
G0 F12000 X20.4 Y8.594
G1 F1800 X20.4 Y4.687 E69.21891
G0 F12000 X21 Y4.687
G1 F1800 X21 Y8.594 E69.52347
G0 F12000 X21.6 Y8.594
G1 F1800 X21.6 Y4.687 E69.82804
G0 F12000 X22.2 Y4.687
G1 F1800 X22.2 Y8.594 E70.1326
G0 F12000 X22.8 Y8.594
G1 F1800 X22.8 Y4.687 E70.43717
G0 F12000 X23.4 Y4.687
G1 F1800 X23.4 Y8.594 E70.74173
G0 F12000 X24 Y8.594
G1 F1800 X24 Y4.687 E71.04629
G0 F12000 X24.6 Y4.687
G1 F1800 X24.6 Y8.594 E71.35086
G0 F12000 X25.2 Y8.594
G1 F1800 X25.2 Y4.687 E71.65542
G0 F12000 X25.8 Y4.687
G1 F1800 X25.8 Y8.594 E71.95999
G0 F12000 X26.4 Y8.594
G1 F1800 X26.4 Y4.687 E72.26455
G0 F12000 X27 Y4.687
G1 F1800 X27 Y8.594 E72.56911
G0 F12000 X27.6 Y8.594
G1 F1800 X27.6 Y4.687 E72.87368
G0 F12000 X28.2 Y4.687
G1 F1800 X28.2 Y8.594 E73.17824
G0 F12000 X28.8 Y8.594
G1 F1800 X28.8 Y4.652 E73.48553
G0 F12000 X29.4 Y4.579
G1 F1800 X29.4 Y8.594 E73.79852
G0 F12000 X30 Y8.594
G1 F1800 X30 Y4.465 E74.12039
G0 F12000 X30.6 Y4.271
G1 F1800 X30.6 Y8.594 E74.45738
G0 F12000 X31.2 Y8.594
G1 F1800 X31.2 Y4.028 E74.81332
G0 F12000 X31.8 Y3.726
G1 F1800 X31.8 Y8.594 E75.19279
G0 F12000 X32.4 Y8.595
G1 F1800 X32.4 Y3.345 E75.60205
G0 F12000 X33 Y2.856
G1 F1800 X33 Y8.596 E76.0495
G0 F12000 X33.6 Y8.598
G1 F1800 X33.6 Y2.257 E76.5438
G0 F12000 X34.2 Y1.457
G1 F1800 X34.2 Y8.599 E77.10055
G1 X34.2 Y8.749
G0 F12000 X34.557 Y-2.872
G0 X34.2 Y-6.419
G1 F1800 X34.2 Y-8.601 E77.27064
G0 F12000 X33.6 Y-8.599
G1 F1800 X33.6 Y-7.201 E77.37962
G0 F12000 X33 Y-7.807
G1 F1800 X33 Y-8.597 E77.4412
G0 F12000 X32.4 Y-8.594
G1 F1800 X32.4 Y-8.286 E77.46521
G0 F12000 X28.232 Y-8.814
G0 X-28.235 Y-8.815
G0 X-32.4 Y-8.294
G1 F1800 X-32.4 Y-8.595 E77.48868
G0 F12000 X-33 Y-8.596
G1 F1800 X-33 Y-7.805 E77.55034
G0 F12000 X-33.6 Y-7.206
G1 F1800 X-33.6 Y-8.598 E77.65885
G0 F12000 X-34.2 Y-8.599
G1 F1800 X-34.2 Y-6.406 E77.8298
G1 X-34.2 Y-6.256
G0 F12000 X-34.5 Y-4.733
;TYPE:SKIN
G1 F1800 X-34.5 Y-4.416 E77.84216
G0 F12000 X-34.8 Y-4.8
G1 F1800 X-34.8 Y-.185 E78.02203
G0 F12000 X-34.5 Y-.241
G1 F1800 X-34.5 Y-.524 E78.03307
G0 F12000 X-34.556 Y-2.873
G0 X-34.328 Y-4.203
G0 X-33.786 Y-5.529
G0 X-33.011 Y-6.636
G0 X-30.3 Y-8.697
G1 F1800 X-30.3 Y-9.184 E78.05205
G0 F12000 X-30 Y-9.184
G1 F1800 X-30 Y-8.795 E78.06721
G0 F12000 X-29.7 Y-8.871
G1 F1800 X-29.7 Y-9.184 E78.07941
G0 F12000 X-29.4 Y-9.184
G1 F1800 X-29.4 Y-8.928 E78.08939
G0 F12000 X-29.1 Y-8.985
G1 F1800 X-29.1 Y-9.184 E78.09714
G0 F12000 X-28.8 Y-9.184
G1 F1800 X-28.8 Y-9.01 E78.10393
G0 F12000 X-28.5 Y-9.029
G1 F1800 X-28.5 Y-9.184 E78.10997
G0 F12000 X-28.2 Y-9.184
G1 F1800 X-28.2 Y-9.046 E78.11535
G0 F12000 X-27.9 Y-9.046
G1 F1800 X-27.9 Y-9.184 E78.12072
G0 F12000 X-27.6 Y-9.184
G1 F1800 X-27.6 Y-9.046 E78.1261
G0 F12000 X-27.3 Y-9.046
G1 F1800 X-27.3 Y-9.184 E78.13148
G0 F12000 X-27 Y-9.184
G1 F1800 X-27 Y-9.046 E78.13686
G0 F12000 X-26.7 Y-9.046
G1 F1800 X-26.7 Y-9.184 E78.14224
G0 F12000 X-26.4 Y-9.184
G1 F1800 X-26.4 Y-9.046 E78.14762
G0 F12000 X-26.1 Y-9.046
G1 F1800 X-26.1 Y-9.184 E78.153
G0 F12000 X-25.8 Y-9.184
G1 F1800 X-25.8 Y-9.046 E78.15838
G0 F12000 X-25.5 Y-9.046
G1 F1800 X-25.5 Y-9.184 E78.16375
G0 F12000 X-25.2 Y-9.184
G1 F1800 X-25.2 Y-9.046 E78.16913
G0 F12000 X-24.9 Y-9.046
G1 F1800 X-24.9 Y-9.184 E78.17451
G0 F12000 X-24.6 Y-9.184
G1 F1800 X-24.6 Y-9.046 E78.17989
G0 F12000 X-24.3 Y-9.046
G1 F1800 X-24.3 Y-9.184 E78.18527
G0 F12000 X-24 Y-9.184
G1 F1800 X-24 Y-9.046 E78.19065
G0 F12000 X-23.7 Y-9.046
G1 F1800 X-23.7 Y-9.184 E78.19603
G0 F12000 X-23.4 Y-9.184
G1 F1800 X-23.4 Y-9.046 E78.20141
G0 F12000 X-23.1 Y-9.046
G1 F1800 X-23.1 Y-9.184 E78.20678
G0 F12000 X-22.8 Y-9.184
G1 F1800 X-22.8 Y-9.046 E78.21216
G0 F12000 X-22.5 Y-9.046
G1 F1800 X-22.5 Y-9.184 E78.21754
G0 F12000 X-22.2 Y-9.184
G1 F1800 X-22.2 Y-9.046 E78.22292
G0 F12000 X-21.9 Y-9.046
G1 F1800 X-21.9 Y-9.184 E78.2283
G0 F12000 X-21.6 Y-9.184
G1 F1800 X-21.6 Y-9.046 E78.23368
G0 F12000 X-21.3 Y-9.046
G1 F1800 X-21.3 Y-9.184 E78.23906
G0 F12000 X-21 Y-9.184
G1 F1800 X-21 Y-9.046 E78.24444
G0 F12000 X-20.7 Y-9.046
G1 F1800 X-20.7 Y-9.184 E78.24981
G0 F12000 X-20.4 Y-9.184
G1 F1800 X-20.4 Y-9.046 E78.25519
G0 F12000 X-20.1 Y-9.046
G1 F1800 X-20.1 Y-9.184 E78.26057
G0 F12000 X-19.8 Y-9.184
G1 F1800 X-19.8 Y-9.046 E78.26595
G0 F12000 X-19.5 Y-9.046
G1 F1800 X-19.5 Y-9.184 E78.27133
G0 F12000 X-19.2 Y-9.184
G1 F1800 X-19.2 Y-9.046 E78.27671
G0 F12000 X-18.9 Y-9.046
G1 F1800 X-18.9 Y-9.184 E78.28209
G0 F12000 X-18.6 Y-9.184
G1 F1800 X-18.6 Y-9.046 E78.28747
G0 F12000 X-18.3 Y-9.046
G1 F1800 X-18.3 Y-9.184 E78.29285
G0 F12000 X-18 Y-9.184
G1 F1800 X-18 Y-9.046 E78.29822
G0 F12000 X-17.7 Y-9.046
G1 F1800 X-17.7 Y-9.184 E78.3036
G0 F12000 X-17.4 Y-9.184
G1 F1800 X-17.4 Y-9.046 E78.30898
G0 F12000 X-17.1 Y-9.046
G1 F1800 X-17.1 Y-9.184 E78.31436
G0 F12000 X-16.8 Y-9.184
G1 F1800 X-16.8 Y-9.046 E78.31974
G0 F12000 X-16.5 Y-9.046
G1 F1800 X-16.5 Y-9.184 E78.32512
G0 F12000 X-16.2 Y-9.184
G1 F1800 X-16.2 Y-9.046 E78.3305
G0 F12000 X-15.9 Y-9.046
G1 F1800 X-15.9 Y-9.184 E78.33588
G0 F12000 X-15.6 Y-9.184
G1 F1800 X-15.6 Y-9.046 E78.34125
G0 F12000 X-15.3 Y-9.046
G1 F1800 X-15.3 Y-9.184 E78.34663
G0 F12000 X-15 Y-9.184
G1 F1800 X-15 Y-9.046 E78.35201
G0 F12000 X-14.7 Y-9.046
G1 F1800 X-14.7 Y-9.184 E78.35739
G0 F12000 X-14.4 Y-9.184
G1 F1800 X-14.4 Y-9.046 E78.36277
G0 F12000 X-14.1 Y-9.046
G1 F1800 X-14.1 Y-9.184 E78.36815
G0 F12000 X-13.8 Y-9.184
G1 F1800 X-13.8 Y-9.046 E78.37353
G0 F12000 X-13.5 Y-9.046
G1 F1800 X-13.5 Y-9.184 E78.37891
G0 F12000 X-13.2 Y-9.184
G1 F1800 X-13.2 Y-9.046 E78.38428
