;FLAVOR:Marlin
;TIME:1772
;Filament used: 2.74513m
;Layer height: 0.2
;MINX:-36.263
;MINY:-10.253
;MINZ:0.2
;MAXX:36.263
;MAXY:10.253
;MAXZ:19.2
;POSTPROCESSED
;Generated with Cura_SteamEngine 4.13.0-BETA
M140 S50
M105
M190 S50
M104 S220
M105
M109 S220
M82 ;absolute extrusion mode
;FLAVOR:Marlin
M82 ;absolute extrusion mode
G21
G90
M82
M107 T0
G28
G92 E0
G0 E3 F200
G92 E0 ; reset extrusion distance
M106 S255 ; Enable cooling fan full speed
G1 X-98 Y0 Z0.4 F3000 ; move to arc start
G3 X0 Y-98 I98 Z0.4 E40 F400 ; lay arc stripe 90deg
G92 E0 ; reset extrusion distance
G4 P500 ; wait for 0.5 sec
G0 Z10 E-1 ; Lift 15mm and retract 1mm filament
G4 P2000 ; wait for 5 sec
G0 Z15
M107 ; Disable cooling fan
G1 X0 Y-85 Z4 E0 F3000 ; get off the bed
G92 E0
G92 E0
G1 F3000 E-10
;LAYER_COUNT:96
;LAYER:0
M106 S255
;MESH:window-handle.3mf
G0 F12000 X35.56 Y-7.038 Z0.2
;TYPE:WALL-OUTER
G1 F3000 E0
G1 F1800 X35.559 Y7.039 E1.09735
G1 X35.567 Y9.044 E1.25365
G1 X35.566 Y9.556 E1.29356
G1 X32.718 Y9.55 E1.51557
G1 X-32.719 Y9.549 E6.61661
G1 X-34.962 Y9.557 E6.79146
G1 X-35.566 Y9.556 E6.83855
G1 X-35.56 Y7.038 E7.03483
G1 X-35.559 Y-7.039 E8.13218
G1 X-35.567 Y-9.044 E8.28848
G1 X-35.566 Y-9.556 E8.32839
G1 X-32.718 Y-9.55 E8.55041
G1 X32.719 Y-9.549 E13.65145
G1 X34.962 Y-9.557 E13.8263
G1 X35.566 Y-9.556 E13.87338
G1 X35.56 Y-7.038 E14.06967
G0 F12000 X35.56 Y-6.838
G0 X35.46 Y-6.839
G0 X34.971 Y-2.499
G0 X34.871 Y-2.499
G1 F1800 X34.821 Y-3.296 E14.13192
G1 X34.671 Y-4.079 E14.19407
G1 X34.424 Y-4.839 E14.25636
G1 X34.084 Y-5.564 E14.31878
G1 X33.656 Y-6.238 E14.38102
G1 X33.147 Y-6.853 E14.44325
G1 X32.564 Y-7.401 E14.50563
G1 X31.918 Y-7.87 E14.56786
G1 X31.218 Y-8.256 E14.63017
G1 X30.476 Y-8.549 E14.69236
G1 X29.859 Y-8.714 E14.74215
G1 X29.307 Y-8.811 E14.78583
G1 X28.514 Y-8.861 E14.84777
G1 X-28.514 Y-8.862 E19.2933
G1 X-29.306 Y-8.811 E19.35517
G1 X-30.089 Y-8.661 E19.41732
G1 X-30.849 Y-8.414 E19.47961
G1 X-31.574 Y-8.074 E19.54204
G1 X-32.248 Y-7.646 E19.60427
G1 X-32.863 Y-7.137 E19.66651
G1 X-33.411 Y-6.554 E19.72888
G1 X-33.88 Y-5.908 E19.79111
G1 X-34.266 Y-5.208 E19.85342
G1 X-34.559 Y-4.466 E19.91561
G1 X-34.724 Y-3.849 E19.9654
G1 X-34.821 Y-3.297 E20.00909
G1 X-34.871 Y-2.499 E20.07141
G1 X-34.821 Y-1.702 E20.13367
G1 X-34.671 Y-.919 E20.19581
G1 X-34.424 Y-.159 E20.25811
G1 X-34.084 Y0.566 E20.32053
G1 X-33.656 Y1.24 E20.38277
G1 X-33.147 Y1.855 E20.445
G1 X-32.564 Y2.403 E20.50737
G1 X-31.918 Y2.872 E20.5696
G1 X-31.218 Y3.258 E20.63192
G1 X-30.476 Y3.551 E20.6941
G1 X-29.859 Y3.716 E20.74389
G1 X-29.307 Y3.813 E20.78758
G1 X-28.514 Y3.863 E20.84952
G1 X28.514 Y3.864 E25.29505
G1 X29.306 Y3.813 E25.35692
G1 X30.089 Y3.663 E25.41906
G1 X30.849 Y3.416 E25.48136
G1 X31.574 Y3.076 E25.54378
G1 X32.248 Y2.648 E25.60602
G1 X32.863 Y2.139 E25.66825
G1 X33.411 Y1.556 E25.73062
G1 X33.88 Y0.91 E25.79285
G1 X34.266 Y0.21 E25.85517
G1 X34.559 Y-.532 E25.91736
G1 X34.724 Y-1.149 E25.96714
G1 X34.821 Y-1.701 E26.01083
G1 X34.871 Y-2.499 E26.07316
G0 F12000 X34.859 Y-2.698
G0 X34.958 Y-2.703
G0 X34.97 Y-5.065
;TYPE:SKIN
G1 F1800 X34.602 Y-5.849 E26.14068
G1 X34.134 Y-6.586 E26.20873
G1 X33.578 Y-7.258 E26.27672
G1 X32.941 Y-7.857 E26.34488
G1 X32.235 Y-8.369 E26.41287
G1 X31.47 Y-8.791 E26.48097
G1 X31.044 Y-8.959 E26.51667
G1 X32.719 Y-8.959 E26.64724
G1 X34.974 Y-8.967 E26.82303
G1 X34.97 Y-7.04 E26.97325
G1 X34.97 Y-5.065 E27.1272
G0 F12000 X34.969 Y0.035
G1 F1800 X34.969 Y7.039 E27.67319
G1 X34.977 Y8.964 E27.82325
G1 X32.72 Y8.96 E27.99919
G1 X-32.719 Y8.959 E33.10039
G1 X-34.974 Y8.967 E33.27617
G1 X-34.97 Y7.04 E33.42639
G1 X-34.97 Y0.068 E33.96988
G1 X-34.602 Y0.851 E34.03733
G1 X-34.134 Y1.588 E34.10538
G1 X-33.578 Y2.26 E34.17337
G1 X-32.941 Y2.859 E34.24153
G1 X-32.235 Y3.371 E34.30952
G1 X-31.47 Y3.793 E34.37762
G1 X-30.661 Y4.112 E34.44541
G1 X-29.987 Y4.292 E34.4998
G1 X-29.377 Y4.399 E34.54807
G1 X-28.532 Y4.453 E34.61408
G1 X28.533 Y4.454 E39.06249
G1 X29.381 Y4.399 E39.12874
G1 X30.236 Y4.235 E39.1966
G1 X31.066 Y3.966 E39.26462
G1 X31.859 Y3.594 E39.3329
G1 X32.596 Y3.126 E39.40095
G1 X33.268 Y2.57 E39.46894
G1 X33.867 Y1.933 E39.53711
G1 X34.379 Y1.227 E39.60509
G1 X34.801 Y0.462 E39.6732
G1 X34.969 Y0.035 E39.70896
G0 F12000 X34.86 Y-3.301
G0 X34.461 Y-4.853
G0 X33.688 Y-6.261
G0 X32.589 Y-7.431
G0 X31.235 Y-8.292
G0 X29.311 Y-8.85
G0 X-31.075 Y-8.96
G1 F1800 X-31.859 Y-8.592 E39.77648
G1 X-32.596 Y-8.124 E39.84453
G1 X-33.268 Y-7.568 E39.91252
G1 X-33.867 Y-6.931 E39.98069
G1 X-34.379 Y-6.225 E40.04867
G1 X-34.801 Y-5.46 E40.11678
G1 X-34.969 Y-5.034 E40.15247
G1 X-34.969 Y-7.039 E40.30877
G1 X-34.977 Y-8.964 E40.45883
G1 X-32.72 Y-8.96 E40.63477
G1 X-31.075 Y-8.96 E40.76301
G0 F12000 X-33.441 Y-6.579
G0 X-34.302 Y-5.225
G0 X-34.86 Y-3.301
G0 X-34.883 Y-2.046
G0 X-34.2 Y1.932
G1 F1800 X-34.2 Y8.695 E41.29021
G0 F12000 X-33.6 Y8.693
G1 F1800 X-33.6 Y2.61 E41.7644
G0 F12000 X-33 Y3.151
G1 F1800 X-33 Y8.69 E42.19618
G0 F12000 X-32.4 Y8.689
G1 F1800 X-32.4 Y3.586 E42.59398
G0 F12000 X-31.8 Y3.92
G1 F1800 X-31.8 Y8.689 E42.96574
G0 F12000 X-31.2 Y8.689
G1 F1800 X-31.2 Y4.19 E43.31645
G0 F12000 X-30.6 Y4.408
G1 F1800 X-30.6 Y8.689 E43.65017
G0 F12000 X-30 Y8.689
G1 F1800 X-30 Y4.564 E43.97173
G0 F12000 X-29.4 Y4.668
G1 F1800 X-29.4 Y8.689 E44.28518
G0 F12000 X-28.8 Y8.689
G1 F1800 X-28.8 Y4.707 E44.59559
G0 F12000 X-28.2 Y4.724
G1 F1800 X-28.2 Y8.689 E44.90467
G0 F12000 X-27.6 Y8.689
G1 F1800 X-27.6 Y4.724 E45.21376
G0 F12000 X-27 Y4.724
G1 F1800 X-27 Y8.689 E45.52284
G0 F12000 X-26.4 Y8.689
G1 F1800 X-26.4 Y4.724 E45.83193
G0 F12000 X-25.8 Y4.724
G1 F1800 X-25.8 Y8.689 E46.14102
G0 F12000 X-25.2 Y8.689
G1 F1800 X-25.2 Y4.724 E46.4501
G0 F12000 X-24.6 Y4.724
G1 F1800 X-24.6 Y8.689 E46.75919
G0 F12000 X-24 Y8.689
G1 F1800 X-24 Y4.724 E47.06827
G0 F12000 X-23.4 Y4.724
G1 F1800 X-23.4 Y8.689 E47.37736
G0 F12000 X-22.8 Y8.689
G1 F1800 X-22.8 Y4.724 E47.68644
G0 F12000 X-22.2 Y4.724
G1 F1800 X-22.2 Y8.689 E47.99553
G0 F12000 X-21.6 Y8.689
G1 F1800 X-21.6 Y4.724 E48.30461
G0 F12000 X-21 Y4.724
G1 F1800 X-21 Y8.689 E48.6137
G0 F12000 X-20.4 Y8.689
G1 F1800 X-20.4 Y4.724 E48.92278
G0 F12000 X-19.8 Y4.724
G1 F1800 X-19.8 Y8.689 E49.23187
G0 F12000 X-19.2 Y8.689
G1 F1800 X-19.2 Y4.724 E49.54095
G0 F12000 X-18.6 Y4.724
G1 F1800 X-18.6 Y8.689 E49.85004
G0 F12000 X-18 Y8.689
G1 F1800 X-18 Y4.724 E50.15913
G0 F12000 X-17.4 Y4.724
G1 F1800 X-17.4 Y8.689 E50.46821
G0 F12000 X-16.8 Y8.689
G1 F1800 X-16.8 Y4.724 E50.7773
G0 F12000 X-16.2 Y4.724
G1 F1800 X-16.2 Y8.689 E51.08638
G0 F12000 X-15.6 Y8.689
G1 F1800 X-15.6 Y4.724 E51.39547
G0 F12000 X-15 Y4.724
G1 F1800 X-15 Y8.689 E51.70455
G0 F12000 X-14.4 Y8.689
G1 F1800 X-14.4 Y4.724 E52.01364
G0 F12000 X-13.8 Y4.724
G1 F1800 X-13.8 Y8.689 E52.32272
G0 F12000 X-13.2 Y8.689
G1 F1800 X-13.2 Y4.724 E52.63181
G0 F12000 X-12.6 Y4.724
G1 F1800 X-12.6 Y8.689 E52.94089
G0 F12000 X-12 Y8.689
G1 F1800 X-12 Y4.724 E53.24998
G0 F12000 X-11.4 Y4.724
G1 F1800 X-11.4 Y8.689 E53.55906
G0 F12000 X-10.8 Y8.689
G1 F1800 X-10.8 Y4.724 E53.86815
G0 F12000 X-10.2 Y4.724
G1 F1800 X-10.2 Y8.689 E54.17724
G0 F12000 X-9.6 Y8.689
G1 F1800 X-9.6 Y4.724 E54.48632
G0 F12000 X-9 Y4.724
G1 F1800 X-9 Y8.689 E54.79541
G0 F12000 X-8.4 Y8.689
G1 F1800 X-8.4 Y4.724 E55.10449
G0 F12000 X-7.8 Y4.724
G1 F1800 X-7.8 Y8.689 E55.41358
G0 F12000 X-7.2 Y8.689
G1 F1800 X-7.2 Y4.724 E55.72266
G0 F12000 X-6.6 Y4.724
G1 F1800 X-6.6 Y8.689 E56.03175
G0 F12000 X-6 Y8.689
G1 F1800 X-6 Y4.724 E56.34083
G0 F12000 X-5.4 Y4.724
G1 F1800 X-5.4 Y8.689 E56.64992
G0 F12000 X-4.8 Y8.689
G1 F1800 X-4.8 Y4.724 E56.959
G0 F12000 X-4.2 Y4.724
G1 F1800 X-4.2 Y8.689 E57.26809
G0 F12000 X-3.6 Y8.689
G1 F1800 X-3.6 Y4.724 E57.57718
G0 F12000 X-3 Y4.724
G1 F1800 X-3 Y8.689 E57.88626
G0 F12000 X-2.4 Y8.689
G1 F1800 X-2.4 Y4.724 E58.19535
G0 F12000 X-1.8 Y4.724
G1 F1800 X-1.8 Y8.689 E58.50443
G0 F12000 X-1.2 Y8.689
G1 F1800 X-1.2 Y4.724 E58.81352
G0 F12000 X-.6 Y4.724
G1 F1800 X-.6 Y8.689 E59.1226
G0 F12000 X0.00 Y8.689
G1 F1800 X0.00 Y4.724 E59.43169
G0 F12000 X0.6 Y4.724
G1 F1800 X0.6 Y8.689 E59.74077
G0 F12000 X1.2 Y8.689
G1 F1800 X1.2 Y4.724 E60.04986
G0 F12000 X1.8 Y4.724
G1 F1800 X1.8 Y8.689 E60.35894
G0 F12000 X2.4 Y8.689
G1 F1800 X2.4 Y4.724 E60.66803
G0 F12000 X3 Y4.724
G1 F1800 X3 Y8.689 E60.97711
G0 F12000 X3.6 Y8.689
G1 F1800 X3.6 Y4.724 E61.2862
G0 F12000 X4.2 Y4.724
G1 F1800 X4.2 Y8.689 E61.59529
G0 F12000 X4.8 Y8.689
G1 F1800 X4.8 Y4.724 E61.90437
G0 F12000 X5.4 Y4.724
G1 F1800 X5.4 Y8.689 E62.21346
G0 F12000 X6 Y8.689
G1 F1800 X6 Y4.724 E62.52254
G0 F12000 X6.6 Y4.724
G1 F1800 X6.6 Y8.689 E62.83163
G0 F12000 X7.2 Y8.689
G1 F1800 X7.2 Y4.724 E63.14071
G0 F12000 X7.8 Y4.724
G1 F1800 X7.8 Y8.689 E63.4498
G0 F12000 X8.4 Y8.689
G1 F1800 X8.4 Y4.724 E63.75888
G0 F12000 X9 Y4.724
G1 F1800 X9 Y8.689 E64.06797
G0 F12000 X9.6 Y8.689
G1 F1800 X9.6 Y4.724 E64.37705
G0 F12000 X10.2 Y4.724
G1 F1800 X10.2 Y8.689 E64.68614
G0 F12000 X10.8 Y8.689
G1 F1800 X10.8 Y4.724 E64.99522
G0 F12000 X11.4 Y4.724
G1 F1800 X11.4 Y8.689 E65.30431
G0 F12000 X12 Y8.689
G1 F1800 X12 Y4.724 E65.6134
G0 F12000 X12.6 Y4.724
G1 F1800 X12.6 Y8.689 E65.92248
G0 F12000 X13.2 Y8.689
G1 F1800 X13.2 Y4.724 E66.23157
G0 F12000 X13.8 Y4.724
G1 F1800 X13.8 Y8.689 E66.54065
G0 F12000 X14.4 Y8.689
G1 F1800 X14.4 Y4.724 E66.84974
G0 F12000 X15 Y4.724
G1 F1800 X15 Y8.689 E67.15882
G0 F12000 X15.6 Y8.689
G1 F1800 X15.6 Y4.724 E67.46791
G0 F12000 X16.2 Y4.724
G1 F1800 X16.2 Y8.689 E67.77699
G0 F12000 X16.8 Y8.689
G1 F1800 X16.8 Y4.724 E68.08608
G0 F12000 X17.4 Y4.724
G1 F1800 X17.4 Y8.689 E68.39516
G0 F12000 X18 Y8.689
G1 F1800 X18 Y4.724 E68.70425
G0 F12000 X18.6 Y4.724
G1 F1800 X18.6 Y8.689 E69.01333
G0 F12000 X19.2 Y8.689
G1 F1800 X19.2 Y4.724 E69.32242
G0 F12000 X19.8 Y4.724
G1 F1800 X19.8 Y8.689 E69.63151
G0 F12000 X20.4 Y8.689
G1 F1800 X20.4 Y4.724 E69.94059
G0 F12000 X21 Y4.724
G1 F1800 X21 Y8.689 E70.24968
G0 F12000 X21.6 Y8.689
G1 F1800 X21.6 Y4.724 E70.55876
G0 F12000 X22.2 Y4.724
G1 F1800 X22.2 Y8.689 E70.86785
G0 F12000 X22.8 Y8.689
G1 F1800 X22.8 Y4.724 E71.17693
G0 F12000 X23.4 Y4.724
G1 F1800 X23.4 Y8.689 E71.48602
G0 F12000 X24 Y8.689
G1 F1800 X24 Y4.724 E71.7951
G0 F12000 X24.6 Y4.724
G1 F1800 X24.6 Y8.689 E72.10419
G0 F12000 X25.2 Y8.689
G1 F1800 X25.2 Y4.724 E72.41327
G0 F12000 X25.8 Y4.724
G1 F1800 X25.8 Y8.689 E72.72236
G0 F12000 X26.4 Y8.689
G1 F1800 X26.4 Y4.724 E73.03144
G0 F12000 X27 Y4.724
G1 F1800 X27 Y8.689 E73.34053
G0 F12000 X27.6 Y8.689
G1 F1800 X27.6 Y4.724 E73.64962
G0 F12000 X28.2 Y4.724
G1 F1800 X28.2 Y8.689 E73.9587
G0 F12000 X28.8 Y8.689
G1 F1800 X28.8 Y4.707 E74.26911
G0 F12000 X29.4 Y4.668
G1 F1800 X29.4 Y8.689 E74.58256
G0 F12000 X30 Y8.689
G1 F1800 X30 Y4.555 E74.90482
G0 F12000 X30.6 Y4.4
G1 F1800 X30.6 Y8.689 E75.23916
G0 F12000 X31.2 Y8.689
G1 F1800 X31.2 Y4.201 E75.58902
G0 F12000 X31.8 Y3.919
G1 F1800 X31.8 Y8.689 E75.96086
G0 F12000 X32.4 Y8.689
G1 F1800 X32.4 Y3.57 E76.3599
G0 F12000 X33 Y3.142
G1 F1800 X33 Y8.69 E76.79239
G0 F12000 X33.6 Y8.691
G1 F1800 X33.6 Y2.61 E77.26642
G0 F12000 X34.2 Y1.934
G1 F1800 X34.2 Y8.692 E77.79323
G1 X34.2 Y8.842
G0 F12000 X34.911 Y-2.499
G0 X34.2 Y-6.931
G1 F1800 X34.2 Y-8.695 E77.93074
G0 F12000 X33.6 Y-8.693
G1 F1800 X33.6 Y-7.608 E78.01532
G0 F12000 X33 Y-8.149
G1 F1800 X33 Y-8.69 E78.05749
G0 F12000 X28.515 Y-8.9
G0 X-28.515 Y-8.901
G0 X-32.4 Y-8.69
G1 F1800 X-32.4 Y-8.568 E78.067
G0 F12000 X-33 Y-8.69
G1 F1800 X-33 Y-8.14 E78.10988
G0 F12000 X-33.6 Y-7.608
G1 F1800 X-33.6 Y-8.691 E78.1943
G0 F12000 X-34.2 Y-8.692
G1 F1800 X-34.2 Y-6.932 E78.3315
G1 X-34.2 Y-6.782
G0 F12000 X-34.8 Y-4.712
;TYPE:SKIN
G1 F1800 X-34.8 Y-4.589 E78.33629
G0 F12000 X-35.1 Y-4.768
G1 F1800 X-35.1 Y-3.154 E78.3992
G0 F12000 X-35.1 Y-1.838
G1 F1800 X-35.1 Y-.195 E78.46324
G0 F12000 X-34.8 Y-.241
G1 F1800 X-34.8 Y-.441 E78.47104
G0 F12000 X-34.911 Y-2.499
G0 X-34.763 Y-3.857
G0 X-34.302 Y-5.225
G0 X-33.441 Y-6.579
G0 X-32.54 Y-7.455
G0 X-30.6 Y-8.779
G1 F1800 X-30.6 Y-9.279 E78.49052
G0 F12000 X-30.3 Y-9.279
G1 F1800 X-30.3 Y-8.876 E78.50623
G0 F12000 X-30 Y-8.953
G1 F1800 X-30 Y-9.279 E78.51894
G0 F12000 X-29.7 Y-9.279
G1 F1800 X-29.7 Y-9.01 E78.52942
G0 F12000 X-29.4 Y-9.067
G1 F1800 X-29.4 Y-9.279 E78.53769
G0 F12000 X-29.1 Y-9.279
G1 F1800 X-29.1 Y-9.094 E78.5449
G0 F12000 X-28.8 Y-9.114
G1 F1800 X-28.8 Y-9.279 E78.55133
G0 F12000 X-28.5 Y-9.279
G1 F1800 X-28.5 Y-9.132 E78.55706
G0 F12000 X-28.2 Y-9.132
G1 F1800 X-28.2 Y-9.279 E78.56279
G0 F12000 X-27.9 Y-9.279
G1 F1800 X-27.9 Y-9.132 E78.56852
G0 F12000 X-27.6 Y-9.132
G1 F1800 X-27.6 Y-9.279 E78.57425
G0 F12000 X-27.3 Y-9.279
G1 F1800 X-27.3 Y-9.132 E78.57998
G0 F12000 X-27 Y-9.132
G1 F1800 X-27 Y-9.279 E78.58571
G0 F12000 X-26.7 Y-9.279
G1 F1800 X-26.7 Y-9.132 E78.59144
G0 F12000 X-26.4 Y-9.132
G1 F1800 X-26.4 Y-9.279 E78.59716
G0 F12000 X-26.1 Y-9.279
G1 F1800 X-26.1 Y-9.132 E78.60289
G0 F12000 X-25.8 Y-9.132
G1 F1800 X-25.8 Y-9.279 E78.60862
G0 F12000 X-25.5 Y-9.279
G1 F1800 X-25.5 Y-9.132 E78.61435
G0 F12000 X-25.2 Y-9.132
G1 F1800 X-25.2 Y-9.279 E78.62008
G0 F12000 X-24.9 Y-9.279
G1 F1800 X-24.9 Y-9.132 E78.62581
G0 F12000 X-24.6 Y-9.132
G1 F1800 X-24.6 Y-9.279 E78.63154
G0 F12000 X-24.3 Y-9.279
G1 F1800 X-24.3 Y-9.132 E78.63727
G0 F12000 X-24 Y-9.132
G1 F1800 X-24 Y-9.279 E78.643
G0 F12000 X-23.7 Y-9.279
G1 F1800 X-23.7 Y-9.132 E78.64873
G0 F12000 X-23.4 Y-9.132
G1 F1800 X-23.4 Y-9.279 E78.65446
G0 F12000 X-23.1 Y-9.279
G1 F1800 X-23.1 Y-9.132 E78.66019
G0 F12000 X-22.8 Y-9.132
G1 F1800 X-22.8 Y-9.279 E78.66592
G0 F12000 X-22.5 Y-9.279
G1 F1800 X-22.5 Y-9.132 E78.67165
G0 F12000 X-22.2 Y-9.132
G1 F1800 X-22.2 Y-9.279 E78.67738
G0 F12000 X-21.9 Y-9.279
G1 F1800 X-21.9 Y-9.132 E78.68311
G0 F12000 X-21.6 Y-9.132
G1 F1800 X-21.6 Y-9.279 E78.68884
G0 F12000 X-21.3 Y-9.279
G1 F1800 X-21.3 Y-9.132 E78.69457
G0 F12000 X-21 Y-9.132
G1 F1800 X-21 Y-9.279 E78.7003
G0 F12000 X-20.7 Y-9.279
G1 F1800 X-20.7 Y-9.132 E78.70603
G0 F12000 X-20.4 Y-9.132
G1 F1800 X-20.4 Y-9.279 E78.71176
G0 F12000 X-20.1 Y-9.279
G1 F1800 X-20.1 Y-9.132 E78.71749
G0 F12000 X-19.8 Y-9.132
G1 F1800 X-19.8 Y-9.279 E78.72322
G0 F12000 X-19.5 Y-9.279
G1 F1800 X-19.5 Y-9.132 E78.72894
G0 F12000 X-19.2 Y-9.132
G1 F1800 X-19.2 Y-9.279 E78.73467
G0 F12000 X-18.9 Y-9.279
G1 F1800 X-18.9 Y-9.132 E78.7404
G0 F12000 X-18.6 Y-9.132
G1 F1800 X-18.6 Y-9.279 E78.74613
G0 F12000 X-18.3 Y-9.279
G1 F1800 X-18.3 Y-9.132 E78.75186
G0 F12000 X-18 Y-9.132
G1 F1800 X-18 Y-9.279 E78.75759
G0 F12000 X-17.7 Y-9.279
G1 F1800 X-17.7 Y-9.132 E78.76332
G0 F12000 X-17.4 Y-9.132
G1 F1800 X-17.4 Y-9.279 E78.76905
G0 F12000 X-17.1 Y-9.279
G1 F1800 X-17.1 Y-9.132 E78.77478
G0 F12000 X-16.8 Y-9.132
G1 F1800 X-16.8 Y-9.279 E78.78051
G0 F12000 X-16.5 Y-9.279
G1 F1800 X-16.5 Y-9.132 E78.78624
G0 F12000 X-16.2 Y-9.132
G1 F1800 X-16.2 Y-9.279 E78.79197
G0 F12000 X-15.9 Y-9.279
G1 F1800 X-15.9 Y-9.132 E78.7977
G0 F12000 X-15.6 Y-9.132
G1 F1800 X-15.6 Y-9.279 E78.80343
G0 F12000 X-15.3 Y-9.279
G1 F1800 X-15.3 Y-9.132 E78.80916
G0 F12000 X-15 Y-9.132
G1 F1800 X-15 Y-9.279 E78.81489
G0 F12000 X-14.7 Y-9.279
G1 F1800 X-14.7 Y-9.132 E78.82062
G0 F12000 X-14.4 Y-9.132
G1 F1800 X-14.4 Y-9.279 E78.82635
G0 F12000 X-14.1 Y-9.279
G1 F1800 X-14.1 Y-9.132 E78.83208
G0 F12000 X-13.8 Y-9.132
G1 F1800 X-13.8 Y-9.279 E78.83781
G0 F12000 X-13.5 Y-9.279
G1 F1800 X-13.5 Y-9.132 E78.84354
G0 F12000 X-13.2 Y-9.132
G1 F1800 X-13.2 Y-9.279 E78.84927
G0 F12000 X-12.9 Y-9.279
G1 F1800 X-12.9 Y-9.132 E78.855
G0 F12000 X-12.6 Y-9.132
G1 F1800 X-12.6 Y-9.279 E78.86073
