;FLAVOR:Marlin
;TIME:1692
;Filament used: 2.19549m
;Layer height: 0.2
;MINX:-29.461
;MINY:-58.786
;MINZ:0.2
;MAXX:53.877
;MAXY:58.781
;MAXZ:12
;Generated with Cura_SteamEngine 4.8.0
M140 S60
M105
M190 S60
M104 S195
M105
M109 S195
M82 ;absolute extrusion mode
G28 ;Home
G1 Z15.0 F6000 ;Move the platform down 15mm
;Prime the extruder
G92 E0
G1 F200 E3
G92 E0
G92 E0
G92 E0
G1 F1500 E-6.5
;LAYER_COUNT:60
;LAYER:0
M107
G0 F3600 X-11.829 Y0.00 Z0.2
;TYPE:SKIRT
G1 F1500 E0
G1 F1800 X-29.271 Y-53.682 E3.12966
G1 X-29.405 Y-54.224 E3.16061
G1 X-29.461 Y-54.779 E3.19154
G1 X-29.436 Y-55.337 E3.22251
G1 X-29.332 Y-55.885 E3.25344
G1 X-29.151 Y-56.413 E3.28439
G1 X-28.896 Y-56.91 E3.31536
G1 X-28.573 Y-57.365 E3.3463
G1 X-28.189 Y-57.77 E3.37724
G1 X-27.75 Y-58.115 E3.4082
G1 X-27.267 Y-58.395 E3.43916
G1 X-26.749 Y-58.602 E3.47009
G1 X-26.206 Y-58.733 E3.50106
G1 X-25.65 Y-58.786 E3.53203
G1 X-25.093 Y-58.759 E3.56295
G1 X-24.545 Y-58.652 E3.59391
G1 X-24.018 Y-58.468 E3.62486
G1 X-23.522 Y-58.211 E3.65583
G1 X-23.27 Y-58.042 E3.67265
G1 X52.276 Y-3.155 E8.85025
G1 X52.703 Y-2.796 E8.88118
G1 X53.075 Y-2.379 E8.91216
G1 X53.383 Y-1.913 E8.94314
G1 X53.621 Y-1.408 E8.97409
G1 X53.785 Y-.875 E9.00501
G1 X53.871 Y-.323 E9.03599
G1 X53.877 Y0.235 E9.06693
G1 X53.803 Y0.788 E9.09786
G1 X53.652 Y1.326 E9.12885
G1 X53.425 Y1.836 E9.1598
G1 X53.128 Y2.308 E9.19072
G1 X52.766 Y2.733 E9.22167
G1 X52.276 Y3.155 E9.25753
G1 X-23.27 Y58.042 E14.43512
G1 X-23.744 Y58.337 E14.46608
G1 X-24.255 Y58.561 E14.49701
G1 X-24.793 Y58.71 E14.52797
G1 X-25.346 Y58.781 E14.55888
G1 X-25.905 Y58.772 E14.58988
G1 X-26.456 Y58.683 E14.62083
G1 X-26.989 Y58.517 E14.65178
G1 X-27.492 Y58.276 E14.68271
G1 X-27.956 Y57.966 E14.71365
G1 X-28.371 Y57.592 E14.74462
G1 X-28.729 Y57.164 E14.77556
G1 X-29.021 Y56.688 E14.80652
G1 X-29.243 Y56.176 E14.83747
G1 X-29.389 Y55.637 E14.86843
G1 X-29.457 Y55.083 E14.89938
G1 X-29.445 Y54.525 E14.93032
G1 X-29.354 Y53.974 E14.96129
G1 X-29.271 Y53.682 E14.97812
G1 X-11.829 Y0.00 E18.10778
G0 F3600 X-11.197 Y0.00
G1 F1800 X-28.7 Y-53.867 E21.24823
G1 X-28.821 Y-54.366 E21.2767
G1 X-28.862 Y-54.878 E21.30518
G1 X-28.823 Y-55.39 E21.33365
G1 X-28.706 Y-55.89 E21.36213
G1 X-28.512 Y-56.365 E21.39058
G1 X-28.247 Y-56.805 E21.41906
G1 X-27.917 Y-57.198 E21.44751
G1 X-27.53 Y-57.536 E21.476
G1 X-27.096 Y-57.809 E21.50443
G1 X-26.624 Y-58.012 E21.53292
G1 X-26.126 Y-58.138 E21.5614
G1 X-25.615 Y-58.187 E21.58986
G1 X-25.103 Y-58.155 E21.61831
G1 X-24.601 Y-58.044 E21.64681
G1 X-24.123 Y-57.857 E21.67527
G1 X-23.622 Y-57.557 E21.70765
G1 X51.924 Y-2.67 E26.88524
G1 X52.314 Y-2.337 E26.91368
G1 X52.649 Y-1.947 E26.94219
G1 X52.918 Y-1.51 E26.97064
G1 X53.117 Y-1.037 E26.99909
G1 X53.24 Y-.538 E27.02759
G1 X53.284 Y-0.027 E27.05602
G1 X53.248 Y0.486 E27.08454
G1 X53.133 Y0.986 E27.11299
G1 X52.942 Y1.463 E27.14148
G1 X52.68 Y1.904 E27.16992
G1 X52.352 Y2.299 E27.19839
G1 X51.924 Y2.67 E27.22979
G1 X-23.622 Y57.557 E32.40738
G1 X-24.06 Y57.825 E32.43586
G1 X-24.534 Y58.023 E32.46434
G1 X-25.033 Y58.144 E32.49281
G1 X-25.544 Y58.187 E32.52124
G1 X-26.056 Y58.15 E32.5497
G1 X-26.556 Y58.034 E32.57816
G1 X-27.033 Y57.841 E32.60669
G1 X-27.473 Y57.577 E32.63515
G1 X-27.867 Y57.248 E32.66361
G1 X-28.206 Y56.862 E32.69209
G1 X-28.48 Y56.428 E32.72055
G1 X-28.684 Y55.957 E32.74901
G1 X-28.812 Y55.46 E32.77747
G1 X-28.861 Y54.949 E32.80593
G1 X-28.831 Y54.436 E32.83442
G1 X-28.7 Y53.867 E32.8668
G1 X-11.197 Y0.00 E36.00725
G0 F3600 X-10.567 Y0.00
G1 F1800 X-28.13 Y-54.053 E39.15855
G1 X-28.235 Y-54.505 E39.18428
G1 X-28.261 Y-54.969 E39.21004
G1 X-28.207 Y-55.43 E39.23578
G1 X-28.075 Y-55.875 E39.26152
G1 X-27.868 Y-56.291 E39.28728
G1 X-27.594 Y-56.665 E39.31299
G1 X-27.259 Y-56.987 E39.33875
G1 X-26.874 Y-57.247 E39.36451
G1 X-26.45 Y-57.437 E39.39027
G1 X-26 Y-57.551 E39.41601
G1 X-25.537 Y-57.587 E39.44176
G1 X-25.075 Y-57.543 E39.46749
G1 X-24.627 Y-57.42 E39.49325
G1 X-23.975 Y-57.071 E39.53426
G1 X51.571 Y-2.184 E44.71185
G1 X51.922 Y-1.88 E44.7376
G1 X52.215 Y-1.52 E44.76333
G1 X52.443 Y-1.116 E44.78905
G1 X52.598 Y-.678 E44.81482
G1 X52.675 Y-.22 E44.84057
G1 X52.673 Y0.244 E44.86629
G1 X52.591 Y0.701 E44.89204
G1 X52.433 Y1.138 E44.9178
G1 X52.201 Y1.541 E44.94359
G1 X51.905 Y1.898 E44.9693
G1 X51.571 Y2.184 E44.99368
G1 X-23.975 Y57.071 E50.17127
G1 X-24.373 Y57.311 E50.19704
G1 X-24.806 Y57.479 E50.2228
G1 X-25.261 Y57.57 E50.24852
G1 X-25.725 Y57.582 E50.27426
G1 X-26.184 Y57.514 E50.29999
G1 X-26.625 Y57.369 E50.32573
G1 X-27.035 Y57.15 E50.3515
G1 X-27.401 Y56.864 E50.37725
G1 X-27.712 Y56.52 E50.40297
G1 X-27.96 Y56.127 E50.42873
G1 X-28.137 Y55.698 E50.45447
G1 X-28.238 Y55.245 E50.4802
G1 X-28.26 Y54.781 E50.50596
G1 X-28.13 Y54.053 E50.54696
G1 X-10.567 Y0.00 E53.69825
G0 F3600 X-9.936 Y0.00
G1 F1800 X-27.559 Y-54.238 E56.86033
G1 X-27.647 Y-54.638 E56.88304
G1 X-27.656 Y-55.047 E56.90572
G1 X-27.585 Y-55.45 E56.92841
G1 X-27.437 Y-55.832 E56.95113
G1 X-27.218 Y-56.178 E56.97383
G1 X-26.936 Y-56.475 E56.99654
G1 X-26.602 Y-56.711 E57.01922
G1 X-26.228 Y-56.878 E57.04193
G1 X-25.829 Y-56.97 E57.06463
G1 X-25.42 Y-56.982 E57.08732
G1 X-25.016 Y-56.915 E57.11002
G1 X-24.633 Y-56.77 E57.13273
G1 X-24.328 Y-56.586 E57.15248
G1 X51.218 Y-1.699 E62.33007
G1 X51.525 Y-1.427 E62.35282
G1 X51.772 Y-1.101 E62.37549
G1 X51.952 Y-.733 E62.39821
G1 X52.057 Y-.338 E62.42087
G1 X52.083 Y0.071 E62.44359
G1 X52.029 Y0.477 E62.4663
G1 X51.898 Y0.865 E62.48901
G1 X51.694 Y1.219 E62.51166
G1 X51.425 Y1.528 E62.53438
G1 X51.218 Y1.699 E62.54927
G1 X-24.328 Y56.586 E67.72686
G1 X-24.681 Y56.793 E67.74955
G1 X-25.067 Y56.928 E67.77222
G1 X-25.473 Y56.985 E67.79496
G1 X-25.881 Y56.963 E67.81761
G1 X-26.278 Y56.861 E67.84034
G1 X-26.647 Y56.685 E67.86301
G1 X-26.976 Y56.44 E67.88575
G1 X-27.25 Y56.136 E67.90844
G1 X-27.46 Y55.785 E67.93112
G1 X-27.599 Y55.399 E67.95387
G1 X-27.659 Y54.995 E67.97652
G1 X-27.64 Y54.586 E67.99922
G1 X-27.559 Y54.238 E68.01903
G1 X-9.936 Y0.00 E71.18111
G0 F3600 X-9.306 Y0.00
G1 F1800 X-26.989 Y-54.423 E74.35397
G1 X-27.057 Y-54.763 E74.37319
G1 X-27.046 Y-55.108 E74.39233
G1 X-26.956 Y-55.442 E74.41151
G1 X-26.791 Y-55.746 E74.43069
G1 X-26.562 Y-56.005 E74.44986
G1 X-26.279 Y-56.204 E74.46904
G1 X-25.958 Y-56.334 E74.48824
G1 X-25.617 Y-56.386 E74.50737
G1 X-25.272 Y-56.359 E74.52656
G1 X-24.943 Y-56.253 E74.54572
G1 X-24.68 Y-56.101 E74.56257
G1 X50.866 Y-1.214 E79.74016
G1 X51.12 Y-.979 E79.75935
G1 X51.314 Y-.693 E79.77851
G1 X51.438 Y-.37 E79.79769
G1 X51.484 Y-0.027 E79.81688
G1 X51.45 Y0.317 E79.83605
G1 X51.339 Y0.644 E79.85519
G1 X51.155 Y0.937 E79.87438
G1 X50.866 Y1.214 E79.89657
G1 X-24.68 Y56.101 E85.07417
G1 X-24.982 Y56.27 E85.09336
G1 X-25.314 Y56.366 E85.11252
G1 X-25.659 Y56.384 E85.13167
G1 X-25.999 Y56.322 E85.15084
G1 X-26.316 Y56.183 E85.17003
G1 X-26.593 Y55.976 E85.1892
G1 X-26.815 Y55.711 E85.20837
G1 X-26.971 Y55.402 E85.22756
G1 X-27.051 Y55.066 E85.24671
G1 X-27.053 Y54.72 E85.2659
G1 X-26.989 Y54.423 E85.28274
G1 X-9.306 Y0.00 E88.45561
G0 F3600 X-8.674 Y0.00
G1 F1800 X-26.418 Y-54.609 E91.63932
G1 X-26.462 Y-54.873 E91.65416
G1 X-26.426 Y-55.138 E91.66899
G1 X-26.314 Y-55.381 E91.68382
G1 X-26.136 Y-55.58 E91.69863
G1 X-25.907 Y-55.718 E91.71345
G1 X-25.647 Y-55.783 E91.72831
G1 X-25.38 Y-55.768 E91.74314
G1 X-25.033 Y-55.615 E91.76417
G1 X50.513 Y-.728 E96.94176
G1 X50.704 Y-.54 E96.95662
G1 X50.831 Y-.305 E96.97143
G1 X50.883 Y-0.042 E96.9863
G1 X50.856 Y0.224 E97.00112
G1 X50.751 Y0.47 E97.01595
G1 X50.513 Y0.728 E97.03541
G1 X-25.033 Y55.615 E102.21301
G1 X-25.27 Y55.738 E102.22781
G1 X-25.534 Y55.787 E102.2427
G1 X-25.799 Y55.755 E102.2575
G1 X-26.044 Y55.647 E102.27235
G1 X-26.246 Y55.472 E102.28717
G1 X-26.388 Y55.245 E102.30201
G1 X-26.457 Y54.986 E102.31687
G1 X-26.418 Y54.609 E102.33789
G1 X-8.674 Y0.00 E105.5216
G0 F3600 X-8.043 Y0.00
G1 F1800 X-25.847 Y-54.794 E108.7161
G1 X-25.856 Y-54.948 E108.72465
G1 X-25.787 Y-55.085 E108.73316
G1 X-25.66 Y-55.171 E108.74166
G1 X-25.506 Y-55.182 E108.75022
G1 X-25.386 Y-55.13 E108.75748
G1 X50.16 Y-.243 E113.93507
G1 X50.257 Y-.124 E113.94358
G1 X50.283 Y0.028 E113.95213
G1 X50.23 Y0.172 E113.96064
G1 X50.16 Y0.243 E113.96617
G1 X-25.386 Y55.13 E119.14376
G1 X-25.529 Y55.185 E119.15226
G1 X-25.681 Y55.162 E119.16078
G1 X-25.802 Y55.067 E119.16931
G1 X-25.86 Y54.925 E119.17782
G1 X-25.847 Y54.794 E119.18512
G1 X-8.043 Y0.00 E122.37961
;MESH:Dart_v1_2.STL
G0 F3600 X-7.413 Y0.00
;TYPE:WALL-OUTER
G1 F1800 X-24.992 Y-54.102 E125.53377
G1 X49.474 Y0.00 E130.63733
G1 X-24.992 Y54.102 E135.74089
G1 X-7.413 Y0.00 E138.89505
G0 F3600 X-7.474 Y-.19
G0 X-6.847 Y-.392
G0 X-18.259 Y-44.054
G0 X43.532 Y-.322
G0 X43.297 Y0.00
G1 F1800 X42.964 Y-.242 E138.91787
G1 X-17.313 Y-44.036 E143.04901
G1 X-17.516 Y-44.184 E143.06294
G1 X-17.869 Y-43.928 E143.08712
G1 X-17.792 Y-43.689 E143.09923
G1 X-3.595 Y0.00 E145.64633
G1 X-17.792 Y43.689 E148.19343
G1 X-17.869 Y43.928 E148.20735
G1 X-17.516 Y44.184 E148.23153
G1 X-17.313 Y44.036 E148.24365
G1 X42.964 Y0.242 E152.37479
G1 X43.297 Y0.00 E152.38837
G0 F3600 X43.135 Y-.117
G0 X43.985 Y-.242
;TYPE:WALL-INNER
G1 F1800 X-17.516 Y-44.925 E156.60338
G1 X-18.574 Y-44.158 E156.67584
G1 X-4.226 Y0.00 E159.25026
G1 X-18.574 Y44.158 E161.82467
G1 X-17.516 Y44.925 E161.89713
G1 X43.985 Y0.242 E166.11215
G1 X44.318 Y0.00 E166.13497
G1 X43.985 Y-.242 E166.14855
G0 F3600 X-17.516 Y-44.595
G0 X-6.782 Y0.00
G1 F1800 X-23.851 Y-52.531 E169.21112
G1 X48.453 Y0.00 E174.1665
G1 X-23.851 Y52.531 E179.12189
G1 X-6.782 Y0.00 E182.18446
G0 F3600 X-18.259 Y-44.054
G0 X-18.46 Y-46.427
;TYPE:SKIN
G1 F1800 X-19.711 Y-45.519 E182.27016
G1 X-20.484 Y-47.897 E182.40881
G1 X-18.46 Y-46.427 E182.54751
G0 F3600 X-17.516 Y-46.371
G1 F1800 X-19.949 Y-44.605 E182.7142
G1 X-5.456 Y0.00 E185.31467
G1 X-19.949 Y44.605 E187.91515
G1 X-17.516 Y46.371 E188.08184
G1 X46.308 Y0.00 E192.45607
G1 X-17.516 Y-46.371 E196.83031
G0 F3600 X-17.516 Y-45.63
G1 F1800 X-19.244 Y-44.376 E196.94869
G1 X-4.825 Y0.00 E199.53582
G1 X-19.244 Y44.376 E202.12295
G1 X-17.516 Y45.63 E202.24133
G1 X45.287 Y0.00 E206.54561
G1 X-17.516 Y-45.63 E210.8499
G0 F3600 X-21.625 Y-49.468
G1 F1800 X46.463 Y0.00 E215.51634
G1 X-21.625 Y49.468 E220.18278
G1 X-5.552 Y0.00 E223.06676
G1 X-21.625 Y-49.468 E225.95075
G0 F3600 X-22.767 Y-51.039
G1 F1800 X47.484 Y0.00 E230.76541
G1 X-22.767 Y51.039 E235.58008
G1 X-6.183 Y0.00 E238.55566
G1 X-22.767 Y-51.039 E241.53124
G0 F3600 X-7.058 Y0.00
G0 X-19.711 Y45.519
G1 F1800 X-18.46 Y46.427 E241.61695
G1 X-20.484 Y47.897 E241.75565
G1 X-19.711 Y45.519 E241.8943
G0 F3600 X-19.615 Y46.145
;TYPE:SKIN
G1 F1800 X-19.171 Y46.589 E241.9117
G0 F3600 X-19.417 Y46.768
G1 F1800 X-19.719 Y46.465 E241.92356
G0 F3600 X-19.823 Y46.785
G1 F1800 X-19.662 Y46.946 E241.92988
G0 F3600 X-20.542 Y48.188
G1 F1800 X-20.461 Y48.269 E241.93305
G0 F3600 X-20.706 Y48.448
G1 F1800 X-20.923 Y48.231 E241.94156
G0 F3600 X-21.027 Y48.551
G1 F1800 X-20.952 Y48.626 E241.9445
G0 F3600 X-22.024 Y49.675
G1 F1800 X-21.752 Y49.948 E241.95518
G0 F3600 X-21.998 Y50.126
G1 F1800 X-22.128 Y49.996 E241.96028
G0 F3600 X-23.094 Y51.152
G1 F1800 X-22.808 Y51.437 E241.97147
G0 F3600 X-23.053 Y51.616
G1 F1800 X-23.217 Y51.452 E241.9779
G0 F3600 X-7.058 Y0.00
G0 X-19.381 Y-46.11
G1 F1800 X-19.71 Y-46.439 E241.9908
G0 F3600 X-19.135 Y-46.288
G1 F1800 X-19.914 Y-47.067 E242.02135
G0 F3600 X-20.582 Y-48.159
G1 F1800 X-21.053 Y-48.63 E242.03981
G0 F3600 X-21.726 Y-49.727
G1 F1800 X-22.191 Y-50.193 E242.05806
G0 F3600 X-22.881 Y-51.306
G1 F1800 X-23.309 Y-51.735 E242.07486
G0 F3600 X-23.28 Y-51.742
;MESH:NONMESH
G0 F600 X-23.28 Y-51.742 Z0.4
G0 F3600 X43.847 Y0.00
G0 X43.985 Y0.242
;TIME_ELAPSED:158.530029
;LAYER:1
M106 S255
;TYPE:WALL-INNER
;MESH:Dart_v1_2.STL
G1 F2700 X44.318 Y0.00 E242.09769
G1 X43.985 Y-.242 E242.11126
G1 X-17.516 Y-44.925 E246.32628
G1 X-18.574 Y-44.158 E246.39874
G1 X-4.226 Y0.00 E248.97316
G1 X-18.574 Y44.158 E251.54757
G1 X-17.516 Y44.925 E251.62003
G1 X43.985 Y0.242 E255.83505
G0 F5400 X43.297 Y0.00
;TYPE:WALL-OUTER
G1 F1800 X42.964 Y-.242 E255.85787
G1 X-17.313 Y-44.036 E259.98901
G1 X-17.516 Y-44.184 E260.00294
G1 X-17.869 Y-43.928 E260.02712
G1 X-17.792 Y-43.689 E260.03923
G1 X-3.595 Y0.00 E262.58633
G1 X-17.792 Y43.689 E265.13343
G1 X-17.869 Y43.928 E265.14735
G1 X-17.516 Y44.184 E265.17153
G1 X-17.313 Y44.036 E265.18365
G1 X42.964 Y0.242 E269.31479
G1 X43.297 Y0.00 E269.32837
G0 F5400 X43.135 Y-.117
G0 X43.523 Y-.65
G0 X-17.516 Y-44.595
G0 X-6.782 Y0.00
;TYPE:WALL-INNER
G1 F2700 X-23.851 Y-52.531 E272.39094
G1 X48.453 Y0.00 E277.34632
G1 X-23.851 Y52.531 E282.3017
G1 X-6.782 Y0.00 E285.36427
G0 F5400 X-7.413 Y0.00
;TYPE:WALL-OUTER
G1 F1800 X-24.992 Y-54.102 E288.51842
G1 X49.474 Y0.00 E293.62199
G1 X-24.992 Y54.102 E298.72555
G1 X-7.413 Y0.00 E301.8797
G0 F5400 X-7.474 Y-.19
G0 X-6.847 Y-.392
G0 X-6.162 Y0.00
;TYPE:SKIN
G1 F1800 X-22.729 Y-50.986 E304.8522
G1 X47.45 Y0.00 E309.66191
G1 X-22.729 Y50.986 E314.47162
G1 X-6.162 Y0.00 E317.44412
G0 F5400 X-4.846 Y0.00
G1 F1800 X-19.268 Y44.384 E320.03172
G1 X-17.516 Y45.654 E320.1517
G1 X45.321 Y0.00 E324.45829
G1 X-17.516 Y-45.654 E328.76488
G1 X-19.268 Y-44.384 E328.88486
G1 X-4.846 Y0.00 E331.47247
G0 F5400 X-18.259 Y-44.054
G0 X46.48 Y0.00
G1 F1800 X46.099 Y-.278 E331.49862
G0 F5400 X46.017 Y-.196
G1 F1800 X45.525 Y-.553 E331.53232
G0 F5400 X45.606 Y-.634
G1 F1800 X45.115 Y-.992 E331.56601
G0 F5400 X45.034 Y-.91
G1 F1800 X44.542 Y-1.267 E331.59972
G0 F5400 X44.624 Y-1.349
G1 F1800 X44.132 Y-1.706 E331.63342
G0 F5400 X44.051 Y-1.624
G1 F1800 X43.559 Y-1.982 E331.66716
G0 F5400 X43.641 Y-2.063
G1 F1800 X43.149 Y-2.42 E331.70086
G0 F5400 X43.068 Y-2.339
G1 F1800 X42.577 Y-2.696 E331.73452
G0 F5400 X42.658 Y-2.777
G1 F1800 X42.166 Y-3.134 E331.76823
G0 F5400 X42.085 Y-3.053
G1 F1800 X41.594 Y-3.41 E331.80189
G0 F5400 X41.675 Y-3.491
G1 F1800 X41.184 Y-3.848 E331.83555
G0 F5400 X41.102 Y-3.767
G1 F1800 X40.611 Y-4.124 E331.86921
G0 F5400 X40.692 Y-4.205
G1 F1800 X40.201 Y-4.562 E331.90287
G0 F5400 X40.119 Y-4.481
G1 F1800 X39.628 Y-4.838 E331.93653
G0 F5400 X39.709 Y-4.92
G1 F1800 X39.218 Y-5.277 E331.97019
G0 F5400 X39.136 Y-5.195
G1 F1800 X38.645 Y-5.552 E332.00385
G0 F5400 X38.726 Y-5.634
G1 F1800 X38.235 Y-5.991 E332.03751
G0 F5400 X38.154 Y-5.909
G1 F1800 X37.662 Y-6.267 E332.07124
G0 F5400 X37.743 Y-6.348
G1 F1800 X37.252 Y-6.705 E332.1049
G0 F5400 X37.171 Y-6.624
G1 F1800 X36.679 Y-6.981 E332.13861
G0 F5400 X36.761 Y-7.062
G1 F1800 X36.269 Y-7.419 E332.17231
G0 F5400 X36.188 Y-7.338
G1 F1800 X35.696 Y-7.695 E332.20602
G0 F5400 X35.778 Y-7.776
G1 F1800 X35.286 Y-8.133 E332.23972
G0 F5400 X35.205 Y-8.052
G1 F1800 X34.713 Y-8.409 E332.27343
G0 F5400 X34.794 Y-8.49
G1 F1800 X34.303 Y-8.847 E332.30709
G0 F5400 X34.222 Y-8.766
G1 F1800 X33.731 Y-9.123 E332.34075
G0 F5400 X33.811 Y-9.204
G1 F1800 X33.32 Y-9.561 E332.37441
G0 F5400 X33.239 Y-9.48
G1 F1800 X32.748 Y-9.837 E332.40807
G0 F5400 X32.828 Y-9.918
G1 F1800 X32.337 Y-10.275 E332.44173
G0 F5400 X32.256 Y-10.195
G1 F1800 X31.765 Y-10.552 E332.47539
G0 F5400 X31.845 Y-10.632
G1 F1800 X31.354 Y-10.989 E332.50905
G0 F5400 X31.273 Y-10.909
G1 F1800 X30.782 Y-11.266 E332.54271
G0 F5400 X30.863 Y-11.346
G1 F1800 X30.371 Y-11.704 E332.57644
G0 F5400 X30.291 Y-11.623
G1 F1800 X29.798 Y-11.979 E332.61016
G0 F5400 X29.88 Y-12.061
G1 F1800 X29.388 Y-12.418 E332.64387
G0 F5400 X29.307 Y-12.336
G1 F1800 X28.816 Y-12.693 E332.67753
G0 F5400 X28.897 Y-12.775
G1 F1800 X28.405 Y-13.132 E332.71123
G0 F5400 X28.324 Y-13.051
