;FLAVOR:Marlin
;TIME:2037
;Filament used: 2.92443m
;Layer height: 0.2
;MINX:-57.22
;MINY:-56.666
;MINZ:0.2
;MAXX:40.353
;MAXY:56.67
;MAXZ:14
;Generated with Cura_SteamEngine 4.8.0
M140 S60
M105
M190 S60
M104 S195
M105
M109 S195
M82 ;absolute extrusion mode
G28 ;Home
G1 Z15.0 F6000 ;Move the platform down 15mm
;Prime the extruder
G92 E0
G1 F200 E3
G92 E0
G92 E0
G92 E0
G1 F1500 E-6.5
;LAYER_COUNT:70
;LAYER:0
M107
G0 F3600 X40.163 Y-1.205 Z0.2
;TYPE:SKIRT
G1 F1500 E0
G1 F1800 X40.297 Y-.663 E0.03096
G1 X40.353 Y-.108 E0.06189
G1 X40.328 Y0.45 E0.09286
G1 X40.163 Y1.205 E0.13571
G1 X23.018 Y53.977 E3.21229
G1 X22.808 Y54.494 E3.24323
G1 X22.526 Y54.976 E3.27419
G1 X22.179 Y55.413 E3.30513
G1 X21.772 Y55.796 E3.33612
G1 X21.315 Y56.116 E3.36705
G1 X20.817 Y56.368 E3.398
G1 X20.289 Y56.547 E3.42891
G1 X19.74 Y56.648 E3.45986
G1 X19.182 Y56.67 E3.49083
G1 X18.627 Y56.612 E3.52177
G1 X18.085 Y56.475 E3.55276
G1 X17.569 Y56.262 E3.58372
G1 X17.017 Y55.927 E3.61952
G1 X-55.619 Y3.155 E8.59765
G1 X-56.046 Y2.796 E8.62858
G1 X-56.418 Y2.379 E8.65956
G1 X-56.725 Y1.913 E8.6905
G1 X-56.964 Y1.408 E8.72148
G1 X-57.128 Y0.875 E8.7524
G1 X-57.214 Y0.323 E8.78338
G1 X-57.22 Y-.235 E8.81432
G1 X-57.146 Y-.788 E8.84525
G1 X-56.995 Y-1.326 E8.87624
G1 X-56.768 Y-1.836 E8.90719
G1 X-56.471 Y-2.308 E8.93811
G1 X-56.109 Y-2.733 E8.96907
G1 X-55.619 Y-3.155 E9.00492
G1 X17.017 Y-55.927 E13.98305
G1 X17.491 Y-56.222 E14.01401
G1 X18.002 Y-56.446 E14.04494
G1 X18.54 Y-56.595 E14.0759
G1 X19.093 Y-56.666 E14.10681
G1 X19.652 Y-56.657 E14.13781
G1 X20.203 Y-56.568 E14.16876
G1 X20.736 Y-56.402 E14.19971
G1 X21.239 Y-56.161 E14.23063
G1 X21.703 Y-55.851 E14.26158
G1 X22.118 Y-55.477 E14.29255
G1 X22.476 Y-55.049 E14.32349
G1 X22.768 Y-54.573 E14.35445
G1 X23.018 Y-53.977 E14.39029
G1 X40.163 Y-1.205 E17.46687
G0 F3600 X39.593 Y-1.02
G1 F1800 X39.713 Y-.521 E17.49533
G1 X39.754 Y-0.009 E17.52381
G1 X39.715 Y0.503 E17.55228
G1 X39.593 Y1.02 E17.58173
G1 X22.448 Y53.792 E20.65831
G1 X22.251 Y54.266 E20.68677
G1 X21.984 Y54.704 E20.71521
G1 X21.652 Y55.096 E20.7437
G1 X21.263 Y55.431 E20.77216
G1 X20.827 Y55.702 E20.80063
G1 X20.354 Y55.902 E20.8291
G1 X19.856 Y56.026 E20.85756
G1 X19.344 Y56.072 E20.88606
G1 X18.832 Y56.037 E20.91451
G1 X18.331 Y55.924 E20.94299
G1 X17.854 Y55.734 E20.97146
G1 X17.369 Y55.442 E21.00285
G1 X-55.267 Y2.67 E25.98098
G1 X-55.657 Y2.337 E26.00941
G1 X-55.992 Y1.947 E26.03792
G1 X-56.261 Y1.51 E26.06637
G1 X-56.46 Y1.037 E26.09482
G1 X-56.583 Y0.538 E26.12332
G1 X-56.627 Y0.027 E26.15176
G1 X-56.591 Y-.486 E26.18027
G1 X-56.476 Y-.986 E26.20872
G1 X-56.285 Y-1.463 E26.23721
G1 X-56.023 Y-1.904 E26.26565
G1 X-55.695 Y-2.299 E26.29412
G1 X-55.267 Y-2.67 E26.32552
G1 X17.369 Y-55.442 E31.30365
G1 X17.807 Y-55.71 E31.33213
G1 X18.281 Y-55.908 E31.36061
G1 X18.78 Y-56.029 E31.38908
G1 X19.291 Y-56.072 E31.41751
G1 X19.803 Y-56.035 E31.44597
G1 X20.304 Y-55.919 E31.47449
G1 X20.78 Y-55.726 E31.50297
G1 X21.22 Y-55.462 E31.53142
G1 X21.614 Y-55.133 E31.55988
G1 X21.953 Y-54.747 E31.58836
G1 X22.227 Y-54.313 E31.61682
G1 X22.448 Y-53.792 E31.6482
G1 X39.593 Y-1.02 E34.72478
G0 F3600 X39.022 Y-.834
G1 F1800 X39.127 Y-.382 E34.75051
G1 X39.153 Y0.082 E34.77628
G1 X39.099 Y0.543 E34.80201
G1 X39.022 Y0.834 E34.81871
G1 X21.877 Y53.606 E37.89529
G1 X21.696 Y54.034 E37.92105
G1 X21.444 Y54.424 E37.9468
G1 X21.13 Y54.766 E37.97254
G1 X20.761 Y55.048 E37.99829
G1 X20.35 Y55.263 E38.02401
G1 X19.908 Y55.405 E38.04975
G1 X19.448 Y55.468 E38.07549
G1 X18.984 Y55.452 E38.10124
G1 X18.529 Y55.357 E38.12701
G1 X18.098 Y55.185 E38.15274
G1 X17.722 Y54.956 E38.17715
G1 X-54.914 Y2.184 E43.15528
G1 X-55.265 Y1.88 E43.18103
G1 X-55.558 Y1.52 E43.20676
G1 X-55.786 Y1.116 E43.23248
G1 X-55.941 Y0.678 E43.25825
G1 X-56.018 Y0.22 E43.284
G1 X-56.016 Y-.244 E43.30972
G1 X-55.934 Y-.701 E43.33547
G1 X-55.776 Y-1.138 E43.36123
G1 X-55.544 Y-1.541 E43.38702
G1 X-55.248 Y-1.898 E43.41273
G1 X-54.914 Y-2.184 E43.43711
G1 X17.722 Y-54.956 E48.41524
G1 X18.12 Y-55.196 E48.44101
G1 X18.553 Y-55.364 E48.46676
G1 X19.008 Y-55.455 E48.49249
G1 X19.472 Y-55.467 E48.51823
G1 X19.931 Y-55.399 E48.54395
G1 X20.372 Y-55.254 E48.56969
G1 X20.782 Y-55.035 E48.59547
G1 X21.148 Y-54.749 E48.62122
G1 X21.459 Y-54.405 E48.64693
G1 X21.707 Y-54.012 E48.6727
G1 X21.877 Y-53.606 E48.6971
G1 X39.022 Y-.834 E51.77369
G0 F3600 X38.451 Y-.649
G1 F1800 X38.539 Y-.249 E51.79639
G1 X38.548 Y0.16 E51.81908
G1 X38.451 Y0.649 E51.84672
G1 X21.306 Y53.421 E54.9233
G1 X21.142 Y53.796 E54.94599
G1 X20.909 Y54.132 E54.96867
G1 X20.615 Y54.417 E54.99137
G1 X20.271 Y54.639 E55.01407
G1 X19.89 Y54.79 E55.03679
G1 X19.488 Y54.864 E55.05946
G1 X19.078 Y54.859 E55.08219
G1 X18.678 Y54.775 E55.10486
G1 X18.301 Y54.614 E55.12758
G1 X18.075 Y54.471 E55.14241
G1 X-54.561 Y1.699 E60.12054
G1 X-54.868 Y1.427 E60.14329
G1 X-55.115 Y1.101 E60.16596
G1 X-55.295 Y0.733 E60.18868
G1 X-55.4 Y0.338 E60.21134
G1 X-55.426 Y-0.071 E60.23406
G1 X-55.372 Y-.477 E60.25677
G1 X-55.241 Y-.865 E60.27948
G1 X-55.037 Y-1.219 E60.30213
G1 X-54.768 Y-1.528 E60.32485
G1 X-54.561 Y-1.699 E60.33974
G1 X18.075 Y-54.471 E65.31787
G1 X18.428 Y-54.678 E65.34056
G1 X18.814 Y-54.813 E65.36323
G1 X19.22 Y-54.87 E65.38596
G1 X19.628 Y-54.848 E65.40862
G1 X20.025 Y-54.746 E65.43134
G1 X20.395 Y-54.57 E65.45406
G1 X20.723 Y-54.325 E65.47676
G1 X20.997 Y-54.021 E65.49945
G1 X21.207 Y-53.67 E65.52213
G1 X21.306 Y-53.421 E65.53699
G1 X38.451 Y-.649 E68.61357
G0 F3600 X37.881 Y-.463
G1 F1800 X37.949 Y-.124 E68.63274
G1 X37.938 Y0.221 E68.65188
G1 X37.881 Y0.463 E68.66567
G1 X20.736 Y53.235 E71.74225
G1 X20.592 Y53.55 E71.76145
G1 X20.379 Y53.823 E71.78065
G1 X20.11 Y54.04 E71.79981
G1 X19.798 Y54.19 E71.81901
G1 X19.461 Y54.264 E71.83814
G1 X19.115 Y54.259 E71.85733
G1 X18.779 Y54.175 E71.87653
G1 X18.427 Y53.986 E71.89868
G1 X-54.209 Y1.214 E76.87681
G1 X-54.463 Y0.979 E76.896
G1 X-54.657 Y0.693 E76.91516
G1 X-54.781 Y0.37 E76.93434
G1 X-54.827 Y0.027 E76.95353
G1 X-54.793 Y-.317 E76.9727
G1 X-54.682 Y-.644 E76.99185
G1 X-54.498 Y-.937 E77.01103
G1 X-54.209 Y-1.214 E77.03323
G1 X18.427 Y-53.986 E82.01136
G1 X18.729 Y-54.155 E82.03054
G1 X19.061 Y-54.251 E82.04971
G1 X19.406 Y-54.269 E82.06886
G1 X19.746 Y-54.207 E82.08802
G1 X20.063 Y-54.068 E82.10722
G1 X20.34 Y-53.861 E82.12639
G1 X20.562 Y-53.596 E82.14556
G1 X20.736 Y-53.235 E82.16778
G1 X37.881 Y-.463 E85.24436
G0 F3600 X37.31 Y-.278
G1 F1800 X37.354 Y-0.014 E85.2592
G1 X37.31 Y0.278 E85.27557
G1 X20.165 Y53.05 E88.35215
G1 X20.045 Y53.289 E88.36698
G1 X19.861 Y53.483 E88.38181
G1 X19.627 Y53.614 E88.39668
G1 X19.366 Y53.67 E88.41148
G1 X19.099 Y53.647 E88.42634
G1 X18.78 Y53.5 E88.44581
G1 X-53.856 Y0.728 E93.42394
G1 X-54.047 Y0.54 E93.4388
G1 X-54.174 Y0.305 E93.45361
G1 X-54.226 Y0.042 E93.46848
G1 X-54.199 Y-.224 E93.4833
G1 X-54.094 Y-.47 E93.49813
G1 X-53.856 Y-.728 E93.51759
G1 X18.78 Y-53.5 E98.49572
G1 X19.017 Y-53.623 E98.51053
G1 X19.281 Y-53.672 E98.52542
G1 X19.546 Y-53.64 E98.54022
G1 X19.791 Y-53.532 E98.55506
G1 X19.993 Y-53.357 E98.56988
G1 X20.165 Y-53.05 E98.58939
G1 X37.31 Y-.278 E101.66597
G0 F3600 X36.739 Y-0.093
G1 F1800 X36.739 Y0.093 E101.67629
G1 X19.594 Y52.865 E104.75287
G1 X19.511 Y52.994 E104.76137
G1 X19.375 Y53.065 E104.76988
G1 X19.221 Y53.059 E104.77843
G1 X19.133 Y53.015 E104.78388
G1 X-53.503 Y0.243 E109.76201
G1 X-53.6 Y0.124 E109.77052
G1 X-53.626 Y-0.028 E109.77907
G1 X-53.573 Y-.172 E109.78758
G1 X-53.503 Y-.243 E109.79311
G1 X19.133 Y-53.015 E114.77124
G1 X19.276 Y-53.07 E114.77973
G1 X19.428 Y-53.047 E114.78826
G1 X19.549 Y-52.952 E114.79679
G1 X19.594 Y-52.865 E114.80222
G1 X36.739 Y-0.093 E117.8788
G1 F1500 E111.3788
;MESH:Kite_v1_2.STL
G0 F3600 X35.488 Y0.00
G0 X18.804 Y51.221
G0 X18.817 Y52.045
;TYPE:WALL-OUTER
G1 F1500 E117.8788
G1 F1800 X-52.817 Y0.00 E122.78829
G1 X18.817 Y-52.045 E127.69778
G1 X19.15 Y-52.287 E127.7206
G1 X19.277 Y-51.896 E127.73418
G1 X36.139 Y0.00 E130.75972
G1 X19.277 Y51.896 E133.78525
G1 X19.15 Y52.287 E133.80805
G1 X18.817 Y52.045 E133.82164
G0 F3600 X18.656 Y51.928
G0 X18.804 Y51.221
G0 X17.907 Y46.629
G0 X17.242 Y46.413
G1 F1800 X17.369 Y46.022 E133.84444
G1 X32.322 Y0.00 E136.52751
G1 X17.369 Y-46.022 E139.21059
G1 X17.242 Y-46.413 E139.23338
G1 X16.909 Y-46.171 E139.24698
G1 X-46.307 Y-.242 E143.57953
G1 X-46.64 Y0.00 E143.60236
G1 X-46.307 Y0.242 E143.61593
G1 X16.909 Y46.171 E147.94849
G1 X17.242 Y46.413 E147.96208
G0 F3600 X17.303 Y46.223
G0 X17.684 Y46.993
;TYPE:WALL-INNER
G1 F1800 X32.953 Y0.00 E150.70178
G1 X17.684 Y-46.993 E153.44147
G1 X17.557 Y-47.384 E153.46427
G1 X17.224 Y-47.142 E153.47786
G1 X-47.328 Y-.242 E157.90199
G1 X-47.661 Y0.00 E157.92481
G1 X-47.328 Y0.242 E157.93839
G1 X17.224 Y47.142 E162.36252
G1 X17.557 Y47.384 E162.38535
G1 X17.684 Y46.993 E162.39892
G0 F3600 X17.779 Y47.024
G0 X18.804 Y51.221
G0 X18.834 Y51.316
G1 F1800 X18.501 Y51.074 E162.42175
G1 X-51.796 Y0.00 E167.23961
G1 X18.501 Y-51.074 E172.05748
G1 X18.834 Y-51.316 E172.08031
G1 X18.961 Y-50.925 E172.09388
G1 X35.508 Y0.00 E175.06282
G1 X18.961 Y50.925 E178.03176
G1 X18.834 Y51.316 E178.04533
G0 F3600 X18.804 Y51.221
G0 X-49.651 Y0.00
;TYPE:SKIN
G1 F1800 X18.172 Y49.277 E182.69366
G1 X34.183 Y0.00 E185.56651
G1 X18.172 Y-49.277 E188.43936
G1 X-49.651 Y0.00 E193.08769
G0 F3600 X-49.806 Y0.00
G1 F1800 X18.218 Y-49.423 E197.74979
G1 X34.278 Y0.00 E200.63118
G1 X18.218 Y49.423 E203.51257
G1 X-49.806 Y0.00 E208.17467
G0 F3600 X-50.827 Y0.00
G1 F1800 X18.534 Y-50.394 E212.92839
G1 X34.909 Y0.00 E215.86638
G1 X18.534 Y50.394 E218.80437
G1 X-50.827 Y0.00 E223.55809
G0 F3600 X-48.63 Y0.00
G1 F1800 X17.857 Y48.306 E228.11484
G1 X33.552 Y0.00 E230.93107
G1 X17.857 Y-48.306 E233.74731
G1 X-48.63 Y0.00 E238.30406
;MESH:NONMESH
G0 F600 X-48.63 Y0.00 Z0.4
G0 F3600 X17.569 Y47.422
G0 X17.684 Y46.993
;TIME_ELAPSED:150.859099
;LAYER:1
M106 S255
;TYPE:WALL-INNER
;MESH:Kite_v1_2.STL
G1 F2700 X32.953 Y0.00 E241.04375
G1 X17.684 Y-46.993 E243.78345
G1 X17.557 Y-47.384 E243.80624
G1 X17.224 Y-47.142 E243.81983
G1 X-47.328 Y-.242 E248.24396
G1 X-47.661 Y0.00 E248.26679
G1 X-47.328 Y0.242 E248.28037
G1 X17.224 Y47.142 E252.7045
G1 X17.557 Y47.384 E252.72732
G1 X17.684 Y46.993 E252.7409
G0 F5400 X17.242 Y46.413
;TYPE:WALL-OUTER
G1 F1800 X17.369 Y46.022 E252.76369
G1 X32.322 Y0.00 E255.44677
G1 X17.369 Y-46.022 E258.12984
G1 X17.242 Y-46.413 E258.15264
G1 X16.909 Y-46.171 E258.16623
G1 X-46.307 Y-.242 E262.49879
G1 X-46.64 Y0.00 E262.52161
G1 X-46.307 Y0.242 E262.53519
G1 X16.909 Y46.171 E266.86775
G1 X17.242 Y46.413 E266.88134
G0 F5400 X17.303 Y46.223
G0 X17.93 Y46.427
G0 X17.968 Y46.439
G0 X18.804 Y51.221
G0 X18.834 Y51.316
;TYPE:WALL-INNER
G1 F2700 X18.501 Y51.074 E266.90416
G1 X-51.796 Y0.00 E271.72203
G1 X18.501 Y-51.074 E276.5399
G1 X18.834 Y-51.316 E276.56273
G1 X18.961 Y-50.925 E276.5763
G1 X35.508 Y0.00 E279.54524
G1 X18.961 Y50.925 E282.51417
G1 X18.834 Y51.316 E282.52775
G0 F5400 X18.817 Y52.045
;TYPE:WALL-OUTER
G1 F1800 X-52.817 Y0.00 E287.43724
G1 X18.817 Y-52.045 E292.34673
G1 X19.15 Y-52.287 E292.36955
G1 X19.277 Y-51.896 E292.38313
G1 X36.139 Y0.00 E295.40866
G1 X19.277 Y51.896 E298.4342
G1 X19.15 Y52.287 E298.457
G1 X18.817 Y52.045 E298.47059
G0 F5400 X18.656 Y51.928
G0 X18.804 Y51.221
G0 X18.523 Y50.362
;TYPE:SKIN
G1 F1800 X-50.793 Y0.00 E303.22125
G1 X18.523 Y-50.362 E307.97191
G1 X34.888 Y0.00 E310.90804
G1 X18.523 Y50.362 E313.84417
G0 F5400 X17.867 Y48.338
G1 F1800 X33.573 Y0.00 E316.66228
G1 X17.867 Y-48.338 E319.48039
G1 X-48.664 Y0.00 E324.04016
G1 X17.867 Y48.338 E328.59992
G0 F5400 X18.222 Y49.438
G1 F1800 X18.524 Y48.508 E328.65414
G1 X18.356 Y48.677 E328.66735
G0 F5400 X18.524 Y48.508
G1 F1800 X18.933 Y47.251 E328.74065
G1 X18.765 Y47.419 E328.75382
G1 X19.173 Y46.163 E328.82704
G1 X19.341 Y45.995 E328.84022
G1 X19.75 Y44.737 E328.91356
G1 X19.581 Y44.906 E328.92681
G1 X19.989 Y43.649 E329.00009
G1 X20.158 Y43.481 E329.0133
G1 X20.566 Y42.224 E329.08658
G1 X20.398 Y42.392 E329.09975
G1 X20.806 Y41.135 E329.17303
G1 X20.975 Y40.966 E329.18628
G1 X21.383 Y39.71 E329.2595
G1 X21.215 Y39.878 E329.27268
G1 X21.623 Y38.622 E329.3459
G1 X21.792 Y38.453 E329.35915
G1 X22.201 Y37.195 E329.4325
G1 X22.032 Y37.364 E329.44575
G1 X22.44 Y36.108 E329.51897
G1 X22.609 Y35.939 E329.53222
G1 X23.017 Y34.682 E329.6055
G1 X22.848 Y34.851 E329.61875
G1 X23.256 Y33.594 E329.69203
G1 X23.425 Y33.425 E329.70528
G1 X23.834 Y32.168 E329.77857
G1 X23.665 Y32.337 E329.79182
G1 X24.073 Y31.08 E329.8651
G1 X24.243 Y30.911 E329.87839
G1 X24.651 Y29.654 E329.95167
G1 X24.482 Y29.823 E329.96492
G1 X24.89 Y28.567 E330.03814
G1 X25.059 Y28.397 E330.05143
G1 X25.468 Y27.14 E330.12473
G1 X25.298 Y27.309 E330.13802
G1 X25.706 Y26.053 E330.21124
G1 X25.876 Y25.883 E330.22457
G1 X26.285 Y24.626 E330.29786
G1 X26.115 Y24.796 E330.31119
G1 X26.523 Y23.539 E330.38447
G1 X26.693 Y23.369 E330.3978
G1 X27.101 Y22.112 E330.47108
G1 X26.932 Y22.282 E330.48437
G1 X27.34 Y21.025 E330.55764
G1 X27.51 Y20.855 E330.57097
G1 X27.918 Y19.598 E330.64425
G1 X27.748 Y19.768 E330.65758
G1 X28.157 Y18.511 E330.73087
G1 X28.327 Y18.341 E330.7442
G1 X28.736 Y17.084 E330.8175
G1 X28.565 Y17.254 E330.83087
G1 X28.974 Y15.997 E330.90416
G1 X29.144 Y15.827 E330.91749
G1 X29.552 Y14.57 E330.99076
G1 X29.382 Y14.741 E331.00413
G1 X29.791 Y13.483 E331.07748
G1 X29.96 Y13.314 E331.09073
G1 X30.369 Y12.056 E331.16408
G1 X30.199 Y12.227 E331.17745
G1 X30.607 Y10.97 E331.25072
G1 X30.778 Y10.799 E331.26413
G1 X31.186 Y9.543 E331.33736
G1 X31.015 Y9.713 E331.35072
G1 X31.424 Y8.456 E331.42402
G1 X31.594 Y8.285 E331.43739
G1 X32.003 Y7.028 E331.51068
G1 X31.832 Y7.199 E331.52409
G1 X32.241 Y5.942 E331.59738
G1 X32.411 Y5.772 E331.61071
G1 X32.82 Y4.514 E331.68406
G1 X32.649 Y4.685 E331.69747
G1 X33.057 Y3.428 E331.77074
G1 X33.228 Y3.258 E331.78411
G1 X33.637 Y2.001 E331.85741
G1 X33.465 Y2.172 E331.87085
G1 X33.874 Y0.914 E331.9442
G1 X34.045 Y0.743 E331.95761
G1 X34.287 Y0.00 E332.00093
G1 X34.202 Y-.26 E332.0161
G1 X34.115 Y-.174 E332.02288
G1 X33.907 Y-.814 E332.0602
G1 X33.994 Y-.901 E332.06702
G1 X33.786 Y-1.542 E332.10438
G1 X33.699 Y-1.455 E332.11121
G1 X33.491 Y-2.095 E332.14852
G1 X33.577 Y-2.182 E332.1553
G1 X33.369 Y-2.822 E332.19262
G1 X33.282 Y-2.735 E332.19944
G1 X33.074 Y-3.376 E332.2368
G1 X33.161 Y-3.463 E332.24362
G1 X32.954 Y-4.104 E332.28097
G1 X32.867 Y-4.017 E332.2878
G1 X32.659 Y-4.657 E332.32511
G1 X32.745 Y-4.743 E332.33185
G1 X32.537 Y-5.384 E332.36922
G1 X32.45 Y-5.297 E332.37604
G1 X32.242 Y-5.938 E332.41341
G1 X32.329 Y-6.025 E332.42023
G1 X32.121 Y-6.665 E332.45754
G1 X32.034 Y-6.578 E332.46436
G1 X31.826 Y-7.219 E332.50173
G1 X31.913 Y-7.305 E332.50851
G1 X31.705 Y-7.946 E332.54588
G1 X31.618 Y-7.859 E332.5527
G1 X31.41 Y-8.5 E332.59006
G1 X31.496 Y-8.586 E332.59681
G1 X31.288 Y-9.227 E332.63417
G1 X31.202 Y-9.14 E332.64096
G1 X30.993 Y-9.78 E332.67829
G1 X31.08 Y-9.867 E332.68511
G1 X30.872 Y-10.508 E332.72247
G1 X30.786 Y-10.421 E332.72926
G1 X30.578 Y-11.061 E332.76657
G1 X30.664 Y-11.148 E332.77335
G1 X30.456 Y-11.788 E332.81067
G1 X30.37 Y-11.702 E332.81741
G1 X30.161 Y-12.342 E332.85474
G1 X30.248 Y-12.429 E332.86156
G1 X30.04 Y-13.069 E332.89887
G1 X29.953 Y-12.983 E332.90566
G1 X29.745 Y-13.623 E332.94297
G1 X29.832 Y-13.71 E332.94979
G1 X29.624 Y-14.35 E332.9871
G1 X29.537 Y-14.264 E332.99389
G1 X29.329 Y-14.904 E333.0312
G1 X29.415 Y-14.99 E333.03794
G1 X29.207 Y-15.631 E333.07531
G1 X29.121 Y-15.545 E333.08205
G1 X28.913 Y-16.185 E333.11937
G1 X28.999 Y-16.271 E333.12611
