;FLAVOR:Marlin
;TIME:1175
;Filament used: 2.00944m
;Layer height: 0.2
;MINX:-45.793
;MINY:-20.373
;MINZ:0.2
;MAXX:45.596
;MAXY:18.326
;MAXZ:3.6
;POSTPROCESSED
;Generated with Cura_SteamEngine 4.8.0
M140 S60
M105
M190 S60
M104 S195
M105
M109 S195
M82 ;absolute extrusion mode
G28 ;Home
G1 Z15.0 F6000 ;Move the platform down 15mm
;Prime the extruder
G92 E0
G1 F200 E3
G92 E0
G92 E0
G92 E0
G1 F1500 E-6.5
;LAYER_COUNT:18
;LAYER:0
M107
G0 F3600 X1 Y-18.223 Z0.2
;TYPE:SKIRT
G1 F1500 E0
G1 F1800 X3.792 Y-18.144 E0.15487
G1 X6.504 Y-18.144 E0.30524
G1 X9.25 Y-18.222 E0.45756
G1 X11.998 Y-18.377 E0.61017
G1 X14.694 Y-18.606 E0.76019
G1 X17.436 Y-18.918 E0.91321
G1 X20.106 Y-19.298 E1.06274
G1 X22.832 Y-19.765 E1.21609
G1 X23.533 Y-19.903 E1.2557
G1 X24.203 Y-20.024 E1.29345
G1 X24.483 Y-20.063 E1.30913
G1 X25.444 Y-20.152 E1.36264
G1 X27.61 Y-20.314 E1.48307
G1 X28.44 Y-20.363 E1.52917
G1 X28.987 Y-20.373 E1.55951
G1 X41.636 Y-20.373 E2.26085
G1 X42.334 Y-20.363 E2.29956
G1 X42.846 Y-20.315 E2.32807
G1 X43.343 Y-20.189 E2.3565
G1 X43.815 Y-19.988 E2.38495
G1 X44.251 Y-19.715 E2.41347
G1 X44.638 Y-19.379 E2.44189
G1 X44.969 Y-18.986 E2.47038
G1 X45.235 Y-18.547 E2.49884
G1 X45.429 Y-18.071 E2.52734
G1 X45.548 Y-17.572 E2.55578
G1 X45.595 Y-16.836 E2.59667
G1 X45.596 Y12.232 E4.20839
G1 X45.587 Y12.959 E4.24871
G1 X45.54 Y13.47 E4.27716
G1 X45.415 Y13.968 E4.30563
G1 X45.215 Y14.441 E4.3341
G1 X44.943 Y14.876 E4.36255
G1 X44.607 Y15.265 E4.39105
G1 X44.215 Y15.596 E4.4195
G1 X43.776 Y15.863 E4.44799
G1 X43.302 Y16.058 E4.47641
G1 X42.802 Y16.178 E4.50492
G1 X42.058 Y16.226 E4.54625
G1 X29.183 Y16.227 E5.26013
G1 X28.482 Y16.217 E5.299
G1 X27.492 Y16.176 E5.35394
G1 X24.7 Y16.097 E5.50881
G1 X21.989 Y16.097 E5.65913
G1 X19.242 Y16.175 E5.8115
G1 X16.495 Y16.33 E5.96405
G1 X13.801 Y16.559 E6.11397
G1 X11.053 Y16.872 E6.26732
G1 X8.386 Y17.251 E6.41668
G1 X5.653 Y17.719 E6.57042
G1 X4.959 Y17.857 E6.60965
G1 X4.288 Y17.978 E6.64746
G1 X4.008 Y18.016 E6.66313
G1 X3.048 Y18.105 E6.71658
G1 X0.882 Y18.267 E6.83702
G1 X0.052 Y18.316 E6.88312
G1 X-.495 Y18.326 E6.91345
G1 X-13.143 Y18.326 E7.61474
G1 X-13.848 Y18.316 E7.65383
G1 X-14.426 Y18.28 E7.68595
G1 X-17.189 Y18.123 E7.83939
G1 X-19.934 Y18.044 E7.99166
G1 X-22.647 Y18.044 E8.14208
G1 X-25.395 Y18.121 E8.29451
G1 X-27.237 Y18.216 E8.39678
G1 X-28.524 Y18.294 E8.46827
G1 X-29.184 Y18.31 E8.50487
G1 X-41.833 Y18.31 E9.20622
G1 X-42.531 Y18.3 E9.24492
G1 X-43.043 Y18.252 E9.27344
G1 X-43.54 Y18.126 E9.30187
G1 X-44.012 Y17.925 E9.33031
G1 X-44.448 Y17.652 E9.35883
G1 X-44.835 Y17.316 E9.38725
G1 X-45.166 Y16.923 E9.41574
G1 X-45.432 Y16.484 E9.4442
G1 X-45.626 Y16.008 E9.4727
G1 X-45.745 Y15.509 E9.50115
G1 X-45.792 Y14.757 E9.54292
G1 X-45.793 Y-14.34 E11.15625
G1 X-45.783 Y-15.029 E11.19446
G1 X-45.735 Y-15.54 E11.22292
G1 X-45.609 Y-16.038 E11.2514
G1 X-45.407 Y-16.51 E11.27987
G1 X-45.135 Y-16.945 E11.30831
G1 X-44.798 Y-17.333 E11.33681
G1 X-44.405 Y-17.663 E11.36526
G1 X-43.966 Y-17.929 E11.39372
G1 X-43.491 Y-18.123 E11.42217
G1 X-42.991 Y-18.242 E11.45067
G1 X-42.256 Y-18.289 E11.49151
G1 X-29.38 Y-18.29 E12.20544
G1 X-28.675 Y-18.28 E12.24453
G1 X-28.324 Y-18.265 E12.26401
G1 X-27.692 Y-18.222 E12.29913
G1 X-24.943 Y-18.075 E12.45177
G1 X-22.198 Y-18.007 E12.60402
G1 X-19.452 Y-18.016 E12.75628
G1 X-16.757 Y-18.102 E12.90578
G1 X-15.427 Y-18.19 E12.97969
G1 X-15.216 Y-18.188 E12.99139
G1 X-13.886 Y-18.264 E13.06525
G1 X-13.473 Y-18.274 E13.08816
G1 X-.691 Y-18.274 E13.79688
G1 X0.011 Y-18.264 E13.83581
G1 X1 Y-18.223 E13.89069
G1 F1500 E7.39069
;MESH:D.stl(2)
G0 F3600 X0.061 Y-15.633
G0 X-0.062 Y-14.055
G0 X-5.503 Y-9.13
G0 X-5.433 Y-9.06
;TYPE:WALL-INNER
G1 F1500 E13.89069
G1 F1800 X-5.433 Y9.132 E14.89938
G1 X-2.191 Y9.132 E15.07913
G1 X-.416 Y9.015 E15.17776
G1 X1.167 Y8.647 E15.26788
G1 X2.523 Y8.004 E15.35109
G1 X3.622 Y7.07 E15.43106
G1 X4.435 Y5.795 E15.5149
G1 X4.98 Y4.176 E15.60962
G1 X5.291 Y2.231 E15.71883
G1 X5.392 Y-0.062 E15.84609
G1 X5.211 Y-3.294 E16.02558
G1 X4.636 Y-5.614 E16.15811
G1 X3.655 Y-7.231 E16.26297
G1 X2.298 Y-8.328 E16.35972
G1 X0.383 Y-8.889 E16.47037
G1 X-2.232 Y-9.06 E16.61567
G1 X-5.433 Y-9.06 E16.79315
G0 F3600 X-4.833 Y-8.46
;TYPE:WALL-OUTER
G1 F1800 X-4.833 Y8.532 E17.7353
G1 X-2.211 Y8.532 E17.88069
G1 X-.504 Y8.42 E17.97554
G1 X0.968 Y8.077 E18.05934
G1 X2.195 Y7.496 E18.13461
G1 X3.165 Y6.671 E18.20522
G1 X3.89 Y5.534 E18.27999
G1 X4.395 Y4.032 E18.36785
G1 X4.693 Y2.17 E18.47241
G1 X4.791 Y-0.058 E18.59606
G1 X4.615 Y-3.204 E18.77077
G1 X4.076 Y-5.381 E18.89512
G1 X3.196 Y-6.83 E18.98912
G1 X2.014 Y-7.786 E19.07341
G1 X0.278 Y-8.295 E19.17372
G1 X-2.252 Y-8.46 E19.31429
G1 X-4.833 Y-8.46 E19.4574
G0 F3600 X-4.833 Y-8.26
G0 X-5.493 Y-8.26
G0 X-5.533 Y-8.26
G0 X2.44 Y-13.779
G0 X2.454 Y-13.877
;TYPE:WALL-INNER
G1 F1800 X5.228 Y-13.291 E19.61461
G1 X7.211 Y-12.471 E19.73359
G1 X9.053 Y-11.109 E19.86061
G1 X10.653 Y-9.255 E19.99639
G1 X11.862 Y-7.003 E20.13811
G1 X12.637 Y-3.995 E20.31034
G1 X12.901 Y0.128 E20.53942
G1 X12.723 Y3.001 E20.69902
G1 X12.197 Y5.693 E20.85111
G1 X11.293 Y8.112 E20.99429
G1 X9.988 Y10.179 E21.12983
G1 X8.284 Y11.856 E21.26239
G1 X6.19 Y13.088 E21.3971
G1 X3.489 Y13.86 E21.55286
G1 X-0.058 Y14.126 E21.75008
G1 X-12.903 Y14.126 E22.4623
G1 X-12.903 Y-14.074 E24.02589
G1 X-0.062 Y-14.074 E24.73788
G1 X2.454 Y-13.877 E24.87781
G0 F3600 X2.541 Y-14.472
;TYPE:WALL-OUTER
G1 F1800 X5.408 Y-13.866 E25.04029
G1 X7.506 Y-12.999 E25.16616
G1 X9.463 Y-11.551 E25.30114
G1 X11.152 Y-9.595 E25.44443
G1 X12.425 Y-7.224 E25.59365
G1 X13.232 Y-4.089 E25.77314
G1 X13.502 Y0.128 E26.00743
G1 X13.32 Y3.077 E26.17126
G1 X12.777 Y5.856 E26.32826
G1 X11.834 Y8.378 E26.47755
G1 X10.456 Y10.561 E26.62069
G1 X8.654 Y12.334 E26.76086
G1 X6.427 Y13.644 E26.90411
G1 X3.597 Y14.453 E27.06731
G1 X-0.04 Y14.726 E27.26954
G1 X-13.503 Y14.726 E28.01602
G1 X-13.503 Y-14.674 E29.64615
G1 X-0.041 Y-14.674 E30.39257
G1 X2.541 Y-14.472 E30.53617
G0 F3600 X2.736 Y-14.431
G0 X2.599 Y-13.786
G0 X2.591 Y-13.747
G0 X8.482 Y-5.685
;TYPE:SKIN
G1 F1800 X9.068 Y-3.421 E30.66584
G1 X9.296 Y0.128 E30.86303
G1 X9.142 Y2.543 E30.9972
G1 X8.719 Y4.712 E31.11973
G1 X8.048 Y6.512 E31.22624
G1 X7.928 Y6.702 E31.23871
G1 X8.489 Y5.04 E31.33597
G1 X8.879 Y2.596 E31.47319
G1 X8.997 Y-0.086 E31.62204
G1 X8.787 Y-3.834 E31.83018
G1 X8.192 Y-6.226 E31.96685
G1 X8.482 Y-5.685 E32.00089
G0 F3600 X9.044 Y-5.907
G1 F1800 X9.663 Y-3.515 E32.13788
G1 X9.897 Y0.128 E32.34029
G1 X9.739 Y2.619 E32.47869
G1 X9.299 Y4.874 E32.60608
G1 X8.589 Y6.778 E32.71875
G1 X7.64 Y8.281 E32.81731
G1 X6.448 Y9.452 E32.90996
G1 X4.99 Y10.312 E33.00381
G1 X4.139 Y10.555 E33.05288
G1 X4.163 Y10.544 E33.05435
G1 X5.908 Y9.064 E33.18122
G1 X7.161 Y7.099 E33.31043
G1 X7.904 Y4.896 E33.43934
G1 X8.281 Y2.535 E33.57191
G1 X8.396 Y-0.082 E33.71716
G1 X8.191 Y-3.744 E33.92052
G1 X7.436 Y-6.78 E34.09398
G1 X5.949 Y-9.235 E34.25313
G1 X4.647 Y-10.287 E34.34594
G1 X5.718 Y-9.844 E34.4102
G1 X7.003 Y-8.895 E34.49877
G1 X8.162 Y-7.552 E34.59713
G1 X9.044 Y-5.907 E34.70063
G0 F3600 X9.607 Y-6.128
G1 F1800 X10.258 Y-3.609 E34.84489
G1 X10.498 Y0.128 E35.05252
G1 X10.336 Y2.695 E35.19513
G1 X9.879 Y5.036 E35.32738
G1 X9.13 Y7.044 E35.44621
G1 X8.11 Y8.66 E35.55217
G1 X6.814 Y9.933 E35.6529
G1 X5.229 Y10.868 E35.75493
G1 X3.063 Y11.487 E35.87984
G1 X-.13 Y11.726 E36.05737
G1 X-10.503 Y11.726 E36.63252
G1 X-10.503 Y-11.674 E37.92997
G1 X-.145 Y-11.674 E38.50429
G1 X2.099 Y-11.498 E38.62909
G1 X4.528 Y-10.985 E38.76674
G1 X6.017 Y-10.369 E38.85609
G1 X7.413 Y-9.338 E38.95231
G1 X8.661 Y-7.892 E39.05822
G1 X9.607 Y-6.128 E39.16921
G0 F3600 X10.17 Y-6.347
G1 F1800 X10.853 Y-3.703 E39.32062
G1 X11.099 Y0.128 E39.53347
G1 X10.933 Y2.771 E39.68031
G1 X10.459 Y5.199 E39.81747
G1 X9.671 Y7.31 E39.94241
G1 X8.58 Y9.039 E40.05577
G1 X7.18 Y10.414 E40.16457
G1 X5.468 Y11.424 E40.27478
G1 X3.171 Y12.08 E40.40724
G1 X-.112 Y12.326 E40.58978
G1 X-11.103 Y12.326 E41.19919
G1 X-11.103 Y-12.274 E42.56318
G1 X-.124 Y-12.274 E43.17193
G1 X2.186 Y-12.093 E43.3004
G1 X4.704 Y-11.561 E43.4431
G1 X6.316 Y-10.894 E43.53983
G1 X7.823 Y-9.781 E43.6437
G1 X9.159 Y-8.233 E43.75708
G1 X10.17 Y-6.347 E43.87573
G0 F3600 X10.733 Y-6.568
G1 F1800 X11.448 Y-3.797 E44.03441
G1 X11.7 Y0.128 E44.25248
G1 X11.53 Y2.847 E44.40354
G1 X11.039 Y5.362 E44.54562
G1 X10.212 Y7.576 E44.67666
G1 X9.048 Y9.421 E44.79762
G1 X7.549 Y10.894 E44.91414
G1 X5.707 Y11.98 E45.0327
G1 X3.279 Y12.673 E45.17271
G1 X-0.094 Y12.926 E45.36025
G1 X-11.703 Y12.926 E46.00393
G1 X-11.703 Y-12.874 E47.43446
G1 X-.103 Y-12.874 E48.07764
G1 X2.273 Y-12.688 E48.20978
G1 X4.88 Y-12.137 E48.35752
G1 X6.615 Y-11.419 E48.46164
G1 X8.233 Y-10.224 E48.57316
G1 X9.658 Y-8.573 E48.69409
G1 X10.733 Y-6.568 E48.82023
G0 F3600 X11.296 Y-6.789
G1 F1800 X12.043 Y-3.891 E48.98617
G1 X12.301 Y0.128 E49.20947
G1 X12.127 Y2.923 E49.36474
G1 X11.619 Y5.525 E49.51173
G1 X10.753 Y7.842 E49.64888
G1 X9.516 Y9.803 E49.77744
G1 X7.918 Y11.374 E49.90169
G1 X5.946 Y12.536 E50.0286
G1 X3.387 Y13.266 E50.17615
G1 X-0.076 Y13.526 E50.3687
G1 X-12.303 Y13.526 E51.04665
G1 X-12.303 Y-13.474 E52.54371
G1 X-0.082 Y-13.474 E53.22132
G1 X2.36 Y-13.283 E53.35714
G1 X5.056 Y-12.713 E53.50992
G1 X6.917 Y-11.943 E53.62159
G1 X8.641 Y-10.669 E53.74045
G1 X10.157 Y-8.913 E53.86908
G1 X11.296 Y-6.789 E54.00271
G0 F3600 X6.876 Y-6.547
G1 F1800 X5.49 Y-8.834 E54.15099
G1 X3.434 Y-10.496 E54.29758
G1 X0.804 Y-11.265 E54.44951
G1 X-2.152 Y-11.46 E54.61376
G1 X-7.833 Y-11.46 E54.92876
G1 X-7.833 Y11.532 E56.20358
G1 X-2.111 Y11.532 E56.52085
G1 X-0.064 Y11.396 E56.6346
G1 X1.962 Y10.927 E56.74991
G1 X3.835 Y10.036 E56.86491
G1 X5.451 Y8.665 E56.98241
G1 X6.616 Y6.838 E57.10256
G1 X7.319 Y4.752 E57.22461
G1 X7.683 Y2.474 E57.35252
G1 X7.795 Y-0.078 E57.49416
G1 X7.595 Y-3.654 E57.69274
G1 X6.876 Y-6.547 E57.85803
G0 F3600 X6.316 Y-6.314
G1 F1800 X5.031 Y-8.433 E57.99544
G1 X3.15 Y-9.954 E58.12956
G1 X0.699 Y-10.671 E58.27116
G1 X-2.172 Y-10.86 E58.43069
G1 X-7.233 Y-10.86 E58.7113
G1 X-7.233 Y10.932 E59.9196
G1 X-2.131 Y10.932 E60.20249
G1 X-.152 Y10.801 E60.31246
G1 X1.763 Y10.357 E60.42145
G1 X3.507 Y9.528 E60.52852
G1 X4.994 Y8.266 E60.63666
G1 X6.071 Y6.577 E60.74773
G1 X6.734 Y4.608 E60.86293
G1 X7.085 Y2.413 E60.98618
G1 X7.194 Y-0.074 E61.1242
G1 X6.999 Y-3.564 E61.31802
G1 X6.316 Y-6.314 E61.47513
G0 F3600 X5.756 Y-6.081
G1 F1800 X4.572 Y-8.032 E61.60166
G1 X2.866 Y-9.412 E61.72333
G1 X0.594 Y-10.077 E61.85459
G1 X-2.192 Y-10.26 E62.0094
G1 X-6.633 Y-10.26 E62.25563
G1 X-6.633 Y10.332 E63.39739
G1 X-2.151 Y10.332 E63.6459
G1 X-.24 Y10.206 E63.75209
G1 X1.564 Y9.787 E63.85478
G1 X3.179 Y9.02 E63.95391
G1 X4.537 Y7.867 E64.05269
G1 X5.526 Y6.316 E64.15468
G1 X6.149 Y4.464 E64.26302
G1 X6.487 Y2.352 E64.38162
G1 X6.593 Y-0.07 E64.51604
G1 X6.403 Y-3.474 E64.70507
G1 X5.756 Y-6.081 E64.85401
G0 F3600 X5.196 Y-5.848
G1 F1800 X4.113 Y-7.631 E64.96967
G1 X2.582 Y-8.87 E65.07888
G1 X0.489 Y-9.483 E65.1998
G1 X-2.212 Y-9.66 E65.34989
G1 X-6.033 Y-9.66 E65.56175
G1 X-6.033 Y9.732 E66.63697
G1 X-2.171 Y9.732 E66.8511
G1 X-.328 Y9.611 E66.95351
G1 X1.365 Y9.217 E67.04989
G1 X2.851 Y8.512 E67.14109
G1 X4.08 Y7.468 E67.2305
G1 X4.981 Y6.055 E67.32342
G1 X5.564 Y4.32 E67.4249
G1 X5.889 Y2.291 E67.53884
G1 X5.992 Y-0.066 E67.66965
G1 X5.807 Y-3.384 E67.85391
G1 X5.196 Y-5.848 E67.99467
G0 F3600 X3.685 Y-7.257
G0 X2.316 Y-8.363
G0 X1.224 Y-8.682
G0 X-8.433 Y-11.074
G1 F1800 X-8.433 Y11.126 E69.22558
G1 X-9.903 Y11.126 E69.30709
G1 X-9.903 Y-11.074 E70.538
G1 X-8.433 Y-11.074 E70.61951
G0 F3600 X-9.033 Y-10.474
G1 F1800 X-9.033 Y10.526 E71.78389
G1 X-9.303 Y10.526 E71.79886
G1 X-9.303 Y-10.474 E72.96324
G1 X-9.033 Y-10.474 E72.97821
G0 F3600 X3.516 Y-10.8
;TYPE:SKIN
G1 F1800 X3.88 Y-10.8 E72.9883
G0 F3600 X3.929 Y-10.5
G1 F1800 X4.423 Y-10.5 E73.002
G0 F3600 X6.64 Y-8.7
G1 F1800 X6.737 Y-8.7 E73.00469
G0 F3600 X6.822 Y-8.4
G1 F1800 X7.014 Y-8.4 E73.01001
G0 F3600 X7.003 Y-8.1
G1 F1800 X7.273 Y-8.1 E73.01749
G0 F3600 X7.185 Y-7.8
G1 F1800 X7.532 Y-7.799 E73.02711
G0 F3600 X7.367 Y-7.5
G1 F1800 X7.791 Y-7.499 E73.03887
G0 F3600 X7.993 Y-7.199
G1 F1800 X7.549 Y-7.199 E73.05118
G0 F3600 X7.73 Y-6.899
G1 F1800 X8.154 Y-6.899 E73.06293
G0 F3600 X8.315 Y-6.599
G1 F1800 X7.805 Y-6.599 E73.07707
G0 F3600 X7.65 Y6.9
G1 F1800 X7.56 Y6.9 E73.07957
G0 F3600 X7.459 Y7.2
G1 F1800 X7.95 Y7.2 E73.09318
G0 F3600 X7.759 Y7.5
G1 F1800 X7.278 Y7.5 E73.10651
G0 F3600 X7.086 Y7.8
G1 F1800 X7.57 Y7.8 E73.11993
G0 F3600 X7.372 Y8.1
G1 F1800 X6.895 Y8.1 E73.13316
G0 F3600 X7.067 Y8.4
G1 F1800 X6.704 Y8.4 E73.14322
G0 F3600 X6.762 Y8.7
G1 F1800 X6.513 Y8.7 E73.15012
G0 F3600 X6.457 Y9
G1 F1800 X6.322 Y9 E73.15387
G0 F3600 X3.798 Y10.5
G1 F1800 X3.593 Y10.5 E73.15955
G0 F3600 X3.909 Y10.8
G1 F1800 X2.962 Y10.8 E73.1858
G0 F3600 X3.267 Y11.1
G1 F1800 X2.331 Y11.1 E73.21175
G1 F1500 E66.71175
;MESH:D.stl(1)
G0 F3600 X11.276 Y8.104
G0 X12.76 Y8.658
G0 X15.368 Y5.911
G0 X16.747 Y5.171
G0 X26.064 Y6.202
G0 X28.104 Y6.881
G0 X30.226 Y7.018
G0 X33.995 Y7.082
G0 X33.925 Y7.012
;TYPE:WALL-INNER
G1 F1500 E73.21175
G1 F1800 X33.925 Y-11.179 E74.22038
G1 X30.683 Y-11.179 E74.40014
G1 X28.908 Y-11.062 E74.49877
G1 X27.325 Y-10.694 E74.58888
G1 X25.97 Y-10.053 E74.672
G1 X24.87 Y-9.118 E74.75204
G1 X24.058 Y-7.843 E74.83586
G1 X23.513 Y-6.224 E74.93058
G1 X23.201 Y-4.279 E75.0398
G1 X23.1 Y-1.986 E75.16706
G1 X23.281 Y1.246 E75.34654
G1 X23.857 Y3.565 E75.47903
G1 X24.837 Y5.183 E75.58392
G1 X26.194 Y6.28 E75.68067
G1 X28.11 Y6.842 E75.79138
G1 X30.725 Y7.012 E75.93668
G1 X33.925 Y7.012 E76.11411
G0 F3600 X33.325 Y6.412
;TYPE:WALL-OUTER
G1 F1800 X33.325 Y-10.579 E77.0562
G1 X30.703 Y-10.579 E77.20158
G1 X28.996 Y-10.467 E77.29644
G1 X27.524 Y-10.124 E77.38024
G1 X26.298 Y-9.544 E77.45544
G1 X25.327 Y-8.719 E77.52609
G1 X24.603 Y-7.582 E77.60083
G1 X24.098 Y-6.08 E77.68869
G1 X23.799 Y-4.218 E77.79325
G1 X23.701 Y-1.99 E77.91691
G1 X23.877 Y1.156 E78.09161
G1 X24.417 Y3.332 E78.21593
G1 X25.296 Y4.782 E78.30994
G1 X26.478 Y5.738 E78.39423
G1 X28.215 Y6.248 E78.49461
G1 X30.744 Y6.412 E78.63513
G1 X33.325 Y6.412 E78.77824
G0 F3600 X33.325 Y6.212
G0 X33.985 Y6.212
G0 X34.025 Y6.212
G0 X41.326 Y11.957
G0 X41.396 Y12.027
;TYPE:WALL-INNER
G1 F1800 X28.554 Y12.027 E79.49028
G1 X26.038 Y11.83 E79.63021
G1 X23.26 Y11.243 E79.78765
G1 X21.285 Y10.426 E79.90615
G1 X19.439 Y9.061 E80.03345
G1 X17.839 Y7.208 E80.16919
G1 X16.631 Y4.955 E80.31094
G1 X15.855 Y1.948 E80.48313
G1 X15.591 Y-2.178 E80.71237
G1 X15.769 Y-5.048 E80.87181
G1 X16.295 Y-7.74 E81.02389
G1 X17.198 Y-10.157 E81.16695
G1 X18.506 Y-12.228 E81.30277
G1 X20.208 Y-13.903 E81.43517
G1 X22.302 Y-15.135 E81.56988
G1 X25.003 Y-15.907 E81.72564
G1 X28.55 Y-16.173 E81.92286
G1 X41.396 Y-16.173 E82.63513
G1 X41.396 Y12.027 E84.19873
G0 F3600 X41.996 Y12.627
;TYPE:WALL-OUTER
G1 F1800 X28.533 Y12.627 E84.9452
G1 X25.951 Y12.425 E85.0888
G1 X23.084 Y11.819 E85.25128
G1 X20.986 Y10.951 E85.37717
G1 X19.029 Y9.504 E85.51212
G1 X17.34 Y7.548 E85.65541
G1 X16.068 Y5.176 E85.80465
G1 X15.26 Y2.042 E85.9841
G1 X14.99 Y-2.177 E86.21851
G1 X15.172 Y-5.124 E86.38222
G1 X15.715 Y-7.903 E86.53922
G1 X16.658 Y-10.426 E86.68857
G1 X18.035 Y-12.605 E86.83149
G1 X19.84 Y-14.383 E86.97197
G1 X22.065 Y-15.691 E87.11507
G1 X24.895 Y-16.5 E87.27827
G1 X28.532 Y-16.773 E87.4805
G1 X41.996 Y-16.773 E88.22703
G1 X41.996 Y12.627 E89.85717
G0 F3600 X41.796 Y12.627
G0 X41.336 Y11.967
G0 X41.296 Y11.967
G0 X26.176 Y6.315
G0 X24.807 Y5.209
G0 X23.92 Y3.743
