;FLAVOR:Marlin
;TIME:1187
;Filament used: 1.9822m
;Layer height: 0.2
;MINX:-22.115
;MINY:-51.094
;MINZ:0.2
;MAXX:21.2
;MAXY:51.243
;MAXZ:3.6
;POSTPROCESSED
;Generated with Cura_SteamEngine 4.8.0
M140 S60
M105
M190 S60
M104 S195
M105
M109 S195
M82 ;absolute extrusion mode
G28 ;Home
G1 Z15.0 F6000 ;Move the platform down 15mm
;Prime the extruder
G92 E0
G1 F200 E3
G92 E0
G92 E0
G92 E0
G1 F1500 E-6.5
;LAYER_COUNT:18
;LAYER:0
M107
G0 F3600 X-19.387 Y0.92 Z0.2
;TYPE:SKIRT
G1 F1500 E0
G1 F1800 X-19.421 Y0.353 E0.03149
G1 X-19.426 Y-0.003 E0.05124
G1 X-19.36 Y-2.117 E0.16851
G1 X-19.324 Y-3.118 E0.22404
G1 X-19.296 Y-5.853 E0.3757
G1 X-19.345 Y-8.528 E0.52404
G1 X-19.472 Y-11.277 E0.67663
G1 X-19.674 Y-13.981 E0.82697
G1 X-19.954 Y-16.686 E0.97776
G1 X-20.307 Y-19.363 E1.12747
G1 X-20.743 Y-22.063 E1.27912
G1 X-21.245 Y-24.71 E1.4285
G1 X-21.556 Y-26.153 E1.51035
G1 X-21.592 Y-26.344 E1.52113
G1 X-21.776 Y-27.476 E1.58472
G1 X-21.886 Y-28.23 E1.62697
G1 X-21.975 Y-28.906 E1.66477
G1 X-22.025 Y-29.518 E1.69882
G1 X-22.094 Y-31.061 E1.78446
G1 X-22.115 Y-31.765 E1.82351
G1 X-22.111 Y-32.103 E1.84225
G1 X-22.054 Y-33.08 E1.89651
G1 X-21.916 Y-34.936 E1.99971
G1 X-21.851 Y-35.676 E2.0409
G1 X-21.763 Y-36.227 E2.07183
G1 X-21.574 Y-37.029 E2.11752
G1 X-21.154 Y-38.695 E2.21278
G1 X-20.985 Y-39.332 E2.24933
G1 X-20.753 Y-39.973 E2.28712
G1 X-20.359 Y-40.821 E2.33897
G1 X-19.749 Y-42.079 E2.41649
G1 X-19.428 Y-42.719 E2.45619
G1 X-19.122 Y-43.228 E2.48912
G1 X-18.992 Y-43.404 E2.50125
G1 X-18.565 Y-43.951 E2.53973
G1 X-17.631 Y-45.115 E2.62247
G1 X-17.184 Y-45.656 E2.66139
G1 X-16.637 Y-46.198 E2.70408
G1 X-15.942 Y-46.762 E2.75371
G1 X-14.862 Y-47.609 E2.82981
G1 X-14.288 Y-48.046 E2.86981
G1 X-13.639 Y-48.447 E2.91211
G1 X-12.965 Y-48.776 E2.9537
G1 X-11.495 Y-49.467 E3.04376
G1 X-10.883 Y-49.744 E3.08101
G1 X-10.255 Y-49.966 E3.11794
G1 X-9.446 Y-50.176 E3.16428
G1 X-7.728 Y-50.593 E3.26231
G1 X-7.025 Y-50.753 E3.30228
G1 X-6.423 Y-50.844 E3.33604
G1 X-5.814 Y-50.895 E3.36992
G1 X-3.577 Y-51.054 E3.49427
G1 X-2.878 Y-51.094 E3.53309
G1 X-2.425 Y-51.093 E3.55821
G1 X-1.57 Y-51.042 E3.6057
G1 X0.416 Y-50.895 E3.71612
G1 X1.147 Y-50.831 E3.75681
G1 X1.704 Y-50.741 E3.78809
G1 X2.525 Y-50.547 E3.83487
G1 X4.117 Y-50.146 E3.92589
G1 X4.842 Y-49.954 E3.96748
G1 X5.483 Y-49.723 E4.00526
G1 X6.314 Y-49.337 E4.05606
G1 X7.654 Y-48.689 E4.13859
G1 X8.258 Y-48.387 E4.17603
G1 X8.831 Y-48.036 E4.21329
G1 X8.973 Y-47.929 E4.22315
G1 X9.423 Y-47.579 E4.25476
G1 X10.701 Y-46.561 E4.34535
G1 X11.239 Y-46.118 E4.38399
G1 X11.778 Y-45.577 E4.42634
G1 X12.266 Y-44.98 E4.46909
G1 X13.187 Y-43.823 E4.55109
G1 X13.629 Y-43.253 E4.59108
G1 X14.04 Y-42.598 E4.63396
G1 X14.364 Y-41.944 E4.67442
G1 X15.076 Y-40.466 E4.76539
G1 X15.35 Y-39.876 E4.80146
G1 X15.58 Y-39.243 E4.8388
G1 X15.823 Y-38.334 E4.89097
G1 X16.224 Y-36.733 E4.98248
G1 X16.384 Y-36.051 E5.02132
G1 X16.471 Y-35.51 E5.05171
G1 X16.547 Y-34.668 E5.09858
G1 X16.694 Y-32.652 E5.21066
G1 X16.732 Y-32.015 E5.24604
G1 X16.737 Y-31.662 E5.26562
G1 X16.632 Y-28.344 E5.44968
G1 X16.61 Y-25.608 E5.60139
G1 X16.666 Y-22.896 E5.75179
G1 X16.799 Y-20.181 E5.90251
G1 X17.006 Y-17.486 E6.05238
G1 X17.294 Y-14.77 E6.20381
G1 X17.652 Y-12.098 E6.35329
G1 X18.092 Y-9.408 E6.50442
G1 X18.612 Y-6.706 E6.65699
G1 X18.869 Y-5.517 E6.72444
G1 X18.904 Y-5.332 E6.73488
G1 X19.081 Y-4.248 E6.79578
G1 X19.193 Y-3.479 E6.83887
G1 X19.286 Y-2.768 E6.87863
G1 X19.337 Y-2.152 E6.9129
G1 X19.406 Y-.594 E6.99937
G1 X19.427 Y0.101 E7.03792
G1 X19.422 Y0.447 E7.05711
G1 X19.371 Y1.324 E7.10582
G1 X19.33 Y1.886 E7.13706
G1 X19.168 Y4.603 E7.28798
G1 X19.084 Y7.313 E7.43831
G1 X19.076 Y10.013 E7.58802
G1 X19.146 Y12.776 E7.74126
G1 X19.29 Y15.45 E7.88974
G1 X19.516 Y18.189 E8.04213
G1 X19.812 Y20.86 E8.19113
G1 X20.185 Y23.542 E8.34127
G1 X20.417 Y24.868 E8.41591
G1 X20.429 Y24.99 E8.42271
G1 X20.854 Y27.574 E8.56791
G1 X20.966 Y28.343 E8.61099
G1 X21.059 Y29.054 E8.65075
G1 X21.11 Y29.67 E8.68502
G1 X21.179 Y31.228 E8.7715
G1 X21.2 Y31.923 E8.81005
G1 X21.195 Y32.268 E8.82918
G1 X21.142 Y33.169 E8.87922
G1 X21 Y35.085 E8.98575
G1 X20.935 Y35.825 E9.02694
G1 X20.847 Y36.376 E9.05788
G1 X20.658 Y37.178 E9.10356
G1 X20.238 Y38.844 E9.19883
G1 X20.069 Y39.481 E9.23537
G1 X19.837 Y40.122 E9.27317
G1 X19.443 Y40.97 E9.32501
G1 X18.833 Y42.228 E9.40253
G1 X18.512 Y42.868 E9.44223
G1 X18.206 Y43.377 E9.47516
G1 X18.076 Y43.553 E9.48729
G1 X17.649 Y44.1 E9.52577
G1 X16.714 Y45.265 E9.6086
G1 X16.266 Y45.807 E9.64758
G1 X15.721 Y46.347 E9.69012
G1 X15.036 Y46.904 E9.73908
G1 X13.944 Y47.761 E9.81604
G1 X13.382 Y48.19 E9.85525
G1 X12.723 Y48.596 E9.89816
G1 X12.026 Y48.936 E9.94116
G1 X10.6 Y49.606 E10.02852
G1 X9.976 Y49.89 E10.06654
G1 X9.336 Y50.116 E10.10417
G1 X8.481 Y50.337 E10.15313
G1 X6.814 Y50.741 E10.24824
G1 X6.128 Y50.899 E10.28727
G1 X5.591 Y50.984 E10.31742
G1 X4.886 Y51.045 E10.35665
G1 X2.662 Y51.203 E10.48028
G1 X1.963 Y51.243 E10.5191
G1 X1.51 Y51.242 E10.54421
G1 X0.655 Y51.191 E10.59171
G1 X-1.332 Y51.044 E10.70218
G1 X-2.061 Y50.98 E10.74276
G1 X-2.614 Y50.891 E10.77381
G1 X-3.451 Y50.693 E10.8215
G1 X-5.048 Y50.292 E10.9128
G1 X-5.754 Y50.105 E10.95329
G1 X-6.398 Y49.872 E10.99127
G1 X-7.294 Y49.455 E11.04606
G1 X-8.54 Y48.853 E11.12279
G1 X-9.174 Y48.535 E11.16212
G1 X-9.731 Y48.194 E11.19833
G1 X-9.907 Y48.064 E11.21046
G1 X-10.352 Y47.718 E11.24172
G1 X-11.558 Y46.756 E11.32725
G1 X-12.153 Y46.267 E11.36996
G1 X-12.694 Y45.725 E11.41242
G1 X-13.162 Y45.153 E11.4534
G1 X-14.102 Y43.971 E11.53713
G1 X-14.55 Y43.39 E11.57781
G1 X-14.95 Y42.753 E11.61952
G1 X-15.278 Y42.097 E11.66018
G1 X-15.992 Y40.613 E11.75149
G1 X-16.268 Y40.018 E11.78786
G1 X-16.497 Y39.386 E11.82513
G1 X-16.731 Y38.511 E11.87535
G1 X-17.133 Y36.907 E11.96704
G1 X-17.298 Y36.212 E12.00665
G1 X-17.388 Y35.657 E12.03782
G1 X-17.464 Y34.798 E12.08564
G1 X-17.614 Y32.742 E12.19994
G1 X-17.648 Y32.175 E12.23143
G1 X-17.653 Y31.82 E12.25112
G1 X-17.615 Y30.627 E12.3173
G1 X-17.57 Y29.755 E12.36571
G1 X-17.517 Y28.941 E12.41094
G1 X-17.38 Y26.228 E12.56156
G1 X-17.318 Y23.491 E12.71336
G1 X-17.335 Y20.8 E12.86257
G1 X-17.429 Y18.049 E13.01519
G1 X-17.595 Y15.381 E13.16341
G1 X-17.843 Y12.668 E13.31446
G1 X-18.166 Y9.957 E13.46584
G1 X-18.567 Y7.263 E13.61686
G1 X-18.881 Y5.556 E13.71309
G1 X-18.897 Y5.413 E13.72107
G1 X-19.115 Y4.182 E13.79039
G1 X-19.16 Y3.846 E13.80919
G1 X-19.237 Y2.976 E13.85761
G1 X-19.387 Y0.92 E13.97191
G0 F3600 X-18.788 Y0.885
G1 F1800 X-18.822 Y0.318 E14.00341
G1 X-18.826 Y0.016 E14.02016
G1 X-18.76 Y-2.095 E14.13726
G1 X-18.725 Y-3.09 E14.19246
G1 X-18.696 Y-5.857 E14.34589
G1 X-18.745 Y-8.568 E14.49623
G1 X-18.871 Y-11.279 E14.64671
G1 X-19.076 Y-14.017 E14.79895
G1 X-19.358 Y-16.751 E14.95135
G1 X-19.718 Y-19.472 E15.10353
G1 X-20.151 Y-22.16 E15.25449
G1 X-20.664 Y-24.862 E15.40699
G1 X-20.969 Y-26.279 E15.48735
G1 X-21 Y-26.44 E15.49644
G1 X-21.183 Y-27.562 E15.55948
G1 X-21.291 Y-28.308 E15.60127
G1 X-21.38 Y-28.984 E15.63908
G1 X-21.426 Y-29.545 E15.67029
G1 X-21.495 Y-31.079 E15.75543
G1 X-21.516 Y-31.783 E15.79448
G1 X-21.512 Y-32.069 E15.81034
G1 X-21.456 Y-33.035 E15.86399
G1 X-21.318 Y-34.884 E15.9668
G1 X-21.253 Y-35.624 E16.00798
G1 X-21.179 Y-36.089 E16.03409
G1 X-20.992 Y-36.882 E16.07927
G1 X-20.574 Y-38.541 E16.17413
G1 X-20.405 Y-39.178 E16.21067
G1 X-20.209 Y-39.721 E16.24268
G1 X-19.819 Y-40.559 E16.29393
G1 X-19.213 Y-41.81 E16.371
G1 X-18.892 Y-42.45 E16.4107
G1 X-18.633 Y-42.881 E16.43858
G1 X-18.52 Y-43.035 E16.44917
G1 X-18.097 Y-43.575 E16.48721
G1 X-17.168 Y-44.733 E16.56952
G1 X-16.721 Y-45.274 E16.60843
G1 X-16.259 Y-45.732 E16.6445
G1 X-15.572 Y-46.29 E16.69358
G1 X-14.499 Y-47.132 E16.7692
G1 X-13.925 Y-47.569 E16.8092
G1 X-13.375 Y-47.908 E16.84502
G1 X-12.709 Y-48.233 E16.88611
G1 X-11.248 Y-48.92 E16.97563
G1 X-10.636 Y-49.197 E17.01288
G1 X-10.104 Y-49.385 E17.04416
G1 X-9.304 Y-49.593 E17.09
G1 X-7.595 Y-50.008 E17.18751
G1 X-6.892 Y-50.168 E17.22748
G1 X-6.372 Y-50.246 E17.25664
G1 X-5.772 Y-50.297 E17.29003
G1 X-3.543 Y-50.455 E17.41393
G1 X-2.844 Y-50.495 E17.45275
G1 X-2.461 Y-50.494 E17.47398
G1 X-1.615 Y-50.444 E17.52097
G1 X0.364 Y-50.297 E17.631
G1 X1.095 Y-50.233 E17.67169
G1 X1.566 Y-50.158 E17.69814
G1 X2.378 Y-49.965 E17.74441
G1 X3.964 Y-49.566 E17.83509
G1 X4.689 Y-49.374 E17.87668
G1 X5.231 Y-49.178 E17.90863
G1 X6.053 Y-48.797 E17.95887
G1 X7.386 Y-48.153 E18.04095
G1 X7.99 Y-47.851 E18.07839
G1 X8.474 Y-47.554 E18.10988
G1 X8.605 Y-47.456 E18.11895
G1 X9.049 Y-47.11 E18.15016
G1 X10.32 Y-46.098 E18.24024
G1 X10.858 Y-45.655 E18.27889
G1 X11.314 Y-45.197 E18.31472
G1 X11.797 Y-44.606 E18.35704
G1 X12.713 Y-43.455 E18.4386
G1 X13.155 Y-42.885 E18.4786
G1 X13.502 Y-42.331 E18.51484
G1 X13.824 Y-41.683 E18.55496
G1 X14.532 Y-40.213 E18.64543
G1 X14.806 Y-39.623 E18.6815
G1 X15.001 Y-39.087 E18.71312
G1 X15.241 Y-38.188 E18.76472
G1 X15.64 Y-36.596 E18.85572
G1 X15.8 Y-35.914 E18.89456
G1 X15.874 Y-35.456 E18.92028
G1 X15.948 Y-34.624 E18.9666
G1 X16.095 Y-32.617 E19.07818
G1 X16.133 Y-31.98 E19.11356
G1 X16.137 Y-31.68 E19.13019
G1 X16.032 Y-28.369 E19.31387
G1 X16.01 Y-25.601 E19.46735
G1 X16.066 Y-22.89 E19.6177
G1 X16.2 Y-20.141 E19.7703
G1 X16.408 Y-17.447 E19.92012
G1 X16.698 Y-14.702 E20.07317
G1 X17.063 Y-11.987 E20.22506
G1 X17.506 Y-9.273 E20.37753
G1 X18.013 Y-6.638 E20.52632
G1 X18.28 Y-5.403 E20.59638
G1 X18.312 Y-5.235 E20.60586
G1 X18.487 Y-4.161 E20.66619
G1 X18.598 Y-3.401 E20.70878
G1 X18.691 Y-2.69 E20.74854
G1 X18.738 Y-2.125 E20.77997
G1 X18.806 Y-.576 E20.86594
G1 X18.827 Y0.119 E20.9045
G1 X18.823 Y0.412 E20.92074
G1 X18.772 Y1.28 E20.96895
G1 X18.731 Y1.842 E21.0002
G1 X18.568 Y4.582 E21.15239
G1 X18.484 Y7.294 E21.30283
G1 X18.476 Y10.041 E21.45515
G1 X18.546 Y12.79 E21.60762
G1 X18.692 Y15.494 E21.75776
G1 X18.917 Y18.234 E21.9102
G1 X19.221 Y20.974 E22.06306
G1 X19.591 Y23.625 E22.21147
G1 X19.826 Y24.971 E22.28723
G1 X19.836 Y25.081 E22.29335
G1 X20.26 Y27.661 E22.43832
G1 X20.371 Y28.421 E22.48091
G1 X20.464 Y29.132 E22.52067
G1 X20.511 Y29.697 E22.5521
G1 X20.579 Y31.246 E22.63807
G1 X20.6 Y31.941 E22.67663
G1 X20.596 Y32.233 E22.69282
G1 X20.544 Y33.125 E22.74236
G1 X20.402 Y35.033 E22.84845
G1 X20.337 Y35.773 E22.88964
G1 X20.263 Y36.238 E22.91574
G1 X20.076 Y37.031 E22.96092
G1 X19.658 Y38.69 E23.05578
G1 X19.489 Y39.327 E23.09232
G1 X19.293 Y39.87 E23.12433
G1 X18.903 Y40.708 E23.17558
G1 X18.297 Y41.959 E23.25265
G1 X17.976 Y42.599 E23.29235
G1 X17.717 Y43.03 E23.32023
G1 X17.604 Y43.184 E23.33082
G1 X17.181 Y43.724 E23.36886
G1 X16.252 Y44.882 E23.45117
G1 X15.804 Y45.424 E23.49016
G1 X15.343 Y45.882 E23.52619
G1 X14.665 Y46.432 E23.5746
G1 X13.58 Y47.284 E23.65109
G1 X13.018 Y47.713 E23.69029
G1 X12.461 Y48.057 E23.72659
G1 X11.771 Y48.393 E23.76914
G1 X10.351 Y49.06 E23.85613
G1 X9.727 Y49.344 E23.89414
G1 X9.186 Y49.535 E23.92596
G1 X8.339 Y49.754 E23.97446
G1 X6.68 Y50.157 E24.06912
G1 X5.994 Y50.315 E24.10816
G1 X5.539 Y50.387 E24.1337
G1 X4.843 Y50.447 E24.17243
G1 X2.628 Y50.604 E24.29556
G1 X1.929 Y50.644 E24.33438
G1 X1.546 Y50.643 E24.35561
G1 X0.7 Y50.593 E24.4026
G1 X-1.28 Y50.446 E24.51269
G1 X-2.009 Y50.382 E24.55326
G1 X-2.477 Y50.307 E24.57954
G1 X-3.305 Y50.111 E24.62672
G1 X-4.894 Y49.712 E24.71756
G1 X-5.6 Y49.525 E24.75806
G1 X-6.145 Y49.328 E24.79019
G1 X-7.033 Y48.915 E24.84449
G1 X-8.271 Y48.317 E24.92072
G1 X-8.905 Y47.999 E24.96005
G1 X-9.377 Y47.71 E24.99074
G1 X-9.539 Y47.59 E25.00192
G1 X-9.978 Y47.248 E25.03277
G1 X-11.177 Y46.292 E25.1178
G1 X-11.772 Y45.803 E25.1605
G1 X-12.23 Y45.345 E25.19641
G1 X-12.693 Y44.78 E25.23692
G1 X-13.627 Y43.605 E25.32014
G1 X-14.075 Y43.024 E25.36082
G1 X-14.414 Y42.485 E25.39612
G1 X-14.737 Y41.837 E25.43627
G1 X-15.448 Y40.361 E25.52711
G1 X-15.724 Y39.766 E25.56348
G1 X-15.918 Y39.231 E25.59503
G1 X-16.149 Y38.365 E25.64473
G1 X-16.549 Y36.768 E25.73601
G1 X-16.714 Y36.073 E25.77562
G1 X-16.79 Y35.603 E25.80202
G1 X-16.865 Y34.754 E25.84927
G1 X-17.015 Y32.707 E25.96308
G1 X-17.049 Y32.14 E25.99457
G1 X-17.053 Y31.838 E26.01132
G1 X-17.016 Y30.658 E26.07678
G1 X-16.971 Y29.794 E26.12475
G1 X-16.921 Y29.023 E26.16759
G1 X-16.78 Y26.236 E26.32231
G1 X-16.718 Y23.522 E26.47284
G1 X-16.735 Y20.775 E26.62515
G1 X-16.828 Y18.062 E26.77567
G1 X-17.001 Y15.292 E26.92955
G1 X-17.245 Y12.613 E27.07871
G1 X-17.573 Y9.863 E27.23227
G1 X-17.969 Y7.2 E27.38154
G1 X-18.291 Y5.448 E27.48031
G1 X-18.305 Y5.311 E27.48795
G1 X-18.524 Y4.077 E27.55744
G1 X-18.562 Y3.793 E27.57333
G1 X-18.638 Y2.932 E27.62125
G1 X-18.788 Y0.885 E27.73506
G1 F1500 E21.23506
;MESH:O.stl
G0 F3600 X-16.201 Y0.117
G0 X-14.623 Y0.001
G0 X-4.23 Y-8.189
G0 X-2.969 Y-8.919
G0 X-1.549 Y-9.351
G0 X0.006 Y-9.491
G0 X1.592 Y-9.354
G0 X3.027 Y-8.932
G0 X4.164 Y-8.287
G0 X5.414 Y-7.24
G0 X5.337 Y-7.177
;TYPE:WALL-INNER
G1 F1500 E27.73506
G1 F1800 X4.268 Y-8.183 E27.81645
G1 X3.012 Y-8.896 E27.89653
G1 X1.585 Y-9.315 E27.97899
G1 X0.006 Y-9.451 E28.06686
G1 X-1.542 Y-9.312 E28.15304
G1 X-2.954 Y-8.883 E28.23487
G1 X-4.207 Y-8.157 E28.31516
G1 X-5.284 Y-7.142 E28.39722
G1 X-6.138 Y-5.81 E28.48495
G1 X-6.725 Y-4.169 E28.58158
G1 X-7.065 Y-2.248 E28.68975
G1 X-7.175 Y-0.035 E28.8126
G1 X-7.064 Y2.196 E28.93646
G1 X-6.723 Y4.13 E29.04535
G1 X-6.132 Y5.78 E29.14253
G1 X-5.274 Y7.113 E29.23042
G1 X-4.201 Y8.126 E29.31224
G1 X-2.968 Y8.851 E29.39155
G1 X-1.583 Y9.283 E29.47199
G1 X-0.076 Y9.422 E29.55591
G1 X1.482 Y9.285 E29.64262
G1 X2.902 Y8.864 E29.72475
G1 X4.163 Y8.153 E29.80501
G1 X5.25 Y7.155 E29.88683
G1 X6.114 Y5.86 E29.97315
G1 X6.713 Y4.286 E30.06653
G1 X7.058 Y2.458 E30.16968
G1 X7.171 Y0.379 E30.28512
G1 X7.065 Y-2.04 E30.41937
G1 X6.739 Y-4.1 E30.53501
G1 X6.171 Y-5.821 E30.6355
G1 X5.337 Y-7.177 E30.72377
G0 F3600 X4.868 Y-6.795
;TYPE:WALL-OUTER
G1 F1800 X3.909 Y-7.697 E30.79677
G1 X2.776 Y-8.34 E30.869
G1 X1.474 Y-8.722 E30.94423
G1 X0.007 Y-8.849 E31.02588
G1 X-1.427 Y-8.72 E31.10571
G1 X-2.713 Y-8.329 E31.18024
G1 X-3.846 Y-7.673 E31.25283
G1 X-4.819 Y-6.756 E31.32696
G1 X-5.596 Y-5.544 E31.40679
G1 X-6.143 Y-4.015 E31.49683
G1 X-6.468 Y-2.181 E31.6001
G1 X-6.574 Y-0.035 E31.71923
G1 X-6.467 Y2.129 E31.83937
G1 X-6.141 Y3.976 E31.94336
G1 X-5.59 Y5.513 E32.03389
G1 X-4.809 Y6.727 E32.11393
G1 X-3.838 Y7.643 E32.18794
G1 X-2.723 Y8.299 E32.25967
G1 X-1.465 Y8.691 E32.33273
G1 X-0.075 Y8.82 E32.41014
G1 X1.369 Y8.693 E32.49051
G1 X2.666 Y8.308 E32.56553
G1 X3.808 Y7.664 E32.63822
G1 X4.791 Y6.762 E32.71219
G1 X5.577 Y5.583 E32.79076
G1 X6.133 Y4.122 E32.87743
G1 X6.461 Y2.386 E32.97539
G1 X6.57 Y0.376 E33.087
G1 X6.467 Y-1.98 E33.21776
G1 X6.154 Y-3.958 E33.3288
G1 X5.623 Y-5.566 E33.42269
G1 X4.868 Y-6.795 E33.50267
G0 F3600 X4.723 Y-6.932
G0 X5.175 Y-7.411
G0 X5.203 Y-7.439
G0 X2.611 Y-14.373
G0 X2.621 Y-14.472
;TYPE:WALL-INNER
G1 F1800 X4.693 Y-14.138 E33.61904
G1 X6.561 Y-13.587 E33.72702
G1 X8.219 Y-12.823 E33.82824
G1 X9.677 Y-11.869 E33.92485
G1 X10.962 Y-10.734 E34.01992
G1 X12.056 Y-9.435 E34.11408
G1 X12.97 Y-7.957 E34.21043
G1 X13.691 Y-6.28 E34.31165
G1 X14.215 Y-4.35 E34.42253
G1 X14.534 Y-2.169 E34.54475
G1 X14.638 Y0.242 E34.67856
G1 X14.396 Y3.525 E34.86108
G1 X13.677 Y6.38 E35.02432
G1 X12.494 Y8.822 E35.17478
G1 X10.852 Y10.872 E35.32041
G1 X8.77 Y12.507 E35.46719
G1 X6.28 Y13.678 E35.61976
G1 X3.33 Y14.396 E35.7881
G1 X-0.051 Y14.636 E35.97604
G1 X-3.358 Y14.391 E36.1599
G1 X-6.251 Y13.664 E36.3253
G1 X-8.719 Y12.471 E36.47729
G1 X-10.811 Y10.804 E36.6256
G1 X-12.476 Y8.712 E36.77385
G1 X-13.67 Y6.232 E36.92647
