;FLAVOR:Marlin
;TIME:1128
;Filament used: 1.83195m
;Layer height: 0.2
;MINX:-46.557
;MINY:-18.296
;MINZ:0.2
;MAXX:45.745
;MAXY:20.22
;MAXZ:3.6
;POSTPROCESSED
;Generated with Cura_SteamEngine 4.8.0
M140 S60
M105
M190 S60
M104 S195
M105
M109 S195
M82 ;absolute extrusion mode
G28 ;Home
G1 Z15.0 F6000 ;Move the platform down 15mm
;Prime the extruder
G92 E0
G1 F200 E3
G92 E0
G92 E0
G92 E0
G1 F1500 E-6.5
;LAYER_COUNT:18
;LAYER:0
M107
G0 F3600 X-.318 Y18.588 Z0.2
;TYPE:SKIRT
G1 F1500 E0
G1 F1800 X-3.066 Y18.509 E0.15243
G1 X-5.779 Y18.509 E0.30286
G1 X-8.522 Y18.586 E0.45501
G1 X-11.27 Y18.741 E0.60762
G1 X-13.98 Y18.971 E0.75842
G1 X-14.524 Y19.021 E0.78871
G1 X-15.029 Y19.041 E0.81673
G1 X-42.593 Y19.042 E2.34506
G1 X-43.291 Y19.033 E2.38377
G1 X-43.802 Y18.986 E2.41222
G1 X-44.3 Y18.861 E2.44069
G1 X-44.772 Y18.66 E2.46913
G1 X-45.208 Y18.388 E2.49763
G1 X-45.596 Y18.052 E2.52608
G1 X-45.927 Y17.66 E2.55453
G1 X-46.194 Y17.221 E2.58302
G1 X-46.389 Y16.746 E2.61149
G1 X-46.508 Y16.247 E2.63994
G1 X-46.556 Y15.489 E2.68205
G1 X-46.557 Y10.177 E2.97658
G1 X-46.546 Y9.467 E3.01595
G1 X-46.441 Y8.592 E3.06482
G1 X-46.108 Y6.641 E3.17456
G1 X-45.723 Y3.936 E3.32605
G1 X-45.414 Y1.214 E3.47795
G1 X-45.183 Y-1.496 E3.62875
G1 X-45.028 Y-4.239 E3.78108
G1 X-44.941 Y-8.331 E4.00802
G1 X-44.941 Y-13.618 E4.30117
G1 X-44.931 Y-14.298 E4.33888
G1 X-44.883 Y-14.809 E4.36734
G1 X-44.757 Y-15.306 E4.39576
G1 X-44.555 Y-15.778 E4.42423
G1 X-44.283 Y-16.214 E4.45272
G1 X-43.946 Y-16.601 E4.48118
G1 X-43.553 Y-16.932 E4.50967
G1 X-43.114 Y-17.197 E4.5381
G1 X-42.638 Y-17.392 E4.56662
G1 X-42.139 Y-17.51 E4.59505
G1 X-41.404 Y-17.557 E4.63589
G1 X-26.312 Y-17.558 E5.47269
G1 X-23.518 Y-17.598 E5.62762
G1 X-20.807 Y-17.713 E5.77807
G1 X-18.075 Y-17.906 E5.92993
G1 X-15.237 Y-18.19 E6.08807
G1 X-14.571 Y-18.266 E6.12524
G1 X-13.968 Y-18.295 E6.15871
G1 X13.604 Y-18.296 E7.68749
G1 X14.311 Y-18.285 E7.7267
G1 X14.862 Y-18.23 E7.7574
G1 X16.021 Y-18.015 E7.82276
G1 X18.775 Y-17.543 E7.97768
G1 X21.45 Y-17.163 E8.12749
G1 X24.181 Y-16.853 E8.27989
G1 X26.889 Y-16.622 E8.43058
G1 X29.634 Y-16.467 E8.58303
G1 X33.749 Y-16.38 E8.81124
G1 X41.171 Y-16.38 E9.22277
G1 X41.869 Y-16.37 E9.26147
G1 X42.381 Y-16.322 E9.28999
G1 X42.878 Y-16.196 E9.31841
G1 X43.35 Y-15.995 E9.34686
G1 X43.786 Y-15.722 E9.37538
G1 X44.173 Y-15.386 E9.4038
G1 X44.504 Y-14.993 E9.43229
G1 X44.77 Y-14.554 E9.46075
G1 X44.964 Y-14.078 E9.48925
G1 X45.083 Y-13.579 E9.51769
G1 X45.13 Y-12.843 E9.55858
G1 X45.131 Y-7.744 E9.84131
G1 X45.121 Y-7.041 E9.88029
G1 X45.074 Y-5.906 E9.94328
G1 X44.996 Y-3.115 E10.09809
G1 X44.996 Y-.401 E10.24857
G1 X45.075 Y2.347 E10.401
G1 X45.23 Y5.089 E10.55328
G1 X45.462 Y7.814 E10.70492
G1 X45.614 Y9.224 E10.78355
G1 X45.714 Y10.1 E10.83244
G1 X45.743 Y10.704 E10.86596
G1 X45.745 Y10.804 E10.87151
G1 X45.745 Y16.229 E11.17231
G1 X45.735 Y16.956 E11.21262
G1 X45.688 Y17.468 E11.24113
G1 X45.562 Y17.965 E11.26956
G1 X45.361 Y18.438 E11.29805
G1 X45.088 Y18.873 E11.32653
G1 X44.752 Y19.261 E11.35499
G1 X44.359 Y19.592 E11.38348
G1 X43.92 Y19.858 E11.41194
G1 X43.445 Y20.053 E11.44041
G1 X42.946 Y20.171 E11.46884
G1 X42.208 Y20.219 E11.50985
G1 X14.639 Y20.22 E13.03845
G1 X13.94 Y20.21 E13.07722
G1 X13.428 Y20.162 E13.10573
G1 X10.569 Y19.67 E13.26658
G1 X7.864 Y19.285 E13.41808
G1 X5.124 Y18.973 E13.57098
G1 X2.426 Y18.743 E13.72112
G1 X-.318 Y18.588 E13.87351
G1 F1500 E7.37351
;MESH:Z.stl
G0 F3600 X-.318 Y15.669
G0 X-.318 Y14.084
G0 X-3.02 Y9.532
G0 X-3.564 Y8.388
G0 X-3.466 Y8.405
;TYPE:WALL-INNER
G1 F1500 E13.87351
G1 F1800 X-2.998 Y9.499 E13.93948
G1 X11.743 Y9.499 E14.75682
G1 X11.743 Y14.104 E15.01215
G1 X-12.691 Y14.104 E16.36694
G1 X-12.691 Y9.37 E16.62942
G1 X4.311 Y-8.356 E17.99129
G1 X3.843 Y-9.45 E18.05726
G1 X-13.305 Y-9.45 E19.00806
G1 X-13.305 Y-14.096 E19.26567
G1 X13.36 Y-14.096 E20.74415
G1 X13.36 Y-9.137 E21.01911
G1 X-3.466 Y8.405 E22.36686
G0 F3600 X-2.758 Y8.534
;TYPE:WALL-OUTER
G1 F1800 X-2.602 Y8.899 E22.38887
G1 X-2.363 Y8.899 E22.40212
G1 X12.343 Y8.899 E23.21752
G1 X12.343 Y14.704 E23.53939
G1 X-13.291 Y14.704 E24.9607
G1 X-13.291 Y9.129 E25.26982
G1 X3.438 Y-8.313 E26.60984
G1 X3.603 Y-8.485 E26.62306
G1 X3.447 Y-8.85 E26.64507
G1 X3.208 Y-8.85 E26.65625
G1 X-13.905 Y-8.85 E27.60511
G1 X-13.905 Y-14.696 E27.92925
G1 X13.96 Y-14.696 E29.47427
G1 X13.96 Y-8.896 E29.79586
G1 X-2.593 Y8.362 E31.12177
G1 X-2.758 Y8.534 E31.13291
G0 F3600 X-2.68 Y8.718
G0 X-3.288 Y8.977
G0 X-3.324 Y8.991
G0 X8.236 Y-9.863
;TYPE:SKIN
G1 F1800 X8.222 Y-9.896 E31.1349
G1 X8.268 Y-9.896 E31.13745
G1 X8.236 Y-9.863 E31.14
G0 F3600 X8.041 Y-8.793
G1 F1800 X7.313 Y-10.496 E31.24269
G1 X9.676 Y-10.496 E31.37371
G1 X8.041 Y-8.793 E31.50461
G0 F3600 X7.846 Y-7.723
G1 F1800 X6.403 Y-11.096 E31.70802
G1 X10.36 Y-11.096 E31.92743
G1 X10.36 Y-10.343 E31.96918
G1 X7.846 Y-7.723 E32.17051
G0 F3600 X7.143 Y-7.841
G1 F1800 X5.493 Y-11.696 E32.40301
G1 X10.96 Y-11.696 E32.70614
G1 X10.96 Y-10.102 E32.79452
G1 X-6.298 Y7.89 E34.17686
G1 X-4.665 Y11.704 E34.4069
G1 X-10.291 Y11.704 E34.71884
G1 X-10.291 Y10.335 E34.79475
G1 X7.143 Y-7.841 E36.1912
G0 F3600 X6.435 Y-7.97
G1 F1800 X5.031 Y-11.25 E36.38903
G1 X-11.505 Y-11.25 E37.30589
G1 X-11.505 Y-12.296 E37.36389
G1 X11.56 Y-12.296 E38.64276
G1 X11.56 Y-9.861 E38.77778
G1 X-5.59 Y8.019 E40.15149
G1 X-4.186 Y11.299 E40.34931
G1 X9.943 Y11.299 E41.13272
G1 X9.943 Y12.304 E41.18844
G1 X-10.891 Y12.304 E42.34362
G1 X-10.891 Y10.094 E42.46615
G1 X6.435 Y-7.97 E43.85398
G0 F3600 X5.727 Y-8.099
G1 F1800 X4.635 Y-10.65 E44.00784
G1 X-12.105 Y-10.65 E44.93602
G1 X-12.105 Y-12.896 E45.06055
G1 X12.16 Y-12.896 E46.40596
G1 X12.16 Y-9.62 E46.5876
G1 X-4.882 Y8.148 E47.95269
G1 X-3.79 Y10.699 E48.10654
G1 X10.543 Y10.699 E48.90126
G1 X10.543 Y12.904 E49.02352
G1 X-11.491 Y12.904 E50.24523
G1 X-11.491 Y9.853 E50.4144
G1 X1.692 Y-3.892 E51.47039
G1 X5.727 Y-8.099 E51.7936
G0 F3600 X5.019 Y-8.228
G1 F1800 X4.239 Y-10.05 E51.90349
G1 X-12.705 Y-10.05 E52.84298
G1 X-12.705 Y-13.496 E53.03405
G1 X12.76 Y-13.496 E54.446
G1 X12.76 Y-9.379 E54.67427
G1 X4.819 Y-1.1 E55.31034
G1 X1.614 Y2.242 E55.56708
G1 X-4.174 Y8.277 E56.03073
G1 X-3.394 Y10.099 E56.14062
G1 X11.143 Y10.099 E56.94664
G1 X11.143 Y13.504 E57.13544
G1 X-12.091 Y13.504 E58.42369
G1 X-12.091 Y9.612 E58.63949
G1 X-.629 Y-2.338 E59.55759
G1 X0.852 Y-3.883 E59.67626
G1 X0.851 Y-3.884 E59.67634
G1 X5.019 Y-8.228 E60.01014
G0 F3600 X-7.001 Y7.772
G1 F1800 X-5.575 Y11.104 E60.21109
G1 X-9.691 Y11.104 E60.43931
G1 X-9.691 Y10.576 E60.46859
G1 X-7.001 Y7.772 E60.68403
G0 F3600 X-7.196 Y8.842
G1 F1800 X-6.485 Y10.504 E60.78426
G1 X-8.791 Y10.504 E60.91212
G1 X-7.196 Y8.842 E61.03985
G0 F3600 X-7.214 Y9.6
;TYPE:SKIN
G1 F1800 X-7.486 Y9.6 E61.04739
G0 F3600 X-7.773 Y9.9
G1 F1800 X-7.085 Y9.9 E61.06646
G0 F3600 X-9.118 Y10.5
G1 F1800 X-9.182 Y10.5 E61.06824
G0 F3600 X-6.792 Y7.5
G1 F1800 X-6.361 Y7.5 E61.08019
G0 F3600 X-6.073 Y7.2
G1 F1800 X-6.848 Y7.2 E61.10167
G0 F3600 X-6.56 Y6.9
G1 F1800 X-5.786 Y6.9 E61.12313
G0 F3600 X-5.498 Y6.6
G1 F1800 X-6.272 Y6.6 E61.14459
G0 F3600 X-5.984 Y6.3
G1 F1800 X-5.21 Y6.3 E61.16604
G0 F3600 X-4.922 Y6
G1 F1800 X-5.697 Y6 E61.18753
G0 F3600 X-5.409 Y5.7
G1 F1800 X-4.635 Y5.7 E61.20899
G0 F3600 X-4.347 Y5.4
G1 F1800 X-5.121 Y5.4 E61.23045
G0 F3600 X-4.833 Y5.1
G1 F1800 X-4.059 Y5.1 E61.2519
G0 F3600 X-3.771 Y4.8
G1 F1800 X-4.545 Y4.8 E61.27336
G0 F3600 X-4.258 Y4.5
G1 F1800 X-3.483 Y4.5 E61.29485
G0 F3600 X-3.196 Y4.2
G1 F1800 X-3.97 Y4.2 E61.3163
G0 F3600 X-3.682 Y3.9
G1 F1800 X-2.908 Y3.9 E61.33776
G0 F3600 X-2.62 Y3.6
G1 F1800 X-3.394 Y3.6 E61.35922
G0 F3600 X-3.107 Y3.3
G1 F1800 X-2.332 Y3.3 E61.38071
G0 F3600 X-2.045 Y3
G1 F1800 X-2.819 Y3 E61.40216
G0 F3600 X-2.531 Y2.7
G1 F1800 X-1.757 Y2.7 E61.42362
G0 F3600 X-1.469 Y2.4
G1 F1800 X-2.243 Y2.4 E61.44508
G0 F3600 X-1.956 Y2.1
G1 F1800 X-1.181 Y2.1 E61.46657
G0 F3600 X-.893 Y1.8
G1 F1800 X-1.668 Y1.8 E61.48805
G0 F3600 X-1.38 Y1.5
G1 F1800 X-.606 Y1.5 E61.50951
G0 F3600 X-.318 Y1.2
G1 F1800 X-1.092 Y1.2 E61.53097
G0 F3600 X-.804 Y0.9
G1 F1800 X-0.03 Y0.9 E61.55242
G0 F3600 X0.257 Y0.6
G1 F1800 X-.517 Y0.6 E61.57388
G0 F3600 X-.229 Y0.3
G1 F1800 X0.545 Y0.3 E61.59534
G0 F3600 X0.833 Y0.00
G1 F1800 X0.059 Y0.00 E61.6168
G0 F3600 X0.347 Y-.3
G1 F1800 X1.121 Y-.299 E61.63826
G0 F3600 X1.409 Y-.599
G1 F1800 X0.634 Y-.6 E61.65974
G0 F3600 X0.922 Y-.9
G1 F1800 X1.696 Y-.899 E61.6812
G0 F3600 X1.984 Y-1.199
G1 F1800 X1.21 Y-1.2 E61.70266
G0 F3600 X1.498 Y-1.5
G1 F1800 X2.272 Y-1.499 E61.72411
G0 F3600 X2.56 Y-1.799
G1 F1800 X1.785 Y-1.8 E61.7456
G0 F3600 X2.073 Y-2.1
G1 F1800 X2.848 Y-2.1 E61.76709
G0 F3600 X3.135 Y-2.4
G1 F1800 X2.361 Y-2.4 E61.78854
G0 F3600 X2.649 Y-2.7
G1 F1800 X3.423 Y-2.7 E61.81
G0 F3600 X3.711 Y-3
G1 F1800 X2.937 Y-3 E61.83146
G0 F3600 X3.224 Y-3.3
G1 F1800 X3.999 Y-3.299 E61.85295
G0 F3600 X4.286 Y-3.599
G1 F1800 X3.512 Y-3.6 E61.8744
G0 F3600 X3.8 Y-3.899
G1 F1800 X4.574 Y-3.899 E61.89586
G0 F3600 X4.862 Y-4.2
G1 F1800 X4.088 Y-4.2 E61.91732
G0 F3600 X4.375 Y-4.5
G1 F1800 X5.15 Y-4.5 E61.9388
G0 F3600 X5.437 Y-4.8
G1 F1800 X4.663 Y-4.8 E61.96026
G0 F3600 X4.951 Y-5.1
G1 F1800 X5.725 Y-5.1 E61.98172
G0 F3600 X6.013 Y-5.4
G1 F1800 X5.239 Y-5.4 E62.00318
G0 F3600 X5.527 Y-5.7
G1 F1800 X6.301 Y-5.7 E62.02464
G0 F3600 X6.589 Y-6
G1 F1800 X5.814 Y-6 E62.04612
G0 F3600 X6.102 Y-6.3
G1 F1800 X6.876 Y-6.3 E62.06758
G0 F3600 X7.164 Y-6.6
G1 F1800 X6.39 Y-6.6 E62.08904
G0 F3600 X6.678 Y-6.9
G1 F1800 X7.452 Y-6.899 E62.11049
G0 F3600 X7.74 Y-7.199
G1 F1800 X6.965 Y-7.2 E62.13198
G0 F3600 X7.253 Y-7.5
G1 F1800 X7.616 Y-7.499 E62.14204
G0 F3600 X8.592 Y-9.9
G1 F1800 X8.666 Y-9.9 E62.1441
G0 F3600 X5.164 Y-11.7
G1 F1800 X-11.19 Y-11.7 E62.59748
G0 F3600 X3.865 Y-9.483
G0 X4.35 Y-8.349
G0 X-1.973 Y-1.755
G0 X-4.34 Y11.7
G1 F1800 X9.628 Y11.7 E62.98472
G1 F1500 E56.48472
;MESH:Z.stl(1)
G0 F3600 X11.723 Y10.263
G0 X14.897 Y11.068
G0 X23.83 Y10.263
G0 X23.928 Y10.28
;TYPE:WALL-INNER
G1 F1500 E62.98472
G1 F1800 X24.396 Y11.374 E63.0507
G1 X41.545 Y11.374 E64.00155
G1 X41.545 Y16.02 E64.25916
G1 X14.879 Y16.02 E65.7377
G1 X14.879 Y11.061 E66.01266
G1 X31.706 Y-6.481 E67.36044
G1 X31.238 Y-7.575 E67.42642
G1 X16.496 Y-7.575 E68.24381
G1 X16.496 Y-12.18 E68.49915
G1 X40.931 Y-12.18 E69.85398
G1 X40.931 Y-7.446 E70.11647
G1 X23.928 Y10.28 E71.47837
G0 F3600 X24.636 Y10.409
;TYPE:WALL-OUTER
G1 F1800 X24.792 Y10.774 E71.50038
G1 X25.031 Y10.774 E71.51363
G1 X42.145 Y10.774 E72.46255
G1 X42.145 Y16.62 E72.78669
G1 X14.279 Y16.62 E74.33176
G1 X14.279 Y10.82 E74.65335
G1 X30.833 Y-6.438 E75.9793
G1 X30.998 Y-6.61 E75.99251
G1 X30.842 Y-6.975 E76.01452
G1 X30.603 Y-6.975 E76.02571
G1 X15.896 Y-6.975 E76.84116
G1 X15.896 Y-12.78 E77.16303
G1 X41.531 Y-12.78 E78.5844
G1 X41.531 Y-7.205 E78.89352
G1 X24.801 Y10.237 E80.23358
G1 X24.636 Y10.409 E80.24472
G0 F3600 X24.714 Y10.593
G0 X24.106 Y10.852
G0 X24.07 Y10.866
G0 X20.016 Y11.82
;TYPE:SKIN
G1 F1800 X19.969 Y11.82 E80.24733
G1 X20.002 Y11.786 E80.24995
G1 X20.016 Y11.82 E80.25199
G0 F3600 X20.926 Y12.42
G1 F1800 X18.561 Y12.42 E80.38312
G1 X20.197 Y10.716 E80.5141
G1 X20.926 Y12.42 E80.61687
G0 F3600 X21.836 Y13.02
G1 F1800 X17.879 Y13.02 E80.83627
G1 X17.879 Y12.265 E80.87813
G1 X20.392 Y9.646 E81.07938
G1 X21.836 Y13.02 E81.28287
G0 F3600 X22.512 Y10.023
G1 F1800 X23.604 Y12.574 E81.43673
G1 X40.345 Y12.574 E82.36496
G1 X40.345 Y14.82 E82.4895
G1 X16.079 Y14.82 E83.83496
G1 X16.079 Y11.542 E84.01672
G1 X33.122 Y-6.224 E85.38176
G1 X32.03 Y-8.775 E85.53562
G1 X17.696 Y-8.775 E86.33039
G1 X17.696 Y-10.98 E86.45265
G1 X39.731 Y-10.98 E87.67442
G1 X39.731 Y-7.929 E87.84358
G1 X22.512 Y10.023 E89.22282
G0 F3600 X21.804 Y9.894
G1 F1800 X23.208 Y13.174 E89.42065
G1 X39.745 Y13.174 E90.33757
G1 X39.745 Y14.22 E90.39557
G1 X16.679 Y14.22 E91.6745
G1 X16.679 Y11.783 E91.80962
G1 X33.83 Y-6.095 E93.18329
G1 X32.426 Y-9.375 E93.38111
G1 X18.296 Y-9.375 E94.16457
G1 X18.296 Y-10.38 E94.2203
G1 X39.131 Y-10.38 E95.37553
G1 X39.131 Y-8.17 E95.49807
G1 X21.804 Y9.894 E96.88593
G0 F3600 X21.096 Y9.765
G1 F1800 X22.746 Y13.62 E97.11843
G1 X17.279 Y13.62 E97.42156
G1 X17.279 Y12.024 E97.51005
G1 X34.538 Y-5.966 E98.89235
G1 X32.905 Y-9.78 E99.12239
G1 X38.531 Y-9.78 E99.43433
G1 X38.531 Y-8.411 E99.51024
G1 X21.096 Y9.765 E100.90673
G0 F3600 X23.22 Y10.152
G1 F1800 X24 Y11.974 E101.01662
G1 X40.945 Y11.974 E101.95617
G1 X40.945 Y15.42 E102.14723
G1 X15.479 Y15.42 E103.55924
G1 X15.479 Y11.301 E103.78762
G1 X32.414 Y-6.353 E105.14404
G1 X31.634 Y-8.175 E105.25393
G1 X17.096 Y-8.175 E106.06001
G1 X17.096 Y-11.58 E106.24881
G1 X40.331 Y-11.58 E107.53711
G1 X40.331 Y-7.688 E107.75291
G1 X28.866 Y4.264 E108.67121
G1 X28.188 Y4.972 E108.72556
G1 X23.22 Y10.152 E109.12352
G0 F3600 X35.241 Y-5.848
G1 F1800 X33.815 Y-9.18 E109.32448
G1 X37.931 Y-9.18 E109.55269
G1 X37.931 Y-8.652 E109.58197
G1 X35.241 Y-5.848 E109.79742
G0 F3600 X35.436 Y-6.918
G1 F1800 X34.725 Y-8.58 E109.89765
G1 X37.031 Y-8.58 E110.02551
G1 X35.436 Y-6.918 E110.15323
G0 F3600 X35.402 Y-7.799
;TYPE:SKIN
G1 F1800 X35.845 Y-7.799 E110.16551
G0 F3600 X36.133 Y-8.099
G1 F1800 X35.273 Y-8.099 E110.18936
G0 F3600 X37.305 Y-8.699
G1 F1800 X37.541 Y-8.699 E110.1959
G0 F3600 X34.979 Y-5.699
G1 F1800 X34.721 Y-5.699 E110.20305
G0 F3600 X34.433 Y-5.399
G1 F1800 X35.108 Y-5.399 E110.22176
G0 F3600 X34.919 Y-5.099
G1 F1800 X34.145 Y-5.099 E110.24322
G0 F3600 X33.857 Y-4.799
G1 F1800 X34.631 Y-4.799 E110.26468
G0 F3600 X34.343 Y-4.499
G1 F1800 X33.57 Y-4.499 E110.28611
G0 F3600 X33.282 Y-4.199
G1 F1800 X34.055 Y-4.199 E110.30754
G0 F3600 X33.768 Y-3.899
G1 F1800 X32.994 Y-3.899 E110.329
G0 F3600 X32.706 Y-3.599
G1 F1800 X33.48 Y-3.599 E110.35046
G0 F3600 X33.192 Y-3.299
G1 F1800 X32.418 Y-3.299 E110.37191
G0 F3600 X32.13 Y-2.999
G1 F1800 X32.904 Y-2.999 E110.39337
G0 F3600 X32.616 Y-2.699
G1 F1800 X31.842 Y-2.699 E110.41483
G0 F3600 X31.554 Y-2.399
G1 F1800 X32.328 Y-2.399 E110.43629
G0 F3600 X32.041 Y-2.099
G1 F1800 X31.267 Y-2.099 E110.45774
G0 F3600 X30.979 Y-1.799
G1 F1800 X31.753 Y-1.799 E110.4792
G0 F3600 X31.465 Y-1.499
G1 F1800 X30.691 Y-1.499 E110.50066
G0 F3600 X30.403 Y-1.199
G1 F1800 X31.177 Y-1.199 E110.52212
G0 F3600 X30.889 Y-.899
G1 F1800 X30.115 Y-.899 E110.54358
G0 F3600 X29.827 Y-.599
G1 F1800 X30.602 Y-.599 E110.56506
G0 F3600 X30.314 Y-.299
G1 F1800 X29.539 Y-.299 E110.58655
G0 F3600 X29.252 Y0.00
G1 F1800 X30.026 Y0.00 E110.608
G0 F3600 X29.738 Y0.3
G1 F1800 X28.964 Y0.3 E110.62946
G0 F3600 X28.676 Y0.6
G1 F1800 X29.45 Y0.6 E110.65092
G0 F3600 X29.163 Y0.9
G1 F1800 X28.388 Y0.9 E110.67241
G0 F3600 X28.1 Y1.2
G1 F1800 X28.875 Y1.2 E110.69389
G0 F3600 X28.587 Y1.5
G1 F1800 X27.812 Y1.5 E110.71538
G0 F3600 X27.524 Y1.8
G1 F1800 X28.299 Y1.8 E110.73686
G0 F3600 X28.011 Y2.1
G1 F1800 X27.236 Y2.1 E110.75835
G0 F3600 X26.949 Y2.4
G1 F1800 X27.723 Y2.4 E110.77981
G0 F3600 X27.436 Y2.7
G1 F1800 X26.661 Y2.7 E110.80129
G0 F3600 X26.373 Y3
G1 F1800 X27.148 Y3 E110.82278
G0 F3600 X26.86 Y3.3
G1 F1800 X26.085 Y3.3 E110.84426
G0 F3600 X25.797 Y3.6
G1 F1800 X26.572 Y3.6 E110.86575
G0 F3600 X26.284 Y3.9
G1 F1800 X25.509 Y3.9 E110.88723
G0 F3600 X25.221 Y4.2
G1 F1800 X25.997 Y4.2 E110.90875
G0 F3600 X25.709 Y4.5
G1 F1800 X24.933 Y4.5 E110.93026
G0 F3600 X24.646 Y4.8
G1 F1800 X25.421 Y4.8 E110.95175
G0 F3600 X25.133 Y5.1
G1 F1800 X24.358 Y5.1 E110.97323
G0 F3600 X24.07 Y5.4
G1 F1800 X24.845 Y5.4 E110.99472
G0 F3600 X24.558 Y5.7
G1 F1800 X23.782 Y5.7 E111.01623
G0 F3600 X23.494 Y6
G1 F1800 X24.27 Y6 E111.03774
G0 F3600 X23.982 Y6.3
