;FLAVOR:Marlin
;TIME:1166
;Filament used: 1.92019m
;Layer height: 0.2
;MINX:-18.911
;MINY:-42.829
;MINZ:0.2
;MAXX:19.33
;MAXY:42.577
;MAXZ:3.6
;POSTPROCESSED
;Generated with Cura_SteamEngine 4.8.0
M140 S60
M105
M190 S60
M104 S195
M105
M109 S195
M82 ;absolute extrusion mode
G28 ;Home
G1 Z15.0 F6000 ;Move the platform down 15mm
;Prime the extruder
G92 E0
G1 F200 E3
G92 E0
G92 E0
G92 E0
G1 F1500 E-6.5
;LAYER_COUNT:18
;LAYER:0
M107
G0 F3600 X18.922 Y4.412 Z0.2
;TYPE:SKIRT
G1 F1500 E0
G1 F1800 X18.962 Y7.216 E0.15549
G1 X19.075 Y9.884 E0.30355
G1 X19.278 Y12.724 E0.46142
G1 X19.318 Y13.266 E0.49156
G1 X19.33 Y13.714 E0.51641
G1 X19.33 Y37.989 E1.86237
G1 X19.321 Y38.716 E1.90269
G1 X19.274 Y39.273 E1.93368
G1 X19.148 Y39.816 E1.96459
G1 X18.946 Y40.337 E1.99557
G1 X18.672 Y40.823 E2.0265
G1 X18.331 Y41.265 E2.05746
G1 X17.93 Y41.654 E2.08843
G1 X17.478 Y41.981 E2.11937
G1 X16.984 Y42.241 E2.15032
G1 X16.458 Y42.428 E2.18127
G1 X15.911 Y42.537 E2.2122
G1 X15.209 Y42.575 E2.25118
G1 X15.1 Y42.577 E2.25722
G1 X-13.913 Y42.577 E3.8659
G1 X-14.611 Y42.568 E3.9046
G1 X-15.168 Y42.521 E3.9356
G1 X-15.711 Y42.395 E3.9665
G1 X-16.232 Y42.192 E3.99751
G1 X-16.718 Y41.918 E4.02844
G1 X-17.159 Y41.576 E4.05938
G1 X-17.548 Y41.176 E4.09032
G1 X-17.875 Y40.724 E4.12125
G1 X-18.135 Y40.229 E4.15226
G1 X-18.321 Y39.703 E4.18319
G1 X-18.43 Y39.156 E4.21412
G1 X-18.469 Y38.44 E4.25387
G1 X-18.47 Y21.648 E5.18493
G1 X-18.51 Y18.844 E5.34042
G1 X-18.623 Y16.176 E5.48849
G1 X-18.826 Y13.336 E5.64636
G1 X-18.867 Y12.775 E5.67754
G1 X-18.878 Y12.346 E5.70134
G1 X-18.878 Y-11.316 E7.01332
G1 X-18.906 Y-13.277 E7.12206
G1 X-18.911 Y-13.919 E7.15766
G1 X-18.911 Y-37.856 E8.48488
G1 X-18.902 Y-38.523 E8.52187
G1 X-18.854 Y-39.079 E8.55281
G1 X-18.728 Y-39.623 E8.58377
G1 X-18.525 Y-40.143 E8.61473
G1 X-18.25 Y-40.628 E8.64564
G1 X-17.909 Y-41.07 E8.67659
G1 X-17.508 Y-41.458 E8.70753
G1 X-17.056 Y-41.786 E8.7385
G1 X-16.561 Y-42.045 E8.76947
G1 X-16.035 Y-42.231 E8.80041
G1 X-15.487 Y-42.34 E8.83139
G1 X-14.79 Y-42.377 E8.87009
G1 X-14.681 Y-42.379 E8.87613
G1 X-9.258 Y-42.379 E9.17682
G1 X-8.553 Y-42.369 E9.21591
G1 X-7.129 Y-42.309 E9.29494
G1 X-6.952 Y-42.299 E9.30477
G1 X-4.255 Y-42.221 E9.45437
G1 X-1.542 Y-42.219 E9.6048
G1 X1.204 Y-42.295 E9.75711
G1 X3.917 Y-42.448 E9.90778
G1 X6.622 Y-42.676 E10.05829
G1 X7.746 Y-42.795 E10.12096
G1 X8.415 Y-42.827 E10.1581
G1 X8.525 Y-42.829 E10.1642
G1 X14.338 Y-42.829 E10.48651
G1 X15.036 Y-42.819 E10.52522
G1 X15.592 Y-42.771 E10.55616
G1 X16.136 Y-42.644 E10.58713
G1 X16.656 Y-42.441 E10.61809
G1 X17.141 Y-42.165 E10.64903
G1 X17.583 Y-41.824 E10.67998
G1 X17.971 Y-41.422 E10.71096
G1 X18.297 Y-40.97 E10.74186
G1 X18.556 Y-40.475 E10.77283
G1 X18.742 Y-39.949 E10.80377
G1 X18.85 Y-39.401 E10.83474
G1 X18.887 Y-38.709 E10.87316
G1 X18.889 Y-38.599 E10.87926
G1 X18.889 Y-14.938 E12.19118
G1 X18.917 Y-12.977 E12.29993
G1 X18.922 Y-12.335 E12.33552
G1 X18.922 Y4.412 E13.26409
G0 F3600 X18.322 Y4.42
G1 F1800 X18.362 Y7.214 E13.41902
G1 X18.476 Y9.919 E13.56914
G1 X18.684 Y12.82 E13.7304
G1 X18.728 Y13.614 E13.7745
G1 X18.73 Y13.714 E13.78004
G1 X18.73 Y37.982 E15.12562
G1 X18.721 Y38.709 E15.16593
G1 X18.674 Y39.22 E15.19439
G1 X18.549 Y39.718 E15.22285
G1 X18.349 Y40.191 E15.25133
G1 X18.077 Y40.626 E15.27977
G1 X17.741 Y41.015 E15.30828
G1 X17.349 Y41.346 E15.33672
G1 X16.91 Y41.613 E15.36521
G1 X16.436 Y41.808 E15.39363
G1 X15.936 Y41.928 E15.42214
G1 X15.192 Y41.976 E15.46348
G1 X-13.906 Y41.977 E17.07687
G1 X-14.604 Y41.968 E17.11557
G1 X-15.115 Y41.921 E17.14402
G1 X-15.613 Y41.796 E17.17249
G1 X-16.085 Y41.595 E17.20094
G1 X-16.521 Y41.323 E17.22943
G1 X-16.909 Y40.987 E17.25789
G1 X-17.24 Y40.595 E17.28634
G1 X-17.507 Y40.156 E17.31483
G1 X-17.702 Y39.681 E17.3433
G1 X-17.821 Y39.182 E17.37174
G1 X-17.869 Y38.424 E17.41385
G1 X-17.87 Y21.64 E18.34447
G1 X-17.91 Y18.846 E18.4994
G1 X-18.024 Y16.141 E18.64952
G1 X-18.232 Y13.236 E18.811
G1 X-18.277 Y12.439 E18.85527
G1 X-18.278 Y-11.324 E20.17284
G1 X-18.306 Y-13.281 E20.28136
G1 X-18.311 Y-13.923 E20.31696
G1 X-18.311 Y-37.848 E21.64352
G1 X-18.302 Y-38.515 E21.68051
G1 X-18.255 Y-39.026 E21.70896
G1 X-18.129 Y-39.524 E21.73744
G1 X-17.928 Y-39.996 E21.76589
G1 X-17.656 Y-40.431 E21.79434
G1 X-17.32 Y-40.819 E21.82279
G1 X-16.927 Y-41.15 E21.85128
G1 X-16.488 Y-41.416 E21.87974
G1 X-16.013 Y-41.611 E21.90821
G1 X-15.514 Y-41.73 E21.93666
G1 X-14.773 Y-41.778 E21.97783
G1 X-9.266 Y-41.779 E22.28318
G1 X-8.561 Y-41.769 E22.32227
G1 X-7.162 Y-41.71 E22.39991
G1 X-7.002 Y-41.701 E22.40879
G1 X-4.237 Y-41.621 E22.56217
G1 X-1.525 Y-41.619 E22.71254
G1 X1.218 Y-41.695 E22.86469
G1 X3.966 Y-41.849 E23.01729
G1 X6.69 Y-42.079 E23.16887
G1 X7.797 Y-42.197 E23.23059
G1 X8.432 Y-42.228 E23.26585
G1 X14.329 Y-42.229 E23.59281
G1 X15.027 Y-42.219 E23.63152
G1 X15.539 Y-42.171 E23.66003
G1 X16.036 Y-42.045 E23.68846
G1 X16.508 Y-41.844 E23.71691
G1 X16.944 Y-41.571 E23.74543
G1 X17.331 Y-41.235 E23.77385
G1 X17.662 Y-40.842 E23.80234
G1 X17.928 Y-40.403 E23.8308
G1 X18.122 Y-39.927 E23.8593
G1 X18.241 Y-39.428 E23.88774
G1 X18.288 Y-38.692 E23.92863
G1 X18.289 Y-14.93 E25.24616
G1 X18.317 Y-12.973 E25.35468
G1 X18.322 Y-12.331 E25.39027
G1 X18.322 Y4.42 E26.31906
G1 F1500 E19.81906
;MESH:E.stl(1)
G0 F3600 X15.687 Y4.42
G0 X14.102 Y4.42
G0 X9.587 Y-4.297
G0 X9.517 Y-4.227
;TYPE:WALL-INNER
G1 F1500 E26.31906
G1 F1800 X2.949 Y-4.227 E26.68323
G1 X2.949 Y10.2 E27.48316
G1 X-1.37 Y10.2 E27.72264
G1 X-1.37 Y-4.227 E28.52256
G1 X-9.084 Y-4.227 E28.95028
G1 X-9.084 Y11.776 E29.83759
G1 X-14.078 Y11.776 E30.11449
G1 X-14.078 Y-11.718 E31.41716
G1 X14.122 Y-11.718 E32.98075
G1 X14.122 Y11.326 E34.25846
G1 X9.517 Y11.326 E34.5138
G1 X9.517 Y-4.227 E35.37616
G0 F3600 X8.917 Y-3.627
;TYPE:WALL-OUTER
G1 F1800 X3.549 Y-3.627 E35.67379
G1 X3.549 Y10.8 E36.47372
G1 X-1.97 Y10.8 E36.77973
G1 X-1.97 Y-3.627 E37.57966
G1 X-8.484 Y-3.627 E37.94084
G1 X-8.484 Y12.376 E38.82815
G1 X-14.678 Y12.376 E39.17159
G1 X-14.678 Y-12.318 E40.54079
G1 X14.722 Y-12.318 E42.17092
G1 X14.722 Y11.926 E43.51517
G1 X8.917 Y11.926 E43.83704
G1 X8.917 Y-3.627 E44.6994
G0 F3600 X8.717 Y-3.627
G0 X8.717 Y-4.287
G0 X8.717 Y-4.327
G0 X10.522 Y-7.827
;TYPE:SKIN
G1 F1800 X-10.478 Y-7.827 E45.86378
G1 X-10.478 Y-8.118 E45.87991
G1 X10.522 Y-8.118 E47.04429
G1 X10.522 Y-7.827 E47.06043
G0 F3600 X11.122 Y-7.227
G1 F1800 X-11.078 Y-7.227 E48.29134
G1 X-11.078 Y-8.718 E48.37401
G1 X11.122 Y-8.718 E49.60493
G1 X11.122 Y-7.227 E49.6876
G0 F3600 X11.722 Y-6.627
G1 F1800 X-11.484 Y-6.627 E50.97429
G1 X-11.484 Y9.376 E51.86161
G1 X-11.678 Y9.376 E51.87236
G1 X-11.678 Y-9.318 E52.90888
G1 X11.722 Y-9.318 E54.20633
G1 X11.722 Y-6.627 E54.35554
G0 F3600 X11.317 Y-6.027
G1 F1800 X1.149 Y-6.027 E54.91932
G1 X1.149 Y8.4 E55.71925
G1 X0.43 Y8.4 E55.75912
G1 X0.43 Y-6.027 E56.55904
G1 X-10.884 Y-6.027 E57.18637
G1 X-10.884 Y9.976 E58.07368
G1 X-12.278 Y9.976 E58.15097
G1 X-12.278 Y-9.918 E59.25403
G1 X12.322 Y-9.918 E60.61802
G1 X12.322 Y9.526 E61.69612
G1 X11.317 Y9.526 E61.75184
G1 X11.317 Y-6.027 E62.61421
G0 F3600 X10.717 Y-5.427
G1 F1800 X1.749 Y-5.427 E63.11145
G1 X1.749 Y9 E63.91138
G1 X-.17 Y9 E64.01778
G1 X-.17 Y-5.427 E64.81771
G1 X-10.284 Y-5.427 E65.3785
G1 X-10.284 Y10.576 E66.26581
G1 X-12.878 Y10.576 E66.40964
G1 X-12.878 Y-10.518 E67.57923
G1 X12.922 Y-10.518 E69.00975
G1 X12.922 Y10.126 E70.15439
G1 X10.717 Y10.126 E70.27665
G1 X10.717 Y-5.427 E71.13901
G0 F3600 X10.117 Y-4.827
G1 F1800 X2.349 Y-4.827 E71.56972
G1 X2.349 Y9.6 E72.36965
G1 X-.77 Y9.6 E72.54259
G1 X-.77 Y-4.827 E73.34252
G1 X-9.684 Y-4.827 E73.83677
G1 X-9.684 Y11.176 E74.72408
G1 X-13.478 Y11.176 E74.93445
G1 X-13.478 Y-11.118 E76.17057
G1 X13.522 Y-11.118 E77.66763
G1 X13.522 Y10.726 E78.87881
G1 X10.117 Y10.726 E79.06761
G1 X10.117 Y-4.827 E79.92997
G0 F3600 X11.632 Y-4.799
;TYPE:SKIN
G1 F1800 X12.007 Y-4.799 E79.94036
G0 F3600 X12.007 Y-5.099
G1 F1800 X11.632 Y-5.099 E79.95076
G0 F3600 X11.632 Y-5.399
G1 F1800 X12.007 Y-5.399 E79.96116
G0 F3600 X12.007 Y-5.699
G1 F1800 X11.632 Y-5.699 E79.97155
G0 F3600 X11.632 Y-5.999
G1 F1800 X12.007 Y-5.999 E79.98195
G0 F3600 X12.007 Y-6.299
G1 F1800 X11.632 Y-6.299 E79.99234
G0 F3600 X11.632 Y-4.499
G1 F1800 X12.007 Y-4.499 E80.00274
G0 F3600 X12.007 Y-4.199
G1 F1800 X11.632 Y-4.199 E80.01314
G0 F3600 X11.632 Y-3.899
G1 F1800 X12.007 Y-3.899 E80.02353
G0 F3600 X12.007 Y-3.599
G1 F1800 X11.632 Y-3.599 E80.03393
G0 F3600 X11.632 Y-3.299
G1 F1800 X12.007 Y-3.299 E80.04433
G0 F3600 X12.007 Y-2.999
G1 F1800 X11.632 Y-2.999 E80.05472
G0 F3600 X11.632 Y-2.699
G1 F1800 X12.007 Y-2.699 E80.06512
G0 F3600 X12.007 Y-2.399
G1 F1800 X11.632 Y-2.399 E80.07551
G0 F3600 X11.632 Y-2.099
G1 F1800 X12.007 Y-2.099 E80.08591
G0 F3600 X12.007 Y-1.799
G1 F1800 X11.632 Y-1.799 E80.09631
G0 F3600 X11.632 Y-1.499
G1 F1800 X12.007 Y-1.499 E80.1067
G0 F3600 X12.007 Y-1.199
G1 F1800 X11.632 Y-1.199 E80.1171
G0 F3600 X11.632 Y-.899
G1 F1800 X12.007 Y-.899 E80.1275
G0 F3600 X12.007 Y-.599
G1 F1800 X11.632 Y-.599 E80.13789
G0 F3600 X11.632 Y-.299
G1 F1800 X12.007 Y-.299 E80.14829
G0 F3600 X12.007 Y0.00
G1 F1800 X11.632 Y0.00 E80.15868
G0 F3600 X11.632 Y0.3
G1 F1800 X12.007 Y0.3 E80.16908
G0 F3600 X12.007 Y0.6
G1 F1800 X11.632 Y0.6 E80.17948
G0 F3600 X11.632 Y0.9
G1 F1800 X12.007 Y0.9 E80.18987
G0 F3600 X12.007 Y1.2
G1 F1800 X11.632 Y1.2 E80.20027
G0 F3600 X11.632 Y1.5
G1 F1800 X12.007 Y1.5 E80.21067
G0 F3600 X12.007 Y1.8
G1 F1800 X11.632 Y1.8 E80.22106
G0 F3600 X11.632 Y2.1
G1 F1800 X12.007 Y2.1 E80.23146
G0 F3600 X12.007 Y2.4
G1 F1800 X11.632 Y2.4 E80.24185
G0 F3600 X11.632 Y2.7
G1 F1800 X12.007 Y2.7 E80.25225
G0 F3600 X12.007 Y3
G1 F1800 X11.632 Y3 E80.26265
G0 F3600 X11.632 Y3.3
G1 F1800 X12.007 Y3.3 E80.27304
G0 F3600 X12.007 Y3.6
G1 F1800 X11.632 Y3.6 E80.28344
G0 F3600 X11.632 Y3.9
G1 F1800 X12.007 Y3.9 E80.29384
G0 F3600 X12.007 Y4.2
G1 F1800 X11.632 Y4.2 E80.30423
G0 F3600 X11.632 Y4.5
G1 F1800 X12.007 Y4.5 E80.31463
G0 F3600 X12.007 Y4.8
G1 F1800 X11.632 Y4.8 E80.32502
G0 F3600 X11.632 Y5.1
G1 F1800 X12.007 Y5.1 E80.33542
G0 F3600 X12.007 Y5.4
G1 F1800 X11.632 Y5.4 E80.34582
G0 F3600 X11.632 Y5.7
G1 F1800 X12.007 Y5.7 E80.35621
G0 F3600 X12.007 Y6
G1 F1800 X11.632 Y6 E80.36661
G0 F3600 X11.632 Y6.3
G1 F1800 X12.007 Y6.3 E80.37701
G0 F3600 X12.007 Y6.6
G1 F1800 X11.632 Y6.6 E80.3874
G0 F3600 X11.632 Y6.9
G1 F1800 X12.007 Y6.9 E80.3978
G0 F3600 X12.007 Y7.2
G1 F1800 X11.632 Y7.2 E80.40819
G0 F3600 X11.632 Y7.5
G1 F1800 X12.007 Y7.5 E80.41859
G0 F3600 X12.007 Y7.8
G1 F1800 X11.632 Y7.8 E80.42899
G0 F3600 X11.632 Y8.1
G1 F1800 X12.007 Y8.1 E80.43938
G0 F3600 X12.007 Y8.4
G1 F1800 X11.632 Y8.4 E80.44978
G0 F3600 X11.632 Y8.7
G1 F1800 X12.007 Y8.7 E80.46018
G0 F3600 X12.007 Y9
G1 F1800 X11.632 Y9 E80.47057
G0 F3600 X9.545 Y-4.255
G0 X2.921 Y-4.255
G0 X0.833 Y7.8
G1 F1800 X0.743 Y7.8 E80.47307
G0 F3600 X0.743 Y7.5
G1 F1800 X0.833 Y7.5 E80.47556
G0 F3600 X0.833 Y7.2
G1 F1800 X0.743 Y7.2 E80.47806
G0 F3600 X0.743 Y6.9
G1 F1800 X0.833 Y6.9 E80.48055
G0 F3600 X0.833 Y6.6
G1 F1800 X0.743 Y6.6 E80.48305
G0 F3600 X0.743 Y6.3
G1 F1800 X0.833 Y6.3 E80.48554
G0 F3600 X0.833 Y6
G1 F1800 X0.743 Y6 E80.48804
G0 F3600 X0.743 Y5.7
G1 F1800 X0.833 Y5.7 E80.49053
G0 F3600 X0.833 Y5.4
G1 F1800 X0.743 Y5.4 E80.49303
G0 F3600 X0.743 Y5.1
G1 F1800 X0.833 Y5.1 E80.49552
G0 F3600 X0.833 Y4.8
G1 F1800 X0.743 Y4.8 E80.49802
G0 F3600 X0.743 Y4.5
G1 F1800 X0.833 Y4.5 E80.50051
G0 F3600 X0.833 Y4.2
G1 F1800 X0.743 Y4.2 E80.50301
G0 F3600 X0.743 Y3.9
G1 F1800 X0.833 Y3.9 E80.5055
G0 F3600 X0.833 Y3.6
G1 F1800 X0.743 Y3.6 E80.508
G0 F3600 X0.743 Y3.3
G1 F1800 X0.833 Y3.3 E80.51049
G0 F3600 X0.833 Y3
G1 F1800 X0.743 Y3 E80.51299
G0 F3600 X0.743 Y2.7
G1 F1800 X0.833 Y2.7 E80.51548
G0 F3600 X0.833 Y2.4
G1 F1800 X0.743 Y2.4 E80.51798
G0 F3600 X0.743 Y2.1
G1 F1800 X0.833 Y2.1 E80.52047
G0 F3600 X0.833 Y1.8
G1 F1800 X0.743 Y1.8 E80.52297
G0 F3600 X0.743 Y1.5
G1 F1800 X0.833 Y1.5 E80.52546
G0 F3600 X0.833 Y1.2
G1 F1800 X0.743 Y1.2 E80.52796
G0 F3600 X0.744 Y0.9
G1 F1800 X0.834 Y0.9 E80.53045
G0 F3600 X0.834 Y0.6
G1 F1800 X0.744 Y0.6 E80.53295
G0 F3600 X0.744 Y0.3
G1 F1800 X0.834 Y0.3 E80.53544
G0 F3600 X0.834 Y0.00
G1 F1800 X0.744 Y0.00 E80.53794
G0 F3600 X0.744 Y-.299
G1 F1800 X0.834 Y-.299 E80.54043
G0 F3600 X0.834 Y-.6
G1 F1800 X0.744 Y-.6 E80.54293
G0 F3600 X0.744 Y-.9
G1 F1800 X0.834 Y-.9 E80.54542
G0 F3600 X0.834 Y-1.2
G1 F1800 X0.744 Y-1.2 E80.54792
G0 F3600 X0.744 Y-1.5
G1 F1800 X0.834 Y-1.5 E80.55042
G0 F3600 X0.834 Y-1.8
G1 F1800 X0.744 Y-1.8 E80.55291
G0 F3600 X0.744 Y-2.1
G1 F1800 X0.834 Y-2.1 E80.55541
G0 F3600 X0.834 Y-2.4
G1 F1800 X0.744 Y-2.4 E80.5579
G0 F3600 X0.744 Y-2.7
G1 F1800 X0.834 Y-2.7 E80.5604
G0 F3600 X0.834 Y-3
G1 F1800 X0.744 Y-3 E80.56289
G0 F3600 X0.744 Y-3.3
G1 F1800 X0.834 Y-3.3 E80.56539
G0 F3600 X0.834 Y-3.6
G1 F1800 X0.744 Y-3.6 E80.56788
G0 F3600 X0.744 Y-3.9
G1 F1800 X0.834 Y-3.9 E80.57038
G0 F3600 X0.834 Y-4.2
G1 F1800 X0.744 Y-4.2 E80.57287
G0 F3600 X0.744 Y-4.5
G1 F1800 X0.834 Y-4.5 E80.57537
G0 F3600 X0.834 Y-4.8
G1 F1800 X0.744 Y-4.8 E80.57786
G0 F3600 X0.744 Y-5.1
G1 F1800 X0.834 Y-5.1 E80.58036
G0 F3600 X0.834 Y-5.4
G1 F1800 X0.744 Y-5.4 E80.58285
G0 F3600 X0.744 Y-5.7
G1 F1800 X0.834 Y-5.7 E80.58535
G0 F3600 X0.834 Y-6
G1 F1800 X0.744 Y-6 E80.58784
G0 F3600 X0.744 Y-6.3
G1 F1800 X0.834 Y-6.3 E80.59034
G1 F1500 E74.09034
;MESH:E.stl
G0 F3600 X-1.356 Y10.186
G0 X-1.356 Y11.765
G0 X-2.483 Y14.295
G0 X-2.483 Y15.874
G0 X-2.469 Y30.315
G0 X-9.135 Y30.357
G0 X-9.065 Y30.287
;TYPE:WALL-INNER
G1 F1500 E80.59034
G1 F1800 X-2.497 Y30.287 E80.95451
G1 X-2.497 Y15.86 E81.75444
G1 X1.822 Y15.86 E81.99391
G1 X1.822 Y30.287 E82.79384
G1 X9.536 Y30.287 E83.22156
G1 X9.536 Y14.284 E84.10887
G1 X14.53 Y14.284 E84.38577
G1 X14.53 Y37.777 E85.68838
G1 X-13.67 Y37.777 E87.25197
G1 X-13.67 Y14.734 E88.52963
G1 X-9.065 Y14.734 E88.78496
G1 X-9.065 Y30.287 E89.64732
G0 F3600 X-8.465 Y29.687
;TYPE:WALL-OUTER
G1 F1800 X-3.097 Y29.687 E89.94496
G1 X-3.097 Y15.26 E90.74489
G1 X2.422 Y15.26 E91.0509
G1 X2.422 Y29.687 E91.85083
G1 X8.936 Y29.687 E92.21201
G1 X8.936 Y13.684 E93.09932
G1 X15.13 Y13.684 E93.44276
G1 X15.13 Y38.377 E94.8119
G1 X-14.27 Y38.377 E96.44203
G1 X-14.27 Y14.134 E97.78622
G1 X-8.465 Y14.134 E98.10809
G1 X-8.465 Y29.687 E98.97045
G0 F3600 X-8.265 Y29.687
G0 X-8.265 Y30.347
G0 X-8.265 Y30.387
G0 X10.93 Y34.177
;TYPE:SKIN
G1 F1800 X-10.07 Y34.177 E100.13483
G1 X-10.07 Y33.887 E100.15091
G1 X10.93 Y33.887 E101.31529
G1 X10.93 Y34.177 E101.33137
G0 F3600 X11.53 Y34.777
G1 F1800 X-10.67 Y34.777 E102.56229
G1 X-10.67 Y33.287 E102.6449
G1 X11.53 Y33.287 E103.87582
G1 X11.53 Y34.777 E103.95843
G0 F3600 X12.13 Y35.377
G1 F1800 X-11.27 Y35.377 E105.25588
G1 X-11.27 Y32.687 E105.40503
G1 X11.936 Y32.687 E106.69173
G1 X11.936 Y16.684 E107.57904
G1 X12.13 Y16.684 E107.5898
G1 X12.13 Y35.377 E108.62626
G0 F3600 X11.336 Y32.087
G1 F1800 X11.336 Y16.084 E109.51357
G1 X12.73 Y16.084 E109.59087
G1 X12.73 Y35.977 E110.69387
G1 X-11.87 Y35.977 E112.05785
G1 X-11.87 Y16.534 E113.1359
G1 X-10.865 Y16.534 E113.19163
G1 X-10.865 Y32.087 E114.05399
G1 X-.697 Y32.087 E114.61777
G1 X-.697 Y17.66 E115.4177
G1 X0.022 Y17.66 E115.45756
G1 X0.022 Y32.087 E116.25749
G1 X11.336 Y32.087 E116.88482
G0 F3600 X10.736 Y31.487
G1 F1800 X10.736 Y15.484 E117.77213
G1 X13.33 Y15.484 E117.91596
G1 X13.33 Y36.577 E119.08549
G1 X-12.47 Y36.577 E120.51602
G1 X-12.47 Y15.934 E121.6606
G1 X-10.265 Y15.934 E121.78286
G1 X-10.265 Y31.487 E122.64522
G1 X-1.297 Y31.487 E123.14247
