;FLAVOR:Marlin
;TIME:1273
;Filament used: 2.03418m
;Layer height: 0.2
;MINX:-50.566
;MINY:-19.408
;MINZ:0.2
;MAXX:50.745
;MAXY:22.11
;MAXZ:3.6
;POSTPROCESSED
;Generated with Cura_SteamEngine 4.8.0
M140 S60
M105
M190 S60
M104 S195
M105
M109 S195
M82 ;absolute extrusion mode
G28 ;Home
G1 Z15.0 F6000 ;Move the platform down 15mm
;Prime the extruder
G92 E0
G1 F200 E3
G92 E0
G92 E0
G92 E0
G1 F1500 E-6.5
;LAYER_COUNT:18
;LAYER:0
M107
G0 F3600 X-0.057 Y-19.355 Z0.2
;TYPE:SKIRT
G1 F1500 E0
G1 F1800 X0.668 Y-19.401 E0.04028
G1 X0.993 Y-19.408 E0.0583
G1 X1.543 Y-19.391 E0.08881
G1 X4.822 Y-19.222 E0.27087
G1 X5.6 Y-19.169 E0.3141
G1 X6.868 Y-19.048 E0.38473
G1 X7.327 Y-18.999 E0.41032
G1 X10.043 Y-18.783 E0.56139
G1 X12.759 Y-18.644 E0.71218
G1 X15.469 Y-18.582 E0.86248
G1 X18.181 Y-18.597 E1.01285
G1 X20.897 Y-18.689 E1.16353
G1 X23.614 Y-18.857 E1.31447
G1 X24.681 Y-18.96 E1.37391
G1 X27.806 Y-19.215 E1.54775
G1 X30.172 Y-19.363 E1.6792
G1 X30.885 Y-19.398 E1.71878
G1 X31.792 Y-19.385 E1.76907
G1 X33.133 Y-19.324 E1.8435
G1 X33.854 Y-19.282 E1.88355
G1 X34.467 Y-19.216 E1.91773
G1 X35.834 Y-19.014 E1.99435
G1 X36.475 Y-18.91 E2.03036
G1 X36.822 Y-18.837 E2.05002
G1 X37.834 Y-18.576 E2.10797
G1 X38.408 Y-18.417 E2.14099
G1 X39.04 Y-18.233 E2.17749
G1 X39.473 Y-18.079 E2.20297
G1 X40.31 Y-17.723 E2.2534
G1 X40.704 Y-17.549 E2.27729
G1 X41.316 Y-17.269 E2.3146
G1 X41.736 Y-17.045 E2.34099
G1 X42.791 Y-16.396 E2.40967
G1 X42.901 Y-16.326 E2.4169
G1 X43.528 Y-15.911 E2.45859
G1 X44.163 Y-15.41 E2.50344
G1 X44.879 Y-14.774 E2.55654
G1 X45.329 Y-14.363 E2.59033
G1 X45.658 Y-14.024 E2.61652
G1 X46.441 Y-13.11 E2.68326
G1 X46.58 Y-12.942 E2.69535
G1 X47.001 Y-12.416 E2.7327
G1 X47.26 Y-12.051 E2.75752
G1 X47.753 Y-11.265 E2.80896
G1 X47.969 Y-10.907 E2.83215
G1 X48.363 Y-10.234 E2.87539
G1 X48.604 Y-9.759 E2.90492
G1 X48.795 Y-9.335 E2.9307
G1 X49.128 Y-8.567 E2.97712
G1 X49.406 Y-7.902 E3.01708
G1 X49.62 Y-7.285 E3.05329
G1 X49.655 Y-7.171 E3.0599
G1 X49.966 Y-6.093 E3.12211
G1 X50.132 Y-5.484 E3.15711
G1 X50.206 Y-5.155 E3.17581
G1 X50.378 Y-4.205 E3.22934
G1 X50.488 Y-3.536 E3.26693
G1 X50.595 Y-2.807 E3.30778
G1 X50.628 Y-2.493 E3.32529
G1 X50.672 Y-1.803 E3.36363
G1 X50.719 Y-.851 E3.41648
G1 X50.745 Y-.144 E3.4557
G1 X50.74 Y0.401 E3.48592
G1 X50.73 Y0.64 E3.49919
G1 X50.659 Y1.953 E3.57209
G1 X50.616 Y2.599 E3.60799
G1 X50.578 Y2.94 E3.62702
G1 X50.442 Y3.815 E3.67611
G1 X50.309 Y4.585 E3.71944
G1 X50.18 Y5.284 E3.75885
G1 X50.001 Y5.986 E3.79902
G1 X49.97 Y6.092 E3.80515
G1 X49.625 Y7.211 E3.87007
G1 X49.417 Y7.851 E3.90738
G1 X49.235 Y8.319 E3.93523
G1 X48.976 Y8.888 E3.96989
G1 X48.623 Y9.641 E4.016
G1 X48.354 Y10.195 E4.05015
G1 X48.135 Y10.588 E4.07509
G1 X47.602 Y11.423 E4.13002
G1 X47.324 Y11.842 E4.1579
G1 X46.909 Y12.449 E4.19867
G1 X46.427 Y13.045 E4.24117
G1 X46.352 Y13.13 E4.24746
G1 X45.683 Y13.858 E4.30228
G1 X45.172 Y14.401 E4.34362
G1 X44.517 Y14.984 E4.39224
G1 X43.729 Y15.61 E4.44804
G1 X43.172 Y16.041 E4.48709
G1 X42.783 Y16.306 E4.51319
G1 X41.812 Y16.884 E4.57584
G1 X41.44 Y17.095 E4.59956
G1 X40.849 Y17.422 E4.63701
G1 X40.432 Y17.622 E4.66265
G1 X39.447 Y18.023 E4.72162
G1 X39.328 Y18.069 E4.72869
G1 X38.581 Y18.345 E4.77285
G1 X38.049 Y18.505 E4.80365
G1 X37.573 Y18.622 E4.83083
G1 X36.871 Y18.787 E4.87081
G1 X36.262 Y18.923 E4.90541
G1 X35.796 Y18.998 E4.93158
G1 X34.585 Y19.117 E4.99905
G1 X31.657 Y19.346 E5.1619
G1 X30.932 Y19.392 E5.20218
G1 X30.356 Y19.394 E5.23411
G1 X30.021 Y19.381 E5.2527
G1 X26.778 Y19.213 E5.43276
G1 X26 Y19.16 E5.47599
G1 X24.732 Y19.039 E5.54662
G1 X24.273 Y18.99 E5.57221
G1 X21.557 Y18.774 E5.72328
G1 X18.841 Y18.635 E5.87407
G1 X16.131 Y18.573 E6.02437
G1 X13.419 Y18.588 E6.17475
G1 X10.703 Y18.68 E6.32542
G1 X7.986 Y18.848 E6.47636
G1 X6.919 Y18.951 E6.5358
G1 X3.794 Y19.206 E6.70964
G1 X1.428 Y19.354 E6.84109
G1 X0.715 Y19.389 E6.88067
G1 X-.221 Y19.375 E6.93257
G1 X-1.074 Y19.337 E6.97992
G1 X-3.807 Y19.254 E7.13152
G1 X-6.519 Y19.248 E7.28189
G1 X-9.268 Y19.321 E7.43437
G1 X-11.94 Y19.467 E7.58274
G1 X-14.686 Y19.695 E7.73552
G1 X-17.378 Y19.994 E7.8857
G1 X-20.069 Y20.372 E8.03638
G1 X-22.741 Y20.824 E8.18663
G1 X-26.147 Y21.514 E8.37932
G1 X-26.721 Y21.641 E8.41192
G1 X-27.179 Y21.714 E8.43763
G1 X-28.387 Y21.833 E8.50494
G1 X-31.316 Y22.062 E8.66784
G1 X-32.045 Y22.108 E8.70834
G1 X-32.617 Y22.11 E8.74005
G1 X-32.952 Y22.097 E8.75864
G1 X-36.203 Y21.928 E8.93914
G1 X-36.894 Y21.881 E8.97754
G1 X-37.455 Y21.804 E9.00894
G1 X-38.02 Y21.689 E9.04091
G1 X-39.887 Y21.281 E9.14687
G1 X-40.594 Y21.116 E9.18713
G1 X-41.127 Y20.95 E9.21808
G1 X-41.423 Y20.821 E9.23598
G1 X-42.149 Y20.465 E9.28082
G1 X-43.216 Y19.921 E9.34722
G1 X-43.769 Y19.63 E9.38187
G1 X-44.243 Y19.336 E9.4128
G1 X-44.511 Y19.123 E9.43178
G1 X-45.221 Y18.505 E9.48397
G1 X-45.883 Y17.911 E9.53329
G1 X-46.453 Y17.385 E9.57629
G1 X-46.835 Y16.978 E9.60724
G1 X-47.027 Y16.721 E9.62503
G1 X-47.449 Y16.103 E9.66652
G1 X-48.124 Y15.086 E9.7342
G1 X-48.506 Y14.492 E9.77336
G1 X-48.813 Y13.912 E9.80974
G1 X-49.025 Y13.4 E9.84047
G1 X-49.684 Y11.687 E9.94224
G1 X-49.902 Y11.096 E9.97716
G1 X-50.054 Y10.574 E10.00731
G1 X-50.137 Y10.003 E10.0393
G1 X-50.225 Y8.755 E10.10867
G1 X-50.46 Y5.981 E10.26303
G1 X-50.517 Y5.437 E10.29336
G1 X-50.555 Y4.922 E10.32199
G1 X-50.566 Y4.493 E10.34579
G1 X-50.566 Y-7.317 E11.00061
G1 X-50.556 Y-8.012 E11.03915
G1 X-50.508 Y-8.568 E11.07009
G1 X-50.381 Y-9.112 E11.10107
G1 X-50.178 Y-9.632 E11.13202
G1 X-49.902 Y-10.117 E11.16296
G1 X-49.56 Y-10.559 E11.19395
G1 X-49.159 Y-10.947 E11.22488
G1 X-48.74 Y-11.252 E11.25362
G1 X-47.945 Y-11.754 E11.30575
G1 X-45.42 Y-13.29 E11.46962
G1 X-44.746 Y-13.686 E11.51297
G1 X-44.358 Y-13.885 E11.53715
G1 X-43.737 Y-14.161 E11.57483
G1 X-41.519 Y-15.114 E11.70868
G1 X-40.899 Y-15.371 E11.74589
G1 X-40.414 Y-15.535 E11.77428
G1 X-39.763 Y-15.695 E11.81145
G1 X-37.404 Y-16.213 E11.94536
G1 X-36.813 Y-16.335 E11.97882
G1 X-36.346 Y-16.403 E12.00499
G1 X-35.166 Y-16.499 E12.07063
G1 X-32.8 Y-16.647 E12.20208
G1 X-32.087 Y-16.682 E12.24166
G1 X-31.151 Y-16.668 E12.29356
G1 X-30.298 Y-16.63 E12.3409
G1 X-27.565 Y-16.547 E12.49251
G1 X-24.853 Y-16.541 E12.64288
G1 X-22.104 Y-16.614 E12.79536
G1 X-19.432 Y-16.76 E12.94373
G1 X-16.686 Y-16.988 E13.09651
G1 X-13.994 Y-17.287 E13.24669
G1 X-11.303 Y-17.665 E13.39736
G1 X-8.631 Y-18.117 E13.54762
G1 X-5.223 Y-18.807 E13.74042
G1 X-4.651 Y-18.934 E13.77291
G1 X-4.193 Y-19.007 E13.79862
G1 X-2.985 Y-19.126 E13.86593
G1 X-0.057 Y-19.355 E14.02877
G0 F3600 X-0.019 Y-18.756
G1 F1800 X0.706 Y-18.802 E14.06905
G1 X0.981 Y-18.808 E14.0843
G1 X1.518 Y-18.792 E14.11409
G1 X4.783 Y-18.623 E14.29536
G1 X5.449 Y-18.579 E14.33237
G1 X6.804 Y-18.451 E14.40784
G1 X7.253 Y-18.403 E14.43287
G1 X10 Y-18.185 E14.58567
G1 X12.749 Y-18.044 E14.73829
G1 X15.459 Y-17.982 E14.88859
G1 X18.204 Y-17.997 E15.04079
G1 X20.919 Y-18.089 E15.19142
G1 X23.652 Y-18.258 E15.34324
G1 X24.73 Y-18.362 E15.40329
G1 X27.844 Y-18.617 E15.57653
G1 X30.201 Y-18.764 E15.70747
G1 X30.914 Y-18.799 E15.74705
G1 X31.772 Y-18.785 E15.79463
G1 X33.055 Y-18.728 E15.86584
G1 X33.819 Y-18.683 E15.90827
G1 X34.38 Y-18.623 E15.93956
G1 X35.738 Y-18.421 E16.01568
G1 X36.379 Y-18.317 E16.05169
G1 X36.673 Y-18.256 E16.06834
G1 X37.674 Y-17.997 E16.12567
G1 X38.24 Y-17.84 E16.15823
G1 X38.872 Y-17.656 E16.19473
G1 X39.238 Y-17.526 E16.21627
G1 X40.069 Y-17.174 E16.26631
G1 X40.454 Y-17.004 E16.28964
G1 X41.066 Y-16.724 E16.32696
G1 X41.422 Y-16.534 E16.34933
G1 X42.477 Y-15.885 E16.41801
G1 X43.196 Y-15.411 E16.46576
G1 X43.776 Y-14.951 E16.5068
G1 X44.474 Y-14.331 E16.55857
G1 X44.924 Y-13.92 E16.59236
G1 X45.202 Y-13.633 E16.61452
G1 X45.979 Y-12.728 E16.68065
G1 X46.111 Y-12.567 E16.6922
G1 X46.532 Y-12.041 E16.72955
G1 X46.752 Y-11.732 E16.75058
G1 X47.239 Y-10.954 E16.80148
G1 X47.451 Y-10.604 E16.82416
G1 X47.845 Y-9.931 E16.8674
G1 X48.093 Y-9.435 E16.89815
G1 X48.245 Y-9.096 E16.91875
G1 X48.575 Y-8.336 E16.96469
G1 X48.853 Y-7.671 E17.00466
G1 X49.049 Y-7.101 E17.03808
G1 X49.387 Y-5.935 E17.10539
G1 X49.553 Y-5.326 E17.14039
G1 X49.616 Y-5.048 E17.15619
G1 X49.786 Y-4.107 E17.20921
G1 X49.894 Y-3.449 E17.24619
G1 X50.001 Y-2.72 E17.28704
G1 X50.029 Y-2.454 E17.30187
G1 X50.073 Y-1.773 E17.33971
G1 X50.12 Y-.829 E17.39211
G1 X50.146 Y-.122 E17.43134
G1 X50.132 Y0.578 E17.47016
G1 X50.061 Y1.913 E17.54429
G1 X50.018 Y2.559 E17.58018
G1 X49.986 Y2.848 E17.59631
G1 X49.85 Y3.714 E17.64491
G1 X49.719 Y4.476 E17.68778
G1 X49.59 Y5.175 E17.72719
G1 X49.423 Y5.825 E17.7644
G1 X49.397 Y5.915 E17.7696
G1 X49.054 Y7.026 E17.83407
G1 X48.846 Y7.666 E17.87138
G1 X48.688 Y8.071 E17.89549
G1 X48.433 Y8.634 E17.92976
G1 X48.084 Y9.379 E17.97537
G1 X47.815 Y9.933 E18.00952
G1 X47.629 Y10.265 E18.03062
G1 X47.102 Y11.092 E18.08499
G1 X46.829 Y11.503 E18.11235
G1 X46.414 Y12.11 E18.15312
G1 X45.973 Y12.652 E18.19186
G1 X45.246 Y13.447 E18.2516
G1 X44.735 Y13.99 E18.29294
G1 X44.132 Y14.523 E18.33756
G1 X44.068 Y14.576 E18.34217
G1 X43.326 Y15.163 E18.39463
G1 X42.805 Y15.566 E18.43115
G1 X42.476 Y15.791 E18.45325
G1 X41.514 Y16.363 E18.5153
G1 X41.15 Y16.57 E18.53852
G1 X40.559 Y16.897 E18.57597
G1 X40.205 Y17.066 E18.59772
G1 X39.22 Y17.467 E18.65669
G1 X39.12 Y17.506 E18.66264
G1 X38.373 Y17.782 E18.7068
G1 X37.472 Y18.03 E18.75861
G1 X36.74 Y18.202 E18.80031
G1 X36.131 Y18.338 E18.8349
G1 X35.737 Y18.401 E18.85703
G1 X34.538 Y18.519 E18.92383
G1 X31.619 Y18.747 E19.08617
G1 X30.894 Y18.793 E19.12645
G1 X30.368 Y18.794 E19.15562
G1 X30.052 Y18.782 E19.17315
G1 X26.817 Y18.614 E19.35276
G1 X26.151 Y18.57 E19.38977
G1 X24.796 Y18.442 E19.46523
G1 X24.347 Y18.394 E19.49027
G1 X21.6 Y18.176 E19.64306
G1 X18.851 Y18.035 E19.79568
G1 X16.141 Y17.973 E19.94598
G1 X13.396 Y17.988 E20.09819
G1 X10.681 Y18.08 E20.24881
G1 X7.948 Y18.249 E20.40064
G1 X6.87 Y18.353 E20.46069
G1 X3.756 Y18.608 E20.63392
G1 X1.399 Y18.755 E20.76487
G1 X0.686 Y18.79 E20.80445
G1 X-.202 Y18.775 E20.85369
G1 X-1.07 Y18.737 E20.90186
G1 X-3.786 Y18.654 E21.05253
G1 X-6.533 Y18.648 E21.20484
G1 X-9.281 Y18.721 E21.35726
G1 X-11.99 Y18.869 E21.50769
G1 X-14.732 Y19.096 E21.66025
G1 X-17.454 Y19.399 E21.8121
G1 X-20.148 Y19.777 E21.96294
G1 X-22.866 Y20.238 E22.1158
G1 X-26.291 Y20.931 E22.30955
G1 X-26.851 Y21.055 E22.34135
G1 X-27.238 Y21.117 E22.36308
G1 X-28.434 Y21.235 E22.42972
G1 X-31.354 Y21.463 E22.59212
G1 X-32.083 Y21.509 E22.63262
G1 X-32.605 Y21.51 E22.66156
G1 X-32.921 Y21.498 E22.67909
G1 X-36.162 Y21.329 E22.85904
G1 X-36.853 Y21.282 E22.89744
G1 X-37.428 Y21.198 E22.92966
G1 X-37.892 Y21.102 E22.95593
G1 X-39.751 Y20.697 E23.06143
G1 X-40.458 Y20.532 E23.10168
G1 X-41.159 Y20.282 E23.14295
G1 X-41.877 Y19.93 E23.18729
G1 X-42.937 Y19.39 E23.25325
G1 X-43.49 Y19.099 E23.28789
G1 X-44.118 Y18.67 E23.33006
G1 X-44.82 Y18.059 E23.38167
G1 X-45.476 Y17.47 E23.43055
G1 X-46.046 Y16.944 E23.47355
G1 X-46.532 Y16.382 E23.51475
G1 X-46.949 Y15.771 E23.55577
G1 X-47.62 Y14.761 E23.623
G1 X-48.002 Y14.167 E23.66216
G1 X-48.262 Y13.676 E23.69296
G1 X-48.468 Y13.176 E23.72295
G1 X-49.121 Y11.479 E23.82377
G1 X-49.339 Y10.888 E23.85869
G1 X-49.468 Y10.444 E23.88433
G1 X-49.539 Y9.96 E23.91145
G1 X-49.631 Y8.657 E23.98388
G1 X-49.864 Y5.912 E24.13663
G1 X-49.92 Y5.385 E24.16601
G1 X-49.965 Y4.586 E24.21038
G1 X-49.966 Y-7.308 E24.86987
G1 X-49.956 Y-8.003 E24.90841
G1 X-49.908 Y-8.515 E24.93692
G1 X-49.782 Y-9.012 E24.96535
G1 X-49.581 Y-9.485 E24.99384
G1 X-49.308 Y-9.92 E25.02232
G1 X-48.971 Y-10.307 E25.05077
G1 X-48.42 Y-10.745 E25.0898
G1 X-47.634 Y-11.242 E25.14136
G1 X-45.116 Y-12.772 E25.30473
G1 X-44.442 Y-13.168 E25.34807
G1 X-44.114 Y-13.337 E25.36853
G1 X-43.5 Y-13.61 E25.40579
G1 X-41.29 Y-14.559 E25.53915
G1 X-40.67 Y-14.816 E25.57636
G1 X-40.061 Y-15.009 E25.61178
G1 X-39.599 Y-15.117 E25.63809
G1 X-37.283 Y-15.626 E25.76957
G1 X-36.692 Y-15.748 E25.80303
G1 X-36.296 Y-15.805 E25.82521
G1 X-35.128 Y-15.901 E25.89019
G1 X-32.771 Y-16.048 E26.02113
G1 X-32.058 Y-16.083 E26.06072
G1 X-31.17 Y-16.068 E26.10996
G1 X-30.302 Y-16.03 E26.15813
G1 X-27.586 Y-15.947 E26.3088
G1 X-24.839 Y-15.941 E26.46111
G1 X-22.091 Y-16.014 E26.61353
G1 X-19.382 Y-16.162 E26.76396
G1 X-16.64 Y-16.389 E26.91651
G1 X-13.918 Y-16.692 E27.06837
G1 X-11.224 Y-17.07 E27.21921
G1 X-8.506 Y-17.531 E27.37206
G1 X-5.081 Y-18.224 E27.56582
G1 X-4.521 Y-18.348 E27.59762
G1 X-4.134 Y-18.41 E27.61935
G1 X-2.938 Y-18.528 E27.68599
G1 X-0.019 Y-18.756 E27.84833
G1 F1500 E21.34833
;MESH:G.stl(1)
G0 F3600 X0.792 Y-16.175
G0 X0.916 Y-14.598
G0 X-4.882 Y-7.419
G0 X-5.793 Y-6.025
G0 X-6.423 Y-4.328
G0 X-6.79 Y-2.358
G0 X-6.909 Y-.111
G0 X-6.788 Y2.257
G0 X-6.42 Y4.311
G0 X-5.783 Y6.055
G0 X-4.855 Y7.464
G0 X-3.679 Y8.531
G0 X-2.304 Y9.286
G0 X-.748 Y9.733
G0 X0.964 Y9.878
G0 X2.631 Y9.754
G0 X4.249 Y9.377
G0 X8.103 Y7.54
G0 X8.14 Y3.156
G0 X8.07 Y3.226
;TYPE:WALL-INNER
G1 F1500 E27.84833
G1 F1800 X1.869 Y3.226 E28.19215
G1 X1.869 Y-1.215 E28.43839
G1 X14.394 Y-1.215 E29.13286
G1 X14.394 Y10.168 E29.76401
G1 X11.004 Y12.228 E29.98396
G1 X7.742 Y13.631 E30.18084
G1 X4.436 Y14.358 E30.36853
G1 X0.513 Y14.603 E30.58647
G1 X-1.944 Y14.493 E30.72284
G1 X-4.142 Y14.167 E30.84604
G1 X-6.073 Y13.631 E30.95716
G1 X-7.765 Y12.885 E31.05969
G1 X-9.232 Y11.942 E31.15639
G1 X-10.524 Y10.792 E31.25229
G1 X-11.648 Y9.429 E31.35025
G1 X-12.609 Y7.839 E31.45326
G1 X-13.368 Y6.088 E31.55907
G1 X-13.916 Y4.196 E31.66829
G1 X-14.247 Y2.167 E31.78228
G1 X-14.356 Y-0.008 E31.90303
G1 X-14.236 Y-2.286 E32.02951
G1 X-13.875 Y-4.389 E32.14782
G1 X-13.278 Y-6.326 E32.2602
G1 X-12.443 Y-8.114 E32.36962
G1 X-11.393 Y-9.699 E32.47504
G1 X-10.118 Y-11.087 E32.57954
G1 X-8.63 Y-12.268 E32.68487
G1 X-6.912 Y-13.25 E32.79459
G1 X-5.377 Y-13.84 E32.88577
G1 X-3.579 Y-14.265 E32.98821
G1 X0.916 Y-14.617 E33.23821
G1 X5.137 Y-14.399 E33.47256
G1 X8.041 Y-13.765 E33.63737
G1 X10.091 Y-12.721 E33.76493
G1 X11.751 Y-11.234 E33.8885
G1 X13.06 Y-9.262 E34.01974
G1 X13.523 Y-8.058 E34.09126
G1 X13.653 Y-7.721 E34.11129
G1 X13.297 Y-7.658 E34.1236
G1 X6.448 Y-6.436 E34.50935
G1 X5.936 Y-7.467 E34.57318
G1 X4.584 Y-8.785 E34.67787
G1 X2.812 Y-9.582 E34.7856
G1 X0.716 Y-9.835 E34.90266
G1 X-.919 Y-9.685 E34.9937
G1 X-2.399 Y-9.23 E35.07955
G1 X-3.716 Y-8.464 E35.16402
G1 X-4.852 Y-7.394 E35.25055
G1 X-5.758 Y-6.007 E35.34241
G1 X-6.385 Y-4.318 E35.4423
G1 X-6.751 Y-2.354 E35.55308
G1 X-6.869 Y-.111 E35.67761
G1 X-6.749 Y2.253 E35.80886
G1 X-6.382 Y4.301 E35.92422
G1 X-5.748 Y6.038 E36.02675
G1 X-4.825 Y7.438 E36.11973
G1 X-3.656 Y8.499 E36.20726
G1 X-2.289 Y9.25 E36.29374
G1 X-.741 Y9.694 E36.38303
G1 X0.964 Y9.838 E36.4779
G1 X2.625 Y9.715 E36.57025
G1 X4.236 Y9.34 E36.66197
G1 X8.07 Y7.519 E36.89731
G1 X8.07 Y3.226 E37.13534
G0 F3600 X7.47 Y3.826
;TYPE:WALL-OUTER
G1 F1800 X1.269 Y3.826 E37.47917
G1 X1.269 Y-1.815 E37.79194
G1 X14.994 Y-1.815 E38.55295
G1 X14.994 Y10.506 E39.2361
G1 X11.284 Y12.761 E39.47683
G1 X7.925 Y14.205 E39.67955
G1 X4.519 Y14.954 E39.87292
G1 X0.523 Y15.204 E40.09492
G1 X-2 Y15.091 E40.23495
G1 X-4.269 Y14.754 E40.36214
G1 X-6.277 Y14.197 E40.47768
G1 X-8.05 Y13.415 E40.58512
G1 X-9.595 Y12.422 E40.68695
G1 X-10.959 Y11.208 E40.7882
G1 X-12.139 Y9.777 E40.89104
G1 X-13.141 Y8.119 E40.99845
G1 X-13.934 Y6.291 E41.10894
G1 X-14.502 Y4.327 E41.2223
G1 X-14.844 Y2.232 E41.34
G1 X-14.957 Y-0.008 E41.46435
G1 X-14.833 Y-2.35 E41.59439
G1 X-14.459 Y-4.53 E41.71703
G1 X-13.838 Y-6.547 E41.83405
G1 X-12.97 Y-8.404 E41.9477
G1 X-11.865 Y-10.073 E42.05869
G1 X-10.529 Y-11.527 E42.16817
