;FLAVOR:Marlin
;TIME:1195
;Filament used: 2.04479m
;Layer height: 0.2
;MINX:-47.456
;MINY:-18.319
;MINZ:0.2
;MAXX:47.456
;MAXY:18.32
;MAXZ:3.6
;POSTPROCESSED
;Generated with Cura_SteamEngine 4.8.0
M140 S60
M105
M190 S60
M104 S195
M105
M109 S195
M82 ;absolute extrusion mode
G28 ;Home
G1 Z15.0 F6000 ;Move the platform down 15mm
;Prime the extruder
G92 E0
G1 F200 E3
G92 E0
G92 E0
G92 E0
G1 F1500 E-6.5
;LAYER_COUNT:18
;LAYER:0
M107
G0 F3600 X1.354 Y-18.156 Z0.2
;TYPE:SKIRT
G1 F1500 E0
G1 F1800 X4.118 Y-18.234 E0.15332
G1 X4.701 Y-18.263 E0.18568
G1 X5.275 Y-18.28 E0.21752
G1 X12.962 Y-18.281 E0.64374
G1 X15.431 Y-18.317 E0.78065
G1 X15.738 Y-18.319 E0.79767
G1 X24.098 Y-18.319 E1.26121
G1 X24.792 Y-18.309 E1.29969
G1 X25.691 Y-18.272 E1.34958
G1 X28.483 Y-18.194 E1.50445
G1 X31.197 Y-18.194 E1.65493
G1 X33.961 Y-18.272 E1.80825
G1 X34.544 Y-18.301 E1.84061
G1 X35.118 Y-18.318 E1.87245
G1 X43.496 Y-18.319 E2.33698
G1 X44.194 Y-18.309 E2.37569
G1 X44.706 Y-18.261 E2.4042
G1 X45.203 Y-18.135 E2.43263
G1 X45.675 Y-17.934 E2.46108
G1 X46.111 Y-17.661 E2.4896
G1 X46.498 Y-17.325 E2.51802
G1 X46.829 Y-16.932 E2.54651
G1 X47.095 Y-16.493 E2.57497
G1 X47.289 Y-16.017 E2.60347
G1 X47.408 Y-15.518 E2.63191
G1 X47.455 Y-14.783 E2.67275
G1 X47.456 Y14.288 E4.28464
G1 X47.446 Y15.017 E4.32506
G1 X47.399 Y15.529 E4.35357
G1 X47.273 Y16.026 E4.382
G1 X47.072 Y16.499 E4.41049
G1 X46.799 Y16.934 E4.43897
G1 X46.463 Y17.322 E4.46743
G1 X46.071 Y17.653 E4.49587
G1 X45.631 Y17.919 E4.52438
G1 X45.156 Y18.114 E4.55285
G1 X44.657 Y18.232 E4.58128
G1 X43.919 Y18.28 E4.62229
G1 X35.545 Y18.281 E5.0866
G1 X34.852 Y18.271 E5.12503
G1 X33.952 Y18.234 E5.17497
G1 X31.16 Y18.156 E5.32984
G1 X28.447 Y18.156 E5.48027
G1 X25.682 Y18.234 E5.63364
G1 X25.099 Y18.263 E5.666
G1 X24.525 Y18.28 E5.69784
G1 X16.838 Y18.281 E6.12406
G1 X14.369 Y18.317 E6.26097
G1 X14.062 Y18.319 E6.278
G1 X5.702 Y18.319 E6.74153
G1 X5.009 Y18.309 E6.77996
G1 X4.109 Y18.272 E6.8299
G1 X1.317 Y18.194 E6.98477
G1 X-1.396 Y18.194 E7.1352
G1 X-4.161 Y18.272 E7.28857
G1 X-4.744 Y18.301 E7.32093
G1 X-5.318 Y18.318 E7.35277
G1 X-14.349 Y18.32 E7.85351
G1 X-15.408 Y18.316 E7.91223
G1 X-15.828 Y18.319 E7.93552
G1 X-24.097 Y18.319 E8.39401
G1 X-24.791 Y18.309 E8.43249
G1 X-25.69 Y18.272 E8.48238
G1 X-28.482 Y18.194 E8.63725
G1 X-31.196 Y18.194 E8.78773
G1 X-33.953 Y18.272 E8.94066
G1 X-34.536 Y18.301 E8.97302
G1 X-35.12 Y18.318 E9.00542
G1 X-43.496 Y18.319 E9.46984
G1 X-44.194 Y18.309 E9.50854
G1 X-44.706 Y18.261 E9.53706
G1 X-45.203 Y18.135 E9.56549
G1 X-45.675 Y17.934 E9.59393
G1 X-46.111 Y17.661 E9.62245
G1 X-46.498 Y17.325 E9.65087
G1 X-46.829 Y16.932 E9.67936
G1 X-47.095 Y16.493 E9.70782
G1 X-47.289 Y16.017 E9.73632
G1 X-47.408 Y15.518 E9.76476
G1 X-47.455 Y14.766 E9.80654
G1 X-47.456 Y-14.341 E11.42043
G1 X-47.447 Y-15.016 E11.45786
G1 X-47.4 Y-15.527 E11.48631
G1 X-47.274 Y-16.025 E11.51479
G1 X-47.073 Y-16.497 E11.54324
G1 X-46.801 Y-16.933 E11.57173
G1 X-46.465 Y-17.321 E11.60019
G1 X-46.073 Y-17.652 E11.62864
G1 X-45.634 Y-17.918 E11.6571
G1 X-45.159 Y-18.113 E11.68557
G1 X-44.659 Y-18.232 E11.71406
G1 X-43.918 Y-18.28 E11.75524
G1 X-35.545 Y-18.281 E12.21949
G1 X-34.852 Y-18.271 E12.25792
G1 X-33.952 Y-18.234 E12.30786
G1 X-31.16 Y-18.156 E12.46273
G1 X-28.447 Y-18.156 E12.61316
G1 X-25.688 Y-18.234 E12.7662
G1 X-25.106 Y-18.263 E12.79851
G1 X-24.522 Y-18.28 E12.8309
G1 X-15.452 Y-18.282 E13.3338
G1 X-14.393 Y-18.278 E13.39252
G1 X-13.973 Y-18.281 E13.41581
G1 X-5.745 Y-18.281 E13.87202
G1 X-5.051 Y-18.271 E13.91051
G1 X-4.152 Y-18.234 E13.9604
G1 X-1.36 Y-18.156 E14.11526
G1 X1.354 Y-18.156 E14.26575
G1 F1500 E7.76575
;MESH:H.stl
G0 F3600 X4.378 Y-14.067
G0 X5.957 Y-14.067
G0 X6.013 Y3.551
G0 X5.943 Y3.621
;TYPE:WALL-INNER
G1 F1500 E14.26575
G1 F1800 X-5.986 Y3.621 E14.92717
G1 X-5.986 Y14.119 E15.50925
G1 X-13.456 Y14.119 E15.92343
G1 X-13.456 Y-14.081 E17.48703
G1 X-5.986 Y-14.081 E17.90122
G1 X-5.986 Y-1.946 E18.57406
G1 X5.943 Y-1.946 E19.23548
G1 X5.943 Y-14.081 E19.90833
G1 X13.454 Y-14.081 E20.32479
G1 X13.454 Y14.119 E21.88838
G1 X5.943 Y14.119 E22.30484
G1 X5.943 Y3.621 E22.88692
G0 F3600 X5.343 Y4.221
;TYPE:WALL-OUTER
G1 F1800 X-5.386 Y4.221 E23.48181
G1 X-5.386 Y14.719 E24.06389
G1 X-14.056 Y14.719 E24.54461
G1 X-14.056 Y-14.681 E26.17474
G1 X-5.386 Y-14.681 E26.65546
G1 X-5.386 Y-2.546 E27.32831
G1 X5.343 Y-2.546 E27.92319
G1 X5.343 Y-14.681 E28.59604
G1 X14.054 Y-14.681 E29.07904
G1 X14.054 Y14.719 E30.70917
G1 X5.343 Y14.719 E31.19216
G1 X5.343 Y4.221 E31.77424
G0 F3600 X5.143 Y4.221
G0 X5.143 Y3.561
G0 X5.143 Y3.521
G0 X-6.014 Y3.593
G0 X-9.586 Y10.519
;TYPE:SKIN
G1 F1800 X-9.856 Y10.519 E31.78921
G1 X-9.856 Y-10.481 E32.95359
G1 X-9.586 Y-10.481 E32.96856
G1 X-9.586 Y10.519 E34.13294
G0 F3600 X-8.986 Y11.119
G1 F1800 X-10.456 Y11.119 E34.21445
G1 X-10.456 Y-11.081 E35.44536
G1 X-8.986 Y-11.081 E35.52687
G1 X-8.986 Y11.119 E36.75778
G0 F3600 X-8.386 Y11.719
G1 F1800 X-11.056 Y11.719 E36.90583
G1 X-11.056 Y-11.681 E38.20328
G1 X-8.386 Y-11.681 E38.35132
G1 X-8.386 Y0.454 E39.02417
G1 X8.343 Y0.454 E39.95173
G1 X8.343 Y-11.681 E40.62458
G1 X11.054 Y-11.681 E40.77489
G1 X11.054 Y11.719 E42.07234
G1 X8.343 Y11.719 E42.22266
G1 X8.343 Y1.221 E42.80474
G1 X-8.386 Y1.221 E43.73231
G1 X-8.386 Y11.719 E44.31438
G0 F3600 X-7.786 Y12.319
G1 F1800 X-11.656 Y12.319 E44.52896
G1 X-11.656 Y-12.281 E45.89295
G1 X-7.786 Y-12.281 E46.10753
G1 X-7.786 Y-.146 E46.78037
G1 X7.743 Y-.146 E47.6414
G1 X7.743 Y-12.281 E48.31425
G1 X11.654 Y-12.281 E48.5311
G1 X11.654 Y12.319 E49.89509
G1 X7.743 Y12.319 E50.11194
G1 X7.743 Y1.821 E50.69402
G1 X-7.786 Y1.821 E51.55505
G1 X-7.786 Y12.319 E52.13713
G0 F3600 X-7.186 Y12.919
G1 F1800 X-12.256 Y12.919 E52.41824
G1 X-12.256 Y-12.881 E53.84877
G1 X-7.186 Y-12.881 E54.12988
G1 X-7.186 Y-.746 E54.80272
G1 X7.143 Y-.746 E55.59722
G1 X7.143 Y-12.881 E56.27006
G1 X12.254 Y-12.881 E56.55345
G1 X12.254 Y12.919 E57.98398
G1 X7.143 Y12.919 E58.26736
G1 X7.143 Y2.421 E58.84944
G1 X-7.186 Y2.421 E59.64394
G1 X-7.186 Y12.919 E60.22602
G0 F3600 X-6.586 Y13.519
G1 F1800 X-12.856 Y13.519 E60.57367
G1 X-12.856 Y-13.481 E62.07073
G1 X-6.586 Y-13.481 E62.41838
G1 X-6.586 Y-1.346 E63.09122
G1 X6.543 Y-1.346 E63.81918
G1 X6.543 Y-13.481 E64.49202
G1 X12.854 Y-13.481 E64.84195
G1 X12.854 Y13.519 E66.33901
G1 X6.543 Y13.519 E66.68893
G1 X6.543 Y3.021 E67.27101
G1 X-6.586 Y3.021 E67.99897
G1 X-6.586 Y13.519 E68.58105
G0 F3600 X-6.014 Y3.593
G0 X5.971 Y3.593
G0 X8.943 Y11.119
G1 F1800 X8.943 Y-11.081 E69.81196
G1 X10.454 Y-11.081 E69.89574
G1 X10.454 Y11.119 E71.12666
G1 X8.943 Y11.119 E71.21044
G0 F3600 X9.543 Y10.519
G1 F1800 X9.543 Y-10.481 E72.37482
G1 X9.854 Y-10.481 E72.39206
G1 X9.854 Y10.519 E73.55644
G1 X9.543 Y10.519 E73.57368
G0 F3600 X8.643 Y0.9
;TYPE:SKIN
G1 F1800 X-8.686 Y0.899 E74.0541
G1 F1500 E67.5541
;MESH:H.stl(1)
G0 F3600 X-13.436 Y3.551
G0 X-16.365 Y3.551
G0 X-23.786 Y3.551
G0 X-23.856 Y3.621
;TYPE:WALL-INNER
G1 F1500 E74.0541
G1 F1800 X-35.786 Y3.621 E74.71558
G1 X-35.786 Y14.119 E75.29766
G1 X-43.256 Y14.119 E75.71184
G1 X-43.256 Y-14.081 E77.27544
G1 X-35.786 Y-14.081 E77.68963
G1 X-35.786 Y-1.946 E78.36247
G1 X-23.856 Y-1.946 E79.02395
G1 X-23.856 Y-14.081 E79.69679
G1 X-16.345 Y-14.081 E80.11325
G1 X-16.345 Y14.119 E81.67685
G1 X-23.856 Y14.119 E82.09331
G1 X-23.856 Y3.621 E82.67539
G0 F3600 X-24.456 Y4.221
;TYPE:WALL-OUTER
G1 F1800 X-35.186 Y4.221 E83.27033
G1 X-35.186 Y14.719 E83.85241
G1 X-43.856 Y14.719 E84.33313
G1 X-43.856 Y-14.681 E85.96326
G1 X-35.186 Y-14.681 E86.44398
G1 X-35.186 Y-2.546 E87.11683
G1 X-24.456 Y-2.546 E87.71177
G1 X-24.456 Y-14.681 E88.38462
G1 X-15.745 Y-14.681 E88.86761
G1 X-15.745 Y14.719 E90.49774
G1 X-24.456 Y14.719 E90.98074
G1 X-24.456 Y4.221 E91.56282
G0 F3600 X-24.656 Y4.221
G0 X-24.656 Y3.561
G0 X-24.656 Y3.521
G0 X-35.814 Y3.593
G0 X-39.386 Y10.519
;TYPE:SKIN
G1 F1800 X-39.656 Y10.519 E91.57779
G1 X-39.656 Y-10.481 E92.74217
G1 X-39.386 Y-10.481 E92.75714
G1 X-39.386 Y10.519 E93.92152
G0 F3600 X-38.786 Y11.119
G1 F1800 X-40.256 Y11.119 E94.00302
G1 X-40.256 Y-11.081 E95.23394
G1 X-38.786 Y-11.081 E95.31545
G1 X-38.786 Y11.119 E96.54636
G0 F3600 X-38.186 Y11.719
G1 F1800 X-40.856 Y11.719 E96.6944
G1 X-40.856 Y-11.681 E97.99185
G1 X-38.186 Y-11.681 E98.1399
G1 X-38.186 Y0.454 E98.81274
G1 X-21.456 Y0.454 E99.74036
G1 X-21.456 Y-11.681 E100.41321
G1 X-18.745 Y-11.681 E100.56353
G1 X-18.745 Y11.719 E101.86098
G1 X-21.456 Y11.719 E102.01129
G1 X-21.456 Y1.221 E102.59337
G1 X-38.186 Y1.221 E103.52099
G1 X-38.186 Y11.719 E104.10307
G0 F3600 X-37.586 Y12.319
G1 F1800 X-41.456 Y12.319 E104.31765
G1 X-41.456 Y-12.281 E105.68164
G1 X-37.586 Y-12.281 E105.89622
G1 X-37.586 Y-.146 E106.56906
G1 X-22.056 Y-.146 E107.43015
G1 X-22.056 Y-12.281 E108.10299
G1 X-18.145 Y-12.281 E108.31984
G1 X-18.145 Y12.319 E109.68383
G1 X-22.056 Y12.319 E109.90068
G1 X-22.056 Y1.821 E110.48276
G1 X-37.586 Y1.821 E111.34385
G1 X-37.586 Y12.319 E111.92593
G0 F3600 X-36.986 Y12.919
G1 F1800 X-42.056 Y12.919 E112.20704
G1 X-42.056 Y-12.881 E113.63756
G1 X-36.986 Y-12.881 E113.91868
G1 X-36.986 Y-.746 E114.59152
G1 X-22.656 Y-.746 E115.38607
G1 X-22.656 Y-12.881 E116.05892
G1 X-17.545 Y-12.881 E116.34231
G1 X-17.545 Y12.919 E117.77283
G1 X-22.656 Y12.919 E118.05622
G1 X-22.656 Y2.421 E118.6383
G1 X-36.986 Y2.421 E119.43285
G1 X-36.986 Y12.919 E120.01493
G0 F3600 X-36.386 Y13.519
G1 F1800 X-42.656 Y13.519 E120.36258
G1 X-42.656 Y-13.481 E121.85963
G1 X-36.386 Y-13.481 E122.20729
G1 X-36.386 Y-1.346 E122.88013
G1 X-23.256 Y-1.346 E123.60814
G1 X-23.256 Y-13.481 E124.28099
G1 X-16.945 Y-13.481 E124.63091
G1 X-16.945 Y13.519 E126.12797
G1 X-23.256 Y13.519 E126.4779
G1 X-23.256 Y3.021 E127.05997
G1 X-36.386 Y3.021 E127.78799
G1 X-36.386 Y13.519 E128.37007
G0 F3600 X-35.814 Y3.593
G0 X-23.828 Y3.593
G0 X-20.856 Y11.119
G1 F1800 X-20.856 Y-11.081 E129.60098
G1 X-19.345 Y-11.081 E129.68476
G1 X-19.345 Y11.119 E130.91568
G1 X-20.856 Y11.119 E130.99946
G0 F3600 X-20.256 Y10.519
G1 F1800 X-20.256 Y-10.481 E132.16384
G1 X-19.945 Y-10.481 E132.18108
G1 X-19.945 Y10.519 E133.34546
G1 X-20.256 Y10.519 E133.3627
G0 F3600 X-21.156 Y0.899
;TYPE:SKIN
G1 F1800 X-38.486 Y0.899 E133.84315
G1 F1500 E127.34315
;MESH:H.stl(2)
G0 F3600 X-26.593 Y3.581
G0 X-26.593 Y5.186
G0 X-25.409 Y15.672
G0 X15.007 Y15.672
G0 X25.41 Y15.634
G0 X27.575 Y3.511
G0 X27.575 Y1.906
G0 X35.856 Y1.876
G0 X35.786 Y1.946
;TYPE:WALL-INNER
G1 F1500 E133.84315
G1 F1800 X23.857 Y1.946 E134.50457
G1 X23.857 Y14.081 E135.17742
G1 X16.346 Y14.081 E135.59388
G1 X16.346 Y-14.119 E137.15747
G1 X23.857 Y-14.119 E137.57393
G1 X23.857 Y-3.621 E138.15601
G1 X35.786 Y-3.621 E138.81743
G1 X35.786 Y-14.119 E139.39951
G1 X43.256 Y-14.119 E139.8137
G1 X43.256 Y14.081 E141.37729
G1 X35.786 Y14.081 E141.79148
G1 X35.786 Y1.946 E142.46432
G0 F3600 X35.186 Y2.546
;TYPE:WALL-OUTER
G1 F1800 X24.457 Y2.546 E143.05921
G1 X24.457 Y14.681 E143.73206
G1 X15.746 Y14.681 E144.21505
G1 X15.746 Y-14.719 E145.84518
G1 X24.457 Y-14.719 E146.32818
G1 X24.457 Y-4.221 E146.91026
G1 X35.186 Y-4.221 E147.50514
G1 X35.186 Y-14.719 E148.08722
G1 X43.856 Y-14.719 E148.56795
G1 X43.856 Y14.681 E150.19808
G1 X35.186 Y14.681 E150.6788
G1 X35.186 Y2.546 E151.35164
G0 F3600 X34.986 Y2.546
G0 X34.986 Y1.886
G0 X34.986 Y1.846
G0 X23.829 Y1.918
G0 X20.257 Y10.481
;TYPE:SKIN
G1 F1800 X19.946 Y10.481 E151.36889
G1 X19.946 Y-10.519 E152.53327
G1 X20.257 Y-10.519 E152.55051
G1 X20.257 Y10.481 E153.71489
G0 F3600 X20.857 Y11.081
G1 F1800 X19.346 Y11.081 E153.79867
G1 X19.346 Y-11.119 E155.02959
G1 X20.857 Y-11.119 E155.11337
G1 X20.857 Y11.081 E156.34428
G0 F3600 X21.457 Y11.681
G1 F1800 X18.746 Y11.681 E156.4946
G1 X18.746 Y-11.719 E157.79205
G1 X21.457 Y-11.719 E157.94236
G1 X21.457 Y-1.221 E158.52444
G1 X38.186 Y-1.221 E159.45201
G1 X38.186 Y-11.719 E160.03409
G1 X40.856 Y-11.719 E160.18213
G1 X40.856 Y11.681 E161.47958
G1 X38.186 Y11.681 E161.62762
G1 X38.186 Y-.454 E162.30047
G1 X21.457 Y-.454 E163.22804
G1 X21.457 Y11.681 E163.90088
G0 F3600 X22.057 Y12.281
G1 F1800 X18.146 Y12.281 E164.11773
G1 X18.146 Y-12.319 E165.48172
G1 X22.057 Y-12.319 E165.69857
G1 X22.057 Y-1.821 E166.28065
G1 X37.586 Y-1.821 E167.14168
G1 X37.586 Y-12.319 E167.72376
G1 X41.456 Y-12.319 E167.93834
G1 X41.456 Y12.281 E169.30233
G1 X37.586 Y12.281 E169.5169
G1 X37.586 Y0.146 E170.18975
G1 X22.057 Y0.146 E171.05078
G1 X22.057 Y12.281 E171.72362
G0 F3600 X22.657 Y12.881
G1 F1800 X17.546 Y12.881 E172.00701
G1 X17.546 Y-12.919 E173.43754
G1 X22.657 Y-12.919 E173.72092
G1 X22.657 Y-2.421 E174.303
G1 X36.986 Y-2.421 E175.0975
G1 X36.986 Y-12.919 E175.67958
G1 X42.056 Y-12.919 E175.96069
G1 X42.056 Y12.881 E177.39121
G1 X36.986 Y12.881 E177.67233
G1 X36.986 Y0.746 E178.34517
G1 X22.657 Y0.746 E179.13967
G1 X22.657 Y12.881 E179.81251
G0 F3600 X23.257 Y13.481
G1 F1800 X16.946 Y13.481 E180.16244
G1 X16.946 Y-13.519 E181.6595
G1 X23.257 Y-13.519 E182.00942
G1 X23.257 Y-3.021 E182.5915
G1 X36.386 Y-3.021 E183.31946
G1 X36.386 Y-13.519 E183.90154
G1 X42.656 Y-13.519 E184.24919
G1 X42.656 Y13.481 E185.74624
G1 X36.386 Y13.481 E186.0939
G1 X36.386 Y1.346 E186.76674
G1 X23.257 Y1.346 E187.4947
G1 X23.257 Y13.481 E188.16754
G0 F3600 X23.829 Y1.918
G0 X35.814 Y1.918
G0 X38.786 Y11.081
G1 F1800 X38.786 Y-11.119 E189.39846
G1 X40.256 Y-11.119 E189.47997
G1 X40.256 Y11.081 E190.71088
G1 X38.786 Y11.081 E190.79239
G0 F3600 X39.386 Y10.481
G1 F1800 X39.386 Y-10.519 E191.95677
G1 X39.656 Y-10.519 E191.97174
G1 X39.656 Y10.481 E193.13612
G1 X39.386 Y10.481 E193.15109
G0 F3600 X38.486 Y-.899
;TYPE:SKIN
G1 F1800 X21.157 Y-.899 E193.6315
G1 F1500 E187.1315
;MESH:NONMESH
G0 F600 X21.157 Y-.899 Z0.4
G0 F3600 X16.366 Y3.551
G0 X13.434 Y3.551
G0 X6.013 Y3.551
G0 X5.943 Y3.621
;TIME_ELAPSED:128.543970
;LAYER:1
M106 S255
;TYPE:WALL-INNER
;MESH:H.stl
G1 F1500 E193.6315
G1 F2700 X-5.986 Y3.621 E194.29293
G1 X-5.986 Y14.119 E194.87501
G1 X-13.456 Y14.119 E195.28919
G1 X-13.456 Y-14.081 E196.85279
G1 X-5.986 Y-14.081 E197.26697
G1 X-5.986 Y-1.946 E197.93982
G1 X5.943 Y-1.946 E198.60124
G1 X5.943 Y-14.081 E199.27409
G1 X13.454 Y-14.081 E199.69055
G1 X13.454 Y14.119 E201.25414
G1 X5.943 Y14.119 E201.6706
G1 X5.943 Y3.621 E202.25268
G0 F5400 X5.343 Y4.221
;TYPE:WALL-OUTER
G1 F1800 X-5.386 Y4.221 E202.84757
G1 X-5.386 Y14.719 E203.42965
G1 X-14.056 Y14.719 E203.91037
G1 X-14.056 Y-14.681 E205.5405
G1 X-5.386 Y-14.681 E206.02122
G1 X-5.386 Y-2.546 E206.69407
G1 X5.343 Y-2.546 E207.28895
G1 X5.343 Y-14.681 E207.9618
G1 X14.054 Y-14.681 E208.44479
G1 X14.054 Y14.719 E210.07492
G1 X5.343 Y14.719 E210.55792
G1 X5.343 Y4.221 E211.14
G0 F5400 X5.143 Y4.221
G0 X5.143 Y3.561
G0 X5.143 Y3.521
G0 X-6.014 Y3.593
G0 X-9.586 Y10.519
;TYPE:SKIN
G1 F1800 X-9.856 Y10.519 E211.15497
G1 X-9.856 Y-10.481 E212.31935
G1 X-9.586 Y-10.481 E212.33432
G1 X-9.586 Y10.519 E213.4987
G0 F5400 X-8.986 Y11.119
G1 F1800 X-10.456 Y11.119 E213.58021
G1 X-10.456 Y-11.081 E214.81112
G1 X-8.986 Y-11.081 E214.89263
G1 X-8.986 Y11.119 E216.12354
G0 F5400 X-8.386 Y11.719
G1 F1800 X-11.056 Y11.719 E216.27159
G1 X-11.056 Y-11.681 E217.56904
G1 X-8.386 Y-11.681 E217.71708
G1 X-8.386 Y0.454 E218.38992
G1 X8.343 Y0.454 E219.31749
G1 X8.343 Y-11.681 E219.99034
G1 X11.054 Y-11.681 E220.14065
G1 X11.054 Y11.719 E221.4381
G1 X8.343 Y11.719 E221.58842
G1 X8.343 Y1.221 E222.1705
G1 X-8.386 Y1.221 E223.09806
G1 X-8.386 Y11.719 E223.68014
G0 F5400 X-7.786 Y12.319
G1 F1800 X-11.656 Y12.319 E223.89472
G1 X-11.656 Y-12.281 E225.25871
G1 X-7.786 Y-12.281 E225.47329
