;FLAVOR:Marlin
;TIME:783
;Filament used: 1.30287m
;Layer height: 0.2
;MINX:-33.98
;MINY:-32.593
;MINZ:0.2
;MAXX:27.845
;MAXY:27.998
;MAXZ:3.6
;POSTPROCESSED
;Generated with Cura_SteamEngine 4.8.0
M140 S60
M105
M190 S60
M104 S195
M105
M109 S195
M82 ;absolute extrusion mode
G28 ;Home
G1 Z15.0 F6000 ;Move the platform down 15mm
;Prime the extruder
G92 E0
G1 F200 E3
G92 E0
G92 E0
G92 E0
G1 F1500 E-6.5
;LAYER_COUNT:18
;LAYER:0
M107
G0 F3600 X8.79 Y-17.701 Z0.2
;TYPE:SKIRT
G1 F1500 E0
G1 F1800 X11.161 Y-16.361 E0.15101
G1 X13.578 Y-15.085 E0.30255
G1 X15.987 Y-13.899 E0.45143
G1 X18.495 Y-12.752 E0.60434
G1 X20.988 Y-11.694 E0.75451
G1 X22.712 Y-11.012 E0.8573
G1 X24.002 Y-10.527 E0.93372
G1 X25.286 Y-10.053 E1.00961
G1 X25.795 Y-9.823 E1.04058
G1 X26.265 Y-9.522 E1.07152
G1 X26.688 Y-9.157 E1.1025
G1 X27.054 Y-8.736 E1.13343
G1 X27.357 Y-8.267 E1.16439
G1 X27.589 Y-7.76 E1.19531
G1 X27.747 Y-7.224 E1.22629
G1 X27.834 Y-6.503 E1.26656
G1 X27.845 Y-6.071 E1.29052
G1 X27.845 Y9.246 E2.13979
G1 X27.833 Y10.093 E2.18676
G1 X27.811 Y10.675 E2.21906
G1 X27.645 Y13.948 E2.40077
G1 X27.605 Y14.571 E2.43538
G1 X27.547 Y15.035 E2.46131
G1 X27.325 Y16.224 E2.52837
G1 X26.983 Y17.874 E2.6218
G1 X26.846 Y18.486 E2.65658
G1 X26.64 Y19.134 E2.69428
G1 X26.255 Y20.058 E2.74978
G1 X26.018 Y20.58 E2.78157
G1 X25.747 Y21.071 E2.81266
G1 X25.262 Y21.819 E2.86209
G1 X25.188 Y21.93 E2.86949
G1 X24.848 Y22.417 E2.90242
G1 X24.517 Y22.828 E2.93168
G1 X24.063 Y23.319 E2.96876
G1 X23.909 Y23.481 E2.98115
G1 X23.451 Y23.949 E3.01746
G1 X23.114 Y24.256 E3.04274
G1 X22.367 Y24.859 E3.09597
G1 X21.72 Y25.35 E3.141
G1 X21.007 Y25.8 E3.18775
G1 X20.913 Y25.854 E3.19376
G1 X20.35 Y26.164 E3.2294
G1 X19.731 Y26.495 E3.26832
G1 X19.228 Y26.72 E3.29887
G1 X18.512 Y26.981 E3.34112
G1 X18.135 Y27.111 E3.36324
G1 X17.513 Y27.317 E3.39957
G1 X17.08 Y27.433 E3.42442
G1 X16.03 Y27.651 E3.48388
G1 X15.702 Y27.713 E3.50239
G1 X15.01 Y27.831 E3.54131
G1 X14.324 Y27.902 E3.57955
G1 X13.206 Y27.967 E3.64165
G1 X12.488 Y27.998 E3.68149
G1 X11.893 Y27.986 E3.71449
G1 X11.469 Y27.958 E3.73805
G1 X8.656 Y27.743 E3.89448
G1 X7.949 Y27.68 E3.93383
G1 X7.283 Y27.561 E3.97135
G1 X7.102 Y27.512 E3.98174
G1 X6.555 Y27.351 E4.01336
G1 X4.745 Y26.797 E4.11831
G1 X4.076 Y26.58 E4.15731
G1 X3.426 Y26.302 E4.19651
G1 X0.945 Y24.963 E4.35283
G1 X-1.454 Y23.753 E4.50181
G1 X-3.935 Y22.591 E4.65371
G1 X-6.429 Y21.506 E4.80451
G1 X-8.955 Y20.491 E4.95545
G1 X-12.792 Y19.106 E5.18164
G1 X-13.267 Y18.946 E5.20943
G1 X-13.782 Y18.731 E5.24037
G1 X-14.261 Y18.444 E5.27133
G1 X-14.678 Y18.107 E5.30106
G1 X-14.961 Y17.844 E5.32248
G1 X-16.974 Y16.023 E5.47299
G1 X-19.027 Y14.271 E5.62264
G1 X-21.171 Y12.539 E5.77546
G1 X-23.313 Y10.911 E5.92464
G1 X-25.534 Y9.317 E6.07622
G1 X-27.791 Y7.794 E6.22719
G1 X-30.102 Y6.327 E6.37896
G1 X-31.763 Y5.337 E6.48617
G1 X-32.122 Y5.115 E6.50958
G1 X-32.575 Y4.788 E6.54056
G1 X-32.976 Y4.4 E6.57149
G1 X-33.318 Y3.959 E6.60244
G1 X-33.593 Y3.473 E6.6334
G1 X-33.796 Y2.953 E6.66435
G1 X-33.923 Y2.41 E6.69527
G1 X-33.969 Y1.907 E6.72328
G1 X-33.98 Y1.475 E6.74724
G1 X-33.98 Y-13.841 E7.59646
G1 X-33.965 Y-14.801 E7.64969
G1 X-33.946 Y-15.256 E7.67494
G1 X-33.782 Y-18.52 E7.85615
G1 X-33.741 Y-19.164 E7.89193
G1 X-33.683 Y-19.63 E7.91797
G1 X-33.459 Y-20.831 E7.98571
G1 X-33.113 Y-22.497 E8.08005
G1 X-32.968 Y-23.148 E8.11703
G1 X-32.772 Y-23.774 E8.1534
G1 X-32.459 Y-24.51 E8.19775
G1 X-32.151 Y-25.182 E8.23874
G1 X-31.878 Y-25.677 E8.27008
G1 X-31.413 Y-26.393 E8.31742
G1 X-31.337 Y-26.505 E8.32492
G1 X-30.971 Y-27.028 E8.36032
G1 X-30.599 Y-27.486 E8.39303
G1 X-30.217 Y-27.896 E8.4241
G1 X-30.045 Y-28.077 E8.43795
G1 X-29.586 Y-28.546 E8.47433
G1 X-29.251 Y-28.851 E8.49945
G1 X-28.531 Y-29.433 E8.55079
G1 X-28.428 Y-29.513 E8.55802
G1 X-27.849 Y-29.95 E8.59824
G1 X-27.211 Y-30.357 E8.6402
G1 X-27.103 Y-30.419 E8.6471
G1 X-26.488 Y-30.757 E8.68601
G1 X-25.864 Y-31.091 E8.72526
G1 X-25.357 Y-31.318 E8.75606
G1 X-24.666 Y-31.569 E8.79682
G1 X-24.28 Y-31.704 E8.81949
G1 X-23.654 Y-31.912 E8.85607
G1 X-23.215 Y-32.03 E8.88127
G1 X-22.181 Y-32.244 E8.93982
G1 X-21.838 Y-32.309 E8.95918
G1 X-21.146 Y-32.427 E8.9981
G1 X-20.554 Y-32.491 E9.03112
G1 X-20.438 Y-32.5 E9.03757
G1 X-19.273 Y-32.566 E9.10227
G1 X-18.608 Y-32.593 E9.13917
G1 X-18.074 Y-32.583 E9.16878
G1 X-17.675 Y-32.558 E9.19095
G1 X-14.797 Y-32.338 E9.35099
G1 X-14.069 Y-32.272 E9.39152
G1 X-13.337 Y-32.134 E9.43282
G1 X-12.681 Y-31.944 E9.47069
G1 X-10.897 Y-31.397 E9.57415
G1 X-10.222 Y-31.179 E9.61348
G1 X-9.705 Y-30.97 E9.6444
G1 X-9.128 Y-30.633 E9.68145
G1 X-8.848 Y-30.446 E9.70012
G1 X-7.532 Y-29.547 E9.78849
G1 X-6.972 Y-29.153 E9.82645
G1 X-6.668 Y-28.916 E9.84783
G1 X-4.519 Y-27.062 E10.0052
G1 X-2.425 Y-25.354 E10.15503
G1 X-.258 Y-23.689 E10.30655
G1 X1.924 Y-22.108 E10.45596
G1 X4.177 Y-20.57 E10.60721
G1 X6.468 Y-19.099 E10.75817
G1 X8.79 Y-17.701 E10.90845
G0 F3600 X8.494 Y-17.178
G1 F1800 X10.868 Y-15.837 E11.05963
G1 X13.287 Y-14.559 E11.21132
G1 X15.742 Y-13.351 E11.36303
G1 X18.235 Y-12.211 E11.51502
G1 X20.77 Y-11.136 E11.6677
G1 X22.52 Y-10.443 E11.77206
G1 X23.773 Y-9.972 E11.84628
G1 X25.079 Y-9.49 E11.92347
G1 X25.545 Y-9.275 E11.95192
G1 X25.972 Y-8.991 E11.98036
G1 X26.351 Y-8.643 E12.00889
G1 X26.67 Y-8.242 E12.0373
G1 X26.924 Y-7.795 E12.06581
G1 X27.105 Y-7.315 E12.09425
G1 X27.209 Y-6.812 E12.12273
G1 X27.244 Y-6.163 E12.15877
G1 X27.245 Y9.238 E13.0127
G1 X27.231 Y10.165 E13.0641
G1 X27.212 Y10.645 E13.09074
G1 X27.046 Y13.909 E13.27195
G1 X27.006 Y14.532 E13.30657
G1 X26.957 Y14.925 E13.32852
G1 X26.737 Y16.102 E13.39492
G1 X26.397 Y17.743 E13.48784
G1 X26.26 Y18.355 E13.52261
G1 X26.086 Y18.903 E13.55449
G1 X25.701 Y19.827 E13.60999
G1 X25.473 Y20.329 E13.64056
G1 X25.244 Y20.744 E13.66684
G1 X24.759 Y21.492 E13.71627
G1 X24.696 Y21.586 E13.72255
G1 X24.356 Y22.073 E13.75548
G1 X24.076 Y22.421 E13.78024
G1 X23.628 Y22.906 E13.81685
G1 X23.481 Y23.061 E13.8287
G1 X23.023 Y23.529 E13.865
G1 X22.737 Y23.789 E13.88644
G1 X21.907 Y24.457 E13.94551
G1 X21.358 Y24.872 E13.98367
G1 X20.703 Y25.283 E14.02654
G1 X20.067 Y25.635 E14.06685
G1 X19.448 Y25.966 E14.10577
G1 X19.022 Y26.156 E14.13163
G1 X18.315 Y26.414 E14.17336
G1 X17.947 Y26.542 E14.19496
G1 X17.325 Y26.748 E14.23129
G1 X16.958 Y26.846 E14.25236
G1 X15.918 Y27.061 E14.31124
G1 X15.601 Y27.121 E14.32913
G1 X14.909 Y27.239 E14.36805
G1 X14.275 Y27.304 E14.40339
G1 X13.172 Y27.368 E14.46465
G1 X12.463 Y27.398 E14.504
G1 X11.932 Y27.387 E14.53345
G1 X11.515 Y27.359 E14.55662
G1 X8.709 Y27.145 E14.71265
G1 X8.002 Y27.082 E14.75201
G1 X7.438 Y26.982 E14.78377
G1 X7.272 Y26.936 E14.79332
G1 X6.73 Y26.777 E14.82464
G1 X4.93 Y26.226 E14.92901
G1 X4.261 Y26.009 E14.96801
G1 X3.711 Y25.774 E15.00117
G1 X1.246 Y24.443 E15.1565
G1 X-1.226 Y23.197 E15.30999
G1 X-3.678 Y22.048 E15.46013
G1 X-6.176 Y20.962 E15.61116
G1 X-8.75 Y19.927 E15.76499
G1 X-12.565 Y18.55 E15.98987
G1 X-13.076 Y18.378 E16.01977
G1 X-13.548 Y18.176 E16.04824
G1 X-13.984 Y17.904 E16.07673
G1 X-14.52 Y17.434 E16.11626
G1 X-16.57 Y15.579 E16.26955
G1 X-18.666 Y13.79 E16.42234
G1 X-20.802 Y12.066 E16.57454
G1 X-22.966 Y10.421 E16.72526
G1 X-25.197 Y8.82 E16.87751
G1 X-27.442 Y7.305 E17.02768
G1 X-29.772 Y5.826 E17.1807
G1 X-31.448 Y4.827 E17.28889
G1 X-31.807 Y4.605 E17.31229
G1 X-32.221 Y4.302 E17.34074
G1 X-32.583 Y3.938 E17.3692
G1 X-32.885 Y3.522 E17.39771
G1 X-33.118 Y3.065 E17.42615
G1 X-33.278 Y2.577 E17.45462
G1 X-33.37 Y1.89 E17.49306
G1 X-33.38 Y1.475 E17.51607
G1 X-33.38 Y-13.832 E18.36479
G1 X-33.368 Y-14.689 E18.41232
G1 X-33.347 Y-15.226 E18.44211
G1 X-33.183 Y-18.482 E18.62288
G1 X-33.142 Y-19.126 E18.65866
G1 X-33.093 Y-19.52 E18.68067
G1 X-32.871 Y-20.709 E18.74774
G1 X-32.527 Y-22.366 E18.84157
G1 X-32.382 Y-23.017 E18.87855
G1 X-32.216 Y-23.548 E18.9094
G1 X-31.91 Y-24.267 E18.95272
G1 X-31.606 Y-24.931 E18.99322
G1 X-31.375 Y-25.35 E19.01975
G1 X-30.91 Y-26.066 E19.06708
G1 X-30.846 Y-26.161 E19.07343
G1 X-30.48 Y-26.684 E19.10883
G1 X-30.16 Y-27.077 E19.13693
G1 X-29.782 Y-27.483 E19.16769
G1 X-29.616 Y-27.657 E19.18102
G1 X-29.157 Y-28.126 E19.21741
G1 X-28.874 Y-28.384 E19.23864
G1 X-28.154 Y-28.966 E19.28997
G1 X-28.067 Y-29.034 E19.29609
G1 X-27.488 Y-29.471 E19.33632
G1 X-26.905 Y-29.841 E19.3746
G1 X-26.205 Y-30.228 E19.41895
G1 X-25.581 Y-30.562 E19.45819
G1 X-25.152 Y-30.754 E19.48425
G1 X-24.467 Y-31.003 E19.52467
G1 X-24.091 Y-31.135 E19.54676
G1 X-23.465 Y-31.343 E19.58334
G1 X-23.093 Y-31.442 E19.60468
G1 X-22.068 Y-31.654 E19.66272
G1 X-21.737 Y-31.717 E19.6814
G1 X-21.045 Y-31.835 E19.72032
G1 X-20.502 Y-31.894 E19.75061
G1 X-19.304 Y-31.964 E19.81715
G1 X-18.584 Y-31.993 E19.8571
G1 X-18.303 Y-31.993 E19.87268
G1 X-17.757 Y-31.962 E19.903
G1 X-14.851 Y-31.741 E20.0646
G1 X-14.123 Y-31.675 E20.10513
G1 X-13.504 Y-31.558 E20.14006
G1 X-12.856 Y-31.37 E20.17747
G1 X-11.082 Y-30.826 E20.28035
G1 X-10.407 Y-30.608 E20.31968
G1 X-9.932 Y-30.413 E20.34815
G1 X-9.449 Y-30.126 E20.3793
G1 X-9.186 Y-29.95 E20.39685
G1 X-7.877 Y-29.056 E20.48474
G1 X-7.317 Y-28.662 E20.52271
G1 X-7.06 Y-28.461 E20.5408
G1 X-4.923 Y-26.617 E20.6973
G1 X-2.782 Y-24.872 E20.85045
G1 X-.627 Y-23.215 E21.00117
G1 X1.583 Y-21.614 E21.15248
G1 X3.84 Y-20.073 E21.30401
G1 X6.158 Y-18.585 E21.45674
G1 X8.494 Y-17.178 E21.60794
G1 F1500 E15.10794
;MESH:J.stl(1)
G0 F3600 X9.103 Y-13.143
G0 X8.211 Y-11.835
G0 X10.979 Y-5.418
G0 X11.059 Y-5.359
;TYPE:WALL-INNER
G1 F1500 E21.60794
G1 F1800 X10.755 Y-5.318 E21.62495
G1 X4.323 Y-4.441 E21.98489
G1 X4.022 Y-4.4 E22.00173
G1 X3.987 Y-4.701 E22.01253
G1 X3.763 Y-6.595 E22.11828
G1 X3.189 Y-7.729 E22.18875
G1 X2.31 Y-8.635 E22.25874
G1 X1.381 Y-9.057 E22.31532
G1 X0.224 Y-9.186 E22.37987
G1 X-1.51 Y-8.814 E22.4782
G1 X-2.788 Y-7.628 E22.57487
G1 X-3.446 Y-5.755 E22.68494
G1 X-3.639 Y-3.26 E22.8237
G1 X-3.639 Y14.358 E23.80056
G1 X-11.13 Y14.358 E24.21591
G1 X-11.13 Y-1.015 E25.06829
G1 X-10.907 Y-5.441 E25.31401
G1 X-10.256 Y-8.579 E25.4917
G1 X-9.76 Y-9.702 E25.55977
G1 X-9.044 Y-10.761 E25.63065
G1 X-8.109 Y-11.744 E25.70587
G1 X-6.96 Y-12.638 E25.78659
G1 X-5.611 Y-13.383 E25.87204
G1 X-4.09 Y-13.914 E25.96136
G1 X-2.349 Y-14.241 E26.05959
G1 X-.408 Y-14.351 E26.16738
G1 X3.453 Y-14.057 E26.38208
G1 X6.242 Y-13.203 E26.54381
G1 X8.224 Y-11.849 E26.6769
G1 X9.706 Y-9.976 E26.80933
G1 X10.702 Y-7.544 E26.95504
G1 X11.01 Y-5.662 E27.06078
G1 X11.059 Y-5.359 E27.0717
G0 F3600 X11.447 Y-4.807
;TYPE:WALL-OUTER
G1 F1800 X11.446 Y-4.806 E27.07178
G1 X3.8 Y-3.763 E27.49965
G1 X3.498 Y-3.722 E27.51654
G1 X3.463 Y-4.024 E27.52739
G1 X3.18 Y-6.419 E27.6611
G1 X2.695 Y-7.377 E27.72064
G1 X1.959 Y-8.136 E27.77926
G1 X1.22 Y-8.471 E27.82425
G1 X0.254 Y-8.579 E27.87815
G1 X-1.223 Y-8.262 E27.96191
G1 X-2.271 Y-7.289 E28.0412
G1 X-2.854 Y-5.63 E28.1387
G1 X-3.039 Y-3.237 E28.27178
G1 X-3.039 Y14.958 E29.28063
G1 X-11.73 Y14.958 E29.76251
G1 X-11.73 Y-1.025 E30.64872
G1 X-11.503 Y-5.522 E30.89838
G1 X-10.831 Y-8.763 E31.0819
G1 X-10.288 Y-9.991 E31.15635
G1 X-9.511 Y-11.141 E31.23331
G1 X-8.516 Y-12.187 E31.31335
G1 X-7.292 Y-13.14 E31.39936
G1 X-5.857 Y-13.932 E31.49024
G1 X-4.241 Y-14.497 E31.58516
G1 X-2.425 Y-14.838 E31.68761
G1 X-.404 Y-14.952 E31.79985
G1 X3.568 Y-14.65 E32.02072
G1 X6.502 Y-13.751 E32.19087
G1 X8.64 Y-12.291 E32.33441
G1 X10.228 Y-10.283 E32.47636
G1 X11.283 Y-7.707 E32.6307
G1 X11.702 Y-5.15 E32.77437
G1 X11.751 Y-4.847 E32.79139
G1 X11.447 Y-4.807 E32.80228
G0 F3600 X11.446 Y-4.806
G0 X11.249 Y-4.78
G0 X10.991 Y-5.405
G0 X10.986 Y-5.45
G0 X1.391 Y-9.095
G0 X0.222 Y-9.225
G0 X-1.353 Y-8.887
G0 X-6.998 Y-6.504
;TYPE:SKIN
G1 F1800 X-7.239 Y-3.399 E32.97496
G1 X-7.239 Y10.758 E33.75992
G1 X-7.53 Y10.758 E33.77605
G1 X-7.53 Y-.935 E34.42439
G1 X-7.326 Y-4.978 E34.64885
G1 X-6.806 Y-7.484 E34.79076
G1 X-6.604 Y-7.943 E34.81856
G1 X-6.371 Y-8.288 E34.84164
G1 X-6.998 Y-6.504 E34.94649
G0 F3600 X-6.406 Y-6.379
G1 F1800 X-6.639 Y-3.376 E35.1135
G1 X-6.639 Y11.358 E35.93045
G1 X-8.13 Y11.358 E36.01312
G1 X-8.13 Y-.945 E36.69528
G1 X-7.923 Y-5.053 E36.92334
G1 X-7.38 Y-7.67 E37.07154
G1 X-7.132 Y-8.234 E37.1057
G1 X-6.704 Y-8.867 E37.14807
G1 X-6.079 Y-9.524 E37.19835
G1 X-5.312 Y-10.122 E37.25227
G1 X-4.377 Y-10.636 E37.31143
G1 X-3.705 Y-10.871 E37.35091
G1 X-5.372 Y-9.322 E37.47708
G1 X-6.406 Y-6.379 E37.65004
G0 F3600 X-5.814 Y-6.254
G1 F1800 X-6.039 Y-3.353 E37.81137
G1 X-6.039 Y11.958 E38.66031
G1 X-8.73 Y11.958 E38.80952
G1 X-8.73 Y-.955 E39.5255
G1 X-8.519 Y-5.134 E39.75751
G1 X-7.956 Y-7.849 E39.91125
G1 X-7.658 Y-8.527 E39.95231
G1 X-7.171 Y-9.247 E40.00051
G1 X-6.486 Y-9.967 E40.05561
G1 X-5.642 Y-10.625 E40.11495
G1 X-4.625 Y-11.185 E40.17932
G1 X-3.473 Y-11.587 E40.24698
G1 X-2.055 Y-11.852 E40.32696
G1 X-.416 Y-11.946 E40.41799
G1 X2.994 Y-11.686 E40.60761
G1 X5.196 Y-11.011 E40.73531
G1 X6.569 Y-10.073 E40.82751
G1 X7.613 Y-8.754 E40.92078
G1 X8.173 Y-7.387 E41.00269
G1 X6.119 Y-7.107 E41.11763
G1 X6.096 Y-7.299 E41.12835
G1 X5.165 Y-9.137 E41.24259
G1 X3.718 Y-10.632 E41.35795
G1 X2.026 Y-11.401 E41.461
G1 X0.104 Y-11.615 E41.56823
G1 X-2.661 Y-11.022 E41.72502
G1 X-4.855 Y-8.983 E41.8911
G1 X-5.814 Y-6.254 E42.05148
G0 F3600 X-5.222 Y-6.129
G1 F1800 X-5.439 Y-3.33 E42.20714
G1 X-5.439 Y12.558 E43.08808
G1 X-9.33 Y12.558 E43.30382
G1 X-9.33 Y-.965 E44.05363
G1 X-9.116 Y-5.209 E44.28924
G1 X-8.53 Y-8.033 E44.44916
G1 X-8.184 Y-8.82 E44.49682
G1 X-7.638 Y-9.627 E44.55085
G1 X-6.893 Y-10.41 E44.61078
G1 X-5.972 Y-11.128 E44.67553
G1 X-4.868 Y-11.736 E44.74541
G1 X-3.63 Y-12.168 E44.81811
G1 X-2.131 Y-12.449 E44.90267
G1 X-.412 Y-12.547 E44.99814
G1 X3.109 Y-12.279 E45.19393
G1 X5.458 Y-11.559 E45.33016
G1 X6.981 Y-10.518 E45.43244
G1 X8.136 Y-9.059 E45.53562
G1 X8.96 Y-7.047 E45.65617
G1 X8.985 Y-6.892 E45.66488
G1 X5.595 Y-6.43 E45.85458
G1 X5.513 Y-7.123 E45.89327
G1 X4.671 Y-8.785 E45.99658
G1 X3.366 Y-10.133 E46.10061
G1 X1.865 Y-10.815 E46.19202
G1 X0.134 Y-11.008 E46.28859
G1 X-2.374 Y-10.47 E46.43082
G1 X-4.338 Y-8.644 E46.57951
G1 X-5.222 Y-6.129 E46.72732
G0 F3600 X-4.63 Y-6.004
G1 F1800 X-4.839 Y-3.307 E46.87731
G1 X-4.839 Y13.158 E47.79024
G1 X-9.93 Y13.158 E48.07251
G1 X-9.93 Y-.975 E48.85614
G1 X-9.713 Y-5.284 E49.09536
G1 X-9.104 Y-8.219 E49.26157
G1 X-8.711 Y-9.111 E49.31561
G1 X-8.105 Y-10.007 E49.37559
G1 X-7.3 Y-10.853 E49.44034
G1 X-6.302 Y-11.631 E49.5105
G1 X-5.111 Y-12.287 E49.58589
G1 X-3.787 Y-12.749 E49.66365
G1 X-2.207 Y-13.046 E49.75279
G1 X-.408 Y-13.148 E49.85269
G1 X3.224 Y-12.872 E50.05466
G1 X5.718 Y-12.107 E50.1993
G1 X7.397 Y-10.96 E50.31204
G1 X8.658 Y-9.366 E50.42474
G1 X9.541 Y-7.21 E50.55392
G1 X9.676 Y-6.381 E50.60049
G1 X5.071 Y-5.753 E50.85818
G1 X4.93 Y-6.947 E50.92485
G1 X4.177 Y-8.433 E51.01722
G1 X3.014 Y-9.634 E51.10991
G1 X1.704 Y-10.229 E51.18969
G1 X0.164 Y-10.401 E51.27561
G1 X-2.086 Y-9.918 E51.4032
G1 X-3.821 Y-8.305 E51.53456
G1 X-4.63 Y-6.004 E51.66979
G0 F3600 X-4.038 Y-5.879
G1 F1800 X-4.239 Y-3.284 E51.81411
G1 X-4.239 Y13.758 E52.75903
G1 X-10.53 Y13.758 E53.10785
G1 X-10.53 Y-.985 E53.9253
G1 X-10.309 Y-5.365 E54.16846
G1 X-9.68 Y-8.401 E54.34037
G1 X-9.238 Y-9.402 E54.40104
G1 X-8.572 Y-10.387 E54.46697
G1 X-7.707 Y-11.296 E54.53654
G1 X-6.632 Y-12.134 E54.61212
G1 X-5.359 Y-12.835 E54.6927
G1 X-3.938 Y-13.332 E54.77617
G1 X-2.283 Y-13.643 E54.86954
G1 X-.404 Y-13.749 E54.97389
G1 X3.339 Y-13.465 E55.18202
G1 X5.98 Y-12.655 E55.33519
G1 X7.812 Y-11.403 E55.45822
G1 X9.18 Y-9.674 E55.58047
G1 X10.122 Y-7.374 E55.71828
G1 X10.367 Y-5.87 E55.80277
G1 X4.546 Y-5.076 E56.12851
