;FLAVOR:Marlin
;TIME:1213
;Filament used: 2.04937m
;Layer height: 0.2
;MINX:-19.241
;MINY:-49.258
;MINZ:0.2
;MAXX:19.232
;MAXY:49.251
;MAXZ:3.6
;POSTPROCESSED
;Generated with Cura_SteamEngine 4.8.0
M140 S60
M105
M190 S60
M104 S195
M105
M109 S195
M82 ;absolute extrusion mode
G28 ;Home
G1 Z15.0 F6000 ;Move the platform down 15mm
;Prime the extruder
G92 E0
G1 F200 E3
G92 E0
G92 E0
G92 E0
G1 F1500 E-6.5
;LAYER_COUNT:18
;LAYER:0
M107
G0 F3600 X-18.006 Y-1.012 Z0.2
;TYPE:SKIRT
G1 F1500 E0
G1 F1800 X-18.083 Y-3.758 E0.15232
G1 X-18.237 Y-6.502 E0.3047
G1 X-18.465 Y-9.187 E0.45411
G1 X-18.943 Y-13.184 E0.67731
G1 X-19.129 Y-14.513 E0.75172
G1 X-19.15 Y-14.701 E0.76221
G1 X-19.198 Y-15.301 E0.79558
G1 X-19.231 Y-15.876 E0.82751
G1 X-19.241 Y-16.288 E0.85037
G1 X-19.241 Y-45.335 E2.46092
G1 X-19.231 Y-45.999 E2.49774
G1 X-19.183 Y-46.51 E2.5262
G1 X-19.057 Y-47.008 E2.55469
G1 X-18.855 Y-47.48 E2.58315
G1 X-18.582 Y-47.914 E2.61158
G1 X-18.245 Y-48.302 E2.64008
G1 X-17.852 Y-48.632 E2.66853
G1 X-17.412 Y-48.898 E2.69704
G1 X-16.937 Y-49.092 E2.72549
G1 X-16.437 Y-49.21 E2.75397
G1 X-15.704 Y-49.257 E2.7947
G1 X-7.33 Y-49.258 E3.25901
G1 X-6.622 Y-49.248 E3.29827
G1 X-5.962 Y-49.221 E3.33489
G1 X-3.171 Y-49.143 E3.48971
G1 X-.457 Y-49.143 E3.64019
G1 X0.977 Y-49.193 E3.71975
G1 X4.1 Y-49.258 E3.89294
G1 X14.709 Y-49.258 E4.48118
G1 X15.405 Y-49.248 E4.51977
G1 X15.917 Y-49.2 E4.54828
G1 X16.414 Y-49.074 E4.57671
G1 X16.887 Y-48.873 E4.60521
G1 X17.322 Y-48.6 E4.63369
G1 X17.709 Y-48.263 E4.66214
G1 X18.04 Y-47.871 E4.69059
G1 X18.306 Y-47.431 E4.71909
G1 X18.5 Y-46.956 E4.74754
G1 X18.619 Y-46.457 E4.77599
G1 X18.658 Y-45.945 E4.80446
G1 X18.637 Y-45.58 E4.82473
G1 X18.567 Y-44.955 E4.8596
G1 X18.364 Y-43.352 E4.94919
G1 X18.099 Y-40.649 E5.09978
G1 X17.909 Y-37.908 E5.25213
G1 X17.797 Y-35.194 E5.40274
G1 X17.762 Y-32.449 E5.55495
G1 X17.804 Y-29.7 E5.70739
G1 X17.924 Y-26.959 E5.85951
G1 X18.12 Y-24.248 E6.01022
G1 X18.391 Y-21.554 E6.16035
G1 X18.745 Y-18.817 E6.31337
G1 X19.111 Y-16.468 E6.44519
G1 X19.139 Y-16.235 E6.4582
G1 X19.191 Y-15.597 E6.49369
G1 X19.22 Y-15.051 E6.52401
G1 X19.232 Y-14.622 E6.5478
G1 X19.232 Y14.393 E8.15659
G1 X19.221 Y15.104 E8.19602
G1 X19.162 Y15.688 E8.22856
G1 X18.776 Y18.402 E8.38056
G1 X18.467 Y21.124 E8.53245
G1 X18.236 Y23.828 E8.68293
G1 X18.08 Y26.577 E8.83559
G1 X18.002 Y29.319 E8.98769
G1 X18.002 Y32.033 E9.13817
G1 X18.08 Y34.78 E9.29055
G1 X18.234 Y37.519 E9.44265
G1 X18.463 Y40.21 E9.5924
G1 X18.936 Y44.163 E9.81314
G1 X19.117 Y45.458 E9.88565
G1 X19.159 Y45.824 E9.90607
G1 X19.137 Y46.337 E9.93454
G1 X19.036 Y46.841 E9.96304
G1 X18.858 Y47.322 E9.99148
G1 X18.608 Y47.771 E10.01997
G1 X18.291 Y48.175 E10.04845
G1 X17.915 Y48.525 E10.07693
G1 X17.49 Y48.812 E10.10537
G1 X17.025 Y49.03 E10.13384
G1 X16.532 Y49.173 E10.1623
G1 X15.904 Y49.242 E10.19733
G1 X15.21 Y49.251 E10.23582
G1 X5.109 Y49.251 E10.79588
G1 X4.412 Y49.241 E10.83453
G1 X2.945 Y49.18 E10.91594
G1 X0.154 Y49.102 E11.07075
G1 X-2.559 Y49.102 E11.22118
G1 X-5.332 Y49.181 E11.375
G1 X-6.461 Y49.237 E11.43767
G1 X-6.996 Y49.251 E11.46735
G1 X-15.272 Y49.251 E11.92622
G1 X-15.97 Y49.242 E11.96493
G1 X-16.481 Y49.195 E11.99338
G1 X-16.979 Y49.07 E12.02185
G1 X-17.451 Y48.869 E12.0503
G1 X-17.887 Y48.597 E12.07879
G1 X-18.275 Y48.261 E12.10725
G1 X-18.606 Y47.869 E12.1357
G1 X-18.873 Y47.43 E12.16418
G1 X-19.068 Y46.955 E12.19265
G1 X-19.187 Y46.456 E12.2211
G1 X-19.235 Y45.698 E12.26321
G1 X-19.236 Y16.607 E13.87621
G1 X-19.225 Y15.901 E13.91536
G1 X-19.192 Y15.485 E13.9385
G1 X-18.782 Y12.619 E14.09903
G1 X-18.473 Y9.897 E14.25092
G1 X-18.241 Y7.191 E14.40151
G1 X-18.085 Y4.447 E14.5539
G1 X-18.006 Y1.701 E14.70622
G1 X-18.006 Y-1.012 E14.85665
G1 F1500 E8.35665
;MESH:K.stl
G0 F3600 X-10.809 Y-5.419
G0 X-9.731 Y-6.079
G0 X1.94 Y-1.38
;TYPE:WALL-INNER
G1 F1500 E14.85665
G1 F1800 X7.562 Y-7.27 E15.30812
G1 X7.562 Y-14.051 E15.6841
G1 X15.032 Y-14.051 E16.09829
G1 X15.032 Y14.149 E17.66188
G1 X7.562 Y14.149 E18.07607
G1 X7.562 Y3.085 E18.68953
G1 X6.386 Y2.65 E18.75905
G1 X-3.462 Y14.149 E19.5985
G1 X-12.55 Y14.149 E20.1024
G1 X-12.551 Y14.149 E20.10245
G1 X-13.256 Y14.149 E20.14154
G1 X-12.766 Y13.642 E20.16264
G1 X-3.299 Y3.85 E20.91783
G1 X-13.984 Y-13.596 E22.05216
G1 X-14.262 Y-14.051 E22.08173
G1 X-13.729 Y-14.051 E22.0984
G1 X-13.728 Y-14.051 E22.09846
G1 X-5.003 Y-14.051 E22.58223
G1 X1.458 Y-1.45 E23.3674
G1 X1.65 Y-1.076 E23.39071
G1 X1.94 Y-1.38 E23.40451
G0 F3600 X1.799 Y-2.101
;TYPE:WALL-OUTER
G1 F1800 X2.09 Y-2.406 E23.42788
G1 X6.962 Y-7.51 E23.81911
G1 X6.962 Y-14.651 E24.21506
G1 X15.632 Y-14.651 E24.69578
G1 X15.632 Y14.749 E26.32591
G1 X6.962 Y14.749 E26.80663
G1 X6.962 Y3.75 E27.41649
G1 X6.962 Y3.503 E27.43019
G1 X6.57 Y3.358 E27.45336
G1 X6.41 Y3.545 E27.46505
G1 X-3.186 Y14.749 E28.28298
G1 X-13.963 Y14.749 E28.88053
G1 X-13.964 Y14.749 E28.88059
G1 X-14.67 Y14.749 E28.91973
G1 X-14.179 Y14.241 E28.94087
G1 X-4.053 Y3.767 E29.74865
G1 X-15.054 Y-14.195 E30.91653
G1 X-15.333 Y-14.651 E30.94617
G1 X-14.799 Y-14.651 E30.96286
G1 X-14.798 Y-14.651 E30.96291
G1 X-4.636 Y-14.651 E31.52636
G1 X1.607 Y-2.476 E32.285
G1 X1.799 Y-2.101 E32.29883
G0 F3600 X1.937 Y-2.245
G0 X2.413 Y-1.79
G0 X10.232 Y-1.047
;TYPE:SKIN
G1 F1800 X8.771 Y-1.587 E32.38519
G1 X10.232 Y-3.117 E32.50249
G1 X10.232 Y-1.047 E32.61727
G0 F3600 X10.832 Y-.185
G1 F1800 X7.707 Y-1.34 E32.80199
G1 X10.832 Y-4.615 E33.05298
G1 X10.832 Y-.185 E33.29861
G0 F3600 X11.162 Y0.577
G1 F1800 X6.643 Y-1.094 E33.56576
G1 X11.162 Y-5.83 E33.92871
G1 X11.162 Y-10.451 E34.18493
G1 X11.432 Y-10.451 E34.1999
G1 X11.432 Y10.549 E35.36428
G1 X11.162 Y10.549 E35.37925
G1 X11.162 Y0.577 E35.93217
G0 F3600 X10.562 Y0.995
G1 F1800 X5.579 Y-.848 E36.22675
G1 X10.562 Y-6.07 E36.62696
G1 X10.562 Y-11.051 E36.90314
G1 X12.032 Y-11.051 E36.98465
G1 X12.032 Y11.149 E38.21557
G1 X10.562 Y11.149 E38.29707
G1 X10.562 Y0.995 E38.86008
G0 F3600 X9.962 Y1.413
G1 F1800 X5.65 Y-.182 E39.115
G1 X-4.566 Y11.749 E39.98591
G1 X-7.598 Y11.749 E40.15402
G1 X-.283 Y4.181 E40.73762
G1 X-9.977 Y-11.651 E41.76693
G1 X-6.47 Y-11.651 E41.96139
G1 X1.055 Y3.023 E42.87575
G1 X9.962 Y-6.31 E43.59108
G1 X9.962 Y-11.651 E43.88722
G1 X12.632 Y-11.651 E44.03526
G1 X12.632 Y11.749 E45.33271
G1 X9.962 Y11.749 E45.48076
G1 X9.962 Y1.413 E46.05385
G0 F3600 X9.362 Y1.831
G1 F1800 X5.834 Y0.526 E46.26242
G1 X-4.29 Y12.349 E47.12547
G1 X-9.012 Y12.349 E47.38728
G1 X-1.037 Y4.098 E48.02354
G1 X-11.048 Y-12.251 E49.08649
G1 X-6.103 Y-12.251 E49.36067
G1 X1.204 Y1.998 E50.24855
G1 X9.362 Y-6.55 E50.90372
G1 X9.362 Y-12.251 E51.21982
G1 X13.232 Y-12.251 E51.4344
G1 X13.232 Y12.349 E52.79839
G1 X9.362 Y12.349 E53.01297
G1 X9.362 Y1.831 E53.59615
G0 F3600 X8.762 Y2.249
G1 F1800 X6.018 Y1.234 E53.75837
G1 X-4.014 Y12.949 E54.61355
G1 X-10.426 Y12.949 E54.96908
G1 X-1.791 Y4.015 E55.658
G1 X-12.119 Y-12.851 E56.75457
G1 X-5.736 Y-12.851 E57.10848
G1 X1.353 Y0.973 E57.96988
G1 X8.762 Y-6.79 E58.56489
G1 X8.762 Y-12.851 E58.90095
G1 X13.832 Y-12.851 E59.18206
G1 X13.832 Y12.949 E60.61259
G1 X8.762 Y12.949 E60.8937
G1 X8.762 Y2.249 E61.48698
G0 F3600 X8.162 Y2.667
G1 F1800 X6.202 Y1.942 E61.60285
G1 X-3.738 Y13.549 E62.45016
G1 X-11.84 Y13.549 E62.89939
G1 X-2.545 Y3.932 E63.64098
G1 X-13.19 Y-13.451 E64.77117
G1 X-5.369 Y-13.451 E65.20482
G1 X1.502 Y-0.052 E66.03973
G1 X8.162 Y-7.03 E66.57458
G1 X8.162 Y-13.451 E66.9306
G1 X14.432 Y-13.451 E67.27825
G1 X14.432 Y13.549 E68.77531
G1 X8.162 Y13.549 E69.12296
G1 X8.162 Y2.667 E69.72633
G0 F3600 X4.135 Y0.665
G1 F1800 X-4.842 Y11.149 E70.49162
G1 X-6.184 Y11.149 E70.56603
G1 X0.471 Y4.264 E71.09696
G1 X-8.906 Y-11.051 E72.09265
G1 X-6.837 Y-11.051 E72.20737
G1 X0.906 Y4.048 E73.14823
G1 X4.135 Y0.665 E73.40753
G0 F3600 X-3.949 Y-4.103
G1 F1800 X-7.835 Y-10.451 E73.82022
G1 X-7.204 Y-10.451 E73.85521
G1 X-3.949 Y-4.103 E74.25076
G0 F3600 X-3.696 Y-3.9
;TYPE:SKIN
G1 F1800 X-3.523 Y-3.9 E74.25555
G0 F3600 X-3.37 Y-3.6
G1 F1800 X-3.977 Y-3.6 E74.27238
G0 F3600 X-3.793 Y-3.3
G1 F1800 X-3.216 Y-3.3 E74.28838
G0 F3600 X-3.062 Y-3
G1 F1800 X-3.609 Y-3 E74.30354
G0 F3600 X-3.425 Y-2.7
G1 F1800 X-2.908 Y-2.7 E74.31787
G0 F3600 X-2.754 Y-2.4
G1 F1800 X-3.241 Y-2.4 E74.33138
G0 F3600 X-3.058 Y-2.1
G1 F1800 X-2.6 Y-2.1 E74.34407
G0 F3600 X-2.446 Y-1.8
G1 F1800 X-2.874 Y-1.8 E74.35594
G0 F3600 X-2.69 Y-1.5
G1 F1800 X-2.292 Y-1.5 E74.36697
G0 F3600 X-2.138 Y-1.2
G1 F1800 X-2.506 Y-1.2 E74.37717
G0 F3600 X-2.322 Y-.9
G1 F1800 X-1.984 Y-.9 E74.38654
G0 F3600 X-1.831 Y-.6
G1 F1800 X-2.139 Y-.6 E74.39508
G0 F3600 X-1.955 Y-.3
G1 F1800 X-1.677 Y-.3 E74.40279
G0 F3600 X-1.771 Y0.00
G1 F1800 X-1.523 Y0.00 E74.40967
G0 F3600 X-1.587 Y0.299
G1 F1800 X-1.369 Y0.299 E74.41571
G0 F3600 X-1.403 Y0.599
G1 F1800 X-1.215 Y0.599 E74.42092
G0 F3600 X-1.22 Y0.899
G1 F1800 X-1.061 Y0.899 E74.42533
G0 F3600 X-1.036 Y1.2
G1 F1800 X-.907 Y1.2 E74.42891
G0 F3600 X-.852 Y1.5
G1 F1800 X-.753 Y1.5 E74.43165
G0 F3600 X-.668 Y1.8
G1 F1800 X-.599 Y1.8 E74.43356
G0 F3600 X4.179 Y0.3
G1 F1800 X4.821 Y0.3 E74.45136
G0 F3600 X5.077 Y0.00
G1 F1800 X4.376 Y0.00 E74.4708
G0 F3600 X4.662 Y-.299
G1 F1800 X5.334 Y-.299 E74.48943
G0 F3600 X5.385 Y-.599
G1 F1800 X4.949 Y-.599 E74.50151
G0 F3600 X9.411 Y-1.799
G1 F1800 X9.917 Y-1.799 E74.51554
G0 F3600 X9.917 Y-2.099
G1 F1800 X9.698 Y-2.099 E74.52161
G0 F3600 X10.299 Y-3.599
G1 F1800 X10.517 Y-3.599 E74.52766
G0 F3600 X10.901 Y-5.099
G1 F1800 X11.117 Y-5.099 E74.53364
G0 F3600 X-2.132 Y7.5
G1 F1800 X-2.217 Y7.5 E74.536
G0 F3600 X-2.389 Y7.8
G1 F1800 X-2.507 Y7.8 E74.53927
G0 F3600 X-2.645 Y8.1
G1 F1800 X-2.797 Y8.1 E74.54349
G0 F3600 X-2.902 Y8.4
G1 F1800 X-3.087 Y8.4 E74.54862
G0 F3600 X-3.159 Y8.7
G1 F1800 X-3.377 Y8.7 E74.55466
G0 F3600 X-3.416 Y9
G1 F1800 X-3.667 Y9 E74.56162
G0 F3600 X-3.673 Y9.3
G1 F1800 X-3.958 Y9.3 E74.56952
G0 F3600 X-3.93 Y9.6
G1 F1800 X-4.248 Y9.6 E74.57833
G0 F3600 X-4.187 Y9.9
G1 F1800 X-4.538 Y9.9 E74.58807
G0 F3600 X-4.444 Y10.2
G1 F1800 X-4.828 Y10.2 E74.59871
G0 F3600 X-4.701 Y10.5
G1 F1800 X-5.118 Y10.5 E74.61027
G0 F3600 X-4.957 Y10.8
G1 F1800 X-5.408 Y10.8 E74.62278
G0 F3600 X-6.402 Y11.4
G1 F1800 X-6.822 Y11.4 E74.63442
G0 F3600 X-7.816 Y12
G1 F1800 X-8.237 Y12 E74.64609
G0 F3600 X-9.231 Y12.6
G1 F1800 X-9.651 Y12.6 E74.65773
G0 F3600 X-10.645 Y13.2
G1 F1800 X-11.065 Y13.2 E74.66938
G0 F3600 X-12.075 Y13.8
G1 F1800 X-12.5 Y13.8 E74.68116
G0 F3600 X-12.502 Y13.802
G1 F1500 E68.18116
;MESH:K.stl(1)
G0 F3600 X-3.332 Y14.431
G0 X-2.357 Y15.265
G0 X0.59 Y17.793
G0 X1.567 Y18.629
G0 X-1.944 Y32.38
;TYPE:WALL-INNER
G1 F1500 E74.68116
G1 F1800 X-7.566 Y38.27 E75.13263
G1 X-7.566 Y45.051 E75.50861
G1 X-15.036 Y45.051 E75.9228
G1 X-15.036 Y16.851 E77.4864
G1 X-7.566 Y16.851 E77.90058
G1 X-7.566 Y27.914 E78.51399
G1 X-6.39 Y28.349 E78.58351
G1 X3.458 Y16.851 E79.42291
G1 X12.545 Y16.851 E79.92676
G1 X12.546 Y16.851 E79.92681
G1 X13.251 Y16.851 E79.9659
G1 X12.761 Y17.358 E79.987
G1 X3.295 Y27.15 E80.74215
G1 X13.979 Y44.596 E81.87645
G1 X14.257 Y45.051 E81.90602
G1 X13.724 Y45.051 E81.92269
G1 X13.723 Y45.051 E81.92275
G1 X4.999 Y45.051 E82.40647
G1 X-1.462 Y32.45 E83.19164
G1 X-1.654 Y32.076 E83.21495
G1 X-1.944 Y32.38 E83.22875
G0 F3600 X-1.803 Y33.101
;TYPE:WALL-OUTER
G1 F1800 X-2.094 Y33.406 E83.25212
G1 X-6.966 Y38.51 E83.64335
G1 X-6.966 Y45.651 E84.0393
G1 X-15.636 Y45.651 E84.52002
G1 X-15.636 Y16.251 E86.15015
G1 X-6.966 Y16.251 E86.63087
G1 X-6.966 Y27.249 E87.24067
G1 X-6.966 Y27.496 E87.25437
G1 X-6.574 Y27.641 E87.27754
G1 X-6.414 Y27.454 E87.28923
G1 X3.182 Y16.251 E88.10712
G1 X13.958 Y16.251 E88.70462
G1 X13.959 Y16.251 E88.70467
G1 X14.665 Y16.251 E88.74382
G1 X14.174 Y16.759 E88.76496
G1 X4.049 Y27.233 E89.57269
G1 X15.049 Y45.195 E90.74054
G1 X15.328 Y45.651 E90.77018
G1 X14.794 Y45.651 E90.78687
G1 X14.793 Y45.651 E90.78693
G1 X4.632 Y45.651 E91.35032
G1 X-1.611 Y33.476 E92.10896
G1 X-1.803 Y33.101 E92.12279
G0 F3600 X-1.941 Y33.245
G0 X-2.417 Y32.79
G0 X-8.774 Y32.586
;TYPE:SKIN
G1 F1800 X-10.236 Y34.118 E92.24021
G1 X-10.236 Y32.046 E92.35509
G1 X-8.774 Y32.586 E92.44151
G0 F3600 X-7.71 Y32.34
G1 F1800 X-10.836 Y35.616 E92.69258
G1 X-10.836 Y31.184 E92.93832
G1 X-7.71 Y32.34 E93.12312
G0 F3600 X-6.646 Y32.094
G1 F1800 X-11.166 Y36.83 E93.48611
G1 X-11.166 Y41.451 E93.74233
G1 X-11.436 Y41.451 E93.7573
G1 X-11.436 Y20.451 E94.92168
G1 X-11.166 Y20.451 E94.93665
G1 X-11.166 Y30.422 E95.48951
G1 X-6.646 Y32.094 E95.75673
G0 F3600 X-4.146 Y30.343
G1 F1800 X4.838 Y19.851 E96.5226
G1 X6.18 Y19.851 E96.59701
G1 X-.475 Y26.736 E97.12795
G1 X8.901 Y42.051 E98.12361
G1 X6.833 Y42.051 E98.23827
G1 X-.91 Y26.952 E99.17912
G1 X-4.146 Y30.343 E99.43902
G0 F3600 X-8.166 Y28.332
G1 F1800 X-6.206 Y29.057 E99.55489
G1 X3.734 Y17.451 E100.40216
G1 X11.836 Y17.451 E100.85139
G1 X2.541 Y27.068 E101.59297
G1 X13.185 Y44.451 E102.72314
G1 X5.365 Y44.451 E103.15673
G1 X-1.506 Y31.052 E103.99165
G1 X-8.166 Y38.03 E104.52649
G1 X-8.166 Y44.451 E104.88251
G1 X-14.436 Y44.451 E105.23016
G1 X-14.436 Y17.451 E106.72722
G1 X-8.166 Y17.451 E107.07487
G1 X-8.166 Y28.332 E107.67819
G0 F3600 X-8.766 Y28.75
G1 F1800 X-6.022 Y29.765 E107.84041
G1 X4.01 Y18.051 E108.69554
G1 X10.422 Y18.051 E109.05107
G1 X1.787 Y26.985 E109.73999
G1 X12.114 Y43.851 E110.83653
G1 X5.732 Y43.851 E111.19039
G1 X-1.357 Y30.027 E112.05179
G1 X-8.766 Y37.79 E112.6468
G1 X-8.766 Y43.851 E112.98286
G1 X-13.836 Y43.851 E113.26397
G1 X-13.836 Y18.051 E114.6945
G1 X-8.766 Y18.051 E114.97561
G1 X-8.766 Y28.75 E115.56883
G0 F3600 X-9.366 Y29.168
G1 F1800 X-5.838 Y30.473 E115.7774
G1 X4.286 Y18.651 E116.6404
G1 X9.008 Y18.651 E116.90222
G1 X1.033 Y26.902 E117.53848
G1 X11.043 Y43.251 E118.6014
G1 X6.099 Y43.251 E118.87553
G1 X-1.208 Y29.002 E119.76341
G1 X-9.366 Y37.55 E120.41857
G1 X-9.366 Y43.251 E120.73468
G1 X-13.236 Y43.251 E120.94925
G1 X-13.236 Y18.651 E122.31324
G1 X-9.366 Y18.651 E122.52782
G1 X-9.366 Y29.168 E123.11095
G0 F3600 X-9.966 Y29.586
G1 F1800 X-5.654 Y31.181 E123.36587
G1 X4.562 Y19.251 E124.23674
G1 X7.594 Y19.251 E124.40485
G1 X0.279 Y26.819 E124.98845
G1 X9.972 Y42.651 E126.01774
G1 X6.466 Y42.651 E126.21213
G1 X-1.059 Y27.977 E127.1265
G1 X-9.966 Y37.31 E127.84183
G1 X-9.966 Y42.651 E128.13797
G1 X-12.636 Y42.651 E128.28601
G1 X-12.636 Y19.251 E129.58346
G1 X-9.966 Y19.251 E129.7315
G1 X-9.966 Y29.586 E130.30455
G0 F3600 X-10.566 Y30.004
G1 F1800 X-5.582 Y31.848 E130.5992
G1 X-10.566 Y37.07 E130.99945
G1 X-10.566 Y42.051 E131.27563
G1 X-12.036 Y42.051 E131.35714
G1 X-12.036 Y19.851 E132.58805
G1 X-10.566 Y19.851 E132.66956
G1 X-10.566 Y30.004 E133.23251
G0 F3600 X-1.724 Y32.55
G0 X3.948 Y35.109
G1 F1800 X7.83 Y41.451 E133.6448
G1 X7.2 Y41.451 E133.67973
G1 X3.948 Y35.109 E134.07491
G0 F3600 X3.885 Y34.8
;TYPE:SKIN
G1 F1800 X3.466 Y34.8 E134.08652
G0 F3600 X3.312 Y34.5
G1 F1800 X3.908 Y34.5 E134.10305
G0 F3600 X3.725 Y34.2
G1 F1800 X3.159 Y34.2 E134.11874
G0 F3600 X3.005 Y33.9
G1 F1800 X3.541 Y33.9 E134.1336
G0 F3600 X3.357 Y33.6
G1 F1800 X2.851 Y33.6 E134.14763
G0 F3600 X2.697 Y33.3
G1 F1800 X3.174 Y33.3 E134.16085
G0 F3600 X2.99 Y33
G1 F1800 X2.543 Y33 E134.17324
G0 F3600 X2.389 Y32.7
G1 F1800 X2.806 Y32.7 E134.1848
G0 F3600 X2.623 Y32.4
G1 F1800 X2.236 Y32.4 E134.19553
G0 F3600 X2.082 Y32.1
G1 F1800 X2.439 Y32.1 E134.20543
G0 F3600 X2.255 Y31.8
G1 F1800 X1.928 Y31.8 E134.21449
G0 F3600 X2.072 Y31.5
G1 F1800 X1.774 Y31.5 E134.22276
G0 F3600 X1.888 Y31.2
G1 F1800 X1.62 Y31.2 E134.23019
G0 F3600 X1.704 Y30.9
G1 F1800 X1.466 Y30.9 E134.23678
G0 F3600 X1.521 Y30.6
