;FLAVOR:Marlin
;TIME:1655
;Filament used: 2.64258m
;Layer height: 0.2
;MINX:-20.19
;MINY:-49.329
;MINZ:0.2
;MAXX:20.192
;MAXY:49.329
;MAXZ:3.6
;POSTPROCESSED
;Generated with Cura_SteamEngine 4.8.0
M140 S60
M105
M190 S60
M104 S195
M105
M109 S195
M82 ;absolute extrusion mode
G28 ;Home
G1 Z15.0 F6000 ;Move the platform down 15mm
;Prime the extruder
G92 E0
G1 F200 E3
G92 E0
G92 E0
G92 E0
G1 F1500 E-6.5
;LAYER_COUNT:18
;LAYER:0
M107
G0 F3600 X-20.155 Y13.532 Z0.2
;TYPE:SKIRT
G1 F1500 E0
G1 F1800 X-20.155 Y-15.035 E1.58394
G1 X-20.153 Y-16.13 E1.64466
G1 X-20.155 Y-16.363 E1.65758
G1 X-20.155 Y-45.405 E3.26786
G1 X-20.145 Y-46.07 E3.30474
G1 X-20.097 Y-46.581 E3.33319
G1 X-19.971 Y-47.078 E3.36162
G1 X-19.769 Y-47.55 E3.39009
G1 X-19.496 Y-47.985 E3.41856
G1 X-19.159 Y-48.373 E3.44706
G1 X-18.766 Y-48.703 E3.47551
G1 X-18.327 Y-48.969 E3.50397
G1 X-17.851 Y-49.163 E3.53247
G1 X-17.352 Y-49.281 E3.56091
G1 X-16.618 Y-49.328 E3.60169
G1 X-9.924 Y-49.329 E3.97285
G1 X-7.796 Y-49.299 E4.09085
G1 X-7.438 Y-49.289 E4.11071
G1 X-4.705 Y-49.293 E4.26224
G1 X-3.44 Y-49.324 E4.3324
G1 X-2.943 Y-49.329 E4.35996
G1 X2.788 Y-49.329 E4.67773
G1 X4.743 Y-49.301 E4.78614
G1 X5.132 Y-49.29 E4.80771
G1 X7.871 Y-49.29 E4.95958
G1 X9.625 Y-49.329 E5.05686
G1 X16.23 Y-49.329 E5.42308
G1 X16.928 Y-49.319 E5.46179
G1 X17.44 Y-49.271 E5.4903
G1 X17.937 Y-49.145 E5.51873
G1 X18.409 Y-48.944 E5.54718
G1 X18.845 Y-48.671 E5.5757
G1 X19.232 Y-48.335 E5.60412
G1 X19.563 Y-47.942 E5.63261
G1 X19.829 Y-47.503 E5.66107
G1 X20.023 Y-47.027 E5.68957
G1 X20.142 Y-46.528 E5.71801
G1 X20.189 Y-45.792 E5.7589
G1 X20.192 Y-16.017 E7.40983
G1 X20.188 Y-14.922 E7.47054
G1 X20.19 Y-14.695 E7.48313
G1 X20.19 Y14.311 E9.09141
G1 X20.165 Y16.079 E9.18945
G1 X20.155 Y17.469 E9.26652
G1 X20.155 Y45.338 E10.81177
G1 X20.145 Y46.065 E10.85208
G1 X20.098 Y46.577 E10.88059
G1 X19.972 Y47.074 E10.90902
G1 X19.771 Y47.547 E10.93751
G1 X19.498 Y47.982 E10.96599
G1 X19.162 Y48.37 E10.99445
G1 X18.769 Y48.701 E11.02294
G1 X18.33 Y48.967 E11.0514
G1 X17.855 Y49.162 E11.07987
G1 X17.356 Y49.28 E11.1083
G1 X16.618 Y49.328 E11.1493
G1 X9.924 Y49.329 E11.52046
G1 X7.797 Y49.299 E11.63841
G1 X7.438 Y49.289 E11.65832
G1 X4.705 Y49.293 E11.80986
G1 X3.44 Y49.324 E11.88002
G1 X2.944 Y49.329 E11.90752
G1 X-2.788 Y49.329 E12.22534
G1 X-4.742 Y49.301 E12.3337
G1 X-5.132 Y49.29 E12.35533
G1 X-7.871 Y49.29 E12.5072
G1 X-9.625 Y49.329 E12.60448
G1 X-16.226 Y49.329 E12.97048
G1 X-16.924 Y49.32 E13.00918
G1 X-17.435 Y49.273 E13.03764
G1 X-17.933 Y49.148 E13.06611
G1 X-18.405 Y48.947 E13.09455
G1 X-18.841 Y48.675 E13.12304
G1 X-19.229 Y48.339 E13.1515
G1 X-19.56 Y47.947 E13.17995
G1 X-19.827 Y47.508 E13.20844
G1 X-20.022 Y47.033 E13.23691
G1 X-20.141 Y46.534 E13.26535
G1 X-20.189 Y45.776 E13.30747
G1 X-20.19 Y16.69 E14.92019
G1 X-20.165 Y14.923 E15.01817
G1 X-20.155 Y13.532 E15.0953
G1 F1500 E8.5953
;MESH:M.stl
G0 F3600 X-17.52 Y13.532
G0 X-15.935 Y13.532
G0 X-3.949 Y8.449
G0 X-.683 Y-4.214
G0 X0.761 Y-4.214
G0 X8.567 Y8.923
G0 X8.623 Y8.841
;TYPE:WALL-INNER
G1 F1500 E15.0953
G1 F1800 X10.198 Y8.643 E15.18332
G1 X10.198 Y-14.129 E16.44595
G1 X15.99 Y-14.129 E16.76709
G1 X15.99 Y14.071 E18.33069
G1 X5.405 Y14.071 E18.91759
G1 X0.737 Y-4.183 E19.96228
G1 X-.659 Y-4.183 E20.03969
G1 X-5.362 Y14.071 E21.08486
G1 X-15.955 Y14.071 E21.67221
G1 X-15.955 Y-14.129 E23.2358
G1 X-10.163 Y-14.129 E23.55695
G1 X-10.163 Y8.643 E24.81958
G1 X-8.588 Y8.841 E24.9076
G1 X-2.725 Y-14.129 E26.22204
G1 X2.749 Y-14.129 E26.52556
G1 X8.623 Y8.841 E27.84015
G0 F3600 X9.073 Y8.18
;TYPE:WALL-OUTER
G1 F1800 X9.598 Y8.114 E27.86949
G1 X9.598 Y7.832 E27.88512
G1 X9.598 Y-14.729 E29.13605
G1 X16.59 Y-14.729 E29.52374
G1 X16.59 Y14.671 E31.15387
G1 X4.939 Y14.671 E31.79988
G1 X0.335 Y-3.33 E32.8301
G1 X0.271 Y-3.583 E32.84457
G1 X-.194 Y-3.583 E32.87035
G1 X-.259 Y-3.33 E32.88326
G1 X-4.897 Y14.671 E33.91395
G1 X-16.555 Y14.671 E34.56035
G1 X-16.555 Y-14.729 E36.19048
G1 X-9.563 Y-14.729 E36.57816
G1 X-9.563 Y7.832 E37.82909
G1 X-9.563 Y8.114 E37.84473
G1 X-9.038 Y8.18 E37.87407
G1 X-8.969 Y7.907 E37.88876
G1 X-3.191 Y-14.729 E39.18409
G1 X3.215 Y-14.729 E39.53928
G1 X9.004 Y7.907 E40.83477
G1 X9.073 Y8.18 E40.84946
G0 F3600 X9.271 Y8.156
G0 X9.352 Y8.811
G0 X9.356 Y8.85
G0 X0.656 Y-7.783
;TYPE:SKIN
G1 F1800 X-.631 Y-7.783 E40.92082
G1 X0.012 Y-10.3 E41.06486
G1 X0.656 Y-7.783 E41.20892
G0 F3600 X1.429 Y-7.183
G1 F1800 X-1.403 Y-7.183 E41.36594
G1 X-.395 Y-11.129 E41.59176
G1 X0.419 Y-11.129 E41.63689
G1 X1.429 Y-7.183 E41.86274
G0 F3600 X2.202 Y-6.583
G1 F1800 X-2.175 Y-6.583 E42.10543
G1 X-.861 Y-11.729 E42.39991
G1 X0.885 Y-11.729 E42.49672
G1 X2.202 Y-6.583 E42.79125
G0 F3600 X2.135 Y-5.983
G1 F1800 X-2.055 Y-5.983 E43.02357
G1 X-6.758 Y12.271 E44.06874
G1 X-14.155 Y12.271 E44.47888
G1 X-14.155 Y-12.329 E45.84287
G1 X-11.963 Y-12.329 E45.96441
G1 X-11.963 Y10.231 E47.21529
G1 X-7.238 Y10.825 E47.47933
G1 X-1.327 Y-12.329 E48.80432
G1 X1.351 Y-12.329 E48.95281
G1 X7.273 Y10.825 E50.27794
G1 X11.998 Y10.231 E50.54199
G1 X11.998 Y-12.329 E51.79287
G1 X14.19 Y-12.329 E51.91441
G1 X14.19 Y12.271 E53.27839
G1 X6.803 Y12.271 E53.68798
G1 X2.135 Y-5.983 E54.73267
G0 F3600 X1.669 Y-5.383
G1 F1800 X-1.59 Y-5.383 E54.91337
G1 X-6.293 Y12.871 E55.95855
G1 X-14.755 Y12.871 E56.42773
G1 X-14.755 Y-12.929 E57.85826
G1 X-11.363 Y-12.929 E58.04633
G1 X-11.363 Y9.702 E59.30115
G1 X-7.688 Y10.164 E59.50652
G1 X-1.793 Y-12.929 E60.82801
G1 X1.817 Y-12.929 E61.02817
G1 X7.723 Y10.164 E62.34981
G1 X11.398 Y9.702 E62.55518
G1 X11.398 Y-12.929 E63.80999
G1 X14.79 Y-12.929 E63.99807
G1 X14.79 Y12.871 E65.42859
G1 X6.337 Y12.871 E65.89728
G1 X1.669 Y-5.383 E66.94197
G0 F3600 X1.203 Y-4.783
G1 F1800 X-1.125 Y-4.783 E67.07105
G1 X-1.299 Y-4.105 E67.10986
G1 X-1.315 Y-4.044 E67.11336
G1 X-5.828 Y13.471 E68.11623
G1 X-15.355 Y13.471 E68.64447
G1 X-15.355 Y-13.529 E70.14153
G1 X-10.763 Y-13.529 E70.39614
G1 X-10.763 Y9.173 E71.65489
G1 X-8.138 Y9.503 E71.80158
G1 X-2.259 Y-13.529 E73.11957
G1 X2.283 Y-13.529 E73.37141
G1 X8.173 Y9.503 E74.68956
G1 X10.798 Y9.173 E74.83625
G1 X10.798 Y-13.529 E76.095
G1 X15.39 Y-13.529 E76.34961
G1 X15.39 Y13.471 E77.84667
G1 X5.871 Y13.471 E78.37447
G1 X1.203 Y-4.783 E79.41916
G0 F3600 X8.601 Y8.874
G0 X10.227 Y8.669
G0 X12.598 Y-11.729
G1 F1800 X13.59 Y-11.729 E79.47416
G1 X13.59 Y11.671 E80.77161
G1 X7.269 Y11.671 E81.12209
G1 X7.209 Y11.437 E81.13549
G1 X12.598 Y10.76 E81.43664
G1 X12.598 Y-11.729 E82.68357
G0 F3600 X10.227 Y8.669
G0 X8.601 Y8.874
G0 X-3.298 Y-11.729
G0 X-8.566 Y8.874
G0 X-10.192 Y8.669
G0 X-12.563 Y-11.729
G1 F1800 X-12.563 Y10.76 E83.93051
G1 X-7.163 Y11.439 E84.23228
G1 X-7.223 Y11.671 E84.24557
G1 X-13.555 Y11.671 E84.59666
G1 X-13.555 Y-11.729 E85.89411
G1 X-12.563 Y-11.729 E85.94911
G0 F3600 X-12.878 Y-11.4
;TYPE:SKIN
G1 F1800 X-13.24 Y-11.4 E85.95915
G0 F3600 X-13.24 Y-11.1
G1 F1800 X-12.878 Y-11.1 E85.96918
G0 F3600 X-12.878 Y-10.8
G1 F1800 X-13.24 Y-10.8 E85.97922
G0 F3600 X-13.24 Y-10.5
G1 F1800 X-12.878 Y-10.5 E85.98926
G0 F3600 X-12.878 Y-10.2
G1 F1800 X-13.24 Y-10.2 E85.99929
G0 F3600 X-13.24 Y-9.9
G1 F1800 X-12.878 Y-9.9 E86.00933
G0 F3600 X-12.878 Y-9.6
G1 F1800 X-13.24 Y-9.6 E86.01936
G0 F3600 X-13.24 Y-9.3
G1 F1800 X-12.878 Y-9.3 E86.0294
G0 F3600 X-12.878 Y-9
G1 F1800 X-13.24 Y-9 E86.03944
G0 F3600 X-13.24 Y-8.7
G1 F1800 X-12.878 Y-8.7 E86.04947
G0 F3600 X-12.878 Y-8.4
G1 F1800 X-13.24 Y-8.4 E86.05951
G0 F3600 X-13.24 Y-8.1
G1 F1800 X-12.878 Y-8.1 E86.06954
G0 F3600 X-12.878 Y-7.8
G1 F1800 X-13.24 Y-7.8 E86.07958
G0 F3600 X-13.24 Y-7.5
G1 F1800 X-12.878 Y-7.5 E86.08961
G0 F3600 X-12.878 Y-7.2
G1 F1800 X-13.24 Y-7.2 E86.09965
G0 F3600 X-13.24 Y-6.9
G1 F1800 X-12.878 Y-6.9 E86.10969
G0 F3600 X-12.878 Y-6.6
G1 F1800 X-13.24 Y-6.6 E86.11972
G0 F3600 X-13.24 Y-6.3
G1 F1800 X-12.878 Y-6.3 E86.12976
G0 F3600 X-12.878 Y-6
G1 F1800 X-13.24 Y-6 E86.13979
G0 F3600 X-13.24 Y-5.7
G1 F1800 X-12.878 Y-5.7 E86.14983
G0 F3600 X-12.878 Y-5.4
G1 F1800 X-13.24 Y-5.4 E86.15987
G0 F3600 X-13.24 Y-5.1
G1 F1800 X-12.878 Y-5.1 E86.1699
G0 F3600 X-12.878 Y-4.8
G1 F1800 X-13.24 Y-4.8 E86.17994
G0 F3600 X-13.24 Y-4.5
G1 F1800 X-12.878 Y-4.5 E86.18997
G0 F3600 X-12.878 Y-4.2
G1 F1800 X-13.24 Y-4.2 E86.20001
G0 F3600 X-13.24 Y-3.9
G1 F1800 X-12.878 Y-3.9 E86.21004
G0 F3600 X-12.878 Y-3.6
G1 F1800 X-13.24 Y-3.6 E86.22008
G0 F3600 X-13.24 Y-3.3
G1 F1800 X-12.878 Y-3.3 E86.23012
G0 F3600 X-12.878 Y-3
G1 F1800 X-13.24 Y-3 E86.24015
G0 F3600 X-13.24 Y-2.7
G1 F1800 X-12.878 Y-2.7 E86.25019
G0 F3600 X-12.878 Y-2.4
G1 F1800 X-13.24 Y-2.4 E86.26022
G0 F3600 X-13.24 Y-2.1
G1 F1800 X-12.878 Y-2.1 E86.27026
G0 F3600 X-12.878 Y-1.8
G1 F1800 X-13.24 Y-1.8 E86.2803
G0 F3600 X-13.24 Y-1.5
G1 F1800 X-12.878 Y-1.5 E86.29033
G0 F3600 X-12.878 Y-1.2
G1 F1800 X-13.24 Y-1.2 E86.30037
G0 F3600 X-13.24 Y-.9
G1 F1800 X-12.878 Y-.9 E86.3104
G0 F3600 X-12.878 Y-.6
G1 F1800 X-13.24 Y-.6 E86.32044
G0 F3600 X-13.24 Y-.3
G1 F1800 X-12.878 Y-.3 E86.33047
G0 F3600 X-12.878 Y0.00
G1 F1800 X-13.24 Y0.00 E86.34051
G0 F3600 X-13.24 Y0.299
G1 F1800 X-12.878 Y0.299 E86.35055
G0 F3600 X-12.878 Y0.599
G1 F1800 X-13.24 Y0.599 E86.36058
G0 F3600 X-13.24 Y0.899
G1 F1800 X-12.878 Y0.899 E86.37062
G0 F3600 X-12.878 Y1.199
G1 F1800 X-13.24 Y1.199 E86.38065
G0 F3600 X-13.24 Y1.499
G1 F1800 X-12.878 Y1.499 E86.39069
G0 F3600 X-12.878 Y1.799
G1 F1800 X-13.24 Y1.799 E86.40073
G0 F3600 X-13.24 Y2.099
G1 F1800 X-12.878 Y2.099 E86.41076
G0 F3600 X-12.878 Y2.399
G1 F1800 X-13.24 Y2.399 E86.4208
G0 F3600 X-13.24 Y2.699
G1 F1800 X-12.878 Y2.699 E86.43083
G0 F3600 X-12.878 Y2.999
G1 F1800 X-13.24 Y2.999 E86.44087
G0 F3600 X-13.24 Y3.299
G1 F1800 X-12.878 Y3.299 E86.45091
G0 F3600 X-12.878 Y3.599
G1 F1800 X-13.24 Y3.599 E86.46094
G0 F3600 X-13.24 Y3.899
G1 F1800 X-12.878 Y3.899 E86.47098
G0 F3600 X-12.878 Y4.199
G1 F1800 X-13.24 Y4.199 E86.48101
G0 F3600 X-13.24 Y4.499
G1 F1800 X-12.878 Y4.499 E86.49105
G0 F3600 X-12.878 Y4.799
G1 F1800 X-13.24 Y4.799 E86.50108
G0 F3600 X-13.24 Y5.099
G1 F1800 X-12.878 Y5.099 E86.51112
G0 F3600 X-12.878 Y5.399
G1 F1800 X-13.24 Y5.399 E86.52116
G0 F3600 X-13.24 Y5.699
G1 F1800 X-12.878 Y5.699 E86.53119
G0 F3600 X-12.878 Y5.999
G1 F1800 X-13.24 Y5.999 E86.54123
G0 F3600 X-13.24 Y6.299
G1 F1800 X-12.878 Y6.299 E86.55126
G0 F3600 X-12.878 Y6.599
G1 F1800 X-13.24 Y6.599 E86.5613
G0 F3600 X-13.24 Y6.899
G1 F1800 X-12.878 Y6.899 E86.57134
G0 F3600 X-12.878 Y7.199
G1 F1800 X-13.24 Y7.199 E86.58137
G0 F3600 X-13.24 Y7.499
G1 F1800 X-12.878 Y7.499 E86.59141
G0 F3600 X-12.878 Y7.799
G1 F1800 X-13.24 Y7.799 E86.60144
G0 F3600 X-13.24 Y8.099
G1 F1800 X-12.878 Y8.099 E86.61148
G0 F3600 X-12.878 Y8.4
G1 F1800 X-13.24 Y8.4 E86.62151
G0 F3600 X-13.24 Y8.7
G1 F1800 X-12.878 Y8.7 E86.63155
G0 F3600 X-12.878 Y9
G1 F1800 X-13.24 Y9 E86.64159
G0 F3600 X-13.24 Y9.3
G1 F1800 X-12.878 Y9.3 E86.65162
G0 F3600 X-12.878 Y9.6
G1 F1800 X-13.24 Y9.6 E86.66166
G0 F3600 X-13.24 Y9.9
G1 F1800 X-12.878 Y9.9 E86.67169
G0 F3600 X-12.878 Y10.2
G1 F1800 X-13.24 Y10.2 E86.68173
G0 F3600 X-13.24 Y10.5
G1 F1800 X-12.878 Y10.5 E86.69177
G0 F3600 X-12.878 Y10.8
G1 F1800 X-13.24 Y10.8 E86.7018
G0 F3600 X-13.24 Y11.1
G1 F1800 X-12.385 Y11.1 E86.7255
G0 F3600 X-6.982 Y11.1
G1 F1800 X-6.781 Y11.1 E86.73108
G0 F3600 X-6.704 Y10.8
G1 F1800 X-6.905 Y10.8 E86.73665
G0 F3600 X-6.829 Y10.5
G1 F1800 X-6.627 Y10.5 E86.74225
G0 F3600 X-6.55 Y10.2
G1 F1800 X-6.752 Y10.2 E86.74785
G0 F3600 X-6.676 Y9.9
G1 F1800 X-6.472 Y9.9 E86.75351
G0 F3600 X-6.395 Y9.6
G1 F1800 X-6.599 Y9.6 E86.75916
G0 F3600 X-6.523 Y9.3
G1 F1800 X-6.318 Y9.3 E86.76484
G0 F3600 X-6.24 Y9
G1 F1800 X-6.446 Y9 E86.77055
G0 F3600 X-6.369 Y8.7
G1 F1800 X-6.163 Y8.7 E86.77627
G0 F3600 X-6.086 Y8.4
G1 F1800 X-6.293 Y8.4 E86.782
G0 F3600 X-6.216 Y8.1
G1 F1800 X-6.009 Y8.1 E86.78774
G0 F3600 X-5.931 Y7.8
G1 F1800 X-6.14 Y7.8 E86.79354
G0 F3600 X-6.063 Y7.5
G1 F1800 X-5.854 Y7.5 E86.79933
G0 F3600 X-5.777 Y7.2
G1 F1800 X-5.987 Y7.2 E86.80515
G0 F3600 X-5.91 Y6.9
G1 F1800 X-5.699 Y6.9 E86.811
G0 F3600 X-5.622 Y6.6
G1 F1800 X-5.833 Y6.6 E86.81685
G0 F3600 X-5.757 Y6.3
G1 F1800 X-5.545 Y6.3 E86.82273
G0 F3600 X-5.468 Y6
G1 F1800 X-5.68 Y6 E86.82861
G0 F3600 X-5.604 Y5.7
G1 F1800 X-5.39 Y5.7 E86.83454
G0 F3600 X-5.313 Y5.4
G1 F1800 X-5.527 Y5.4 E86.84047
G0 F3600 X-5.451 Y5.1
G1 F1800 X-5.236 Y5.1 E86.84643
G0 F3600 X-5.158 Y4.8
G1 F1800 X-5.374 Y4.8 E86.85242
G0 F3600 X-5.298 Y4.5
G1 F1800 X-5.081 Y4.5 E86.85844
G0 F3600 X-5.004 Y4.2
G1 F1800 X-5.221 Y4.2 E86.86445
G0 F3600 X-5.144 Y3.899
G1 F1800 X-4.927 Y3.899 E86.87047
G0 F3600 X-4.849 Y3.599
G1 F1800 X-5.068 Y3.599 E86.87654
G0 F3600 X-4.991 Y3.299
G1 F1800 X-4.772 Y3.299 E86.88261
G0 F3600 X-4.695 Y2.999
G1 F1800 X-4.915 Y2.999 E86.88871
G0 F3600 X-4.838 Y2.699
G1 F1800 X-4.618 Y2.699 E86.89481
G0 F3600 X-4.54 Y2.399
G1 F1800 X-4.762 Y2.399 E86.90097
G0 F3600 X-4.685 Y2.099
G1 F1800 X-4.463 Y2.099 E86.90712
G0 F3600 X-4.386 Y1.799
G1 F1800 X-4.608 Y1.799 E86.91327
G0 F3600 X-4.532 Y1.499
G1 F1800 X-4.308 Y1.499 E86.91948
G0 F3600 X-4.231 Y1.199
G1 F1800 X-4.455 Y1.199 E86.92569
G0 F3600 X-4.379 Y0.899
G1 F1800 X-4.154 Y0.899 E86.93193
G0 F3600 X-4.077 Y0.599
G1 F1800 X-4.302 Y0.599 E86.93817
G0 F3600 X-4.226 Y0.299
G1 F1800 X-3.999 Y0.299 E86.94446
G0 F3600 X-3.922 Y0.00
G1 F1800 X-4.149 Y0.00 E86.95076
G0 F3600 X-4.072 Y-.3
G1 F1800 X-3.845 Y-.3 E86.95705
G0 F3600 X-3.767 Y-.6
G1 F1800 X-3.996 Y-.6 E86.9634
G0 F3600 X-3.919 Y-.9
G1 F1800 X-3.69 Y-.9 E86.96975
G0 F3600 X-3.613 Y-1.2
G1 F1800 X-3.843 Y-1.2 E86.97612
G0 F3600 X-3.766 Y-1.5
G1 F1800 X-3.536 Y-1.5 E86.9825
G0 F3600 X-3.458 Y-1.8
G1 F1800 X-3.69 Y-1.8 E86.98893
G0 F3600 X-3.613 Y-2.1
G1 F1800 X-3.381 Y-2.1 E86.99536
G0 F3600 X-3.304 Y-2.4
G1 F1800 X-3.537 Y-2.4 E87.00182
G0 F3600 X-3.46 Y-2.7
G1 F1800 X-3.226 Y-2.7 E87.00831
G0 F3600 X-3.149 Y-3
G1 F1800 X-3.383 Y-3 E87.0148
G0 F3600 X-3.307 Y-3.3
G1 F1800 X-3.072 Y-3.3 E87.02131
G0 F3600 X-2.995 Y-3.6
G1 F1800 X-3.23 Y-3.6 E87.02783
G0 F3600 X-3.153 Y-3.9
G1 F1800 X-2.916 Y-3.9 E87.0344
G0 F3600 X-2.839 Y-4.2
G1 F1800 X-3.076 Y-4.2 E87.04097
G0 F3600 X-3 Y-4.5
G1 F1800 X-2.762 Y-4.5 E87.04757
G0 F3600 X-2.685 Y-4.8
G1 F1800 X-2.923 Y-4.8 E87.05416
G0 F3600 X-2.846 Y-5.1
G1 F1800 X-2.607 Y-5.1 E87.06079
G0 F3600 X-2.53 Y-5.4
G1 F1800 X-2.77 Y-5.4 E87.06744
G0 F3600 X-2.693 Y-5.7
G1 F1800 X-2.453 Y-5.7 E87.0741
G0 F3600 X-2.375 Y-6
G1 F1800 X-2.617 Y-6 E87.08081
G0 F3600 X-.224 Y-8.1
G1 F1800 X0.249 Y-8.1 E87.09392
G0 F3600 X0.172 Y-8.4
G1 F1800 X-.148 Y-8.4 E87.10279
G0 F3600 X-0.071 Y-8.7
G1 F1800 X0.096 Y-8.7 E87.10742
G0 F3600 X0.178 Y-10.8
G1 F1800 X-.153 Y-10.8 E87.1166
G0 F3600 X2.455 Y-6
G1 F1800 X2.645 Y-6 E87.12186
G0 F3600 X2.722 Y-5.7
G1 F1800 X2.532 Y-5.7 E87.12713
G0 F3600 X2.608 Y-5.4
G1 F1800 X2.798 Y-5.4 E87.1324
G0 F3600 X2.875 Y-5.1
G1 F1800 X2.685 Y-5.1 E87.13767
G0 F3600 X2.762 Y-4.8
G1 F1800 X2.952 Y-4.8 E87.14293
G0 F3600 X3.029 Y-4.5
G1 F1800 X2.838 Y-4.5 E87.14823
G0 F3600 X2.915 Y-4.2
G1 F1800 X3.105 Y-4.2 E87.1535
G0 F3600 X3.182 Y-3.9
G1 F1800 X2.992 Y-3.9 E87.15876
G0 F3600 X3.069 Y-3.6
G1 F1800 X3.259 Y-3.6 E87.16403
G0 F3600 X3.336 Y-3.3
G1 F1800 X3.145 Y-3.3 E87.16933
G0 F3600 X3.222 Y-3
G1 F1800 X3.412 Y-3 E87.17459
G0 F3600 X3.489 Y-2.7
G1 F1800 X3.299 Y-2.7 E87.17986
G0 F3600 X3.376 Y-2.4
G1 F1800 X3.566 Y-2.4 E87.18513
G0 F3600 X3.642 Y-2.1
G1 F1800 X3.452 Y-2.1 E87.1904
G0 F3600 X3.529 Y-1.799
G1 F1800 X3.719 Y-1.799 E87.19566
G0 F3600 X3.796 Y-1.499
G1 F1800 X3.606 Y-1.499 E87.20093
G0 F3600 X3.682 Y-1.199
G1 F1800 X3.873 Y-1.199 E87.20623
