;FLAVOR:Marlin
;TIME:1290
;Filament used: 2.13033m
;Layer height: 0.2
;MINX:-47.356
;MINY:-18.303
;MINZ:0.2
;MAXX:47.335
;MAXY:18.301
;MAXZ:3.6
;POSTPROCESSED
;Generated with Cura_SteamEngine 4.8.0
M140 S60
M105
M190 S60
M104 S195
M105
M109 S195
M82 ;absolute extrusion mode
G28 ;Home
G1 Z15.0 F6000 ;Move the platform down 15mm
;Prime the extruder
G92 E0
G1 F200 E3
G92 E0
G92 E0
G92 E0
G1 F1500 E-6.5
;LAYER_COUNT:18
;LAYER:0
M107
G0 F3600 X-1.297 Y18.143 Z0.2
;TYPE:SKIRT
G1 F1500 E0
G1 F1800 X-4.053 Y18.219 E0.15287
G1 X-5.417 Y18.287 E0.22859
G1 X-5.897 Y18.299 E0.25521
G1 X-14.312 Y18.299 E0.7218
G1 X-15.361 Y18.297 E0.77996
G1 X-15.635 Y18.299 E0.79515
G1 X-23.361 Y18.299 E1.22354
G1 X-24.067 Y18.289 E1.26268
G1 X-25.585 Y18.225 E1.34693
G1 X-28.334 Y18.145 E1.49941
G1 X-31.047 Y18.143 E1.64984
G1 X-33.803 Y18.219 E1.80271
G1 X-35.167 Y18.287 E1.87843
G1 X-35.647 Y18.299 E1.90506
G1 X-43.396 Y18.299 E2.33471
G1 X-44.094 Y18.289 E2.37342
G1 X-44.606 Y18.241 E2.40193
G1 X-45.103 Y18.115 E2.43036
G1 X-45.575 Y17.914 E2.4588
G1 X-46.011 Y17.641 E2.48733
G1 X-46.398 Y17.305 E2.51574
G1 X-46.729 Y16.912 E2.54423
G1 X-46.995 Y16.473 E2.57269
G1 X-47.189 Y15.997 E2.6012
G1 X-47.308 Y15.498 E2.62964
G1 X-47.355 Y14.746 E2.67142
G1 X-47.356 Y-14.372 E4.28591
G1 X-47.347 Y-15.037 E4.32279
G1 X-47.3 Y-15.548 E4.35124
G1 X-47.174 Y-16.046 E4.37972
G1 X-46.973 Y-16.518 E4.40817
G1 X-46.701 Y-16.953 E4.43661
G1 X-46.364 Y-17.341 E4.46511
G1 X-45.972 Y-17.672 E4.49356
G1 X-45.533 Y-17.939 E4.52205
G1 X-45.058 Y-18.133 E4.55049
G1 X-44.558 Y-18.252 E4.57899
G1 X-43.818 Y-18.3 E4.62011
G1 X-35.977 Y-18.301 E5.05487
G1 X-35.272 Y-18.291 E5.09396
G1 X-33.826 Y-18.23 E5.17421
G1 X-31.032 Y-18.149 E5.32919
G1 X-28.32 Y-18.147 E5.47956
G1 X-25.561 Y-18.223 E5.6326
G1 X-24.256 Y-18.288 E5.70504
G1 X-23.754 Y-18.301 E5.73289
G1 X-15.353 Y-18.303 E6.19869
G1 X-14.304 Y-18.299 E6.25686
G1 X-14.036 Y-18.301 E6.27172
G1 X-6.227 Y-18.301 E6.7047
G1 X-5.521 Y-18.291 E6.74385
G1 X-4.076 Y-18.23 E6.82404
G1 X-1.282 Y-18.149 E6.97903
G1 X1.431 Y-18.147 E7.12945
G1 X4.188 Y-18.223 E7.28238
G1 X5.494 Y-18.288 E7.35488
G1 X5.996 Y-18.301 E7.38272
G1 X14.397 Y-18.303 E7.84853
G1 X15.485 Y-18.299 E7.90886
G1 X15.727 Y-18.301 E7.92228
G1 X23.422 Y-18.301 E8.34894
G1 X24.128 Y-18.291 E8.38809
G1 X25.745 Y-18.223 E8.47782
G1 X28.521 Y-18.147 E8.6318
G1 X31.234 Y-18.15 E8.78223
G1 X34.009 Y-18.231 E8.93616
G1 X35.145 Y-18.288 E8.99922
G1 X35.647 Y-18.301 E9.02707
G1 X43.375 Y-18.301 E9.45556
G1 X44.073 Y-18.291 E9.49426
G1 X44.585 Y-18.243 E9.52278
G1 X45.082 Y-18.117 E9.55121
G1 X45.554 Y-17.916 E9.57965
G1 X45.99 Y-17.643 E9.60817
G1 X46.377 Y-17.307 E9.63659
G1 X46.708 Y-16.914 E9.66508
G1 X46.974 Y-16.475 E9.69354
G1 X47.168 Y-15.999 E9.72204
G1 X47.287 Y-15.5 E9.75049
G1 X47.334 Y-14.764 E9.79138
G1 X47.335 Y14.304 E11.4031
G1 X47.326 Y15.031 E11.44341
G1 X47.279 Y15.542 E11.47187
G1 X47.154 Y16.04 E11.50033
G1 X46.954 Y16.513 E11.52881
G1 X46.682 Y16.948 E11.55726
G1 X46.346 Y17.337 E11.58576
G1 X45.954 Y17.668 E11.6142
G1 X45.515 Y17.935 E11.64269
G1 X45.041 Y18.13 E11.67111
G1 X44.541 Y18.25 E11.69962
G1 X43.797 Y18.298 E11.74096
G1 X36.038 Y18.299 E12.17117
G1 X35.333 Y18.289 E12.21026
G1 X33.814 Y18.225 E12.29456
G1 X31.065 Y18.145 E12.44705
G1 X28.353 Y18.143 E12.59742
G1 X25.597 Y18.219 E12.75029
G1 X24.232 Y18.287 E12.82607
G1 X23.753 Y18.299 E12.85264
G1 X15.332 Y18.301 E13.31955
G1 X14.244 Y18.297 E13.37988
G1 X14.002 Y18.299 E13.3933
G1 X6.389 Y18.299 E13.81541
G1 X5.683 Y18.289 E13.85456
G1 X4.165 Y18.225 E13.9388
G1 X1.416 Y18.145 E14.09129
G1 X-1.297 Y18.143 E14.24172
G1 F1500 E7.74172
;MESH:N.stl
G0 F3600 X-4.902 Y14.085
G0 X-6.481 Y14.085
G0 X-6.547 Y-2.322
G0 X-6.467 Y-2.263
;TYPE:WALL-INNER
G1 F1500 E14.24172
G1 F1800 X-6.467 Y14.099 E15.14894
G1 X-13.406 Y14.099 E15.53368
G1 X-13.406 Y-14.101 E17.09728
G1 X-6.043 Y-14.101 E17.50553
G1 X5.298 Y2.527 E18.62152
G1 X6.567 Y2.134 E18.69518
G1 X6.567 Y-14.101 E19.59536
G1 X13.485 Y-14.101 E19.97894
G1 X13.485 Y14.099 E21.54253
G1 X6.206 Y14.099 E21.94613
G1 X-5.197 Y-2.654 E23.06978
G1 X-6.467 Y-2.263 E23.14346
G0 F3600 X-5.867 Y-1.82
;TYPE:WALL-OUTER
G1 F1800 X-5.867 Y-1.564 E23.15765
G1 X-5.867 Y14.699 E24.05938
G1 X-14.006 Y14.699 E24.51066
G1 X-14.006 Y-14.701 E26.14079
G1 X-5.726 Y-14.701 E26.59989
G1 X5.4 Y1.612 E27.69474
G1 X5.544 Y1.823 E27.7089
G1 X5.967 Y1.692 E27.73346
G1 X5.967 Y1.436 E27.74587
G1 X5.967 Y-14.701 E28.64061
G1 X14.085 Y-14.701 E29.09073
G1 X14.085 Y14.699 E30.72086
G1 X5.888 Y14.699 E31.17535
G1 X-5.3 Y-1.739 E32.27786
G1 X-5.444 Y-1.95 E32.29024
G1 X-5.867 Y-1.82 E32.31478
G0 F3600 X-5.867 Y-1.62
G0 X-6.527 Y-1.62
G0 X-6.567 Y-1.62
G0 X-7.077 Y-7.098
;TYPE:SKIN
G1 F1800 X-8.606 Y-6.626 E32.4035
G1 X-8.606 Y-9.301 E32.55182
G1 X-8.58 Y-9.301 E32.55327
G1 X-7.077 Y-7.098 E32.70113
G0 F3600 X-6.123 Y-6.764
G1 F1800 X-9.206 Y-5.814 E32.88001
G1 X-9.206 Y-9.901 E33.10662
G1 X-8.263 Y-9.901 E33.1589
G1 X-6.123 Y-6.764 E33.36946
G0 F3600 X-5.169 Y-6.43
G1 F1800 X-9.806 Y-5.002 E33.63848
G1 X-9.806 Y-10.501 E33.94338
G1 X-7.946 Y-10.501 E34.04651
G1 X-5.169 Y-6.43 E34.31975
G0 F3600 X-4.215 Y-6.096
G1 F1800 X-9.467 Y-4.479 E34.62445
G1 X-9.467 Y11.099 E35.48819
G1 X-10.406 Y11.099 E35.54026
G1 X-10.406 Y-11.101 E36.77117
G1 X-7.629 Y-11.101 E36.92515
G1 X-4.215 Y-6.096 E37.26107
G0 F3600 X-4.21 Y-5.47
G1 F1800 X-8.867 Y-4.036 E37.53125
G1 X-8.867 Y11.699 E38.4037
G1 X-11.006 Y11.699 E38.5223
G1 X-11.006 Y-11.701 E39.81976
G1 X-7.312 Y-11.701 E40.02458
G1 X4.314 Y5.343 E41.16853
G1 X8.967 Y3.902 E41.43861
G1 X8.967 Y-11.701 E42.30374
G1 X11.085 Y-11.701 E42.42118
G1 X11.085 Y11.699 E43.71863
G1 X7.478 Y11.699 E43.91863
G1 X-4.21 Y-5.47 E45.07024
G0 F3600 X-4.457 Y-4.766
G1 F1800 X-8.267 Y-3.593 E45.29128
G1 X-8.267 Y12.299 E46.17244
G1 X-11.606 Y12.299 E46.35757
G1 X-11.606 Y-12.301 E47.72156
G1 X-6.995 Y-12.301 E47.97722
G1 X4.56 Y4.639 E49.11419
G1 X8.367 Y3.46 E49.33517
G1 X8.367 Y-12.301 E50.20906
G1 X11.685 Y-12.301 E50.39303
G1 X11.685 Y12.299 E51.75702
G1 X7.16 Y12.299 E52.00792
G1 X-4.457 Y-4.766 E53.15255
G0 F3600 X-4.704 Y-4.062
G1 F1800 X-7.667 Y-3.15 E53.32445
G1 X-7.667 Y12.899 E54.21431
G1 X-12.206 Y12.899 E54.46598
G1 X-12.206 Y-12.901 E55.8965
G1 X-6.678 Y-12.901 E56.20301
G1 X4.806 Y3.935 E57.333
G1 X7.767 Y3.018 E57.50487
G1 X7.767 Y-12.901 E58.38753
G1 X12.285 Y-12.901 E58.63803
G1 X12.285 Y12.899 E60.06856
G1 X6.842 Y12.899 E60.37035
G1 X-4.704 Y-4.062 E61.508
G0 F3600 X-4.951 Y-3.358
G1 F1800 X-7.067 Y-2.707 E61.63075
G1 X-7.067 Y13.499 E62.52932
G1 X-12.806 Y13.499 E62.84753
G1 X-12.806 Y-13.501 E64.34459
G1 X-6.361 Y-13.501 E64.70194
G1 X5.052 Y3.231 E65.82495
G1 X7.167 Y2.576 E65.94771
G1 X7.167 Y-13.501 E66.83913
G1 X12.885 Y-13.501 E67.15617
G1 X12.885 Y13.499 E68.65323
G1 X6.524 Y13.499 E69.00593
G1 X-4.951 Y-3.358 E70.1366
G0 F3600 X5.259 Y6.306
G1 F1800 X9.885 Y4.873 E70.40512
G1 X9.885 Y10.499 E70.71706
G1 X8.114 Y10.499 E70.81526
G1 X5.259 Y6.306 E71.09652
G0 F3600 X6.212 Y6.639
G1 F1800 X9.285 Y5.687 E71.2749
G1 X9.285 Y9.899 E71.50844
G1 X8.432 Y9.899 E71.55573
G1 X6.212 Y6.639 E71.77442
G0 F3600 X7.165 Y6.972
G1 F1800 X8.685 Y6.501 E71.86265
G1 X8.685 Y9.204 E72.01253
G1 X7.165 Y6.972 E72.16225
G0 F3600 X9.567 Y-11.101
G1 F1800 X10.485 Y-11.101 E72.21315
G1 X10.485 Y11.099 E73.44407
G1 X7.796 Y11.099 E73.59317
G1 X4.306 Y5.973 E73.93701
G1 X9.567 Y4.344 E74.24237
G1 X9.567 Y-11.101 E75.09875
G0 F3600 X9.882 Y-10.5
;TYPE:SKIN
G1 F1800 X10.17 Y-10.5 E75.10673
G0 F3600 X10.17 Y-10.2
G1 F1800 X9.882 Y-10.2 E75.11472
G0 F3600 X9.882 Y-9.9
G1 F1800 X10.17 Y-9.9 E75.1227
G0 F3600 X10.17 Y-9.6
G1 F1800 X9.882 Y-9.6 E75.13068
G0 F3600 X9.882 Y-9.3
G1 F1800 X10.17 Y-9.3 E75.13867
G0 F3600 X10.17 Y-9
G1 F1800 X9.882 Y-9 E75.14665
G0 F3600 X9.882 Y-8.7
G1 F1800 X10.17 Y-8.7 E75.15464
G0 F3600 X10.17 Y-8.4
G1 F1800 X9.882 Y-8.4 E75.16262
G0 F3600 X9.882 Y-8.099
G1 F1800 X10.17 Y-8.099 E75.17061
G0 F3600 X10.17 Y-7.799
G1 F1800 X9.882 Y-7.799 E75.17859
G0 F3600 X9.882 Y-7.499
G1 F1800 X10.17 Y-7.499 E75.18658
G0 F3600 X10.17 Y-7.199
G1 F1800 X9.882 Y-7.199 E75.19456
G0 F3600 X9.882 Y-6.899
G1 F1800 X10.17 Y-6.899 E75.20254
G0 F3600 X10.17 Y-6.599
G1 F1800 X9.882 Y-6.599 E75.21053
G0 F3600 X9.882 Y-6.299
G1 F1800 X10.17 Y-6.299 E75.21851
G0 F3600 X10.17 Y-5.999
G1 F1800 X9.882 Y-5.999 E75.2265
G0 F3600 X9.882 Y-5.699
G1 F1800 X10.17 Y-5.699 E75.23448
G0 F3600 X10.17 Y-5.399
G1 F1800 X9.882 Y-5.399 E75.24247
G0 F3600 X9.882 Y-5.099
G1 F1800 X10.17 Y-5.099 E75.25045
G0 F3600 X10.17 Y-4.799
G1 F1800 X9.882 Y-4.799 E75.25843
G0 F3600 X9.882 Y-4.499
G1 F1800 X10.17 Y-4.499 E75.26642
G0 F3600 X10.17 Y-4.199
G1 F1800 X9.882 Y-4.199 E75.2744
G0 F3600 X9.882 Y-3.899
G1 F1800 X10.17 Y-3.899 E75.28239
G0 F3600 X10.17 Y-3.599
G1 F1800 X9.882 Y-3.599 E75.29037
G0 F3600 X9.882 Y-3.299
G1 F1800 X10.17 Y-3.299 E75.29836
G0 F3600 X10.17 Y-2.999
G1 F1800 X9.882 Y-2.999 E75.30634
G0 F3600 X9.882 Y-2.699
G1 F1800 X10.17 Y-2.699 E75.31432
G0 F3600 X10.17 Y-2.399
G1 F1800 X9.882 Y-2.399 E75.32231
G0 F3600 X9.882 Y-2.099
G1 F1800 X10.17 Y-2.099 E75.33029
G0 F3600 X10.17 Y-1.799
G1 F1800 X9.882 Y-1.799 E75.33828
G0 F3600 X9.882 Y-1.499
G1 F1800 X10.17 Y-1.499 E75.34626
G0 F3600 X10.17 Y-1.199
G1 F1800 X9.882 Y-1.199 E75.35425
G0 F3600 X9.882 Y-.899
G1 F1800 X10.17 Y-.899 E75.36223
G0 F3600 X10.17 Y-.599
G1 F1800 X9.882 Y-.599 E75.37021
G0 F3600 X9.882 Y-.299
G1 F1800 X10.17 Y-.299 E75.3782
G0 F3600 X10.17 Y0.00
G1 F1800 X9.882 Y0.00 E75.38618
G0 F3600 X9.882 Y0.3
G1 F1800 X10.17 Y0.3 E75.39417
G0 F3600 X10.17 Y0.6
G1 F1800 X9.882 Y0.6 E75.40215
G0 F3600 X9.882 Y0.9
G1 F1800 X10.17 Y0.9 E75.41014
G0 F3600 X10.17 Y1.2
G1 F1800 X9.882 Y1.2 E75.41812
G0 F3600 X9.882 Y1.5
G1 F1800 X10.17 Y1.5 E75.4261
G0 F3600 X10.17 Y1.8
G1 F1800 X9.882 Y1.8 E75.43409
G0 F3600 X9.882 Y2.1
G1 F1800 X10.17 Y2.1 E75.44207
G0 F3600 X10.17 Y2.4
G1 F1800 X9.882 Y2.4 E75.45006
G0 F3600 X9.882 Y2.7
G1 F1800 X10.17 Y2.7 E75.45804
G0 F3600 X10.17 Y3
G1 F1800 X9.882 Y3 E75.46603
G0 F3600 X9.882 Y3.3
G1 F1800 X10.17 Y3.3 E75.47401
G0 F3600 X10.17 Y3.6
G1 F1800 X9.882 Y3.6 E75.48199
G0 F3600 X9.882 Y3.9
G1 F1800 X10.17 Y3.9 E75.48998
G0 F3600 X10.17 Y4.2
G1 F1800 X9.882 Y4.2 E75.49796
G0 F3600 X9.882 Y4.5
G1 F1800 X10.072 Y4.5 E75.50323
G0 F3600 X8.37 Y7.2
G1 F1800 X7.701 Y7.2 E75.52178
G0 F3600 X7.904 Y7.5
G1 F1800 X8.37 Y7.5 E75.5347
G0 F3600 X8.37 Y7.8
G1 F1800 X8.109 Y7.8 E75.54193
G0 F3600 X4.171 Y5.7
G1 F1800 X3.773 Y5.7 E75.55297
G0 F3600 X3.971 Y5.4
G1 F1800 X3.569 Y5.4 E75.56411
G0 F3600 X3.766 Y5.1
G1 F1800 X3.365 Y5.1 E75.57523
G0 F3600 X3.561 Y4.8
G1 F1800 X3.16 Y4.8 E75.58635
G0 F3600 X3.357 Y4.5
G1 F1800 X2.956 Y4.5 E75.59746
G0 F3600 X3.152 Y4.2
G1 F1800 X2.752 Y4.2 E75.60855
G0 F3600 X2.947 Y3.9
G1 F1800 X2.548 Y3.9 E75.61961
G0 F3600 X2.744 Y3.6
G1 F1800 X2.345 Y3.6 E75.63068
G0 F3600 X2.539 Y3.3
G1 F1800 X2.14 Y3.3 E75.64174
G0 F3600 X2.335 Y3
G1 F1800 X1.935 Y3 E75.65283
G0 F3600 X2.13 Y2.7
G1 F1800 X1.731 Y2.7 E75.66389
G0 F3600 X1.924 Y2.4
G1 F1800 X1.527 Y2.4 E75.67489
G0 F3600 X1.72 Y2.1
G1 F1800 X1.323 Y2.1 E75.6859
G0 F3600 X1.516 Y1.8
G1 F1800 X1.119 Y1.8 E75.69691
G0 F3600 X1.311 Y1.5
G1 F1800 X0.914 Y1.5 E75.70791
G0 F3600 X1.107 Y1.2
G1 F1800 X0.71 Y1.2 E75.71892
G0 F3600 X0.902 Y0.9
G1 F1800 X0.506 Y0.9 E75.7299
G0 F3600 X0.697 Y0.6
G1 F1800 X0.302 Y0.6 E75.74085
G0 F3600 X0.493 Y0.3
G1 F1800 X0.097 Y0.3 E75.75183
G0 F3600 X0.288 Y0.00
G1 F1800 X-.106 Y0.00 E75.76275
G0 F3600 X0.084 Y-.3
G1 F1800 X-.31 Y-.3 E75.77367
G0 F3600 X-.12 Y-.6
G1 F1800 X-.514 Y-.6 E75.78459
G0 F3600 X-.325 Y-.9
G1 F1800 X-.718 Y-.9 E75.79549
G0 F3600 X-.529 Y-1.2
G1 F1800 X-.922 Y-1.2 E75.80639
G0 F3600 X-.734 Y-1.5
G1 F1800 X-1.127 Y-1.5 E75.81728
G0 F3600 X-.939 Y-1.8
G1 F1800 X-1.331 Y-1.8 E75.82815
G0 F3600 X-1.143 Y-2.1
G1 F1800 X-1.534 Y-2.1 E75.83899
G0 F3600 X-1.348 Y-2.4
G1 F1800 X-1.738 Y-2.4 E75.8498
G0 F3600 X-1.552 Y-2.7
G1 F1800 X-1.943 Y-2.7 E75.86064
G0 F3600 X-1.757 Y-3
G1 F1800 X-2.148 Y-3 E75.87148
G0 F3600 X-1.962 Y-3.3
G1 F1800 X-2.352 Y-3.3 E75.88229
G0 F3600 X-2.167 Y-3.6
G1 F1800 X-2.556 Y-3.6 E75.89308
G0 F3600 X-2.371 Y-3.9
G1 F1800 X-2.76 Y-3.9 E75.90386
G0 F3600 X-2.576 Y-4.2
G1 F1800 X-2.964 Y-4.2 E75.91462
G0 F3600 X-2.78 Y-4.5
G1 F1800 X-3.168 Y-4.5 E75.92537
G0 F3600 X-2.985 Y-4.8
G1 F1800 X-3.372 Y-4.8 E75.9361
G0 F3600 X-3.189 Y-5.1
G1 F1800 X-3.576 Y-5.1 E75.94683
G0 F3600 X-3.394 Y-5.4
G1 F1800 X-3.781 Y-5.4 E75.95756
G0 F3600 X-3.599 Y-5.7
G1 F1800 X-3.985 Y-5.7 E75.96826
G0 F3600 X-7.812 Y-7.2
G1 F1800 X-8.291 Y-7.2 E75.98154
G0 F3600 X-8.291 Y-7.5
G1 F1800 X-7.732 Y-7.5 E75.99704
G0 F3600 X-7.936 Y-7.8
G1 F1800 X-8.291 Y-7.8 E76.00688
G0 F3600 X-8.291 Y-8.1
G1 F1800 X-8.141 Y-8.1 E76.01104
G0 F3600 X-9.782 Y-4.5
G1 F1800 X-10.091 Y-4.5 E76.01961
G0 F3600 X-10.091 Y-4.2
G1 F1800 X-9.782 Y-4.2 E76.02817
G0 F3600 X-9.782 Y-3.9
G1 F1800 X-10.091 Y-3.9 E76.03674
G0 F3600 X-10.091 Y-3.6
G1 F1800 X-9.782 Y-3.6 E76.0453
G0 F3600 X-9.782 Y-3.3
G1 F1800 X-10.091 Y-3.3 E76.05387
G0 F3600 X-10.091 Y-3
G1 F1800 X-9.782 Y-3 E76.06244
G0 F3600 X-9.782 Y-2.7
G1 F1800 X-10.091 Y-2.7 E76.071
G0 F3600 X-10.091 Y-2.4
G1 F1800 X-9.782 Y-2.4 E76.07957
G0 F3600 X-9.782 Y-2.1
G1 F1800 X-10.091 Y-2.1 E76.08814
G0 F3600 X-10.091 Y-1.8
G1 F1800 X-9.782 Y-1.8 E76.0967
G0 F3600 X-9.782 Y-1.5
G1 F1800 X-10.091 Y-1.5 E76.10527
G0 F3600 X-10.091 Y-1.2
G1 F1800 X-9.782 Y-1.2 E76.11384
G0 F3600 X-9.782 Y-.9
G1 F1800 X-10.091 Y-.9 E76.1224
G0 F3600 X-10.091 Y-.6
G1 F1800 X-9.782 Y-.6 E76.13097
G0 F3600 X-9.782 Y-.3
G1 F1800 X-10.091 Y-.3 E76.13954
G0 F3600 X-10.091 Y0.00
G1 F1800 X-9.782 Y0.00 E76.1481
G0 F3600 X-9.782 Y0.299
G1 F1800 X-10.091 Y0.299 E76.15667
G0 F3600 X-10.091 Y0.599
G1 F1800 X-9.782 Y0.599 E76.16524
G0 F3600 X-9.782 Y0.899
G1 F1800 X-10.091 Y0.899 E76.1738
G0 F3600 X-10.091 Y1.199
G1 F1800 X-9.782 Y1.199 E76.18237
G0 F3600 X-9.782 Y1.499
G1 F1800 X-10.091 Y1.499 E76.19094
G0 F3600 X-10.091 Y1.799
G1 F1800 X-9.782 Y1.799 E76.1995
G0 F3600 X-9.782 Y2.099
G1 F1800 X-10.091 Y2.099 E76.20807
G0 F3600 X-10.091 Y2.399
G1 F1800 X-9.782 Y2.399 E76.21664
G0 F3600 X-9.782 Y2.699
G1 F1800 X-10.091 Y2.699 E76.2252
G0 F3600 X-10.091 Y2.999
G1 F1800 X-9.782 Y2.999 E76.23377
G0 F3600 X-9.782 Y3.299
G1 F1800 X-10.091 Y3.299 E76.24233
G0 F3600 X-10.091 Y3.599
G1 F1800 X-9.782 Y3.599 E76.2509
G0 F3600 X-9.782 Y3.899
G1 F1800 X-10.091 Y3.899 E76.25947
G0 F3600 X-10.091 Y4.199
G1 F1800 X-9.782 Y4.199 E76.26803
G0 F3600 X-9.782 Y4.499
G1 F1800 X-10.091 Y4.499 E76.2766
G0 F3600 X-10.091 Y4.799
G1 F1800 X-9.782 Y4.799 E76.28517
G0 F3600 X-9.782 Y5.099
G1 F1800 X-10.091 Y5.099 E76.29373
G0 F3600 X-10.091 Y5.399
G1 F1800 X-9.782 Y5.399 E76.3023
G0 F3600 X-9.782 Y5.699
G1 F1800 X-10.091 Y5.699 E76.31087
G0 F3600 X-10.091 Y5.999
G1 F1800 X-9.782 Y5.999 E76.31943
G0 F3600 X-9.782 Y6.299
G1 F1800 X-10.091 Y6.299 E76.328
G0 F3600 X-10.091 Y6.599
G1 F1800 X-9.782 Y6.599 E76.33657
G0 F3600 X-9.782 Y6.899
G1 F1800 X-10.091 Y6.899 E76.34513
G0 F3600 X-10.091 Y7.199
G1 F1800 X-9.782 Y7.199 E76.3537
G0 F3600 X-9.782 Y7.499
G1 F1800 X-10.091 Y7.499 E76.36227
G0 F3600 X-10.091 Y7.799
G1 F1800 X-9.782 Y7.799 E76.37083
G0 F3600 X-9.782 Y8.099
G1 F1800 X-10.091 Y8.099 E76.3794
G0 F3600 X-10.091 Y8.4
G1 F1800 X-9.782 Y8.4 E76.38797
G0 F3600 X-9.782 Y8.7
G1 F1800 X-10.091 Y8.7 E76.39653
G0 F3600 X-10.091 Y9
G1 F1800 X-9.782 Y9 E76.4051
G0 F3600 X-9.782 Y9.3
G1 F1800 X-10.091 Y9.3 E76.41366
G0 F3600 X-10.091 Y9.6
