;FLAVOR:Marlin
;TIME:1311
;Filament used: 2.16386m
;Layer height: 0.2
;MINX:-23.449
;MINY:-51.109
;MINZ:0.2
;MAXX:50.016
;MAXY:25.18
;MAXZ:3.6
;POSTPROCESSED
;Generated with Cura_SteamEngine 4.8.0
M140 S60
M105
M190 S60
M104 S195
M105
M109 S195
M82 ;absolute extrusion mode
G28 ;Home
G1 Z15.0 F6000 ;Move the platform down 15mm
;Prime the extruder
G92 E0
G1 F200 E3
G92 E0
G92 E0
G92 E0
G1 F1500 E-6.5
;LAYER_COUNT:18
;LAYER:0
M107
G0 F3600 X-3.425 Y19.991 Z0.2
;TYPE:SKIRT
G1 F1500 E0
G1 F1800 X-4.584 Y19.841 E0.0648
G1 X-5.372 Y19.728 E0.10894
G1 X-5.71 Y19.664 E0.12801
G1 X-6.498 Y19.478 E0.1729
G1 X-8.213 Y19.052 E0.27088
G1 X-8.879 Y18.878 E0.30905
G1 X-9.521 Y18.649 E0.34685
G1 X-10.362 Y18.262 E0.39818
G1 X-11.672 Y17.637 E0.47865
G1 X-12.323 Y17.314 E0.51895
G1 X-12.968 Y16.911 E0.56112
G1 X-13.562 Y16.454 E0.60267
G1 X-14.769 Y15.498 E0.68805
G1 X-15.307 Y15.059 E0.72655
G1 X-15.853 Y14.515 E0.76928
G1 X-16.35 Y13.91 E0.8127
G1 X-17.25 Y12.785 E0.89258
G1 X-17.71 Y12.195 E0.93406
G1 X-18.117 Y11.551 E0.9763
G1 X-18.421 Y10.948 E1.01374
G1 X-19.15 Y9.44 E1.10661
G1 X-19.438 Y8.823 E1.14437
G1 X-19.67 Y8.188 E1.18185
G1 X-19.917 Y7.268 E1.23467
G1 X-20.319 Y5.668 E1.32614
G1 X-20.473 Y5.017 E1.36323
G1 X-20.562 Y4.468 E1.39407
G1 X-20.644 Y3.552 E1.44506
G1 X-20.788 Y1.613 E1.55287
G1 X-20.887 Y-0.036 E1.64447
G1 X-21.087 Y-2.726 E1.79403
G1 X-21.367 Y-5.45 E1.94586
G1 X-21.724 Y-8.159 E2.09737
G1 X-22.15 Y-10.822 E2.2469
G1 X-22.657 Y-13.499 E2.39797
G1 X-23.367 Y-16.731 E2.58144
G1 X-23.449 Y-17.283 E2.61239
G1 X-23.446 Y-17.912 E2.64726
G1 X-23.323 Y-18.609 E2.68651
G1 X-23.269 Y-18.808 E2.69794
G1 X-22.606 Y-21.432 E2.848
G1 X-22.012 Y-24.091 E2.99907
G1 X-21.501 Y-26.747 E3.14904
G1 X-21.059 Y-29.442 E3.30046
G1 X-20.696 Y-32.123 E3.45047
G1 X-20.435 Y-34.676 E3.59276
G1 X-20.35 Y-35.442 E3.6355
G1 X-20.247 Y-36.033 E3.66876
G1 X-20.173 Y-36.372 E3.688
G1 X-19.76 Y-38.149 E3.78915
G1 X-19.591 Y-38.831 E3.82811
G1 X-19.421 Y-39.354 E3.8586
G1 X-19.176 Y-39.937 E3.89367
G1 X-18.544 Y-41.366 E3.9803
G1 X-18.26 Y-41.985 E4.01807
G1 X-17.917 Y-42.586 E4.05643
G1 X-17.28 Y-43.5 E4.11821
G1 X-16.656 Y-44.363 E4.17725
G1 X-16.258 Y-44.895 E4.21409
G1 X-15.753 Y-45.449 E4.25566
G1 X-15.221 Y-45.931 E4.29546
G1 X-13.834 Y-47.149 E4.39781
G1 X-13.377 Y-47.54 E4.43116
G1 X-12.735 Y-47.987 E4.47453
G1 X-11.895 Y-48.452 E4.52777
G1 X-10.455 Y-49.215 E4.61813
G1 X-9.838 Y-49.53 E4.65654
G1 X-9.232 Y-49.777 E4.69282
G1 X-8.669 Y-49.944 E4.72538
G1 X-6.52 Y-50.537 E4.84899
G1 X-5.878 Y-50.703 E4.88576
G1 X-5.343 Y-50.802 E4.91593
G1 X-4.732 Y-50.864 E4.94998
G1 X-2.235 Y-51.066 E5.08888
G1 X-1.656 Y-51.105 E5.12106
G1 X-1.189 Y-51.109 E5.14695
G1 X0.027 Y-51.044 E5.21447
G1 X1.821 Y-50.913 E5.31421
G1 X2.538 Y-50.85 E5.35412
G1 X3.085 Y-50.763 E5.38483
G1 X3.864 Y-50.58 E5.42919
G1 X5.59 Y-50.151 E5.52781
G1 X6.253 Y-49.977 E5.56581
G1 X6.889 Y-49.75 E5.60326
G1 X7.693 Y-49.381 E5.65231
G1 X9.039 Y-48.738 E5.73502
G1 X9.69 Y-48.415 E5.77531
G1 X10.335 Y-48.012 E5.81748
G1 X10.929 Y-47.555 E5.85903
G1 X12.109 Y-46.62 E5.94251
G1 X12.672 Y-46.161 E5.98279
G1 X13.22 Y-45.616 E6.02564
G1 X13.717 Y-45.011 E6.06905
G1 X14.599 Y-43.908 E6.14736
G1 X15.076 Y-43.297 E6.19034
G1 X15.391 Y-42.827 E6.22171
G1 X15.693 Y-42.297 E6.25553
G1 X16.535 Y-40.775 E6.35198
G1 X17.904 Y-38.459 E6.50115
G1 X19.363 Y-36.143 E6.65292
G1 X20.863 Y-33.905 E6.8023
G1 X22.452 Y-31.674 E6.95417
G1 X24.101 Y-29.49 E7.10591
G1 X25.77 Y-27.405 E7.25399
G1 X27.538 Y-25.322 E7.40548
G1 X29.362 Y-23.292 E7.5568
G1 X31.247 Y-21.308 E7.70854
G1 X33.157 Y-19.409 E7.85788
G1 X35.157 Y-17.532 E8.00996
G1 X37.174 Y-15.744 E8.15941
G1 X39.25 Y-14.003 E8.30964
G1 X41.314 Y-12.367 E8.45567
G1 X42.746 Y-11.264 E8.55589
G1 X43.929 Y-10.327 E8.63957
G1 X44.486 Y-9.873 E8.67941
G1 X45.032 Y-9.33 E8.72211
G1 X45.532 Y-8.723 E8.76571
G1 X46.432 Y-7.597 E8.84564
G1 X46.893 Y-7.006 E8.8872
G1 X47.306 Y-6.351 E8.93013
G1 X47.626 Y-5.711 E8.9698
G1 X48.328 Y-4.26 E9.05918
G1 X48.621 Y-3.632 E9.0976
G1 X48.852 Y-2.999 E9.13496
G1 X49.105 Y-2.06 E9.18889
G1 X49.501 Y-.484 E9.27899
G1 X49.656 Y0.168 E9.31614
G1 X49.747 Y0.723 E9.34733
G1 X49.826 Y1.621 E9.39731
G1 X49.974 Y3.616 E9.50823
G1 X50.015 Y4.295 E9.54595
G1 X50.016 Y4.748 E9.57107
G1 X49.967 Y5.61 E9.61894
G1 X49.821 Y7.663 E9.73306
G1 X49.759 Y8.4 E9.77407
G1 X49.677 Y8.934 E9.80402
G1 X49.521 Y9.622 E9.84314
G1 X49.075 Y11.451 E9.94752
G1 X48.895 Y12.142 E9.98711
G1 X48.678 Y12.759 E10.02338
G1 X48.33 Y13.532 E10.07038
G1 X47.688 Y14.899 E10.15412
G1 X47.375 Y15.541 E10.19372
G1 X46.974 Y16.192 E10.23611
G1 X46.505 Y16.808 E10.27904
G1 X45.63 Y17.927 E10.3578
G1 X45.164 Y18.506 E10.39901
G1 X44.616 Y19.063 E10.44234
G1 X43.904 Y19.652 E10.49357
G1 X42.879 Y20.471 E10.56632
G1 X42.299 Y20.923 E10.60709
G1 X41.636 Y21.34 E10.65052
G1 X40.904 Y21.703 E10.69582
G1 X39.521 Y22.365 E10.78084
G1 X38.901 Y22.651 E10.8187
G1 X38.264 Y22.88 E10.85623
G1 X37.343 Y23.124 E10.90906
G1 X35.763 Y23.513 E10.99928
G1 X35.04 Y23.681 E11.04043
G1 X34.491 Y23.768 E11.07125
G1 X33.798 Y23.827 E11.10982
G1 X31.569 Y23.987 E11.23373
G1 X30.752 Y24.033 E11.2791
G1 X29.87 Y24.059 E11.32802
G1 X27.143 Y24.178 E11.47937
G1 X24.398 Y24.377 E11.63197
G1 X21.735 Y24.644 E11.78037
G1 X18.997 Y24.998 E11.93344
G1 X17.992 Y25.141 E11.98973
G1 X17.436 Y25.18 E12.02063
G1 X16.879 Y25.139 E12.0516
G1 X16.15 Y24.959 E12.09323
G1 X15.159 Y24.611 E12.15147
G1 X15.02 Y24.559 E12.1597
G1 X12.422 Y23.677 E12.31182
G1 X9.881 Y22.892 E12.45928
G1 X7.209 Y22.149 E12.61306
G1 X4.574 Y21.495 E12.76359
G1 X1.948 Y20.925 E12.91259
G1 X-.755 Y20.416 E13.06509
G1 X-3.425 Y19.991 E13.215
G0 F3600 X-3.352 Y19.395
G1 F1800 X-4.498 Y19.247 E13.27907
G1 X-5.286 Y19.134 E13.32321
G1 X-5.572 Y19.08 E13.33935
G1 X-6.354 Y18.896 E13.38389
G1 X-8.061 Y18.472 E13.48141
G1 X-8.727 Y18.298 E13.51958
G1 X-9.271 Y18.104 E13.5516
G1 X-10.104 Y17.721 E13.60244
G1 X-11.406 Y17.099 E13.68244
G1 X-12.057 Y16.776 E13.72274
G1 X-12.603 Y16.435 E13.75843
G1 X-13.189 Y15.983 E13.79947
G1 X-14.389 Y15.033 E13.88433
G1 X-14.927 Y14.594 E13.92283
G1 X-15.389 Y14.134 E13.95898
G1 X-15.882 Y13.535 E14.00199
G1 X-16.776 Y12.416 E14.08141
G1 X-17.236 Y11.826 E14.12289
G1 X-17.581 Y11.281 E14.15865
G1 X-17.88 Y10.686 E14.19558
G1 X-18.606 Y9.186 E14.28798
G1 X-18.894 Y8.569 E14.32573
G1 X-19.09 Y8.032 E14.35743
G1 X-19.335 Y7.121 E14.40973
G1 X-19.735 Y5.53 E14.50069
G1 X-19.889 Y4.879 E14.53778
G1 X-19.965 Y4.415 E14.56385
G1 X-20.046 Y3.508 E14.61435
G1 X-20.189 Y1.577 E14.72171
G1 X-20.285 Y-0.025 E14.81069
G1 X-20.491 Y-2.794 E14.96465
G1 X-20.771 Y-5.52 E15.11659
G1 X-21.127 Y-8.222 E15.2677
G1 X-21.567 Y-10.971 E15.42206
G1 X-22.066 Y-13.6 E15.57044
G1 X-22.624 Y-16.149 E15.71512
G1 X-22.782 Y-16.861 E15.75555
G1 X-22.854 Y-17.369 E15.784
G1 X-22.848 Y-17.862 E15.81134
G1 X-22.744 Y-18.452 E15.84456
G1 X-22.69 Y-18.651 E15.85599
G1 X-22.031 Y-21.258 E16.00509
G1 X-21.415 Y-24.017 E16.16183
G1 X-20.908 Y-26.648 E16.31039
G1 X-20.467 Y-29.339 E16.46159
G1 X-20.101 Y-32.04 E16.61272
G1 X-19.839 Y-34.61 E16.75596
G1 X-19.754 Y-35.376 E16.79869
G1 X-19.659 Y-35.916 E16.82909
G1 X-19.589 Y-36.236 E16.84725
G1 X-19.177 Y-38.005 E16.94796
G1 X-19.008 Y-38.687 E16.98692
G1 X-18.783 Y-39.332 E17.0248
G1 X-18.615 Y-39.721 E17.04829
G1 X-17.998 Y-41.116 E17.13287
G1 X-17.714 Y-41.735 E17.17063
G1 X-17.424 Y-42.243 E17.20306
G1 X-16.794 Y-43.149 E17.26425
G1 X-16.175 Y-44.004 E17.32278
G1 X-15.777 Y-44.536 E17.35962
G1 X-15.351 Y-45.005 E17.39475
G1 X-14.825 Y-45.481 E17.43408
G1 X-13.444 Y-46.693 E17.53596
G1 X-12.987 Y-47.084 E17.56931
G1 X-12.443 Y-47.462 E17.60604
G1 X-11.614 Y-47.922 E17.6586
G1 X-10.183 Y-48.68 E17.74839
G1 X-9.566 Y-48.995 E17.7868
G1 X-9.052 Y-49.205 E17.81759
G1 X-8.505 Y-49.367 E17.84922
G1 X-6.37 Y-49.956 E17.97202
G1 X-5.728 Y-50.122 E18.00879
G1 X-5.029 Y-50.234 E18.04804
G1 X-4.646 Y-50.269 E18.06937
G1 X-2.195 Y-50.468 E18.20571
G1 X-1.616 Y-50.507 E18.23789
G1 X-1.22 Y-50.509 E18.25985
G1 X-0.016 Y-50.445 E18.3267
G1 X1.769 Y-50.315 E18.42593
G1 X2.486 Y-50.252 E18.46584
G1 X2.948 Y-50.178 E18.49178
G1 X3.719 Y-49.998 E18.53568
G1 X5.438 Y-49.571 E18.63389
G1 X6.101 Y-49.397 E18.6719
G1 X6.639 Y-49.205 E18.70357
G1 X7.434 Y-48.839 E18.7521
G1 X8.773 Y-48.2 E18.83436
G1 X9.424 Y-47.877 E18.87466
G1 X9.97 Y-47.536 E18.91035
G1 X10.556 Y-47.084 E18.95138
G1 X11.73 Y-46.155 E19.03439
G1 X12.293 Y-45.696 E19.07467
G1 X12.756 Y-45.235 E19.1109
G1 X13.249 Y-44.636 E19.15391
G1 X14.126 Y-43.539 E19.23178
G1 X14.603 Y-42.928 E19.27476
G1 X14.869 Y-42.53 E19.30131
G1 X15.168 Y-42.007 E19.33471
G1 X16.017 Y-40.472 E19.43197
G1 X17.401 Y-38.132 E19.58271
G1 X18.861 Y-35.814 E19.7346
G1 X20.375 Y-33.555 E19.88539
G1 X21.965 Y-31.322 E20.03738
G1 X23.618 Y-29.134 E20.18943
G1 X25.32 Y-27.008 E20.34043
G1 X27.091 Y-24.92 E20.49224
G1 X28.921 Y-22.884 E20.64402
G1 X30.813 Y-20.893 E20.79631
G1 X32.748 Y-18.97 E20.94757
G1 X34.736 Y-17.104 E21.09875
G1 X36.778 Y-15.293 E21.25009
G1 X38.88 Y-13.53 E21.4022
G1 X40.93 Y-11.905 E21.54725
G1 X42.373 Y-10.793 E21.64826
G1 X43.55 Y-9.862 E21.73147
G1 X44.107 Y-9.408 E21.77131
G1 X44.569 Y-8.949 E21.80742
G1 X45.063 Y-8.348 E21.85055
G1 X45.959 Y-7.228 E21.93008
G1 X46.42 Y-6.637 E21.97164
G1 X46.77 Y-6.083 E22.00797
G1 X47.086 Y-5.449 E22.04725
G1 X47.785 Y-4.006 E22.13615
G1 X48.078 Y-3.378 E22.17458
G1 X48.273 Y-2.842 E22.2062
G1 X48.523 Y-1.913 E22.25955
G1 X48.918 Y-.345 E22.3492
G1 X49.073 Y0.307 E22.38636
G1 X49.149 Y0.777 E22.41276
G1 X49.228 Y1.666 E22.46225
G1 X49.375 Y3.652 E22.57266
G1 X49.416 Y4.331 E22.61038
G1 X49.417 Y4.714 E22.63162
G1 X49.369 Y5.567 E22.67899
G1 X49.223 Y7.613 E22.79272
G1 X49.161 Y8.35 E22.83373
G1 X49.091 Y8.802 E22.85909
G1 X48.938 Y9.48 E22.89763
G1 X48.494 Y11.3 E23.0015
G1 X48.314 Y11.991 E23.04109
G1 X48.131 Y12.513 E23.07176
G1 X47.786 Y13.277 E23.11824
G1 X47.148 Y14.636 E23.20148
G1 X46.835 Y15.278 E23.24109
G1 X46.496 Y15.829 E23.27696
G1 X46.032 Y16.439 E23.31945
G1 X45.163 Y17.551 E23.3977
G1 X44.697 Y18.13 E23.43891
G1 X44.233 Y18.601 E23.47557
G1 X43.53 Y19.184 E23.52621
G1 X42.51 Y19.998 E23.59857
G1 X41.93 Y20.45 E23.63934
G1 X41.369 Y20.803 E23.67609
G1 X40.645 Y21.162 E23.7209
G1 X39.269 Y21.821 E23.80549
G1 X38.649 Y22.107 E23.84335
G1 X38.111 Y22.3 E23.87504
G1 X37.199 Y22.541 E23.92734
G1 X35.627 Y22.928 E24.01711
G1 X34.904 Y23.096 E24.05826
G1 X34.44 Y23.17 E24.08432
G1 X33.755 Y23.228 E24.12243
G1 X31.535 Y23.388 E24.24584
G1 X30.734 Y23.434 E24.29033
G1 X29.827 Y23.461 E24.34064
G1 X27.076 Y23.581 E24.49332
G1 X24.365 Y23.777 E24.64403
G1 X21.668 Y24.048 E24.79432
G1 X18.92 Y24.403 E24.94796
G1 X17.908 Y24.547 E25.00463
G1 X17.396 Y24.58 E25.03308
G1 X16.884 Y24.532 E25.06159
G1 X16.349 Y24.393 E25.09224
G1 X15.368 Y24.048 E25.1499
G1 X15.243 Y24.001 E25.15731
G1 X12.613 Y23.108 E25.31131
G1 X10.017 Y22.306 E25.46196
G1 X7.401 Y21.579 E25.6125
G1 X4.701 Y20.909 E25.76675
G1 X2.049 Y20.333 E25.91722
G1 X-.625 Y19.83 E26.06809
G1 X-3.352 Y19.395 E26.2212
G1 F1500 E19.7212
;MESH:Q.stl(1)
G0 F3600 X-3.151 Y16.662
G0 X-3.037 Y15.084
G0 X6.778 Y4.828
G0 X7.507 Y3.565
G0 X7.939 Y2.14
G0 X8.08 Y0.57
G0 X7.813 Y-1.937
G0 X5.7 Y-4.683
G0 X5.617 Y-4.739
;TYPE:WALL-INNER
G1 F1500 E26.2212
G1 F1800 X5.831 Y-5.063 E26.24273
G1 X5.463 Y-5.186 E26.25572
G1 X2.14 Y-6.298 E26.45001
G1 X-1.487 Y-6.588 E26.65176
G1 X-3.711 Y-6.476 E26.77523
G1 X-5.627 Y-6.137 E26.88312
G1 X-7.256 Y-5.547 E26.97918
G1 X-8.572 Y-4.691 E27.06623
G1 X-9.571 Y-3.606 E27.148
G1 X-10.28 Y-2.341 E27.22841
G1 X-10.698 Y-.913 E27.31091
G1 X-10.834 Y0.661 E27.39851
G1 X-10.694 Y2.153 E27.4816
G1 X-10.263 Y3.528 E27.56149
G1 X-9.539 Y4.758 E27.64063
G1 X-8.531 Y5.832 E27.7223
G1 X-7.228 Y6.697 E27.80902
G1 X-5.649 Y7.299 E27.90271
G1 X-3.823 Y7.646 E28.00577
G1 X-1.749 Y7.759 E28.12094
G1 X0.622 Y7.651 E28.25254
G1 X2.653 Y7.315 E28.36668
G1 X4.365 Y6.734 E28.46692
G1 X5.725 Y5.882 E28.55591
G1 X6.746 Y4.805 E28.63819
G1 X7.471 Y3.55 E28.71855
G1 X7.9 Y2.133 E28.80064
G1 X8.04 Y0.57 E28.88765
G1 X7.783 Y-1.912 E29.02601
G1 X6.589 Y-2.233 E29.09456
G1 X5.08 Y-.162 E29.23664
G1 X4.384 Y1.306 E29.32672
G1 X2.572 Y0.516 E29.43632
G1 X2.868 Y-.508 E29.49542
G1 X4.515 Y-3.068 E29.66421
G1 X5.617 Y-4.739 E29.77519
G0 F3600 X4.9 Y-4.742
;TYPE:WALL-OUTER
G1 F1800 X4.531 Y-4.865 E29.79676
G1 X2.019 Y-5.706 E29.94364
G1 X-1.496 Y-5.987 E30.13916
G1 X-3.643 Y-5.879 E30.25835
G1 X-5.471 Y-5.555 E30.36129
G1 X-6.987 Y-5.006 E30.45069
G1 X-8.182 Y-4.229 E30.52972
G1 X-9.082 Y-3.251 E30.60341
G1 X-9.723 Y-2.107 E30.67612
G1 X-10.105 Y-.802 E30.75152
G1 X-10.232 Y0.659 E30.83283
G1 X-10.103 Y2.034 E30.9094
G1 X-9.711 Y3.283 E30.98199
G1 X-9.056 Y4.396 E31.05359
G1 X-8.141 Y5.371 E31.12773
G1 X-6.952 Y6.16 E31.20685
G1 X-5.485 Y6.719 E31.2939
G1 X-3.75 Y7.049 E31.39182
G1 X-1.746 Y7.158 E31.5031
G1 X0.559 Y7.053 E31.63104
G1 X2.507 Y6.731 E31.74051
G1 X4.106 Y6.188 E31.83414
G1 X5.342 Y5.414 E31.915
G1 X6.262 Y4.444 E31.98913
G1 X6.917 Y3.31 E32.06174
G1 X7.308 Y2.018 E32.13659
G1 X7.437 Y0.574 E32.21697
G1 X7.254 Y-1.197 E32.31569
G1 X7.229 Y-1.44 E32.32924
G1 X6.831 Y-1.547 E32.35209
G1 X6.687 Y-1.349 E32.36367
G1 X5.598 Y0.146 E32.46623
G1 X4.677 Y2.088 E32.5854
G1 X1.849 Y0.856 E32.75644
G1 X2.317 Y-.762 E32.84983
G1 X4.01 Y-3.393 E33.0233
G1 X4.686 Y-4.417 E33.09133
G1 X4.687 Y-4.418 E33.09141
G1 X4.9 Y-4.742 E33.10437
G0 F3600 X4.71 Y-4.805
G0 X4.92 Y-5.43
G0 X4.933 Y-5.468
G0 X9.452 Y-10.339
G0 X9.433 Y-10.437
;TYPE:WALL-INNER
G1 F1800 X11.48 Y-13.505 E33.30887
G1 X12.022 Y-14.622 E33.37771
G1 X12.154 Y-14.893 E33.39442
G1 X12.424 Y-14.759 E33.40521
G1 X15.39 Y-13.287 E33.5888
G1 X15.676 Y-13.145 E33.60651
G1 X15.515 Y-12.869 E33.61775
G1 X13.95 Y-10.18 E33.79026
G1 X11.756 Y-7.192 E33.9958
G1 X12.851 Y-3.399 E34.2147
G1 X13.17 Y0.679 E34.4415
G1 X12.958 Y3.787 E34.61423
G1 X12.327 Y6.503 E34.76883
G1 X11.285 Y8.859 E34.91167
G1 X9.844 Y10.853 E35.04808
G1 X7.677 Y12.758 E35.20806
G1 X5.105 Y14.122 E35.36948
G1 X2.113 Y14.946 E35.54156
G1 X-1.342 Y15.226 E35.73375
G1 X-4.692 Y14.982 E35.91999
G1 X-7.61 Y14.258 E36.08669
G1 X-10.11 Y13.064 E36.2403
G1 X-12.208 Y11.405 E36.38861
G1 X-13.876 Y9.318 E36.53674
G1 X-15.074 Y6.844 E36.68915
G1 X-15.802 Y3.951 E36.85456
G1 X-16.048 Y0.635 E37.03893
G1 X-15.808 Y-2.737 E37.22636
G1 X-15.093 Y-5.681 E37.39434
G1 X-13.923 Y-8.174 E37.54704
G1 X-12.293 Y-10.258 E37.69374
G1 X-10.235 Y-11.904 E37.83985
G1 X-7.76 Y-13.088 E37.99198
G1 X-4.83 Y-13.811 E38.15931
G1 X-1.459 Y-14.055 E38.34671
G1 X1.577 Y-13.858 E38.5154
G1 X4.253 Y-13.276 E38.66724
G1 X6.601 Y-12.313 E38.80796
G1 X9.433 Y-10.437 E38.99631
G0 F3600 X9.266 Y-11.267
;TYPE:WALL-OUTER
G1 F1800 X10.958 Y-13.804 E39.16539
G1 X11.747 Y-15.428 E39.2655
G1 X11.878 Y-15.699 E39.28219
G1 X12.148 Y-15.565 E39.29296
G1 X16.231 Y-13.539 E39.54569
G1 X16.517 Y-13.397 E39.56339
G1 X16.356 Y-13.121 E39.57464
G1 X14.449 Y-9.846 E39.78477
G1 X12.414 Y-7.075 E39.97539
G1 X13.444 Y-3.505 E40.18141
G1 X13.772 Y0.68 E40.41417
G1 X13.554 Y3.871 E40.59151
G1 X12.897 Y6.698 E40.75244
G1 X11.81 Y9.156 E40.90146
G1 X10.289 Y11.261 E41.04545
G1 X8.021 Y13.254 E41.21286
G1 X5.33 Y14.682 E41.38177
G1 X2.215 Y15.54 E41.56092
G1 X-1.338 Y15.828 E41.75857
G1 X-4.786 Y15.576 E41.95026
G1 X-7.815 Y14.825 E42.12329
G1 X-10.431 Y13.575 E42.28405
G1 X-12.635 Y11.832 E42.43985
G1 X-14.385 Y9.643 E42.59524
G1 X-15.641 Y7.049 E42.75504
G1 X-16.396 Y4.049 E42.92657
G1 X-16.649 Y0.636 E43.11633
