;FLAVOR:Marlin
;TIME:1232
;Filament used: 2.09358m
;Layer height: 0.2
;MINX:-21.648
;MINY:-48.266
;MINZ:0.2
;MAXX:21.385
;MAXY:44.852
;MAXZ:3.6
;POSTPROCESSED
;Generated with Cura_SteamEngine 4.8.0
M140 S60
M105
M190 S60
M104 S195
M105
M109 S195
M82 ;absolute extrusion mode
G28 ;Home
G1 Z15.0 F6000 ;Move the platform down 15mm
;Prime the extruder
G92 E0
G1 F200 E3
G92 E0
G92 E0
G92 E0
G1 F1500 E-6.5
;LAYER_COUNT:18
;LAYER:0
M107
G0 F3600 X-18.645 Y1.989 Z0.2
;TYPE:SKIRT
G1 F1500 E0
G1 F1800 X-18.915 Y-.739 E0.152
G1 X-19.26 Y-3.43 E0.30243
G1 X-19.688 Y-6.154 E0.45532
G1 X-20.185 Y-8.83 E0.60623
G1 X-20.756 Y-11.486 E0.75686
G1 X-21.338 Y-13.877 E0.8933
G1 X-21.523 Y-14.593 E0.93431
G1 X-21.627 Y-15.353 E0.97684
G1 X-21.648 Y-16.449 E1.03762
G1 X-21.648 Y-25.272 E1.52682
G1 X-21.638 Y-25.978 E1.56597
G1 X-21.611 Y-26.639 E1.60265
G1 X-21.533 Y-29.431 E1.75752
G1 X-21.533 Y-32.155 E1.90856
G1 X-21.613 Y-34.933 E2.06265
G1 X-21.627 Y-35.217 E2.07842
G1 X-21.647 Y-35.887 E2.11559
G1 X-21.648 Y-44.337 E2.58411
G1 X-21.639 Y-45.002 E2.62098
G1 X-21.592 Y-45.513 E2.64944
G1 X-21.466 Y-46.011 E2.67792
G1 X-21.265 Y-46.483 E2.70636
G1 X-20.993 Y-46.918 E2.73481
G1 X-20.656 Y-47.306 E2.76331
G1 X-20.264 Y-47.637 E2.79175
G1 X-19.825 Y-47.904 E2.82024
G1 X-19.35 Y-48.098 E2.84869
G1 X-18.85 Y-48.217 E2.87719
G1 X-18.11 Y-48.265 E2.91831
G1 X10.992 Y-48.266 E4.53191
G1 X11.69 Y-48.256 E4.57062
G1 X12.202 Y-48.208 E4.59913
G1 X12.699 Y-48.082 E4.62756
G1 X13.171 Y-47.881 E4.65601
G1 X13.607 Y-47.608 E4.68453
G1 X13.994 Y-47.272 E4.71295
G1 X14.325 Y-46.879 E4.74144
G1 X14.591 Y-46.44 E4.7699
G1 X14.785 Y-45.964 E4.7984
G1 X14.904 Y-45.465 E4.82684
G1 X14.951 Y-44.729 E4.86773
G1 X14.952 Y-40.443 E5.10538
G1 X14.992 Y-37.649 E5.26031
G1 X15.107 Y-34.938 E5.41076
G1 X15.301 Y-32.195 E5.56323
G1 X15.571 Y-29.467 E5.71523
G1 X15.916 Y-26.775 E5.86571
G1 X16.344 Y-24.051 E6.0186
G1 X16.84 Y-21.383 E6.16907
G1 X17.412 Y-18.724 E6.31987
G1 X18.105 Y-15.905 E6.48083
G1 X18.188 Y-15.584 E6.49922
G1 X18.292 Y-14.856 E6.53999
G1 X18.304 Y-14.427 E6.56379
G1 X18.304 Y-12.595 E6.66536
G1 X18.344 Y-9.801 E6.8203
G1 X18.459 Y-7.09 E6.97075
G1 X18.653 Y-4.347 E7.12322
G1 X18.923 Y-1.619 E7.27522
G1 X19.268 Y1.073 E7.4257
G1 X19.696 Y3.797 E7.57859
G1 X20.192 Y6.465 E7.72906
G1 X20.772 Y9.16 E7.88191
G1 X21.229 Y11.038 E7.98907
G1 X21.282 Y11.27 E8.00227
G1 X21.364 Y11.941 E8.03975
G1 X21.385 Y13.035 E8.10042
G1 X21.385 Y21.858 E8.58963
G1 X21.375 Y22.561 E8.62861
G1 X21.348 Y23.223 E8.66534
G1 X21.27 Y26.014 E8.82016
G1 X21.27 Y28.728 E8.97064
G1 X21.35 Y31.508 E9.12484
G1 X21.364 Y31.803 E9.14122
G1 X21.384 Y32.473 E9.17838
G1 X21.385 Y40.857 E9.64325
G1 X21.376 Y41.584 E9.68356
G1 X21.329 Y42.095 E9.71201
G1 X21.204 Y42.593 E9.74048
G1 X21.004 Y43.066 E9.76896
G1 X20.732 Y43.501 E9.7974
G1 X20.396 Y43.89 E9.82591
G1 X20.004 Y44.221 E9.85435
G1 X19.565 Y44.488 E9.88284
G1 X19.091 Y44.683 E9.91126
G1 X18.591 Y44.803 E9.93977
G1 X17.847 Y44.851 E9.98111
G1 X-11.251 Y44.852 E11.5945
G1 X-11.949 Y44.843 E11.6332
G1 X-12.46 Y44.796 E11.66165
G1 X-12.958 Y44.671 E11.69012
G1 X-13.43 Y44.47 E11.71857
G1 X-13.866 Y44.198 E11.74706
G1 X-14.254 Y43.862 E11.77552
G1 X-14.585 Y43.47 E11.80397
G1 X-14.852 Y43.031 E11.83246
G1 X-15.047 Y42.556 E11.86093
G1 X-15.166 Y42.057 E11.88937
G1 X-15.214 Y41.299 E11.93148
G1 X-15.215 Y39.389 E12.03739
G1 X-15.255 Y36.595 E12.19232
G1 X-15.37 Y33.884 E12.34277
G1 X-15.564 Y31.14 E12.4953
G1 X-15.834 Y28.413 E12.64724
G1 X-16.179 Y25.72 E12.79778
G1 X-16.607 Y22.997 E12.95061
G1 X-17.103 Y20.328 E13.10113
G1 X-17.683 Y17.634 E13.25393
G1 X-18.14 Y15.756 E13.3611
G1 X-18.193 Y15.524 E13.37429
G1 X-18.275 Y14.853 E13.41177
G1 X-18.296 Y13.759 E13.47244
G1 X-18.296 Y10.238 E13.66767
G1 X-18.336 Y7.443 E13.82266
G1 X-18.451 Y4.732 E13.97311
G1 X-18.645 Y1.989 E14.12558
G1 F1500 E7.62558
;MESH:R.stl(1)
G0 F3600 X-3.637 Y-3.622
G0 X-2.105 Y-3.153
G0 X1.879 Y-6.416
G0 X1.949 Y-6.346
;TYPE:WALL-INNER
G1 F1500 E14.12558
G1 F1800 X1.949 Y-1.463 E14.39633
G1 X2.385 Y1.158 E14.54365
G1 X2.808 Y2.239 E14.60801
G1 X3.639 Y3.143 E14.67609
G1 X4.722 Y3.724 E14.74424
G1 X5.948 Y3.917 E14.81305
G1 X7.586 Y3.624 E14.90532
G1 X8.895 Y2.668 E14.99519
G1 X9.636 Y0.987 E15.09705
G1 X9.847 Y-1.333 E15.22622
G1 X9.847 Y-6.346 E15.50417
G1 X1.949 Y-6.346 E15.94209
G0 F3600 X2.549 Y-5.746
;TYPE:WALL-OUTER
G1 F1800 X2.549 Y-1.513 E16.1768
G1 X2.967 Y0.998 E16.31794
G1 X3.326 Y1.916 E16.37259
G1 X4.012 Y2.662 E16.42879
G1 X4.916 Y3.147 E16.48567
G1 X5.942 Y3.309 E16.54326
G1 X7.344 Y3.058 E16.62223
G1 X8.411 Y2.279 E16.69548
G1 X9.047 Y0.835 E16.78297
G1 X9.247 Y-1.36 E16.90518
G1 X9.247 Y-5.746 E17.14837
G1 X2.549 Y-5.746 E17.51975
G0 F3600 X2.549 Y-5.546
G0 X1.889 Y-5.546
G0 X1.849 Y-5.546
G0 X-1.85 Y-6.416
G0 X-1.92 Y-6.346
;TYPE:WALL-INNER
G1 F1800 X-14.096 Y-6.346 E18.19487
G1 X-14.096 Y-13.857 E18.61133
G1 X14.104 Y-13.857 E20.17492
G1 X14.104 Y0.678 E20.98084
G1 X13.924 Y4.373 E21.18596
G1 X13.41 Y6.963 E21.33237
G1 X12.483 Y8.77 E21.44497
G1 X11.02 Y10.173 E21.55736
G1 X9.065 Y11.094 E21.67719
G1 X6.669 Y11.41 E21.81119
G1 X4.571 Y11.17 E21.92827
G1 X2.821 Y10.464 E22.0329
G1 X1.368 Y9.344 E22.13462
G1 X0.204 Y7.851 E22.23959
G1 X-.378 Y6.6 E22.3161
G1 X-1.064 Y4.217 E22.45359
G1 X-2.314 Y4.124 E22.52309
G1 X-3.606 Y6.945 E22.69513
G1 X-5.014 Y8.269 E22.80229
G1 X-6.762 Y9.486 E22.92039
G1 X-13.66 Y13.048 E23.35084
G1 X-14.096 Y13.273 E23.37805
G1 X-14.096 Y12.783 E23.39361
G1 X-14.096 Y12.782 E23.39367
G1 X-14.096 Y4.814 E23.83547
G1 X-5.381 Y0.103 E24.38477
G1 X-3.814 Y-.848 E24.4864
G1 X-2.779 Y-1.811 E24.56479
G1 X-2.124 Y-3.158 E24.64784
G1 X-1.92 Y-4.563 E24.72656
G1 X-1.92 Y-6.346 E24.82542
G0 F3600 X-2.52 Y-5.746
;TYPE:WALL-OUTER
G1 F1800 X-14.696 Y-5.746 E25.50054
G1 X-14.696 Y-14.457 E25.98353
G1 X14.704 Y-14.457 E27.61366
G1 X14.704 Y0.678 E28.45285
G1 X14.521 Y4.452 E28.66235
G1 X13.983 Y7.161 E28.81549
G1 X12.972 Y9.132 E28.93831
G1 X11.363 Y10.675 E29.06192
G1 X9.237 Y11.677 E29.19223
G1 X6.675 Y12.014 E29.33551
G1 X4.424 Y11.757 E29.46113
G1 X2.52 Y10.989 E29.57497
G1 X0.941 Y9.772 E29.6855
G1 X-.311 Y8.166 E29.79841
G1 X-.943 Y6.808 E29.88146
G1 X-1.458 Y5.019 E29.98469
G1 X-1.525 Y4.784 E29.99824
G1 X-1.942 Y4.753 E30.02142
G1 X-2.044 Y4.975 E30.03304
G1 X-3.11 Y7.302 E30.17496
G1 X-4.634 Y8.735 E30.29095
G1 X-6.452 Y10.001 E30.41378
G1 X-14.259 Y14.033 E30.90097
G1 X-14.696 Y14.258 E30.92823
G1 X-14.696 Y13.767 E30.94384
G1 X-14.696 Y13.766 E30.94389
G1 X-14.696 Y4.456 E31.4601
G1 X-5.679 Y-.418 E32.02843
G1 X-4.178 Y-1.329 E32.12578
G1 X-3.27 Y-2.174 E32.19455
G1 X-2.704 Y-3.337 E32.26627
G1 X-2.52 Y-4.606 E32.33737
G1 X-2.52 Y-5.746 E32.40058
G0 F3600 X-2.72 Y-5.746
G0 X-2.72 Y-6.406
G0 X-2.72 Y-6.446
G0 X10.504 Y-9.946
;TYPE:SKIN
G1 F1800 X-10.496 Y-9.946 E33.56496
G1 X-10.496 Y-10.257 E33.5822
G1 X10.504 Y-10.257 E34.74658
G1 X10.504 Y-9.946 E34.76382
G0 F3600 X11.104 Y-9.346
G1 F1800 X-11.096 Y-9.346 E35.99474
G1 X-11.096 Y-10.857 E36.07852
G1 X11.104 Y-10.857 E37.30943
G1 X11.104 Y-9.346 E37.39321
G0 F3600 X11.704 Y-8.746
G1 F1800 X-11.696 Y-8.746 E38.69067
G1 X-11.696 Y-11.457 E38.84098
G1 X11.704 Y-11.457 E40.13843
G1 X11.704 Y-8.746 E40.28875
G0 F3600 X11.647 Y-8.146
G1 F1800 X0.149 Y-8.146 E40.92627
G1 X0.149 Y-1.313 E41.30514
G1 X0.639 Y1.638 E41.471
G1 X1.254 Y3.211 E41.56465
G1 X2.52 Y4.585 E41.66824
G1 X4.14 Y5.454 E41.77017
G1 X5.966 Y5.741 E41.87266
G1 X8.312 Y5.322 E42.0048
G1 X10.347 Y3.838 E42.14445
G1 X11.402 Y1.443 E42.28955
G1 X11.647 Y-1.251 E42.43954
G1 X11.647 Y-8.146 E42.82185
G0 F3600 X11.047 Y-7.546
G1 F1800 X0.749 Y-7.546 E43.39284
G1 X0.749 Y-1.363 E43.73567
G1 X1.221 Y1.478 E43.89535
G1 X1.772 Y2.887 E43.97923
G1 X2.893 Y4.104 E44.07098
G1 X4.334 Y4.877 E44.16164
G1 X5.96 Y5.133 E44.25291
G1 X8.07 Y4.756 E44.37176
G1 X9.863 Y3.448 E44.49481
G1 X10.813 Y1.291 E44.6255
G1 X11.047 Y-1.278 E44.76853
G1 X11.047 Y-7.546 E45.11607
G0 F3600 X10.447 Y-6.946
G1 F1800 X1.349 Y-6.946 E45.62052
G1 X1.349 Y-1.413 E45.92731
G1 X1.803 Y1.318 E46.08081
G1 X2.29 Y2.563 E46.15494
G1 X3.266 Y3.623 E46.23483
G1 X4.528 Y4.3 E46.31424
G1 X5.954 Y4.525 E46.39428
G1 X7.828 Y4.19 E46.49984
G1 X9.379 Y3.058 E46.6063
G1 X10.224 Y1.139 E46.72256
G1 X10.447 Y-1.305 E46.85864
G1 X10.447 Y-6.946 E47.17141
G0 F3600 X12.304 Y-12.057
G1 F1800 X12.304 Y0.648 E47.87586
G1 X12.132 Y4.151 E48.07032
G1 X11.694 Y6.365 E48.19546
G1 X11.019 Y7.679 E48.27737
G1 X9.984 Y8.671 E48.35686
G1 X8.55 Y9.346 E48.44474
G1 X6.653 Y9.596 E48.55083
G1 X5.017 Y9.41 E48.64213
G1 X3.725 Y8.888 E48.71939
G1 X2.648 Y8.058 E48.79478
G1 X1.749 Y6.905 E48.87585
G1 X1.314 Y5.968 E48.93313
G1 X0.32 Y2.515 E49.13236
G1 X-3.43 Y2.236 E49.34086
G1 X-5.097 Y5.876 E49.56284
G1 X-6.16 Y6.876 E49.64376
G1 X-7.68 Y7.934 E49.74645
G1 X-12.296 Y10.317 E50.03448
G1 X-12.296 Y5.888 E50.28006
G1 X-4.487 Y1.665 E50.7723
G1 X-2.722 Y0.596 E50.88671
G1 X-1.307 Y-.722 E50.99393
G1 X-.384 Y-2.622 E51.11105
G1 X-.12 Y-4.433 E51.21253
G1 X-.12 Y-8.146 E51.4184
G1 X-12.296 Y-8.146 E52.09352
G1 X-12.296 Y-12.057 E52.31037
G1 X12.304 Y-12.057 E53.67436
G0 F3600 X12.904 Y-12.657
G1 F1800 X12.904 Y0.648 E54.41207
G1 X12.729 Y4.23 E54.61092
G1 X12.267 Y6.563 E54.74279
G1 X11.508 Y8.041 E54.83491
G1 X10.327 Y9.173 E54.92562
G1 X8.721 Y9.929 E55.02404
G1 X6.66 Y10.201 E55.13931
G1 X4.868 Y9.997 E55.23931
G1 X3.425 Y9.414 E55.3256
G1 X2.221 Y8.486 E55.40989
G1 X1.235 Y7.222 E55.49877
G1 X0.749 Y6.176 E55.56272
G1 X-.141 Y3.082 E55.74123
G1 X-3.058 Y2.865 E55.90342
G1 X-4.601 Y6.233 E56.10883
G1 X-5.78 Y7.342 E56.19857
G1 X-7.37 Y8.449 E56.306
G1 X-12.896 Y11.302 E56.65082
G1 X-12.896 Y5.53 E56.97086
G1 X-4.785 Y1.144 E57.48213
G1 X-3.086 Y0.115 E57.59226
G1 X-1.798 Y-1.085 E57.68987
G1 X-.964 Y-2.801 E57.79566
G1 X-.72 Y-4.476 E57.88951
G1 X-.72 Y-7.546 E58.05973
G1 X-12.896 Y-7.546 E58.73485
G1 X-12.896 Y-12.657 E59.01824
G1 X12.904 Y-12.657 E60.44876
G0 F3600 X13.504 Y-13.257
G1 F1800 X13.504 Y0.648 E61.21975
G1 X13.326 Y4.309 E61.42298
G1 X12.84 Y6.761 E61.56158
G1 X11.997 Y8.404 E61.66397
G1 X10.67 Y9.675 E61.76585
G1 X8.893 Y10.512 E61.87476
G1 X6.667 Y10.806 E61.99926
G1 X4.719 Y10.584 E62.10797
G1 X3.125 Y9.94 E62.20329
G1 X1.794 Y8.914 E62.29647
G1 X0.72 Y7.537 E62.3933
G1 X0.184 Y6.384 E62.4638
G1 X-.602 Y3.649 E62.62158
G1 X-2.686 Y3.494 E62.73745
G1 X-4.103 Y6.588 E62.92614
G1 X-5.4 Y7.808 E63.02487
G1 X-7.06 Y8.964 E63.13703
G1 X-13.496 Y12.287 E63.53864
G1 X-13.496 Y5.172 E63.93314
G1 X-5.083 Y0.623 E64.46344
G1 X-3.45 Y-.366 E64.5693
G1 X-2.289 Y-1.448 E64.65729
G1 X-1.544 Y-2.98 E64.75175
G1 X-1.32 Y-4.519 E64.83798
G1 X-1.32 Y-6.946 E64.97255
G1 X-13.496 Y-6.946 E65.64767
G1 X-13.496 Y-13.257 E65.99759
G1 X13.504 Y-13.257 E67.49465
G0 F3600 X11.615 Y2.448
G1 F1800 X11.535 Y4.074 E67.58491
G1 X11.121 Y6.166 E67.70316
G1 X10.53 Y7.316 E67.77485
G1 X9.641 Y8.169 E67.84316
G1 X8.378 Y8.763 E67.92055
G1 X6.647 Y8.992 E68.01736
G1 X5.166 Y8.823 E68.10001
G1 X4.025 Y8.362 E68.16825
G1 X3.075 Y7.63 E68.23474
G1 X2.264 Y6.59 E68.30787
G1 X1.879 Y5.76 E68.3586
G1 X1.466 Y4.327 E68.44129
G1 X2.147 Y5.066 E68.49701
G1 X3.946 Y6.031 E68.6102
G1 X5.972 Y6.349 E68.72391
G1 X8.554 Y5.888 E68.86934
G1 X10.831 Y4.228 E69.02558
G1 X11.615 Y2.448 E69.13342
G0 F3600 X10.731 Y5.044
G1 F1800 X10.548 Y5.967 E69.1856
G1 X10.041 Y6.954 E69.24712
G1 X9.297 Y7.668 E69.3043
G1 X8.208 Y8.18 E69.37102
G1 X6.64 Y8.387 E69.45871
G1 X5.315 Y8.236 E69.53265
G1 X4.325 Y7.836 E69.59186
G1 X3.502 Y7.202 E69.64946
G1 X2.778 Y6.274 E69.71472
G1 X2.662 Y6.023 E69.73005
G1 X3.752 Y6.608 E69.79864
G1 X5.978 Y6.957 E69.92358
G1 X8.796 Y6.454 E70.08229
G1 X10.731 Y5.044 E70.21505
G0 F3600 X9.321 Y6.814
G1 F1800 X8.953 Y7.167 E70.24332
G1 X8.038 Y7.597 E70.29938
G1 X6.633 Y7.782 E70.37795
G1 X5.464 Y7.649 E70.44319
G1 X4.794 Y7.379 E70.48324
G1 X5.984 Y7.565 E70.55002
G1 X9.038 Y7.02 E70.72203
G1 X9.321 Y6.814 E70.74144
G0 F3600 X-.779 Y0.427
G1 F1800 X-.644 Y1.241 E70.78719
G1 X-1.579 Y1.171 E70.83918
G1 X-.779 Y0.427 E70.89975
G0 F3600 X-.432 Y-1.15
G1 F1800 X0.057 Y1.798 E71.06544
G1 X0.096 Y1.897 E71.07134
G1 X-3.295 Y1.645 E71.25988
G1 X-2.358 Y1.077 E71.32063
G1 X-.816 Y-.359 E71.43747
G1 X-.432 Y-1.15 E71.48622
G0 F3600 X-4.02 Y2.084
G1 F1800 X-5.595 Y5.521 E71.69585
G1 X-6.54 Y6.41 E71.76778
G1 X-7.99 Y7.419 E71.86573
G1 X-11.696 Y9.332 E72.09698
G1 X-11.696 Y6.246 E72.26809
G1 X-4.189 Y2.186 E72.7413
G1 X-4.02 Y2.084 E72.75224
G0 F3600 X-5.319 Y3.479
G1 F1800 X-6.091 Y5.164 E72.85501
G1 X-6.92 Y5.943 E72.91808
G1 X-8.3 Y6.904 E73.01133
G1 X-11.096 Y8.347 E73.18578
G1 X-11.096 Y6.604 E73.28243
G1 X-5.319 Y3.479 E73.6466
G0 F3600 X-6.688 Y4.902
G1 F1800 X-7.3 Y5.476 E73.69313
G1 X-8.61 Y6.389 E73.78166
G1 X-10.496 Y7.362 E73.89933
G1 X-10.496 Y6.962 E73.92151
G1 X-6.688 Y4.902 E74.16157
G0 F3600 X-6.392 Y4.8
;TYPE:SKIN
G1 F1800 X-6.27 Y4.8 E74.16495
G0 F3600 X-6.133 Y4.5
G1 F1800 X-6.543 Y4.5 E74.17631
G0 F3600 X-5.072 Y3.299
G1 F1800 X-4.924 Y3.299 E74.18042
G0 F3600 X-5.032 Y2.999
G1 F1800 X-4.787 Y2.999 E74.18721
G0 F3600 X-3.888 Y1.799
G1 F1800 X-3.566 Y1.799 E74.19614
G0 F3600 X-2.027 Y1.199
G1 F1800 X-1.886 Y1.199 E74.20005
G0 F3600 X-.739 Y0.00
G1 F1800 X-.561 Y0.00 E74.20498
G0 F3600 X-.577 Y-1.5
G1 F1800 X-.165 Y-1.5 E74.2164
G0 F3600 X-.165 Y-1.8
G1 F1800 X-.431 Y-1.8 E74.22378
G0 F3600 X-.285 Y-2.1
G1 F1800 X-.165 Y-2.1 E74.2271
G0 F3600 X0.872 Y3.3
G1 F1800 X0.95 Y3.3 E74.22927
G0 F3600 X0.959 Y3.6
G1 F1800 X1.183 Y3.6 E74.23548
G0 F3600 X1.045 Y3.9
G1 F1800 X1.46 Y3.9 E74.24698
G0 F3600 X2.198 Y5.7
G1 F1800 X2.567 Y5.7 E74.25721
G0 F3600 X4.014 Y7.2
G1 F1800 X4.532 Y7.2 E74.27157
G0 F3600 X9.534 Y6.6
G1 F1800 X9.868 Y6.6 E74.28083
G0 F3600 X10.022 Y6.3
G1 F1800 X9.542 Y6.3 E74.29414
G0 F3600 X9.954 Y6
G1 F1800 X10.177 Y6 E74.30032
G0 F3600 X10.908 Y4.8
G1 F1800 X11.07 Y4.8 E74.30481
G0 F3600 X11.129 Y4.5
G1 F1800 X10.992 Y4.5 E74.30861
G0 F3600 X11.457 Y2.1
G1 F1800 X11.917 Y2.1 E74.32136
G0 F3600 X11.931 Y1.8
G1 F1800 X11.589 Y1.8 E74.33084
G0 F3600 X11.714 Y1.5
G1 F1800 X11.946 Y1.5 E74.33728
G0 F3600 X11.961 Y1.2
G1 F1800 X11.741 Y1.2 E74.34337
G0 F3600 X11.768 Y0.9
G1 F1800 X11.975 Y0.9 E74.34911
G0 F3600 X11.989 Y0.6
G1 F1800 X11.795 Y0.6 E74.35449
G0 F3600 X11.823 Y0.3
G1 F1800 X11.989 Y0.3 E74.35909
G0 F3600 X11.989 Y0.00
G1 F1800 X11.85 Y0.00 E74.36295
G0 F3600 X11.877 Y-.299
G1 F1800 X11.989 Y-.299 E74.36605
G0 F3600 X11.989 Y-.599
G1 F1800 X11.905 Y-.599 E74.36838
G1 F1500 E67.86838
;MESH:R.stl(2)
G0 F3600 X4.575 Y11.151
G0 X3.985 Y12.619
G0 X1.418 Y15.24
G0 X0.451 Y16.495
G0 X-5.837 Y24.101
G0 X-6.584 Y25.797
G0 X-6.755 Y27.683
G0 X-6.828 Y33.211
G0 X-6.758 Y33.141
;TYPE:WALL-INNER
G1 F1500 E74.36838
G1 F1800 X1.141 Y33.141 E74.80635
G1 X1.141 Y28.257 E75.07716
G1 X0.704 Y25.636 E75.22449
G1 X0.281 Y24.555 E75.28885
G1 X-.55 Y23.651 E75.35693
G1 X-1.632 Y23.07 E75.42503
G1 X-2.858 Y22.877 E75.49384
G1 X-4.497 Y23.17 E75.58616
G1 X-5.806 Y24.126 E75.67604
G1 X-6.546 Y25.807 E75.77787
G1 X-6.758 Y28.127 E75.90705
G1 X-6.758 Y33.141 E76.18506
G0 F3600 X-6.158 Y32.541
;TYPE:WALL-OUTER
G1 F1800 X0.541 Y32.541 E76.55649
G1 X0.541 Y28.307 E76.79125
G1 X0.122 Y25.796 E76.93241
G1 X-.237 Y24.878 E76.98706
G1 X-.923 Y24.132 E77.04325
G1 X-1.826 Y23.647 E77.10009
G1 X-2.852 Y23.485 E77.15768
G1 X-4.255 Y23.736 E77.23671
G1 X-5.322 Y24.515 E77.30996
G1 X-5.957 Y25.959 E77.39742
G1 X-6.158 Y28.154 E77.51964
G1 X-6.158 Y32.541 E77.76288
G0 F3600 X-5.958 Y32.541
G0 X-5.958 Y33.201
G0 X-5.958 Y33.241
