;FLAVOR:Marlin
;TIME:1153
;Filament used: 1.86598m
;Layer height: 0.2
;MINX:-44.503
;MINY:-22.164
;MINZ:0.2
;MAXX:44.689
;MAXY:19.383
;MAXZ:3.6
;POSTPROCESSED
;Generated with Cura_SteamEngine 4.8.0
M140 S60
M105
M190 S60
M104 S195
M105
M109 S195
M82 ;absolute extrusion mode
G28 ;Home
G1 Z15.0 F6000 ;Move the platform down 15mm
;Prime the extruder
G92 E0
G1 F200 E3
G92 E0
G92 E0
G92 E0
G1 F1500 E-6.5
;LAYER_COUNT:18
;LAYER:0
M107
G0 F3600 X1.321 Y19.335 Z0.2
;TYPE:SKIRT
G1 F1500 E0
G1 F1800 X0.586 Y19.383 E0.04084
G1 X-.148 Y19.38 E0.08154
G1 X-2.731 Y19.247 E0.22495
G1 X-3.481 Y19.196 E0.26663
G1 X-4.051 Y19.121 E0.2985
G1 X-4.449 Y19.05 E0.32092
G1 X-6.251 Y18.713 E0.42257
G1 X-7.146 Y18.532 E0.4732
G1 X-9.816 Y18.031 E0.62382
G1 X-12.478 Y17.611 E0.77325
G1 X-15.223 Y17.256 E0.92672
G1 X-17.883 Y16.988 E1.07495
G1 X-20.625 Y16.791 E1.22738
G1 X-23.3 Y16.675 E1.37584
G1 X-26.145 Y16.631 E1.5336
G1 X-27.115 Y16.63 E1.58738
G1 X-27.234 Y16.628 E1.59398
G1 X-28.315 Y16.593 E1.65395
G1 X-29.562 Y16.531 E1.72318
G1 X-30.175 Y16.492 E1.75724
G1 X-30.515 Y16.455 E1.7762
G1 X-31.446 Y16.313 E1.82842
G1 X-32.293 Y16.169 E1.87606
G1 X-32.968 Y16.046 E1.9141
G1 X-33.426 Y15.933 E1.94026
G1 X-34.495 Y15.601 E2.00232
G1 X-34.942 Y15.452 E2.02845
G1 X-35.646 Y15.207 E2.06978
G1 X-36.142 Y14.995 E2.09968
G1 X-36.501 Y14.809 E2.1221
G1 X-37.406 Y14.306 E2.17951
G1 X-37.974 Y13.979 E2.21585
G1 X-38.604 Y13.527 E2.25884
G1 X-39.21 Y12.993 E2.30363
G1 X-39.518 Y12.714 E2.32667
G1 X-40.019 Y12.246 E2.36468
G1 X-40.535 Y11.657 E2.4081
G1 X-41.184 Y10.743 E2.47026
G1 X-41.689 Y9.984 E2.5208
G1 X-42.021 Y9.371 E2.55946
G1 X-42.243 Y8.846 E2.59106
G1 X-42.575 Y8.017 E2.64058
G1 X-42.797 Y7.439 E2.67491
G1 X-42.962 Y6.891 E2.70664
G1 X-43.222 Y5.724 E2.77293
G1 X-43.333 Y5.17 E2.80426
G1 X-43.456 Y4.511 E2.84143
G1 X-43.518 Y3.964 E2.87195
G1 X-43.561 Y2.962 E2.92756
G1 X-43.582 Y2.243 E2.96745
G1 X-43.738 Y-.501 E3.11984
G1 X-43.969 Y-3.205 E3.27031
G1 X-44.285 Y-5.974 E3.42484
G1 X-44.402 Y-6.881 E3.47555
G1 X-44.48 Y-7.563 E3.51361
G1 X-44.503 Y-8.121 E3.54457
G1 X-44.441 Y-8.789 E3.58177
G1 X-44.426 Y-8.906 E3.58831
G1 X-44.164 Y-10.726 E3.69026
G1 X-44.065 Y-11.348 E3.72519
G1 X-43.938 Y-11.892 E3.75616
G1 X-43.776 Y-12.321 E3.78159
G1 X-43.293 Y-13.403 E3.84729
G1 X-42.839 Y-14.369 E3.90647
G1 X-42.524 Y-15.015 E3.94632
G1 X-42.245 Y-15.498 E3.97724
G1 X-41.972 Y-15.854 E4.00212
G1 X-41.33 Y-16.596 E4.05652
G1 X-40.405 Y-17.631 E4.13349
G1 X-40 Y-18.072 E4.16669
G1 X-39.594 Y-18.455 E4.19764
G1 X-39.224 Y-18.723 E4.22297
G1 X-38.301 Y-19.31 E4.28362
G1 X-37.136 Y-20.02 E4.35926
G1 X-36.565 Y-20.357 E4.39603
G1 X-36.065 Y-20.605 E4.42697
G1 X-35.744 Y-20.721 E4.4459
G1 X-34.711 Y-21.043 E4.50589
G1 X-33.032 Y-21.531 E4.60284
G1 X-32.392 Y-21.708 E4.63966
G1 X-31.727 Y-21.831 E4.67715
G1 X-30.728 Y-21.927 E4.7328
G1 X-28.268 Y-22.121 E4.86962
G1 X-27.615 Y-22.164 E4.90591
G1 X-26.86 Y-22.162 E4.94777
G1 X-24.207 Y-22.025 E5.09507
G1 X-23.527 Y-21.979 E5.13286
G1 X-23.021 Y-21.915 E5.16114
G1 X-22.574 Y-21.837 E5.18629
G1 X-20.774 Y-21.498 E5.28785
G1 X-19.919 Y-21.325 E5.33622
G1 X-17.228 Y-20.82 E5.48803
G1 X-14.561 Y-20.398 E5.63775
G1 X-11.825 Y-20.043 E5.79072
G1 X-9.164 Y-19.774 E5.93902
G1 X-6.415 Y-19.575 E6.09184
G1 X-3.744 Y-19.458 E6.24008
G1 X-.861 Y-19.413 E6.39995
G1 X0.471 Y-19.411 E6.47381
G1 X2.601 Y-19.373 E6.59193
G1 X5.348 Y-19.402 E6.74425
G1 X8.059 Y-19.507 E6.89467
G1 X10.771 Y-19.69 E7.04539
G1 X13.47 Y-19.947 E7.19572
G1 X16.161 Y-20.282 E7.34607
G1 X18.858 Y-20.695 E7.49736
G1 X22.121 Y-21.292 E7.68128
G1 X22.454 Y-21.338 E7.69992
G1 X23.436 Y-21.432 E7.75462
G1 X25.866 Y-21.623 E7.88977
G1 X26.617 Y-21.672 E7.9315
G1 X27.242 Y-21.673 E7.96615
G1 X27.364 Y-21.669 E7.97292
G1 X30 Y-21.531 E8.11928
G1 X30.63 Y-21.489 E8.15429
G1 X31.263 Y-21.408 E8.18967
G1 X31.639 Y-21.34 E8.21086
G1 X33.403 Y-21.01 E8.31036
G1 X34.115 Y-20.865 E8.35065
G1 X34.641 Y-20.718 E8.38093
G1 X35.068 Y-20.565 E8.40608
G1 X36.544 Y-19.987 E8.49397
G1 X37.148 Y-19.742 E8.53011
G1 X37.649 Y-19.496 E8.56106
G1 X37.931 Y-19.314 E8.57967
G1 X38.589 Y-18.849 E8.62434
G1 X39.237 Y-18.376 E8.66883
G1 X39.802 Y-17.951 E8.70803
G1 X40.389 Y-17.406 E8.75244
G1 X40.711 Y-17.038 E8.77955
G1 X41.371 Y-16.246 E8.83672
G1 X41.801 Y-15.715 E8.8746
G1 X42.117 Y-15.262 E8.90523
G1 X42.331 Y-14.902 E8.92845
G1 X42.84 Y-13.996 E8.98607
G1 X43.151 Y-13.424 E9.02217
G1 X43.389 Y-12.896 E9.05428
G1 X43.785 Y-11.808 E9.11848
G1 X43.913 Y-11.433 E9.14045
G1 X44.141 Y-10.733 E9.18127
G1 X44.287 Y-10.143 E9.21497
G1 X44.395 Y-9.532 E9.24937
G1 X44.527 Y-8.723 E9.29482
G1 X44.646 Y-7.93 E9.33928
G1 X44.689 Y-7.373 E9.37026
G1 X44.653 Y-6.825 E9.40071
G1 X44.532 Y-5.934 E9.45056
G1 X44.372 Y-4.869 E9.51028
G1 X44.043 Y-2.151 E9.66208
G1 X43.795 Y0.521 E9.81087
G1 X43.62 Y3.248 E9.96239
G1 X43.576 Y4.338 E10.02287
G1 X43.538 Y4.899 E10.05405
G1 X43.474 Y5.408 E10.08249
G1 X43.295 Y6.604 E10.14955
G1 X43.181 Y7.298 E10.18854
G1 X43.052 Y7.841 E10.21949
G1 X42.89 Y8.264 E10.2446
G1 X42.448 Y9.248 E10.30441
G1 X42.131 Y9.914 E10.34531
G1 X41.828 Y10.532 E10.38347
G1 X41.547 Y11.014 E10.41441
G1 X41.069 Y11.607 E10.45664
G1 X40.989 Y11.698 E10.46336
G1 X39.996 Y12.784 E10.54495
G1 X39.523 Y13.289 E10.58331
G1 X39.114 Y13.668 E10.61423
G1 X38.731 Y13.938 E10.64021
G1 X37.781 Y14.526 E10.70216
G1 X36.814 Y15.1 E10.76451
G1 X36.269 Y15.412 E10.79933
G1 X35.766 Y15.654 E10.83028
G1 X35.447 Y15.764 E10.84899
G1 X34.417 Y16.071 E10.90859
G1 X32.766 Y16.527 E11.00356
G1 X32.105 Y16.7 E11.04144
G1 X31.451 Y16.813 E11.07824
G1 X30.619 Y16.883 E11.12453
G1 X27.88 Y17.075 E11.27677
G1 X27.14 Y17.117 E11.31787
G1 X26.727 Y17.122 E11.34077
G1 X24.603 Y17.084 E11.45856
G1 X21.855 Y17.113 E11.61094
G1 X19.14 Y17.218 E11.76159
G1 X16.438 Y17.399 E11.91174
G1 X13.725 Y17.659 E12.06285
G1 X11.046 Y17.991 E12.21253
G1 X8.338 Y18.406 E12.36443
G1 X5.079 Y19.002 E12.54813
G1 X4.75 Y19.048 E12.56655
G1 X3.74 Y19.145 E12.62281
G1 X1.321 Y19.335 E12.75735
G0 F3600 X1.282 Y18.736
G1 F1800 X0.547 Y18.784 E12.79819
G1 X-.133 Y18.78 E12.83589
G1 X-2.7 Y18.648 E12.97841
G1 X-3.44 Y18.597 E13.01954
G1 X-3.946 Y18.53 E13.04784
G1 X-4.338 Y18.461 E13.06991
G1 X-6.132 Y18.125 E13.17111
G1 X-7.001 Y17.949 E13.22027
G1 X-9.716 Y17.44 E13.37343
G1 X-12.418 Y17.014 E13.5251
G1 X-15.156 Y16.659 E13.67818
G1 X-17.85 Y16.389 E13.82831
G1 X-20.556 Y16.194 E13.97873
G1 X-23.3 Y16.074 E14.13102
G1 X-26.136 Y16.031 E14.28829
G1 X-27.114 Y16.03 E14.34252
G1 X-28.285 Y15.994 E14.40747
G1 X-29.524 Y15.932 E14.47626
G1 X-30.137 Y15.893 E14.51032
G1 X-30.424 Y15.862 E14.52632
G1 X-31.345 Y15.721 E14.57798
G1 X-32.186 Y15.579 E14.62527
G1 X-32.861 Y15.456 E14.66332
G1 X-33.248 Y15.36 E14.68543
G1 X-34.306 Y15.031 E14.74686
G1 X-34.745 Y14.886 E14.77249
G1 X-35.449 Y14.641 E14.81382
G1 X-36.113 Y14.336 E14.85434
G1 X-36.21 Y14.284 E14.86044
G1 X-37.106 Y13.786 E14.91728
G1 X-37.674 Y13.459 E14.95362
G1 X-38.208 Y13.077 E14.99002
G1 X-38.808 Y12.548 E15.03438
G1 X-39.109 Y12.276 E15.05687
G1 X-39.61 Y11.808 E15.09488
G1 X-40.046 Y11.309 E15.13162
G1 X-40.687 Y10.407 E15.19298
G1 X-41.189 Y9.653 E15.2432
G1 X-41.47 Y9.134 E15.27593
G1 X-41.689 Y8.616 E15.30711
G1 X-42.015 Y7.802 E15.35573
G1 X-42.237 Y7.224 E15.39006
G1 X-42.377 Y6.761 E15.41688
G1 X-42.634 Y5.606 E15.48249
G1 X-42.743 Y5.059 E15.51341
G1 X-42.866 Y4.4 E15.55058
G1 X-42.919 Y3.938 E15.57637
G1 X-42.962 Y2.945 E15.63148
G1 X-42.984 Y2.192 E15.67325
G1 X-43.14 Y-.551 E15.82558
G1 X-43.371 Y-3.254 E15.976
G1 X-43.689 Y-6.042 E16.13159
G1 X-43.806 Y-6.949 E16.1823
G1 X-43.884 Y-7.631 E16.22036
G1 X-43.884 Y-8.378 E16.26178
G1 X-43.832 Y-8.821 E16.28651
G1 X-43.571 Y-10.632 E16.38796
G1 X-43.472 Y-11.254 E16.42288
G1 X-43.352 Y-11.753 E16.45134
G1 X-43.228 Y-12.077 E16.47057
G1 X-42.75 Y-13.148 E16.5356
G1 X-42.3 Y-14.106 E16.59429
G1 X-41.985 Y-14.752 E16.63414
G1 X-41.725 Y-15.195 E16.66262
G1 X-41.518 Y-15.462 E16.68135
G1 X-40.883 Y-16.197 E16.73521
G1 X-39.964 Y-17.225 E16.81166
G1 X-39.559 Y-17.666 E16.84486
G1 X-39.183 Y-18.016 E16.87334
G1 X-38.901 Y-18.217 E16.89254
G1 X-37.989 Y-18.798 E16.9525
G1 X-36.831 Y-19.503 E17.02767
G1 X-36.26 Y-19.84 E17.06443
G1 X-35.565 Y-20.148 E17.10658
G1 X-34.543 Y-20.467 E17.16595
G1 X-32.872 Y-20.953 E17.26244
G1 X-32.232 Y-21.13 E17.29926
G1 X-31.67 Y-21.234 E17.33095
G1 X-30.68 Y-21.329 E17.38609
G1 X-28.229 Y-21.522 E17.52241
G1 X-27.576 Y-21.565 E17.5587
G1 X-26.891 Y-21.563 E17.59668
G1 X-24.247 Y-21.426 E17.74347
G1 X-23.567 Y-21.38 E17.78126
G1 X-23.051 Y-21.312 E17.81012
G1 X-22.685 Y-21.247 E17.83073
G1 X-20.893 Y-20.91 E17.93183
G1 X-20.021 Y-20.734 E17.98116
G1 X-17.328 Y-20.228 E18.13309
G1 X-14.662 Y-19.806 E18.28275
G1 X-11.889 Y-19.446 E18.43779
G1 X-9.198 Y-19.175 E18.58776
G1 X-6.486 Y-18.978 E18.73852
G1 X-3.744 Y-18.857 E18.89071
G1 X-.87 Y-18.813 E19.05008
G1 X0.46 Y-18.811 E19.12382
G1 X2.596 Y-18.773 E19.24228
G1 X5.343 Y-18.801 E19.3946
G1 X8.086 Y-18.908 E19.5468
G1 X10.833 Y-19.093 E19.69946
G1 X13.531 Y-19.351 E19.84974
G1 X16.256 Y-19.69 E20.00199
G1 X18.946 Y-20.102 E20.15288
G1 X20.882 Y-20.454 E20.26199
G1 X22.23 Y-20.702 E20.33798
G1 X22.511 Y-20.741 E20.35371
G1 X23.483 Y-20.834 E20.40785
G1 X25.905 Y-21.024 E20.54256
G1 X26.656 Y-21.073 E20.58429
G1 X27.23 Y-21.073 E20.61611
G1 X27.333 Y-21.07 E20.62183
G1 X29.961 Y-20.933 E20.76774
G1 X30.591 Y-20.891 E20.80275
G1 X31.157 Y-20.817 E20.8344
G1 X31.528 Y-20.751 E20.85529
G1 X33.284 Y-20.422 E20.95435
G1 X33.996 Y-20.277 E20.99464
G1 X34.751 Y-20.043 E21.03846
G1 X34.85 Y-20.006 E21.04432
G1 X36.318 Y-19.431 E21.13174
G1 X36.922 Y-19.186 E21.16788
G1 X37.585 Y-18.824 E21.20977
G1 X38.235 Y-18.364 E21.25392
G1 X38.877 Y-17.896 E21.29797
G1 X39.442 Y-17.471 E21.33717
G1 X39.938 Y-17.011 E21.37468
G1 X40.25 Y-16.654 E21.40097
G1 X40.905 Y-15.869 E21.45765
G1 X41.335 Y-15.338 E21.49554
G1 X41.764 Y-14.683 E21.53895
G1 X41.808 Y-14.608 E21.54377
G1 X42.313 Y-13.709 E21.60095
G1 X42.624 Y-13.137 E21.63705
G1 X42.826 Y-12.691 E21.66419
G1 X43.218 Y-11.613 E21.72779
G1 X43.343 Y-11.247 E21.74924
G1 X43.571 Y-10.547 E21.79006
G1 X43.696 Y-10.038 E21.81912
G1 X43.803 Y-9.435 E21.85308
G1 X43.933 Y-8.634 E21.89807
G1 X44.052 Y-7.841 E21.94253
G1 X44.089 Y-7.329 E21.97099
G1 X44.059 Y-6.906 E21.99451
G1 X43.938 Y-6.024 E22.04387
G1 X43.779 Y-4.966 E22.10319
G1 X43.449 Y-2.24 E22.25544
G1 X43.195 Y0.497 E22.40785
G1 X43.02 Y3.226 E22.55948
G1 X42.977 Y4.304 E22.61929
G1 X42.941 Y4.831 E22.64858
G1 X42.874 Y5.366 E22.67848
G1 X42.703 Y6.507 E22.74245
G1 X42.589 Y7.201 E22.78145
G1 X42.467 Y7.7 E22.80993
G1 X42.343 Y8.019 E22.8289
G1 X41.906 Y8.99 E22.88794
G1 X41.592 Y9.65 E22.92847
G1 X41.289 Y10.268 E22.96663
G1 X41.028 Y10.71 E22.99509
G1 X40.614 Y11.216 E23.03134
G1 X40.546 Y11.293 E23.03704
G1 X39.559 Y12.374 E23.1182
G1 X39.086 Y12.879 E23.15657
G1 X38.706 Y13.225 E23.18506
G1 X38.415 Y13.428 E23.20474
G1 X37.475 Y14.01 E23.26604
G1 X36.516 Y14.579 E23.32787
G1 X35.971 Y14.891 E23.36269
G1 X35.276 Y15.189 E23.40461
G1 X34.257 Y15.493 E23.46357
G1 X32.615 Y15.946 E23.55802
G1 X31.954 Y16.119 E23.5959
G1 X31.399 Y16.215 E23.62713
G1 X30.577 Y16.285 E23.67288
G1 X27.846 Y16.476 E23.82467
G1 X27.106 Y16.518 E23.86577
G1 X26.738 Y16.522 E23.88617
G1 X24.607 Y16.484 E24.00435
G1 X21.86 Y16.512 E24.15667
G1 X19.114 Y16.619 E24.30904
G1 X16.376 Y16.803 E24.4612
G1 X13.665 Y17.063 E24.6122
G1 X10.951 Y17.399 E24.76383
G1 X8.251 Y17.813 E24.91529
G1 X6.314 Y18.165 E25.02445
G1 X4.971 Y18.412 E25.10016
G1 X4.692 Y18.451 E25.11578
G1 X3.693 Y18.547 E25.17143
G1 X1.282 Y18.736 E25.30552
G1 F1500 E18.80552
;MESH:S.stl(2)
G0 F3600 X0.451 Y16.157
G0 X0.326 Y14.58
G0 X5.207 Y8.091
G0 X5.575 Y6.518
G0 X5.222 Y4.999
G0 X4.203 Y3.695
G0 X2.237 Y2.657
G0 X-1.861 Y1.549
G0 X-4.925 Y-7.571
G0 X-4.826 Y-7.572
;TYPE:WALL-INNER
G1 F1500 E25.30552
G1 F1800 X-4.557 Y-6.484 E25.36766
G1 X-3.803 Y-5.578 E25.43302
G1 X-2.449 Y-4.875 E25.51761
G1 X-.341 Y-4.317 E25.63851
G1 X4.83 Y-3.009 E25.93426
G1 X8.178 Y-1.731 E26.13296
G1 X10.26 Y-.355 E26.27133
G1 X11.644 Y1.267 E26.38956
G1 X12.438 Y3.129 E26.50179
G1 X12.707 Y5.223 E26.61885
G1 X12.345 Y7.738 E26.75974
G1 X11.259 Y10.048 E26.90127
G1 X9.521 Y11.993 E27.04589
G1 X7.193 Y13.412 E27.19706
G1 X4.155 Y14.297 E27.37251
G1 X0.326 Y14.599 E27.58548
G1 X-3.091 Y14.421 E27.77519
G1 X-5.899 Y13.895 E27.9336
G1 X-8.061 Y13.05 E28.0623
G1 X-9.649 Y11.891 E28.17131
G1 X-10.835 Y10.47 E28.27394
G1 X-11.747 Y8.842 E28.3774
G1 X-12.372 Y7.014 E28.48452
G1 X-12.501 Y6.226 E28.52879
G1 X-12.554 Y5.901 E28.54705
G1 X-12.225 Y5.881 E28.55855
G1 X-5.488 Y5.458 E28.93283
G1 X-5.198 Y6.722 E29.00473
G1 X-4.348 Y8.327 E29.10543
G1 X-3.382 Y9.297 E29.18134
G1 X-2.247 Y9.981 E29.25482
G1 X-.952 Y10.382 E29.32998
G1 X0.495 Y10.514 E29.41055
G1 X2.515 Y10.245 E29.52354
G1 X4.124 Y9.383 E29.62475
G1 X5.172 Y8.074 E29.71772
G1 X5.535 Y6.518 E29.80631
G1 X5.186 Y5.016 E29.89181
G1 X4.178 Y3.725 E29.98263
G1 X2.223 Y2.694 E30.10518
G1 X-.926 Y1.822 E30.28635
G1 X-3.713 Y1.092 E30.44609
G1 X-6.034 Y0.264 E30.58273
G1 X-7.873 Y-.646 E30.6965
G1 X-9.266 Y-1.636 E30.79125
G1 X-10.281 Y-2.711 E30.87323
G1 X-10.995 Y-3.906 E30.95041
G1 X-11.426 Y-5.245 E31.02841
G1 X-11.57 Y-6.722 E31.11069
G1 X-11.272 Y-8.725 E31.22297
G1 X-10.38 Y-10.605 E31.33835
G1 X-8.884 Y-12.242 E31.46131
G1 X-6.748 Y-13.511 E31.59907
G1 X-3.765 Y-14.336 E31.77067
G1 X0.282 Y-14.62 E31.99562
G1 X2.875 Y-14.492 E32.13957
G1 X5.124 Y-14.11 E32.26605
G1 X7 Y-13.49 E32.3756
G1 X8.513 Y-12.647 E32.47164
G1 X9.713 Y-11.562 E32.56134
G1 X10.651 Y-10.185 E32.65372
G1 X11.327 Y-8.496 E32.75459
G1 X11.477 Y-7.754 E32.79656
G1 X11.545 Y-7.417 E32.81563
G1 X11.202 Y-7.397 E32.82747
G1 X4.546 Y-7.007 E33.19716
G1 X4.167 Y-8.238 E33.26857
G1 X3.022 Y-9.721 E33.37246
G1 X1.379 Y-10.577 E33.47518
G1 X-.644 Y-10.842 E33.5883
G1 X-2.33 Y-10.639 E33.68246
G1 X-3.663 Y-9.966 E33.76526
G1 X-4.53 Y-8.892 E33.84179
G1 X-4.826 Y-7.572 E33.9168
G0 F3600 X-4.21 Y-7.579
;TYPE:WALL-OUTER
G1 F1800 X-4.008 Y-6.762 E33.96346
G1 X-3.419 Y-6.055 E34.01448
G1 X-2.231 Y-5.438 E34.08871
G1 X-.191 Y-4.898 E34.20571
G1 X5.013 Y-3.582 E34.50334
G1 X8.454 Y-2.268 E34.70757
G1 X10.66 Y-.81 E34.85419
G1 X12.16 Y0.947 E34.98228
G1 X13.022 Y2.97 E35.10421
G1 X13.312 Y5.228 E35.23043
G1 X12.926 Y7.912 E35.38078
G1 X11.765 Y10.382 E35.53211
G1 X9.91 Y12.458 E35.68648
G1 X7.436 Y13.966 E35.84713
G1 X4.264 Y14.89 E36.03031
G1 X0.334 Y15.2 E36.2489
G1 X-3.166 Y15.018 E36.44322
G1 X-6.063 Y14.475 E36.60665
G1 X-8.353 Y13.58 E36.74297
G1 X-10.061 Y12.334 E36.8602
G1 X-11.329 Y10.814 E36.96995
G1 X-12.299 Y9.084 E37.07992
G1 X-12.956 Y7.162 E37.19255
G1 X-13.2 Y5.669 E37.27643
G1 X-13.253 Y5.343 E37.29474
G1 X-12.923 Y5.323 E37.30626
G1 X-5.017 Y4.827 E37.74549
G1 X-4.631 Y6.511 E37.84128
G1 X-3.86 Y7.967 E37.93263
G1 X-3.009 Y8.821 E37.99948
G1 X-2 Y9.429 E38.0648
G1 X-.835 Y9.79 E38.13242
G1 X0.483 Y9.91 E38.2058
G1 X2.328 Y9.665 E38.309
G1 X3.732 Y8.912 E38.39734
G1 X4.619 Y7.805 E38.47599
G1 X4.919 Y6.518 E38.54926
G1 X4.632 Y5.281 E38.61967
G1 X3.784 Y4.196 E38.69603
G1 X2 Y3.255 E38.80786
G1 X-1.082 Y2.401 E38.98518
G1 X-3.895 Y1.664 E39.14642
G1 X-6.27 Y0.817 E39.28623
G1 X-8.182 Y-.129 E39.40451
G1 X-9.661 Y-1.18 E39.50511
G1 X-10.763 Y-2.348 E39.59415
G1 X-11.545 Y-3.656 E39.67865
G1 X-12.017 Y-5.122 E39.76404
G1 X-12.174 Y-6.736 E39.85395
G1 X-11.852 Y-8.903 E39.97543
G1 X-10.883 Y-10.945 E40.10075
G1 X-9.268 Y-12.712 E40.23348
