;FLAVOR:Marlin
;TIME:843
;Filament used: 1.41651m
;Layer height: 0.2
;MINX:-27.103
;MINY:-37.453
;MINZ:0.2
;MAXX:18.879
;MAXY:37.541
;MAXZ:3.6
;POSTPROCESSED
;Generated with Cura_SteamEngine 4.8.0
M140 S60
M105
M190 S60
M104 S195
M105
M109 S195
M82 ;absolute extrusion mode
G28 ;Home
G1 Z15.0 F6000 ;Move the platform down 15mm
;Prime the extruder
G92 E0
G1 F200 E3
G92 E0
G92 E0
G92 E0
G1 F1500 E-6.5
;LAYER_COUNT:18
;LAYER:0
M107
G0 F3600 X18.879 Y13.462 Z0.2
;TYPE:SKIRT
G1 F1500 E0
G1 F1800 X18.869 Y14.165 E0.03898
G1 X18.821 Y14.722 E0.06998
G1 X18.694 Y15.265 E0.1009
G1 X18.491 Y15.785 E0.13185
G1 X18.216 Y16.271 E0.16281
G1 X17.901 Y16.682 E0.19153
G1 X17.662 Y16.954 E0.2116
G1 X16.181 Y18.591 E0.334
G1 X14.44 Y20.631 E0.48271
G1 X12.719 Y22.767 E0.6348
G1 X11.084 Y24.917 E0.78456
G1 X10.422 Y25.84 E0.84754
G1 X9.937 Y26.496 E0.89278
G1 X9.574 Y26.919 E0.92368
G1 X9.154 Y27.287 E0.95465
G1 X8.686 Y27.591 E0.98559
G1 X8.179 Y27.825 E1.01655
G1 X7.896 Y27.92 E1.0331
G1 X6.908 Y28.209 E1.09018
G1 X4.323 Y29.002 E1.2401
G1 X1.717 Y29.885 E1.39266
G1 X-.793 Y30.814 E1.54106
G1 X-3.361 Y31.848 E1.69456
G1 X-5.805 Y32.914 E1.8424
G1 X-8.31 Y34.092 E1.99588
G1 X-10.708 Y35.303 E2.14484
G1 X-13.108 Y36.601 E2.29612
G1 X-13.881 Y37.034 E2.34525
G1 X-14.386 Y37.271 E2.37618
G1 X-14.92 Y37.433 E2.40712
G1 X-15.668 Y37.529 E2.44894
G1 X-16.115 Y37.541 E2.47373
G1 X-22.536 Y37.541 E2.82975
G1 X-23.234 Y37.532 E2.86846
G1 X-23.791 Y37.485 E2.89945
G1 X-24.334 Y37.359 E2.93036
G1 X-24.855 Y37.156 E2.96136
G1 X-25.341 Y36.882 E2.9923
G1 X-25.782 Y36.54 E3.02324
G1 X-26.171 Y36.14 E3.05418
G1 X-26.498 Y35.688 E3.08511
G1 X-26.758 Y35.193 E3.11611
G1 X-26.944 Y34.667 E3.14705
G1 X-27.053 Y34.12 E3.17797
G1 X-27.092 Y33.404 E3.21773
G1 X-27.093 Y6.114 E4.73087
G1 X-27.083 Y5.408 E4.77002
G1 X-27.03 Y4.144 E4.84016
G1 X-26.955 Y1.446 E4.98982
G1 X-26.955 Y-1.304 E5.14229
G1 X-27.033 Y-4.015 E5.29267
G1 X-27.088 Y-5.151 E5.35573
G1 X-27.103 Y-5.705 E5.38646
G1 X-27.103 Y-32.932 E6.89611
G1 X-27.094 Y-33.597 E6.93298
G1 X-27.046 Y-34.153 E6.96393
G1 X-26.92 Y-34.697 E6.99489
G1 X-26.717 Y-35.217 E7.02584
G1 X-26.442 Y-35.703 E7.0568
G1 X-26.101 Y-36.144 E7.08771
G1 X-25.7 Y-36.533 E7.11869
G1 X-25.247 Y-36.86 E7.14967
G1 X-24.753 Y-37.119 E7.18059
G1 X-24.227 Y-37.305 E7.21153
G1 X-23.679 Y-37.414 E7.24251
G1 X-22.982 Y-37.451 E7.28121
G1 X-22.873 Y-37.453 E7.28725
G1 X-16.441 Y-37.453 E7.64389
G1 X-15.738 Y-37.442 E7.68287
G1 X-15.182 Y-37.393 E7.71382
G1 X-14.638 Y-37.265 E7.7448
G1 X-13.928 Y-36.966 E7.78752
G1 X-13.568 Y-36.771 E7.81022
G1 X-11.824 Y-35.798 E7.92095
G1 X-9.415 Y-34.543 E8.07156
G1 X-6.943 Y-33.341 E8.22397
G1 X-4.504 Y-32.241 E8.37232
G1 X-1.981 Y-31.187 E8.52393
G1 X0.595 Y-30.196 E8.67696
G1 X3.111 Y-29.308 E8.8249
G1 X5.71 Y-28.473 E8.97626
G1 X7.465 Y-27.963 E9.0776
G1 X7.939 Y-27.817 E9.1051
G1 X8.459 Y-27.615 E9.13603
G1 X8.946 Y-27.341 E9.16701
G1 X9.388 Y-27 E9.19796
G1 X9.776 Y-26.599 E9.2289
G1 X10.172 Y-26.07 E9.26554
G1 X11.786 Y-23.892 E9.41585
G1 X13.479 Y-21.736 E9.56784
G1 X15.209 Y-19.658 E9.71776
G1 X16.979 Y-17.65 E9.86618
G1 X17.861 Y-16.675 E9.93908
G1 X18.205 Y-16.236 E9.97
G1 X18.483 Y-15.752 E10.00095
G1 X18.688 Y-15.233 E10.03189
G1 X18.818 Y-14.69 E10.06285
G1 X18.867 Y-14.179 E10.09131
G1 X18.879 Y-13.734 E10.116
G1 X18.879 Y13.462 E11.62392
G0 F3600 X18.279 Y13.454
G1 F1800 X18.269 Y14.157 E11.66291
G1 X18.221 Y14.668 E11.69136
G1 X18.096 Y15.166 E11.71983
G1 X17.894 Y15.638 E11.7483
G1 X17.621 Y16.073 E11.77677
G1 X17.25 Y16.514 E11.80873
G1 X15.723 Y18.204 E11.93502
G1 X13.974 Y20.252 E12.08435
G1 X12.264 Y22.375 E12.2355
G1 X10.59 Y24.576 E12.38882
G1 X9.94 Y25.483 E12.45069
G1 X9.455 Y26.139 E12.49593
G1 X9.118 Y26.527 E12.52442
G1 X8.726 Y26.858 E12.55287
G1 X8.287 Y27.124 E12.58133
G1 X7.727 Y27.344 E12.61469
G1 X6.781 Y27.621 E12.66934
G1 X4.124 Y28.437 E12.82346
G1 X1.538 Y29.312 E12.97483
G1 X-1.058 Y30.273 E13.12831
G1 X-3.543 Y31.273 E13.27684
G1 X-6.09 Y32.385 E13.43093
G1 X-8.54 Y33.536 E13.58102
G1 X-10.996 Y34.777 E13.73359
G1 X-13.444 Y36.101 E13.88791
G1 X-14.174 Y36.51 E13.9343
G1 X-14.64 Y36.725 E13.96276
G1 X-15.134 Y36.866 E13.99124
G1 X-15.686 Y36.929 E14.02205
G1 X-16.115 Y36.941 E14.04584
G1 X-22.529 Y36.941 E14.40148
G1 X-23.227 Y36.932 E14.44018
G1 X-23.738 Y36.885 E14.46864
G1 X-24.236 Y36.76 E14.49711
G1 X-24.708 Y36.559 E14.52555
G1 X-25.144 Y36.287 E14.55404
G1 X-25.532 Y35.951 E14.5825
G1 X-25.863 Y35.559 E14.61095
G1 X-26.13 Y35.12 E14.63944
G1 X-26.325 Y34.645 E14.66791
G1 X-26.444 Y34.146 E14.69635
G1 X-26.492 Y33.388 E14.73847
G1 X-26.493 Y6.122 E16.25027
G1 X-26.483 Y5.416 E16.28942
G1 X-26.433 Y4.215 E16.35607
G1 X-26.355 Y1.427 E16.51072
G1 X-26.355 Y-1.286 E16.66114
G1 X-26.435 Y-4.078 E16.81602
G1 X-26.489 Y-5.169 E16.87658
G1 X-26.503 Y-5.705 E16.90631
G1 X-26.503 Y-32.924 E18.41551
G1 X-26.494 Y-33.589 E18.45239
G1 X-26.447 Y-34.1 E18.48084
G1 X-26.321 Y-34.598 E18.50932
G1 X-26.12 Y-35.07 E18.53777
G1 X-25.848 Y-35.505 E18.56621
G1 X-25.511 Y-35.893 E18.59471
G1 X-25.119 Y-36.224 E18.62316
G1 X-24.68 Y-36.491 E18.65165
G1 X-24.205 Y-36.685 E18.6801
G1 X-23.705 Y-36.804 E18.70859
G1 X-22.965 Y-36.852 E18.74971
G1 X-16.45 Y-36.853 E19.11095
G1 X-15.747 Y-36.842 E19.14993
G1 X-15.236 Y-36.794 E19.17839
G1 X-14.739 Y-36.667 E19.20683
G1 X-14.213 Y-36.438 E19.23864
G1 X-13.86 Y-36.247 E19.26089
G1 X-12.084 Y-35.256 E19.37366
G1 X-9.7 Y-34.014 E19.52271
G1 X-7.211 Y-32.804 E19.67616
G1 X-4.728 Y-31.684 E19.82719
G1 X-2.205 Y-30.63 E19.9788
G1 X0.379 Y-29.636 E20.13231
G1 X2.918 Y-28.74 E20.28159
G1 X5.56 Y-27.891 E20.43546
G1 X7.288 Y-27.39 E20.53522
G1 X7.762 Y-27.244 E20.56272
G1 X8.24 Y-27.055 E20.59122
G1 X8.682 Y-26.794 E20.61968
G1 X9.079 Y-26.468 E20.64816
G1 X9.468 Y-26.02 E20.68106
G1 X9.685 Y-25.719 E20.70163
G1 X11.307 Y-23.53 E20.8527
G1 X13.018 Y-21.352 E21.00627
G1 X14.741 Y-19.283 E21.15556
G1 X16.543 Y-17.238 E21.30668
G1 X17.416 Y-16.273 E21.37884
G1 X17.73 Y-15.867 E21.40729
G1 X17.977 Y-15.416 E21.43581
G1 X18.151 Y-14.933 E21.46427
G1 X18.248 Y-14.429 E21.49273
G1 X18.277 Y-13.835 E21.5257
G1 X18.279 Y-13.734 E21.5313
G1 X18.279 Y13.454 E23.03879
G1 F1500 E16.53879
;MESH:T.stl(1)
G0 F3600 X15.644 Y13.2
G0 X14.065 Y13.2
G0 X8.541 Y3.69
G0 X8.471 Y3.76
;TYPE:WALL-INNER
G1 F1500 E23.03879
G1 F1800 X-14.121 Y3.76 E24.29144
G1 X-14.121 Y-3.71 E24.70562
G1 X8.471 Y-3.71 E25.95827
G1 X8.471 Y-13.164 E26.48247
G1 X14.079 Y-13.164 E26.79341
G1 X14.079 Y13.214 E28.25598
G1 X8.471 Y13.214 E28.56693
G1 X8.471 Y3.76 E29.09112
G0 F3600 X7.871 Y4.36
;TYPE:WALL-OUTER
G1 F1800 X-14.721 Y4.36 E30.34377
G1 X-14.721 Y-4.31 E30.82449
G1 X7.871 Y-4.31 E32.07714
G1 X7.871 Y-13.764 E32.60134
G1 X14.679 Y-13.764 E32.97882
G1 X14.679 Y13.814 E34.50792
G1 X7.871 Y13.814 E34.8854
G1 X7.871 Y4.36 E35.4096
G0 F3600 X7.671 Y4.36
G0 X7.671 Y3.7
G0 X7.671 Y3.66
G0 X10.479 Y0.16
;TYPE:SKIN
G1 F1800 X-10.521 Y0.16 E36.57398
G1 X-10.521 Y-.11 E36.58895
G1 X10.479 Y-.11 E37.75333
G1 X10.479 Y0.16 E37.7683
G0 F3600 X11.079 Y0.76
G1 F1800 X-11.121 Y0.76 E38.99921
G1 X-11.121 Y-.71 E39.08072
G1 X11.079 Y-.71 E40.31163
G1 X11.079 Y0.76 E40.39314
G0 F3600 X10.871 Y1.36
G1 F1800 X-11.721 Y1.36 E41.64579
G1 X-11.721 Y-1.31 E41.79383
G1 X10.871 Y-1.31 E43.04648
G1 X10.871 Y-10.764 E43.57068
G1 X11.679 Y-10.764 E43.61548
G1 X11.679 Y10.814 E44.8119
G1 X10.871 Y10.814 E44.85671
G1 X10.871 Y1.36 E45.3809
G0 F3600 X10.271 Y1.96
G1 F1800 X-12.321 Y1.96 E46.63355
G1 X-12.321 Y-1.91 E46.84813
G1 X10.271 Y-1.91 E48.10078
G1 X10.271 Y-11.364 E48.62497
G1 X12.279 Y-11.364 E48.73631
G1 X12.279 Y11.414 E49.99927
G1 X10.271 Y11.414 E50.11061
G1 X10.271 Y1.96 E50.6348
G0 F3600 X9.671 Y2.56
G1 F1800 X-12.921 Y2.56 E51.88745
G1 X-12.921 Y-2.51 E52.16856
G1 X9.671 Y-2.51 E53.42121
G1 X9.671 Y-11.964 E53.94541
G1 X12.879 Y-11.964 E54.12328
G1 X12.879 Y12.014 E55.45278
G1 X9.671 Y12.014 E55.63065
G1 X9.671 Y2.56 E56.15484
G0 F3600 X9.071 Y3.16
G1 F1800 X-13.521 Y3.16 E57.4075
G1 X-13.521 Y-3.11 E57.75515
G1 X9.071 Y-3.11 E59.0078
G1 X9.071 Y-12.564 E59.53199
G1 X13.479 Y-12.564 E59.7764
G1 X13.479 Y12.614 E61.17243
G1 X9.071 Y12.614 E61.41684
G1 X9.071 Y3.16 E61.94103
G0 F3600 X11.186 Y3.3
;TYPE:SKIN
G1 F1800 X11.364 Y3.3 E61.94597
G0 F3600 X11.364 Y3
G1 F1800 X11.186 Y3 E61.9509
G0 F3600 X11.186 Y2.7
G1 F1800 X11.364 Y2.7 E61.95584
G0 F3600 X11.364 Y2.4
G1 F1800 X11.186 Y2.4 E61.96077
G0 F3600 X11.186 Y2.1
G1 F1800 X11.364 Y2.1 E61.96571
G0 F3600 X11.364 Y1.8
G1 F1800 X11.186 Y1.8 E61.97064
G0 F3600 X11.186 Y1.5
G1 F1800 X11.364 Y1.5 E61.97558
G0 F3600 X11.364 Y1.2
G1 F1800 X11.186 Y1.2 E61.98051
G0 F3600 X11.186 Y-1.199
G1 F1800 X11.364 Y-1.199 E61.98545
G0 F3600 X11.364 Y-1.499
G1 F1800 X11.186 Y-1.499 E61.99038
G0 F3600 X11.186 Y-1.799
G1 F1800 X11.364 Y-1.799 E61.99532
G0 F3600 X11.364 Y-2.099
G1 F1800 X11.186 Y-2.099 E62.00025
G0 F3600 X11.186 Y-2.399
G1 F1800 X11.364 Y-2.399 E62.00519
G0 F3600 X11.364 Y-2.699
G1 F1800 X11.186 Y-2.699 E62.01012
G0 F3600 X11.186 Y-2.999
G1 F1800 X11.364 Y-2.999 E62.01505
G0 F3600 X11.364 Y-3.299
G1 F1800 X11.186 Y-3.299 E62.01999
G0 F3600 X11.186 Y-3.599
G1 F1800 X11.364 Y-3.599 E62.02492
G0 F3600 X11.364 Y-3.899
G1 F1800 X11.186 Y-3.899 E62.02986
G0 F3600 X11.186 Y-4.199
G1 F1800 X11.364 Y-4.199 E62.03479
G0 F3600 X11.364 Y-4.499
G1 F1800 X11.186 Y-4.499 E62.03973
G0 F3600 X11.186 Y-4.799
G1 F1800 X11.364 Y-4.799 E62.04466
G0 F3600 X11.364 Y-5.099
G1 F1800 X11.186 Y-5.099 E62.0496
G0 F3600 X11.186 Y-5.399
G1 F1800 X11.364 Y-5.399 E62.05453
G0 F3600 X11.364 Y-5.699
G1 F1800 X11.186 Y-5.699 E62.05947
G0 F3600 X11.186 Y-5.999
G1 F1800 X11.364 Y-5.999 E62.0644
G0 F3600 X11.364 Y-6.299
G1 F1800 X11.186 Y-6.299 E62.06934
G0 F3600 X11.186 Y-6.599
G1 F1800 X11.364 Y-6.599 E62.07427
G0 F3600 X11.364 Y-6.899
G1 F1800 X11.186 Y-6.899 E62.07921
G0 F3600 X11.186 Y-7.199
G1 F1800 X11.364 Y-7.199 E62.08414
G0 F3600 X11.364 Y-7.499
G1 F1800 X11.186 Y-7.499 E62.08908
G0 F3600 X11.186 Y-7.799
G1 F1800 X11.364 Y-7.799 E62.09401
G0 F3600 X11.364 Y-8.099
G1 F1800 X11.186 Y-8.099 E62.09895
G0 F3600 X11.186 Y-8.4
G1 F1800 X11.364 Y-8.4 E62.10388
G0 F3600 X11.364 Y-8.7
G1 F1800 X11.186 Y-8.7 E62.10882
G0 F3600 X11.186 Y-9
G1 F1800 X11.364 Y-9 E62.11375
G0 F3600 X11.364 Y-9.3
G1 F1800 X11.186 Y-9.3 E62.11868
G0 F3600 X11.186 Y-9.6
G1 F1800 X11.364 Y-9.6 E62.12362
G0 F3600 X11.364 Y-9.9
G1 F1800 X11.186 Y-9.9 E62.12855
G0 F3600 X11.186 Y-10.2
G1 F1800 X11.364 Y-10.2 E62.13349
G0 F3600 X11.364 Y3.6
G1 F1800 X11.186 Y3.6 E62.13842
G0 F3600 X11.186 Y3.9
G1 F1800 X11.364 Y3.9 E62.14336
G0 F3600 X11.364 Y4.2
G1 F1800 X11.186 Y4.2 E62.14829
G0 F3600 X11.186 Y4.5
G1 F1800 X11.364 Y4.5 E62.15323
G0 F3600 X11.364 Y4.8
G1 F1800 X11.186 Y4.8 E62.15816
G0 F3600 X11.186 Y5.1
G1 F1800 X11.364 Y5.1 E62.1631
G0 F3600 X11.364 Y5.4
G1 F1800 X11.186 Y5.4 E62.16803
G0 F3600 X11.186 Y5.7
G1 F1800 X11.364 Y5.7 E62.17297
G0 F3600 X11.364 Y6
G1 F1800 X11.186 Y6 E62.1779
G0 F3600 X11.186 Y6.3
G1 F1800 X11.364 Y6.3 E62.18284
G0 F3600 X11.364 Y6.6
G1 F1800 X11.186 Y6.6 E62.18777
G0 F3600 X11.186 Y6.9
G1 F1800 X11.364 Y6.9 E62.19271
G0 F3600 X11.364 Y7.2
G1 F1800 X11.186 Y7.2 E62.19764
G0 F3600 X11.186 Y7.5
G1 F1800 X11.364 Y7.5 E62.20258
G0 F3600 X11.364 Y7.8
G1 F1800 X11.186 Y7.8 E62.20751
G0 F3600 X11.186 Y8.1
G1 F1800 X11.364 Y8.1 E62.21244
G0 F3600 X11.364 Y8.4
G1 F1800 X11.186 Y8.4 E62.21738
G0 F3600 X11.186 Y8.7
G1 F1800 X11.364 Y8.7 E62.22231
G0 F3600 X11.364 Y9
G1 F1800 X11.186 Y9 E62.22725
G0 F3600 X11.186 Y9.3
G1 F1800 X11.364 Y9.3 E62.23218
G0 F3600 X11.364 Y9.6
G1 F1800 X11.186 Y9.6 E62.23712
G0 F3600 X11.186 Y9.9
G1 F1800 X11.364 Y9.9 E62.24205
G0 F3600 X11.364 Y10.2
G1 F1800 X11.186 Y10.2 E62.24699
G1 F1500 E55.74699
;MESH:T.stl
G0 F3600 X8.499 Y3.732
G0 X-14.107 Y-3.696
G0 X-15.686 Y-3.696
G0 X-16.709 Y-4.71
G0 X-16.709 Y-6.289
G0 X-16.765 Y-23.129
G0 X-16.695 Y-23.199
;TYPE:WALL-INNER
G1 F1500 E62.24699
G1 F1800 X5.897 Y-23.199 E63.49964
G1 X5.897 Y-15.729 E63.91382
G1 X-16.695 Y-15.729 E65.16648
G1 X-16.695 Y-6.275 E65.69067
G1 X-22.303 Y-6.275 E66.00161
G1 X-22.303 Y-32.653 E67.46418
G1 X-16.695 Y-32.653 E67.77513
G1 X-16.695 Y-23.199 E68.29932
G0 F3600 X-16.095 Y-23.799
;TYPE:WALL-OUTER
G1 F1800 X6.497 Y-23.799 E69.55197
G1 X6.497 Y-15.129 E70.03269
G1 X-16.095 Y-15.129 E71.28534
G1 X-16.095 Y-5.675 E71.80954
G1 X-22.903 Y-5.675 E72.18702
G1 X-22.903 Y-33.253 E73.71612
G1 X-16.095 Y-33.253 E74.09361
G1 X-16.095 Y-23.799 E74.6178
G0 F3600 X-15.895 Y-23.799
G0 X-15.895 Y-23.139
G0 X-15.895 Y-23.099
G0 X2.297 Y-19.329
;TYPE:SKIN
G1 F1800 X-18.703 Y-19.329 E75.78218
G1 X-18.703 Y-19.599 E75.79715
G1 X2.297 Y-19.599 E76.96153
G1 X2.297 Y-19.329 E76.9765
G0 F3600 X2.897 Y-18.729
G1 F1800 X-19.303 Y-18.729 E78.20741
G1 X-19.303 Y-20.199 E78.28892
G1 X2.897 Y-20.199 E79.51983
G1 X2.897 Y-18.729 E79.60134
G0 F3600 X3.497 Y-18.129
G1 F1800 X-19.095 Y-18.129 E80.85399
G1 X-19.095 Y-8.675 E81.37818
G1 X-19.903 Y-8.675 E81.42298
G1 X-19.903 Y-30.253 E82.61941
G1 X-19.095 Y-30.253 E82.66421
G1 X-19.095 Y-20.799 E83.18841
G1 X3.497 Y-20.799 E84.44106
G1 X3.497 Y-18.129 E84.5891
G0 F3600 X4.097 Y-17.529
G1 F1800 X-18.495 Y-17.529 E85.84175
G1 X-18.495 Y-8.075 E86.36594
G1 X-20.503 Y-8.075 E86.47728
G1 X-20.503 Y-30.853 E87.74024
G1 X-18.495 Y-30.853 E87.85158
G1 X-18.495 Y-21.399 E88.37577
G1 X4.097 Y-21.399 E89.62842
G1 X4.097 Y-17.529 E89.843
G0 F3600 X4.697 Y-16.929
G1 F1800 X-17.895 Y-16.929 E91.09565
G1 X-17.895 Y-7.475 E91.61984
G1 X-21.103 Y-7.475 E91.79772
G1 X-21.103 Y-31.453 E93.12721
G1 X-17.895 Y-31.453 E93.30509
G1 X-17.895 Y-21.999 E93.82928
G1 X4.697 Y-21.999 E95.08193
G1 X4.697 Y-16.929 E95.36304
G0 F3600 X5.297 Y-16.329
G1 F1800 X-17.295 Y-16.329 E96.6157
G1 X-17.295 Y-6.875 E97.13989
G1 X-21.703 Y-6.875 E97.3843
G1 X-21.703 Y-32.053 E98.78033
G1 X-17.295 Y-32.053 E99.02474
G1 X-17.295 Y-22.599 E99.54893
G1 X5.297 Y-22.599 E100.80158
G1 X5.297 Y-16.329 E101.14923
G0 F3600 X-19.41 Y-16.2
;TYPE:SKIN
G1 F1800 X-19.588 Y-16.2 E101.15417
G0 F3600 X-19.588 Y-16.5
G1 F1800 X-19.41 Y-16.5 E101.1591
G0 F3600 X-19.41 Y-16.8
G1 F1800 X-19.588 Y-16.8 E101.16404
G0 F3600 X-19.588 Y-17.1
G1 F1800 X-19.41 Y-17.1 E101.16897
G0 F3600 X-19.41 Y-17.4
G1 F1800 X-19.588 Y-17.4 E101.17391
G0 F3600 X-19.588 Y-17.7
G1 F1800 X-19.41 Y-17.7 E101.17884
G0 F3600 X-19.41 Y-18
G1 F1800 X-19.588 Y-18 E101.18378
G0 F3600 X-19.588 Y-18.3
G1 F1800 X-19.41 Y-18.3 E101.18871
G0 F3600 X-19.41 Y-20.7
G1 F1800 X-19.588 Y-20.7 E101.19365
G0 F3600 X-19.588 Y-21
G1 F1800 X-19.41 Y-21 E101.19858
G0 F3600 X-19.41 Y-21.3
G1 F1800 X-19.588 Y-21.3 E101.20352
G0 F3600 X-19.588 Y-21.6
G1 F1800 X-19.41 Y-21.6 E101.20845
G0 F3600 X-19.41 Y-21.9
G1 F1800 X-19.588 Y-21.9 E101.21339
G0 F3600 X-19.588 Y-22.2
G1 F1800 X-19.41 Y-22.2 E101.21832
G0 F3600 X-19.41 Y-22.5
G1 F1800 X-19.588 Y-22.5 E101.22326
G0 F3600 X-19.588 Y-22.8
G1 F1800 X-19.41 Y-22.8 E101.22819
G0 F3600 X-19.41 Y-23.1
G1 F1800 X-19.588 Y-23.1 E101.23312
G0 F3600 X-19.588 Y-23.4
G1 F1800 X-19.41 Y-23.4 E101.23806
G0 F3600 X-19.41 Y-23.7
G1 F1800 X-19.588 Y-23.7 E101.24299
G0 F3600 X-19.588 Y-24
G1 F1800 X-19.41 Y-24 E101.24793
G0 F3600 X-19.41 Y-24.3
G1 F1800 X-19.588 Y-24.3 E101.25286
G0 F3600 X-19.588 Y-24.6
G1 F1800 X-19.41 Y-24.6 E101.2578
G0 F3600 X-19.41 Y-24.9
G1 F1800 X-19.588 Y-24.9 E101.26273
G0 F3600 X-19.588 Y-25.2
G1 F1800 X-19.41 Y-25.2 E101.26767
G0 F3600 X-19.41 Y-25.5
G1 F1800 X-19.588 Y-25.5 E101.2726
G0 F3600 X-19.588 Y-25.8
G1 F1800 X-19.41 Y-25.8 E101.27754
