;FLAVOR:Marlin
;TIME:1158
;Filament used: 1.91319m
;Layer height: 0.2
;MINX:-48.067
;MINY:-19.168
;MINZ:0.2
;MAXX:48.013
;MAXY:19.156
;MAXZ:3.6
;POSTPROCESSED
;Generated with Cura_SteamEngine 4.8.0
M140 S60
M105
M190 S60
M104 S195
M105
M109 S195
M82 ;absolute extrusion mode
G28 ;Home
G1 Z15.0 F6000 ;Move the platform down 15mm
;Prime the extruder
G92 E0
G1 F200 E3
G92 E0
G92 E0
G92 E0
G1 F1500 E-6.5
;LAYER_COUNT:18
;LAYER:0
M107
G0 F3600 X1.339 Y19.028 Z0.2
;TYPE:SKIRT
G1 F1500 E0
G1 F1800 X-1.412 Y19.028 E0.15253
G1 X-4.106 Y19.104 E0.30197
G1 X-4.798 Y19.138 E0.34038
G1 X-5.465 Y19.156 E0.37738
G1 X-13.733 Y19.156 E0.83581
G1 X-14.441 Y19.146 E0.87507
G1 X-14.661 Y19.136 E0.88728
G1 X-15.497 Y19.077 E0.93375
G1 X-18.291 Y18.919 E1.08892
G1 X-20.965 Y18.844 E1.23724
G1 X-23.717 Y18.844 E1.38983
G1 X-26.424 Y18.921 E1.53998
G1 X-28.469 Y19.03 E1.65353
G1 X-29.634 Y19.104 E1.71826
G1 X-30.34 Y19.14 E1.75745
G1 X-30.847 Y19.137 E1.78557
G1 X-31.33 Y19.108 E1.81239
G1 X-33.646 Y18.943 E1.94113
G1 X-34.351 Y18.883 E1.98037
G1 X-34.91 Y18.794 E2.01175
G1 X-35.845 Y18.574 E2.06501
G1 X-37.353 Y18.193 E2.15125
G1 X-38.024 Y18.013 E2.18977
G1 X-38.748 Y17.739 E2.23269
G1 X-39.479 Y17.376 E2.27795
G1 X-40.149 Y17.03 E2.31976
G1 X-40.753 Y16.708 E2.35771
G1 X-41.312 Y16.345 E2.39466
G1 X-41.818 Y15.94 E2.4306
G1 X-42.712 Y15.199 E2.49498
G1 X-43.251 Y14.738 E2.53431
G1 X-43.719 Y14.262 E2.57132
G1 X-44.312 Y13.546 E2.62287
G1 X-44.917 Y12.79 E2.67656
G1 X-45.342 Y12.243 E2.71496
G1 X-45.752 Y11.59 E2.75772
G1 X-46.115 Y10.861 E2.80287
G1 X-46.561 Y9.935 E2.85986
G1 X-46.864 Y9.283 E2.89972
G1 X-47.094 Y8.65 E2.93707
G1 X-47.31 Y7.841 E2.98349
G1 X-47.57 Y6.819 E3.04197
G1 X-47.743 Y6.095 E3.08324
G1 X-47.832 Y5.558 E3.11342
G1 X-47.903 Y4.818 E3.15464
G1 X-48.005 Y3.533 E3.22611
G1 X-48.049 Y2.877 E3.26257
G1 X-48.067 Y2.08 E3.30677
G1 X-48.067 Y-14.621 E4.23278
G1 X-48.058 Y-15.299 E4.27038
G1 X-48.01 Y-15.855 E4.30132
G1 X-47.884 Y-16.399 E4.33228
G1 X-47.681 Y-16.919 E4.36324
G1 X-47.407 Y-17.405 E4.39417
G1 X-47.065 Y-17.846 E4.42511
G1 X-46.664 Y-18.235 E4.45609
G1 X-46.212 Y-18.562 E4.48702
G1 X-45.718 Y-18.821 E4.51795
G1 X-45.192 Y-19.008 E4.5489
G1 X-44.644 Y-19.117 E4.57988
G1 X-43.946 Y-19.154 E4.61864
G1 X-43.837 Y-19.156 E4.62468
G1 X-35.568 Y-19.156 E5.08317
G1 X-34.765 Y-19.143 E5.1277
G1 X-33.839 Y-19.103 E5.17909
G1 X-31.139 Y-19.028 E5.32886
G1 X-28.388 Y-19.028 E5.48139
G1 X-25.694 Y-19.104 E5.63082
G1 X-25.002 Y-19.138 E5.66924
G1 X-24.335 Y-19.156 E5.70623
G1 X-16.067 Y-19.156 E6.16467
G1 X-15.352 Y-19.146 E6.20432
G1 X-15.129 Y-19.136 E6.21669
G1 X-14.33 Y-19.079 E6.26111
G1 X-11.535 Y-18.92 E6.41633
G1 X-8.862 Y-18.844 E6.5646
G1 X-6.112 Y-18.844 E6.71708
G1 X-3.442 Y-18.92 E6.86518
G1 X-1.267 Y-19.035 E6.98595
G1 X-.203 Y-19.103 E7.04506
G1 X0.541 Y-19.141 E7.08637
G1 X1.046 Y-19.138 E7.11437
G1 X1.53 Y-19.109 E7.14125
G1 X3.844 Y-18.944 E7.26988
G1 X5.173 Y-18.831 E7.34384
G1 X6.95 Y-18.654 E7.44285
G1 X9.654 Y-18.462 E7.59316
G1 X12.329 Y-18.349 E7.74161
G1 X15.079 Y-18.31 E7.8941
G1 X17.827 Y-18.349 E8.04649
G1 X20.507 Y-18.462 E8.19521
G1 X23.205 Y-18.653 E8.34518
G1 X23.519 Y-18.684 E8.36268
G1 X26.466 Y-18.933 E8.52666
G1 X29.569 Y-19.132 E8.69907
G1 X30.289 Y-19.168 E8.73904
G1 X30.792 Y-19.165 E8.76693
G1 X31.276 Y-19.136 E8.79381
G1 X33.591 Y-18.971 E8.9225
G1 X34.296 Y-18.911 E8.96173
G1 X34.854 Y-18.822 E8.99306
G1 X35.787 Y-18.603 E9.0462
G1 X37.299 Y-18.221 E9.13267
G1 X37.97 Y-18.041 E9.17119
G1 X38.693 Y-17.768 E9.21404
G1 X39.398 Y-17.418 E9.25768
G1 X40.095 Y-17.058 E9.30118
G1 X40.699 Y-16.736 E9.33913
G1 X41.258 Y-16.373 E9.37608
G1 X41.764 Y-15.968 E9.41202
G1 X42.658 Y-15.227 E9.4764
G1 X43.197 Y-14.766 E9.51573
G1 X43.665 Y-14.29 E9.55274
G1 X44.258 Y-13.574 E9.60429
G1 X44.861 Y-12.821 E9.65778
G1 X45.286 Y-12.275 E9.69614
G1 X45.699 Y-11.617 E9.73922
G1 X46.061 Y-10.889 E9.7843
G1 X46.507 Y-9.963 E9.84128
G1 X46.81 Y-9.311 E9.88115
G1 X47.04 Y-8.678 E9.91849
G1 X47.256 Y-7.869 E9.96492
G1 X47.514 Y-6.856 E10.02288
G1 X47.684 Y-6.152 E10.06304
G1 X47.775 Y-5.612 E10.0934
G1 X47.849 Y-4.846 E10.13607
G1 X47.951 Y-3.561 E10.20754
G1 X47.995 Y-2.906 E10.24394
G1 X48.013 Y-2.108 E10.2882
G1 X48.013 Y14.546 E11.21161
G1 X48.003 Y15.273 E11.25192
G1 X47.955 Y15.829 E11.28286
G1 X47.829 Y16.373 E11.31383
G1 X47.626 Y16.893 E11.34478
G1 X47.351 Y17.378 E11.37569
G1 X47.009 Y17.82 E11.40668
G1 X46.608 Y18.208 E11.43762
G1 X46.156 Y18.535 E11.46855
G1 X45.661 Y18.794 E11.49952
G1 X45.135 Y18.98 E11.53046
G1 X44.587 Y19.089 E11.56144
G1 X43.893 Y19.126 E11.59997
G1 X43.783 Y19.128 E11.60607
G1 X35.514 Y19.128 E12.06456
G1 X34.711 Y19.115 E12.10909
G1 X33.785 Y19.075 E12.16048
G1 X31.085 Y19 E12.31025
G1 X28.334 Y19 E12.46278
G1 X25.64 Y19.076 E12.61221
G1 X24.948 Y19.11 E12.65063
G1 X24.281 Y19.128 E12.68763
G1 X16.519 Y19.128 E13.118
G1 X15.065 Y19.149 E13.19863
G1 X14.082 Y19.156 E13.25314
G1 X5.768 Y19.156 E13.71412
G1 X4.965 Y19.143 E13.75865
G1 X4.039 Y19.103 E13.81004
G1 X1.339 Y19.028 E13.9598
G0 F3600 X1.32 Y18.428
G1 F1800 X-1.393 Y18.428 E14.11023
G1 X-4.153 Y18.506 E14.26332
G1 X-4.816 Y18.539 E14.30013
G1 X-5.37 Y18.555 E14.33086
G1 X-13.725 Y18.556 E14.79412
G1 X-14.433 Y18.546 E14.83338
G1 X-14.619 Y18.538 E14.8437
G1 X-15.481 Y18.477 E14.89161
G1 X-18.24 Y18.321 E15.04484
G1 X-20.984 Y18.244 E15.19704
G1 X-23.698 Y18.244 E15.34752
G1 X-26.473 Y18.323 E15.50145
G1 X-28.53 Y18.432 E15.61566
G1 X-29.665 Y18.505 E15.67873
G1 X-30.371 Y18.541 E15.71792
G1 X-30.915 Y18.533 E15.74809
G1 X-31.287 Y18.51 E15.76875
G1 X-33.595 Y18.345 E15.89705
G1 X-34.3 Y18.285 E15.93628
G1 X-34.773 Y18.21 E15.96284
G1 X-35.698 Y17.993 E16.01552
G1 X-37.198 Y17.613 E16.10131
G1 X-37.869 Y17.433 E16.13983
G1 X-38.481 Y17.202 E16.1761
G1 X-39.205 Y16.842 E16.22094
G1 X-39.866 Y16.501 E16.26218
G1 X-40.47 Y16.179 E16.30013
G1 X-40.944 Y15.872 E16.33144
G1 X-41.439 Y15.476 E16.36659
G1 X-42.322 Y14.743 E16.43022
G1 X-42.861 Y14.282 E16.46955
G1 X-43.257 Y13.879 E16.50087
G1 X-43.843 Y13.171 E16.55183
G1 X-44.443 Y12.422 E16.60504
G1 X-44.868 Y11.875 E16.64345
G1 X-45.215 Y11.322 E16.67965
G1 X-45.575 Y10.601 E16.72433
G1 X-46.017 Y9.682 E16.78087
G1 X-46.32 Y9.03 E16.82074
G1 X-46.514 Y8.495 E16.85229
G1 X-46.729 Y7.693 E16.89833
G1 X-46.987 Y6.68 E16.95629
G1 X-47.16 Y5.956 E16.99757
G1 X-47.235 Y5.502 E17.02308
G1 X-47.304 Y4.77 E17.06385
G1 X-47.407 Y3.493 E17.13488
G1 X-47.451 Y2.837 E17.17134
G1 X-47.467 Y2.072 E17.21376
G1 X-47.467 Y-14.613 E18.13889
G1 X-47.458 Y-15.291 E18.17649
G1 X-47.411 Y-15.802 E18.20494
G1 X-47.286 Y-16.3 E18.23341
G1 X-47.084 Y-16.772 E18.26187
G1 X-46.812 Y-17.208 E18.29037
G1 X-46.476 Y-17.596 E18.31883
G1 X-46.084 Y-17.927 E18.34727
G1 X-45.645 Y-18.193 E18.37573
G1 X-45.17 Y-18.388 E18.4042
G1 X-44.67 Y-18.507 E18.4327
G1 X-43.929 Y-18.555 E18.47387
G1 X-35.577 Y-18.556 E18.93696
G1 X-34.882 Y-18.546 E18.9755
G1 X-33.911 Y-18.506 E19.02939
G1 X-31.12 Y-18.428 E19.1842
G1 X-28.407 Y-18.428 E19.33463
G1 X-25.647 Y-18.506 E19.48772
G1 X-24.984 Y-18.539 E19.52453
G1 X-24.43 Y-18.555 E19.55526
G1 X-16.076 Y-18.556 E20.01846
G1 X-15.361 Y-18.546 E20.05811
G1 X-15.172 Y-18.538 E20.0686
G1 X-14.339 Y-18.479 E20.1149
G1 X-11.586 Y-18.322 E20.26779
G1 X-8.843 Y-18.244 E20.41994
G1 X-6.131 Y-18.244 E20.57031
G1 X-3.352 Y-18.323 E20.72446
G1 X-1.263 Y-18.434 E20.84045
G1 X-.12 Y-18.507 E20.90396
G1 X0.571 Y-18.542 E20.94232
G1 X1.115 Y-18.534 E20.97249
G1 X1.487 Y-18.511 E20.99315
G1 X3.793 Y-18.346 E21.12134
G1 X5.113 Y-18.234 E21.19479
G1 X6.883 Y-18.058 E21.29342
G1 X9.619 Y-17.864 E21.4455
G1 X12.33 Y-17.749 E21.59595
G1 X15.079 Y-17.71 E21.74839
G1 X17.825 Y-17.749 E21.90066
G1 X20.539 Y-17.864 E22.05128
G1 X23.277 Y-18.057 E22.20347
G1 X23.569 Y-18.086 E22.21974
G1 X26.504 Y-18.334 E22.38305
G1 X29.599 Y-18.533 E22.55501
G1 X30.319 Y-18.569 E22.59499
G1 X30.598 Y-18.571 E22.61046
G1 X31.202 Y-18.54 E22.64399
G1 X33.54 Y-18.373 E22.77395
G1 X34.245 Y-18.313 E22.81319
G1 X34.717 Y-18.238 E22.83968
G1 X35.64 Y-18.022 E22.89224
G1 X37.144 Y-17.641 E22.97827
G1 X37.815 Y-17.461 E23.01679
G1 X38.427 Y-17.23 E23.05306
G1 X39.123 Y-16.884 E23.09616
G1 X39.812 Y-16.529 E23.13913
G1 X40.416 Y-16.207 E23.17708
G1 X40.89 Y-15.9 E23.2084
G1 X41.385 Y-15.504 E23.24355
G1 X42.268 Y-14.771 E23.30718
G1 X42.807 Y-14.31 E23.3465
G1 X43.203 Y-13.907 E23.37783
G1 X43.789 Y-13.199 E23.42879
G1 X44.387 Y-12.452 E23.48184
G1 X44.812 Y-11.906 E23.52021
G1 X45.162 Y-11.35 E23.55663
G1 X45.521 Y-10.629 E23.60129
G1 X45.963 Y-9.71 E23.65784
G1 X46.266 Y-9.058 E23.6977
G1 X46.46 Y-8.523 E23.72925
G1 X46.675 Y-7.721 E23.77529
G1 X46.931 Y-6.716 E23.8328
G1 X47.101 Y-6.012 E23.87295
G1 X47.178 Y-5.555 E23.89865
G1 X47.25 Y-4.798 E23.94081
G1 X47.353 Y-3.521 E24.01185
G1 X47.397 Y-2.866 E24.04825
G1 X47.413 Y-2.1 E24.09073
G1 X47.413 Y14.537 E25.01319
G1 X47.403 Y15.264 E25.05351
G1 X47.356 Y15.776 E25.08201
G1 X47.23 Y16.273 E25.11044
G1 X47.029 Y16.746 E25.13894
G1 X46.756 Y17.181 E25.16741
G1 X46.42 Y17.569 E25.19587
G1 X46.027 Y17.9 E25.22436
G1 X45.588 Y18.166 E25.25282
G1 X45.113 Y18.361 E25.28129
G1 X44.614 Y18.479 E25.30972
G1 X43.876 Y18.527 E25.35073
G1 X35.523 Y18.528 E25.81388
G1 X34.828 Y18.518 E25.85242
G1 X33.857 Y18.478 E25.9063
G1 X31.066 Y18.4 E26.06111
G1 X28.353 Y18.4 E26.21154
G1 X25.593 Y18.478 E26.36463
G1 X24.93 Y18.511 E26.40144
G1 X24.376 Y18.527 E26.43217
G1 X16.51 Y18.528 E26.86831
G1 X15.06 Y18.549 E26.94872
G1 X14.077 Y18.556 E27.00322
G1 X5.777 Y18.556 E27.46343
G1 X5.082 Y18.546 E27.50197
G1 X4.111 Y18.506 E27.55586
G1 X1.32 Y18.428 E27.71067
G1 F1500 E21.21067
;MESH:U.stl
G0 F3600 X4.141 Y-5.02
G0 X5.656 Y-5.578
G0 X4.481 Y-7.619
G0 X4.411 Y-7.549
;TYPE:WALL-INNER
G1 F1500 E27.71067
G1 F1800 X2.461 Y-8.778 E27.83847
G1 X0.00 Y-9.169 E27.97664
G1 X-2.477 Y-8.771 E28.11574
G1 X-4.432 Y-7.525 E28.24428
G1 X-5.656 Y-5.547 E28.37326
G1 X-6.035 Y-3.113 E28.50984
G1 X-6.035 Y14.356 E29.47844
G1 X-13.485 Y14.356 E29.89151
G1 X-13.485 Y-2.57 E30.83
G1 X-13.279 Y-4.845 E30.95666
G1 X-12.667 Y-7.408 E31.10276
G1 X-11.978 Y-8.999 E31.1989
G1 X-10.867 Y-10.556 E31.30495
G1 X-9.465 Y-11.928 E31.41372
G1 X-7.955 Y-12.927 E31.51411
G1 X-6.165 Y-13.624 E31.62062
G1 X-3.923 Y-14.055 E31.7472
G1 X0.739 Y-14.355 E32.00623
G1 X4.101 Y-14.115 E32.19312
G1 X6.907 Y-13.405 E32.3536
G1 X8.623 Y-12.522 E32.46061
G1 X10.295 Y-11.133 E32.58113
G1 X11.708 Y-9.369 E32.70645
G1 X12.689 Y-7.329 E32.83196
G1 X13.268 Y-5.054 E32.96212
G1 X13.467 Y-2.583 E33.09957
G1 X13.467 Y14.356 E34.03878
G1 X6.017 Y14.356 E34.45186
G1 X6.017 Y-3.113 E35.42046
G1 X5.638 Y-5.572 E35.55841
G1 X4.411 Y-7.549 E35.68742
G0 F3600 X3.974 Y-7.115
;TYPE:WALL-OUTER
G1 F1800 X2.245 Y-8.205 E35.80075
G1 X0.001 Y-8.561 E35.92673
G1 X-2.259 Y-8.198 E36.05365
G1 X-3.994 Y-7.093 E36.1677
G1 X-5.082 Y-5.335 E36.28233
G1 X-5.435 Y-3.067 E36.4096
G1 X-5.435 Y14.956 E37.40891
G1 X-14.085 Y14.956 E37.88853
G1 X-14.085 Y-2.602 E38.86206
G1 X-13.873 Y-4.941 E38.99228
G1 X-13.239 Y-7.598 E39.14374
G1 X-12.504 Y-9.295 E39.24628
G1 X-11.323 Y-10.95 E39.35901
G1 X-9.844 Y-12.398 E39.47377
G1 X-8.234 Y-13.462 E39.58078
G1 X-6.333 Y-14.202 E39.69388
G1 X-3.996 Y-14.652 E39.82584
G1 X0.736 Y-14.956 E40.08876
G1 X4.201 Y-14.709 E40.28137
G1 X7.119 Y-13.971 E40.44826
G1 X8.957 Y-13.024 E40.5629
G1 X10.724 Y-11.557 E40.69024
G1 X12.22 Y-9.689 E40.82293
G1 X13.254 Y-7.538 E40.95526
G1 X13.862 Y-5.151 E41.09184
G1 X14.067 Y-2.606 E41.23341
G1 X14.067 Y14.956 E42.20716
G1 X5.417 Y14.956 E42.68678
G1 X5.417 Y-3.067 E43.68609
G1 X5.064 Y-5.36 E43.81473
G1 X3.974 Y-7.115 E43.92928
G0 F3600 X3.805 Y-7.221
G0 X4.158 Y-7.779
G0 X4.18 Y-7.812
G0 X2.475 Y-8.815
G0 X0.00 Y-9.209
G0 X-2.491 Y-8.808
G0 X-4.263 Y-7.679
G0 X-9.635 Y-3.39
;TYPE:SKIN
G1 F1800 X-9.635 Y10.756 E44.71362
G1 X-9.885 Y10.756 E44.72749
G1 X-9.885 Y-2.392 E45.4565
G1 X-9.715 Y-4.26 E45.5605
G1 X-9.233 Y-6.278 E45.67554
G1 X-9.157 Y-6.452 E45.68607
G1 X-9.635 Y-3.39 E45.8579
G0 F3600 X-9.035 Y-3.343
G1 F1800 X-9.035 Y11.356 E46.67291
G1 X-10.485 Y11.356 E46.75331
G1 X-10.485 Y-2.424 E47.51736
G1 X-10.309 Y-4.358 E47.62504
G1 X-9.805 Y-6.466 E47.74522
G1 X-9.35 Y-7.519 E47.80882
G1 X-8.587 Y-8.588 E47.88164
G1 X-7.562 Y-9.592 E47.9612
G1 X-6.575 Y-10.245 E48.02681
G1 X-5.329 Y-10.73 E48.10095
G1 X-4.838 Y-10.824 E48.12867
G1 X-6.622 Y-9.685 E48.24603
G1 X-8.526 Y-6.607 E48.4467
G1 X-9.035 Y-3.343 E48.62987
G0 F3600 X-8.435 Y-3.297
G1 F1800 X-8.435 Y11.956 E49.4756
G1 X-11.085 Y11.956 E49.62253
G1 X-11.085 Y-2.456 E50.42163
G1 X-10.903 Y-4.455 E50.53292
G1 X-10.377 Y-6.656 E50.6584
G1 X-9.876 Y-7.815 E50.72841
G1 X-9.043 Y-8.982 E50.80791
G1 X-7.944 Y-10.058 E50.89319
G1 X-6.851 Y-10.781 E50.96585
G1 X-5.497 Y-11.308 E51.04641
G1 X-3.613 Y-11.67 E51.15278
G1 X0.744 Y-11.952 E51.39487
G1 X3.699 Y-11.739 E51.55914
G1 X6.057 Y-11.143 E51.69399
G1 X7.288 Y-10.51 E51.77074
G1 X8.578 Y-9.438 E51.86374
G1 X9.664 Y-8.083 E51.96003
G1 X10.417 Y-6.514 E52.05652
G1 X10.892 Y-4.646 E52.16339
G1 X11.067 Y-2.492 E52.28322
G1 X11.067 Y11.956 E53.08431
G1 X8.417 Y11.956 E53.23124
G1 X8.417 Y-3.297 E54.07697
G1 X7.934 Y-6.42 E54.25219
G1 X6.158 Y-9.285 E54.43909
G1 X3.325 Y-11.071 E54.62478
G1 X-0.003 Y-11.601 E54.81163
G1 X-3.349 Y-11.062 E54.99955
G1 X-6.184 Y-9.253 E55.18601
G1 X-7.952 Y-6.395 E55.37235
G1 X-8.435 Y-3.297 E55.5462
G0 F3600 X-7.835 Y-3.251
G1 F1800 X-7.835 Y12.556 E56.42265
G1 X-11.685 Y12.556 E56.63612
G1 X-11.685 Y-2.488 E57.47025
G1 X-11.497 Y-4.552 E57.58517
G1 X-10.949 Y-6.846 E57.71594
G1 X-10.402 Y-8.111 E57.79236
G1 X-9.499 Y-9.376 E57.87854
G1 X-8.326 Y-10.524 E57.96954
G1 X-7.127 Y-11.317 E58.04925
G1 X-5.665 Y-11.886 E58.13623
G1 X-3.685 Y-12.267 E58.24803
G1 X0.741 Y-12.553 E58.49395
G1 X3.799 Y-12.333 E58.66394
G1 X6.27 Y-11.708 E58.80527
G1 X7.62 Y-11.014 E58.88943
G1 X9.007 Y-9.861 E58.98944
G1 X10.176 Y-8.403 E59.09305
G1 X10.985 Y-6.719 E59.19664
G1 X11.486 Y-4.748 E59.3094
G1 X11.667 Y-2.515 E59.43362
G1 X11.667 Y12.556 E60.26926
G1 X7.817 Y12.556 E60.48273
G1 X7.817 Y-3.251 E61.35917
G1 X7.36 Y-6.208 E61.52507
G1 X5.721 Y-8.851 E61.69751
G1 X3.109 Y-10.498 E61.86872
G1 X-0.002 Y-10.993 E62.04339
G1 X-3.131 Y-10.489 E62.21912
G1 X-5.746 Y-8.821 E62.3911
G1 X-7.378 Y-6.183 E62.56309
G1 X-7.835 Y-3.251 E62.72762
G0 F3600 X-7.235 Y-3.205
G1 F1800 X-7.235 Y13.156 E63.63479
G1 X-12.285 Y13.156 E63.91479
G1 X-12.285 Y-2.515 E64.7837
G1 X-12.091 Y-4.65 E64.90256
G1 X-11.521 Y-7.034 E65.03847
G1 X-10.928 Y-8.407 E65.1214
G1 X-9.955 Y-9.77 E65.21425
G1 X-8.708 Y-10.99 E65.31098
G1 X-7.404 Y-11.853 E65.39768
G1 X-5.83 Y-12.465 E65.49132
G1 X-3.759 Y-12.864 E65.60826
G1 X0.738 Y-13.154 E65.85812
G1 X3.899 Y-12.927 E66.03384
G1 X6.482 Y-12.274 E66.18157
G1 X7.954 Y-11.516 E66.27337
G1 X9.436 Y-10.285 E66.38019
G1 X10.688 Y-8.723 E66.49119
G1 X11.553 Y-6.924 E66.60187
G1 X12.08 Y-4.85 E66.72052
G1 X12.267 Y-2.536 E66.84924
G1 X12.267 Y13.156 E67.71931
G1 X7.217 Y13.156 E67.99931
G1 X7.217 Y-3.205 E68.90648
G1 X6.786 Y-5.996 E69.06306
G1 X5.284 Y-8.417 E69.22103
G1 X2.893 Y-9.925 E69.37777
G1 X-0.001 Y-10.385 E69.54025
G1 X-2.913 Y-9.916 E69.70379
G1 X-5.308 Y-8.389 E69.86128
G1 X-6.804 Y-5.971 E70.01893
G1 X-7.235 Y-3.205 E70.17415
G0 F3600 X-6.635 Y-3.159
G1 F1800 X-6.635 Y13.756 E71.11203
G1 X-12.885 Y13.756 E71.45857
G1 X-12.885 Y-2.547 E72.36252
G1 X-12.685 Y-4.747 E72.485
G1 X-12.093 Y-7.224 E72.62621
G1 X-11.454 Y-8.703 E72.71555
G1 X-10.411 Y-10.164 E72.81508
G1 X-9.087 Y-11.46 E72.91781
