;FLAVOR:Marlin
;TIME:1001
;Filament used: 1.64637m
;Layer height: 0.2
;MINX:-39.616
;MINY:-26.291
;MINZ:0.2
;MAXX:39.848
;MAXY:18.944
;MAXZ:3.6
;POSTPROCESSED
;Generated with Cura_SteamEngine 4.8.0
M140 S60
M105
M190 S60
M104 S195
M105
M109 S195
M82 ;absolute extrusion mode
G28 ;Home
G1 Z15.0 F6000 ;Move the platform down 15mm
;Prime the extruder
G92 E0
G1 F200 E3
G92 E0
G92 E0
G92 E0
G1 F1500 E-6.5
;LAYER_COUNT:18
;LAYER:0
M107
G0 F3600 X-1.224 Y18.719 Z0.2
;TYPE:SKIRT
G1 F1500 E0
G1 F1800 X-3.928 Y18.795 E0.14999
G1 X-6.479 Y18.933 E0.29164
G1 X-7.083 Y18.944 E0.32513
G1 X-15.601 Y18.944 E0.79743
G1 X-16.304 Y18.934 E0.83641
G1 X-16.861 Y18.886 E0.86741
G1 X-17.404 Y18.759 E0.89833
G1 X-17.924 Y18.556 E0.92928
G1 X-18.41 Y18.281 E0.96024
G1 X-18.984 Y17.814 E1.00127
G1 X-19.375 Y17.429 E1.0317
G1 X-21.366 Y15.523 E1.18452
G1 X-23.394 Y13.689 E1.33613
G1 X-25.472 Y11.914 E1.48766
G1 X-26.549 Y11.046 E1.56435
G1 X-27.079 Y10.606 E1.60255
G1 X-27.482 Y10.219 E1.63353
G1 X-27.826 Y9.779 E1.6645
G1 X-28.103 Y9.295 E1.69542
G1 X-28.223 Y9.018 E1.71215
G1 X-28.508 Y8.283 E1.75586
G1 X-39.154 Y-20.391 E3.45178
G1 X-39.396 Y-21.071 E3.4918
G1 X-39.545 Y-21.609 E3.52276
G1 X-39.616 Y-22.163 E3.55373
G1 X-39.607 Y-22.721 E3.58467
G1 X-39.518 Y-23.272 E3.61562
G1 X-39.352 Y-23.805 E3.64657
G1 X-39.111 Y-24.309 E3.67754
G1 X-38.801 Y-24.773 E3.70849
G1 X-38.428 Y-25.188 E3.73942
G1 X-37.999 Y-25.545 E3.77037
G1 X-37.524 Y-25.838 E3.80131
G1 X-37.011 Y-26.06 E3.83231
G1 X-36.473 Y-26.206 E3.86322
G1 X-35.781 Y-26.279 E3.9018
G1 X-34.993 Y-26.291 E3.9455
G1 X-26.981 Y-26.291 E4.38973
G1 X-26.166 Y-26.278 E4.43493
G1 X-25.777 Y-26.261 E4.45652
G1 X-23.673 Y-26.142 E4.57336
G1 X-20.998 Y-26.066 E4.72174
G1 X-18.248 Y-26.066 E4.87422
G1 X-15.546 Y-26.142 E5.0241
G1 X-12.994 Y-26.28 E5.16581
G1 X-12.39 Y-26.291 E5.1993
G1 X-3.871 Y-26.291 E5.67165
G1 X-3.063 Y-26.278 E5.71646
G1 X-2.662 Y-26.26 E5.73871
G1 X0.041 Y-26.183 E5.88865
G1 X2.96 Y-26.186 E6.0505
G1 X4.158 Y-26.205 E6.11693
G1 X12.21 Y-26.205 E6.56339
G1 X13.025 Y-26.192 E6.60858
G1 X13.414 Y-26.175 E6.63017
G1 X15.518 Y-26.056 E6.74702
G1 X18.193 Y-25.98 E6.89539
G1 X20.943 Y-25.98 E7.04787
G1 X23.646 Y-26.056 E7.1978
G1 X26.197 Y-26.194 E7.33946
G1 X26.801 Y-26.205 E7.37295
G1 X35.321 Y-26.205 E7.84536
G1 X36.006 Y-26.195 E7.88334
G1 X36.562 Y-26.147 E7.91428
G1 X37.106 Y-26.02 E7.94526
G1 X37.626 Y-25.816 E7.97623
G1 X38.111 Y-25.541 E8.00714
G1 X38.552 Y-25.199 E8.03809
G1 X38.94 Y-24.798 E8.06903
G1 X39.267 Y-24.345 E8.1
G1 X39.526 Y-23.85 E8.13098
G1 X39.711 Y-23.324 E8.1619
G1 X39.819 Y-22.776 E8.19286
G1 X39.848 Y-22.219 E8.22379
G1 X39.797 Y-21.663 E8.25475
G1 X39.622 Y-20.985 E8.29357
G1 X39.29 Y-20.056 E8.34827
G1 X28.511 Y8.484 E10.03982
G1 X28.262 Y9.117 E10.07754
G1 X28.021 Y9.62 E10.10846
G1 X27.711 Y10.084 E10.1394
G1 X27.337 Y10.499 E10.17038
G1 X27.104 Y10.706 E10.18766
G1 X26.603 Y11.116 E10.22356
G1 X25.374 Y12.095 E10.31068
G1 X23.275 Y13.866 E10.46295
G1 X21.279 Y15.648 E10.61131
G1 X19.684 Y17.17 E10.73355
G1 X18.926 Y17.879 E10.7911
G1 X18.492 Y18.23 E10.82205
G1 X18.013 Y18.516 E10.85298
G1 X17.497 Y18.73 E10.88395
G1 X16.956 Y18.869 E10.91493
G1 X16.325 Y18.93 E10.95008
G1 X15.461 Y18.944 E10.99799
G1 X7.508 Y18.944 E11.43896
G1 X6.694 Y18.931 E11.48409
G1 X6.304 Y18.914 E11.50574
G1 X4.2 Y18.795 E11.62259
G1 X1.525 Y18.719 E11.77096
G1 X-1.224 Y18.719 E11.92339
G0 F3600 X-1.205 Y18.119
G1 F1800 X-3.979 Y18.197 E12.07726
G1 X-6.511 Y18.334 E12.21785
G1 X-7.09 Y18.344 E12.24996
G1 X-15.593 Y18.344 E12.72142
G1 X-16.296 Y18.334 E12.76041
G1 X-16.807 Y18.286 E12.78887
G1 X-17.305 Y18.161 E12.81733
G1 X-17.777 Y17.959 E12.8458
G1 X-18.212 Y17.686 E12.87428
G1 X-18.563 Y17.387 E12.89984
G1 X-18.992 Y16.965 E12.93321
G1 X-20.973 Y15.069 E13.08525
G1 X-23.009 Y13.228 E13.23745
G1 X-25.072 Y11.466 E13.38788
G1 X-26.166 Y10.584 E13.46579
G1 X-26.696 Y10.144 E13.50399
G1 X-27.064 Y9.786 E13.53245
G1 X-27.373 Y9.376 E13.56092
G1 X-27.664 Y8.801 E13.59665
G1 X-27.946 Y8.075 E13.63984
G1 X-38.589 Y-20.593 E15.33539
G1 X-38.831 Y-21.273 E15.37541
G1 X-38.965 Y-21.768 E15.40384
G1 X-39.02 Y-22.279 E15.43234
G1 X-38.996 Y-22.791 E15.46076
G1 X-38.893 Y-23.294 E15.48923
G1 X-38.712 Y-23.775 E15.51772
G1 X-38.459 Y-24.222 E15.5462
G1 X-38.14 Y-24.624 E15.57465
G1 X-37.763 Y-24.972 E15.6031
G1 X-37.336 Y-25.257 E15.63157
G1 X-36.87 Y-25.473 E15.66005
G1 X-36.376 Y-25.614 E15.68853
G1 X-35.772 Y-25.679 E15.72221
G1 X-34.984 Y-25.691 E15.76591
G1 X-26.989 Y-25.691 E16.20921
G1 X-26.283 Y-25.681 E16.24836
G1 X-25.811 Y-25.662 E16.27455
G1 X-23.724 Y-25.544 E16.39045
G1 X-20.979 Y-25.466 E16.54271
G1 X-18.267 Y-25.466 E16.69308
G1 X-15.495 Y-25.544 E16.84684
G1 X-12.962 Y-25.681 E16.98749
G1 X-12.383 Y-25.691 E17.0196
G1 X-3.88 Y-25.691 E17.49107
G1 X-3.181 Y-25.681 E17.52983
G1 X-2.732 Y-25.663 E17.55474
G1 X0.058 Y-25.583 E17.7095
G1 X2.97 Y-25.586 E17.87096
G1 X4.168 Y-25.605 E17.9374
G1 X12.202 Y-25.605 E18.38285
G1 X12.908 Y-25.595 E18.422
G1 X13.38 Y-25.576 E18.4482
G1 X15.467 Y-25.458 E18.5641
G1 X18.212 Y-25.38 E18.71636
G1 X20.924 Y-25.38 E18.86673
G1 X23.697 Y-25.458 E19.02055
G1 X26.229 Y-25.595 E19.16114
G1 X26.808 Y-25.605 E19.19325
G1 X35.312 Y-25.605 E19.66477
G1 X35.997 Y-25.595 E19.70275
G1 X36.508 Y-25.547 E19.73121
G1 X37.006 Y-25.421 E19.75969
G1 X37.478 Y-25.219 E19.78816
G1 X37.913 Y-24.947 E19.81661
G1 X38.301 Y-24.61 E19.8451
G1 X38.631 Y-24.217 E19.87356
G1 X38.897 Y-23.778 E19.90202
G1 X39.091 Y-23.303 E19.93047
G1 X39.21 Y-22.803 E19.95896
G1 X39.249 Y-22.291 E19.98743
G1 X39.208 Y-21.779 E20.01591
G1 X39.057 Y-21.187 E20.04979
G1 X38.729 Y-20.268 E20.10389
G1 X27.953 Y8.264 E21.79497
G1 X27.704 Y8.897 E21.83268
G1 X27.479 Y9.359 E21.86118
G1 X27.186 Y9.78 E21.88961
G1 X26.724 Y10.242 E21.92584
G1 X26.229 Y10.647 E21.9613
G1 X25 Y11.625 E22.04839
G1 X22.894 Y13.403 E22.20121
G1 X20.843 Y15.234 E22.35366
G1 X19.274 Y16.732 E22.47394
G1 X18.516 Y17.441 E22.53148
G1 X18.115 Y17.762 E22.55996
G1 X17.669 Y18.016 E22.58842
G1 X17.189 Y18.198 E22.61689
G1 X16.687 Y18.304 E22.64533
G1 X16.316 Y18.331 E22.66596
G1 X15.515 Y18.344 E22.71038
G1 X7.516 Y18.344 E23.1539
G1 X6.811 Y18.334 E23.19299
G1 X6.338 Y18.315 E23.21924
G1 X4.251 Y18.197 E23.33514
G1 X1.506 Y18.119 E23.4874
G1 X-1.205 Y18.119 E23.63772
G1 F1500 E17.13772
;MESH:V.stl(2)
G0 F3600 X-5.726 Y14.598
G0 X-7.234 Y14.128
G0 X-.494 Y-7.477
G0 X0.913 Y-7.525
G0 X0.854 Y-7.445
;TYPE:WALL-INNER
G1 F1500 E23.63772
G1 F1800 X-.471 Y-7.445 E23.71118
G1 X-7.223 Y14.144 E24.9654
G1 X-14.518 Y14.144 E25.36988
G1 X-14.519 Y14.144 E25.36994
G1 X-14.951 Y14.144 E25.39389
G1 X-14.799 Y13.739 E25.40802
G1 X-4.301 Y-14.056 E27.05542
G1 X4.5 Y-14.056 E27.54341
G1 X14.822 Y13.741 E29.18749
G1 X14.971 Y14.144 E29.21131
G1 X14.542 Y14.144 E29.22534
G1 X14.541 Y14.144 E29.22539
G1 X7.52 Y14.144 E29.61468
G1 X0.854 Y-7.445 E30.86748
G0 F3600 X0.411 Y-6.845
;TYPE:WALL-OUTER
G1 F1800 X-0.03 Y-6.845 E30.89194
G1 X-.106 Y-6.602 E30.90605
G1 X-6.782 Y14.744 E32.14615
G1 X-15.386 Y14.744 E32.62321
G1 X-15.387 Y14.744 E32.62327
G1 X-15.819 Y14.744 E32.64722
G1 X-15.667 Y14.339 E32.66135
G1 X-4.715 Y-14.656 E34.37989
G1 X4.917 Y-14.656 E34.91395
G1 X15.683 Y14.34 E36.62893
G1 X15.833 Y14.744 E36.65282
G1 X15.403 Y14.744 E36.66688
G1 X15.402 Y14.744 E36.66693
G1 X7.078 Y14.744 E37.12847
G1 X0.486 Y-6.602 E38.36719
G1 X0.411 Y-6.845 E38.3795
G0 F3600 X0.211 Y-6.845
G0 X0.211 Y-7.505
G0 X0.211 Y-7.545
G0 X2.643 Y-10.445
;TYPE:SKIN
G1 F1800 X-2.459 Y-10.445 E38.66239
G1 X-2.229 Y-11.056 E38.69859
G1 X2.416 Y-11.056 E38.95614
G1 X2.643 Y-10.445 E38.99228
G0 F3600 X2.625 Y-9.845
G1 F1800 X-2.236 Y-9.845 E39.2618
G1 X-8.986 Y11.744 E40.51598
G1 X-11.479 Y11.744 E40.65421
G1 X-2.643 Y-11.656 E42.04108
G1 X2.833 Y-11.656 E42.34471
G1 X11.523 Y11.744 E43.72874
G1 X9.29 Y11.744 E43.85255
G1 X2.625 Y-9.845 E45.10534
G0 F3600 X2.182 Y-9.245
G1 F1800 X-1.795 Y-9.245 E45.32585
G1 X-8.545 Y12.344 E46.58003
G1 X-12.347 Y12.344 E46.79084
G1 X-3.057 Y-12.256 E48.24885
G1 X3.25 Y-12.256 E48.59855
G1 X12.385 Y12.344 E50.05354
G1 X8.848 Y12.344 E50.24966
G1 X2.182 Y-9.245 E51.50246
G0 F3600 X1.739 Y-8.645
G1 F1800 X-1.354 Y-8.645 E51.67395
G1 X-8.104 Y12.944 E52.92813
G1 X-13.215 Y12.944 E53.21152
G1 X-3.471 Y-12.856 E54.74067
G1 X3.667 Y-12.856 E55.13645
G1 X6.967 Y-3.971 E55.66197
G1 X13.247 Y12.944 E56.66241
G1 X8.406 Y12.944 E56.93082
G1 X1.739 Y-8.645 E58.18364
G0 F3600 X1.296 Y-8.045
G1 F1800 X-.913 Y-8.045 E58.30612
G1 X-3.187 Y-.771 E58.72869
G1 X-3.187 Y-.769 E58.7288
G1 X-4.086 Y2.105 E58.89577
G1 X-7.663 Y13.544 E59.56031
G1 X-14.083 Y13.544 E59.91628
G1 X-8.622 Y-.914 E60.7732
G1 X-7.886 Y-2.864 E60.88877
G1 X-3.885 Y-13.456 E61.51656
G1 X4.084 Y-13.456 E61.95842
G1 X7.829 Y-3.371 E62.5549
G1 X7.827 Y-3.371 E62.55501
G1 X9.375 Y0.793 E62.80133
G1 X14.109 Y13.544 E63.55549
G1 X7.964 Y13.544 E63.89621
G1 X4.432 Y2.106 E64.55995
G1 X3.439 Y-1.109 E64.74652
G1 X1.296 Y-8.045 E65.14904
G0 F3600 X-3.726 Y-7.091
G1 F1800 X-9.427 Y11.144 E66.20837
G1 X-10.611 Y11.144 E66.27402
G1 X-3.726 Y-7.091 E67.35476
G0 F3600 X-.494 Y-7.477
G0 X0.877 Y-7.477
G0 X5.161 Y-3.665
G1 F1800 X10.661 Y11.144 E68.23067
G1 X9.732 Y11.144 E68.28218
G1 X5.161 Y-3.665 E69.14151
G0 F3600 X4.919 Y-3.899
;TYPE:SKIN
G1 F1800 X4.789 Y-3.899 E69.14511
G0 F3600 X4.696 Y-4.2
G1 F1800 X5.266 Y-4.2 E69.16092
G0 F3600 X5.155 Y-4.5
G1 F1800 X4.604 Y-4.5 E69.17619
G0 F3600 X4.511 Y-4.8
G1 F1800 X5.043 Y-4.8 E69.19094
G0 F3600 X4.932 Y-5.1
G1 F1800 X4.419 Y-5.1 E69.20516
G0 F3600 X4.326 Y-5.4
G1 F1800 X4.82 Y-5.4 E69.21886
G0 F3600 X4.709 Y-5.7
G1 F1800 X4.233 Y-5.7 E69.23205
G0 F3600 X4.141 Y-6
G1 F1800 X4.598 Y-6 E69.24472
G0 F3600 X4.486 Y-6.3
G1 F1800 X4.048 Y-6.3 E69.25687
G0 F3600 X3.955 Y-6.6
G1 F1800 X4.375 Y-6.6 E69.26851
G0 F3600 X4.263 Y-6.9
G1 F1800 X3.863 Y-6.9 E69.2796
G0 F3600 X3.77 Y-7.2
G1 F1800 X4.152 Y-7.2 E69.29019
G0 F3600 X4.04 Y-7.5
G1 F1800 X3.677 Y-7.5 E69.30025
G0 F3600 X3.585 Y-7.8
G1 F1800 X3.929 Y-7.8 E69.30979
G0 F3600 X3.817 Y-8.1
G1 F1800 X3.492 Y-8.1 E69.3188
G0 F3600 X3.399 Y-8.4
G1 F1800 X3.706 Y-8.4 E69.32731
G0 F3600 X3.594 Y-8.7
G1 F1800 X3.307 Y-8.7 E69.33527
G0 F3600 X3.214 Y-9
G1 F1800 X3.483 Y-9 E69.34273
G0 F3600 X3.371 Y-9.3
G1 F1800 X3.121 Y-9.3 E69.34966
G0 F3600 X3.029 Y-9.6
G1 F1800 X3.26 Y-9.6 E69.35606
G0 F3600 X3.149 Y-9.9
G1 F1800 X2.936 Y-9.9 E69.36197
G0 F3600 X-2.549 Y-9.9
G1 F1800 X-2.968 Y-9.9 E69.37358
G0 F3600 X-3.081 Y-9.6
G1 F1800 X-2.643 Y-9.6 E69.38572
G0 F3600 X-2.737 Y-9.3
G1 F1800 X-3.195 Y-9.3 E69.39842
G0 F3600 X-3.308 Y-9
G1 F1800 X-2.83 Y-9 E69.41167
G0 F3600 X-2.924 Y-8.7
G1 F1800 X-3.421 Y-8.7 E69.42545
G0 F3600 X-3.534 Y-8.4
G1 F1800 X-3.018 Y-8.4 E69.43976
G0 F3600 X-3.112 Y-8.1
G1 F1800 X-3.648 Y-8.1 E69.45462
G0 F3600 X-3.761 Y-7.8
G1 F1800 X-3.206 Y-7.8 E69.47
G0 F3600 X-3.299 Y-7.5
G1 F1800 X-3.874 Y-7.5 E69.48594
G0 F3600 X-7.587 Y4.199
G1 F1800 X-7.651 Y4.199 E69.48772
G0 F3600 X-7.68 Y4.499
G1 F1800 X-7.765 Y4.499 E69.49008
G0 F3600 X-7.774 Y4.799
G1 F1800 X-7.878 Y4.799 E69.49296
G0 F3600 X-7.868 Y5.099
G1 F1800 X-7.991 Y5.099 E69.49637
G0 F3600 X-7.962 Y5.399
G1 F1800 X-8.105 Y5.399 E69.50033
G0 F3600 X-8.056 Y5.699
G1 F1800 X-8.218 Y5.699 E69.50482
G0 F3600 X-8.149 Y5.999
G1 F1800 X-8.331 Y5.999 E69.50987
G0 F3600 X-8.243 Y6.299
G1 F1800 X-8.444 Y6.299 E69.51544
G0 F3600 X-8.337 Y6.599
G1 F1800 X-8.558 Y6.599 E69.52157
G0 F3600 X-8.671 Y6.899
G1 F1800 X-8.431 Y6.899 E69.52822
G0 F3600 X-8.525 Y7.199
G1 F1800 X-8.784 Y7.199 E69.5354
G0 F3600 X-8.897 Y7.499
G1 F1800 X-8.619 Y7.499 E69.54311
G0 F3600 X-8.712 Y7.799
G1 F1800 X-9.011 Y7.799 E69.5514
G0 F3600 X-9.124 Y8.099
G1 F1800 X-8.806 Y8.099 E69.56022
G0 F3600 X-8.9 Y8.4
G1 F1800 X-9.237 Y8.4 E69.56956
G0 F3600 X-9.351 Y8.7
G1 F1800 X-8.994 Y8.7 E69.57946
G0 F3600 X-9.088 Y9
G1 F1800 X-9.464 Y9 E69.58988
G0 F3600 X-9.577 Y9.3
G1 F1800 X-9.181 Y9.3 E69.60086
G0 F3600 X-9.275 Y9.6
G1 F1800 X-9.69 Y9.6 E69.61236
G0 F3600 X-9.804 Y9.9
G1 F1800 X-9.369 Y9.9 E69.62442
G0 F3600 X-9.463 Y10.2
G1 F1800 X-9.917 Y10.2 E69.63701
G0 F3600 X-10.03 Y10.5
G1 F1800 X-9.557 Y10.5 E69.65012
G0 F3600 X-9.65 Y10.8
G1 F1800 X-10.144 Y10.8 E69.66382
G0 F3600 X-.494 Y-7.477
G0 X0.877 Y-7.477
G0 X9.121 Y8.1
G1 F1800 X9.195 Y8.1 E69.66587
G0 F3600 X9.214 Y8.4
G1 F1800 X9.306 Y8.4 E69.66842
G0 F3600 X9.306 Y8.7
G1 F1800 X9.418 Y8.7 E69.67152
G0 F3600 X9.399 Y9
G1 F1800 X9.529 Y9 E69.67513
G0 F3600 X9.492 Y9.3
G1 F1800 X9.641 Y9.3 E69.67926
G0 F3600 X9.584 Y9.6
G1 F1800 X9.752 Y9.6 E69.68392
G0 F3600 X9.677 Y9.9
G1 F1800 X9.863 Y9.9 E69.68907
G0 F3600 X9.769 Y10.2
G1 F1800 X9.975 Y10.2 E69.69478
G0 F3600 X10.086 Y10.5
G1 F1800 X9.862 Y10.5 E69.70099
G0 F3600 X9.955 Y10.8
G1 F1800 X10.198 Y10.8 E69.70773
G1 F1500 E63.20773
;MESH:V.stl
G0 F3600 X0.877 Y-7.477
G0 X-.494 Y-7.477
G0 X-10.996 Y3.726
G0 X-13.682 Y2.71
G0 X-20.386 Y0.178
G0 X-20.327 Y0.098
;TYPE:WALL-INNER
G1 F1500 E69.70773
G1 F1800 X-19.002 Y0.098 E69.7812
G1 X-12.25 Y-21.491 E71.03541
G1 X-4.955 Y-21.491 E71.4399
G1 X-4.954 Y-21.491 E71.43995
G1 X-4.522 Y-21.491 E71.4639
G1 X-4.674 Y-21.086 E71.47804
G1 X-15.172 Y6.709 E73.12543
G1 X-23.973 Y6.709 E73.61342
G1 X-34.295 Y-21.088 E75.2575
G1 X-34.444 Y-21.491 E75.28132
G1 X-34.015 Y-21.491 E75.29535
G1 X-34.014 Y-21.491 E75.29541
G1 X-26.993 Y-21.491 E75.6847
G1 X-20.327 Y0.098 E76.9375
G0 F3600 X-19.884 Y-.502
;TYPE:WALL-OUTER
G1 F1800 X-19.443 Y-.502 E76.96195
G1 X-19.367 Y-.745 E76.97607
G1 X-12.691 Y-22.091 E78.21617
G1 X-4.087 Y-22.091 E78.69323
G1 X-4.086 Y-22.091 E78.69328
G1 X-3.654 Y-22.091 E78.71724
G1 X-3.806 Y-21.686 E78.73137
G1 X-14.758 Y7.309 E80.44991
G1 X-24.39 Y7.309 E80.98397
G1 X-35.156 Y-21.687 E82.69894
G1 X-35.306 Y-22.091 E82.72284
G1 X-34.876 Y-22.091 E82.73689
G1 X-34.875 Y-22.091 E82.73695
G1 X-26.551 Y-22.091 E83.19848
G1 X-19.959 Y-.745 E84.4372
G1 X-19.884 Y-.502 E84.44951
G0 F3600 X-19.684 Y-.502
G0 X-19.684 Y0.158
G0 X-19.684 Y0.198
G0 X-24.634 Y-3.682
;TYPE:SKIN
G1 F1800 X-30.134 Y-18.491 E85.32542
G1 X-29.205 Y-18.491 E85.37693
G1 X-24.634 Y-3.682 E86.23627
G0 F3600 X-20.769 Y0.698
G1 F1800 X-18.56 Y0.698 E86.35875
G1 X-11.81 Y-20.891 E87.61293
G1 X-5.39 Y-20.891 E87.9689
G1 X-10.851 Y-6.432 E88.82588
G1 X-11.183 Y-5.552 E88.87803
G1 X-15.588 Y6.109 E89.56919
G1 X-23.557 Y6.109 E90.01104
G1 X-33.582 Y-20.891 E91.60796
G1 X-27.437 Y-20.891 E91.94868
G1 X-20.769 Y0.698 E93.20151
G0 F3600 X-21.212 Y1.298
G1 F1800 X-18.119 Y1.298 E93.37301
G1 X-11.369 Y-20.291 E94.62719
G1 X-6.258 Y-20.291 E94.91058
G1 X-16.002 Y5.509 E96.43973
G1 X-23.14 Y5.509 E96.8355
G1 X-32.72 Y-20.291 E98.36146
G1 X-27.879 Y-20.291 E98.62988
G1 X-21.212 Y1.298 E99.8827
G0 F3600 X-21.655 Y1.898
G1 F1800 X-17.678 Y1.898 E100.10321
G1 X-10.928 Y-19.691 E101.35739
G1 X-7.126 Y-19.691 E101.5682
G1 X-16.416 Y4.909 E103.02621
G1 X-22.723 Y4.909 E103.37591
G1 X-31.858 Y-19.691 E104.8309
G1 X-28.321 Y-19.691 E105.02702
G1 X-21.655 Y1.898 E106.27982
G0 F3600 X-22.098 Y2.498
G1 F1800 X-17.237 Y2.498 E106.54934
G1 X-10.487 Y-19.091 E107.80352
G1 X-7.994 Y-19.091 E107.94175
G1 X-16.83 Y4.309 E109.32862
G1 X-22.306 Y4.309 E109.63225
G1 X-30.996 Y-19.091 E111.01628
G1 X-28.763 Y-19.091 E111.14009
G1 X-22.098 Y2.498 E112.39288
G0 F3600 X-22.116 Y3.098
G1 F1800 X-17.014 Y3.098 E112.67576
G1 X-17.244 Y3.709 E112.71196
G1 X-21.889 Y3.709 E112.96951
G1 X-22.116 Y3.098 E113.00565
G0 F3600 X-15.747 Y-.256
G1 F1800 X-10.046 Y-18.491 E114.06498
G1 X-8.862 Y-18.491 E114.13063
G1 X-15.747 Y-.256 E115.21137
