;FLAVOR:Marlin
;TIME:1515
;Filament used: 2.61797m
;Layer height: 0.2
;MINX:-49.252
;MINY:-24.298
;MINZ:0.2
;MAXX:49.272
;MAXY:24.259
;MAXZ:3.6
;POSTPROCESSED
;Generated with Cura_SteamEngine 4.8.0
M140 S60
M105
M190 S60
M104 S195
M105
M109 S195
M82 ;absolute extrusion mode
G28 ;Home
G1 Z15.0 F6000 ;Move the platform down 15mm
;Prime the extruder
G92 E0
G1 F200 E3
G92 E0
G92 E0
G92 E0
G1 F1500 E-6.5
;LAYER_COUNT:18
;LAYER:0
M107
G0 F3600 X-.226 Y23.049 Z0.2
;TYPE:SKIRT
G1 F1500 E0
G1 F1800 X-2.972 Y23.08 E0.15227
G1 X-5.684 Y23.187 E0.30275
G1 X-8.389 Y23.371 E0.45308
G1 X-11.16 Y23.639 E0.60744
G1 X-13.848 Y23.975 E0.75764
G1 X-14.61 Y24.092 E0.80039
G1 X-15.595 Y24.229 E0.85553
G1 X-16.108 Y24.259 E0.88402
G1 X-16.713 Y24.193 E0.91777
G1 X-17.528 Y24.025 E0.96391
G1 X-46.065 Y17.676 E2.58487
G1 X-46.707 Y17.523 E2.62147
G1 X-47.196 Y17.366 E2.64994
G1 X-47.654 Y17.134 E2.67841
G1 X-48.071 Y16.834 E2.70689
G1 X-48.436 Y16.474 E2.73532
G1 X-48.741 Y16.061 E2.76379
G1 X-48.978 Y15.605 E2.79228
G1 X-49.142 Y15.119 E2.82072
G1 X-49.239 Y14.458 E2.85776
G1 X-49.252 Y13.763 E2.89631
G1 X-49.252 Y5.891 E3.33278
G1 X-49.242 Y5.185 E3.37193
G1 X-49.199 Y4.155 E3.42909
G1 X-49.12 Y1.369 E3.58363
G1 X-49.12 Y-1.35 E3.73439
G1 X-49.19 Y-3.942 E3.87816
G1 X-49.244 Y-5.305 E3.95379
G1 X-49.252 Y-5.882 E3.98579
G1 X-49.252 Y-13.718 E4.42027
G1 X-49.241 Y-14.409 E4.45858
G1 X-49.193 Y-14.92 E4.48704
G1 X-49.066 Y-15.417 E4.51548
G1 X-48.863 Y-15.889 E4.54397
G1 X-48.59 Y-16.324 E4.57245
G1 X-48.253 Y-16.711 E4.6009
G1 X-47.86 Y-17.041 E4.62936
G1 X-47.42 Y-17.306 E4.65784
G1 X-46.776 Y-17.549 E4.696
G1 X-46.153 Y-17.697 E4.73151
G1 X-17.315 Y-24.055 E6.36888
G1 X-16.613 Y-24.198 E6.4086
G1 X-16.103 Y-24.262 E6.4371
G1 X-15.505 Y-24.234 E6.47029
G1 X-14.388 Y-24.081 E6.5328
G1 X-13.736 Y-23.983 E6.56936
G1 X-11.023 Y-23.649 E6.72092
G1 X-8.321 Y-23.394 E6.87141
G1 X-5.583 Y-23.215 E7.02354
G1 X-2.834 Y-23.112 E7.17607
G1 X-0.087 Y-23.086 E7.32839
G1 X2.621 Y-23.138 E7.47857
G1 X5.333 Y-23.268 E7.62911
G1 X8.112 Y-23.478 E7.78364
G1 X10.805 Y-23.759 E7.93377
G1 X13.537 Y-24.123 E8.08659
G1 X14.494 Y-24.263 E8.14021
G1 X15.006 Y-24.298 E8.16867
G1 X15.419 Y-24.268 E8.19163
G1 X16.333 Y-24.143 E8.24278
G1 X17.44 Y-23.975 E8.30486
G1 X20.198 Y-23.637 E8.45893
G1 X22.869 Y-23.386 E8.60768
G1 X25.607 Y-23.208 E8.75981
G1 X28.355 Y-23.106 E8.91228
G1 X31.101 Y-23.081 E9.06454
G1 X33.813 Y-23.135 E9.21495
G1 X36.558 Y-23.266 E9.36732
G1 X39.263 Y-23.472 E9.51774
G1 X41.999 Y-23.759 E9.67027
G1 X44.678 Y-24.116 E9.82013
G1 X45.477 Y-24.234 E9.86491
G1 X45.989 Y-24.269 E9.89336
G1 X46.5 Y-24.224 E9.92181
G1 X46.999 Y-24.1 E9.95032
G1 X47.472 Y-23.901 E9.97877
G1 X47.908 Y-23.63 E10.00723
G1 X48.297 Y-23.295 E10.0357
G1 X48.63 Y-22.904 E10.06417
G1 X48.898 Y-22.466 E10.09264
G1 X49.094 Y-21.992 E10.12108
G1 X49.215 Y-21.493 E10.14955
G1 X49.256 Y-21.027 E10.17549
G1 X49.272 Y-20.121 E10.22573
G1 X49.272 Y-12.912 E10.62545
G1 X49.256 Y-11.783 E10.68806
G1 X49.196 Y-9.632 E10.80737
G1 X49.196 Y-6.918 E10.95785
G1 X49.261 Y-4.6 E11.08643
G1 X49.272 Y-3.783 E11.13173
G1 X49.272 Y3.716 E11.54752
G1 X49.256 Y4.809 E11.60813
G1 X49.196 Y6.91 E11.72467
G1 X49.196 Y9.626 E11.87527
G1 X49.262 Y12.045 E12.00944
G1 X49.272 Y12.768 E12.04953
G1 X49.272 Y20.239 E12.46378
G1 X49.262 Y20.964 E12.50398
G1 X49.215 Y21.475 E12.53243
G1 X49.089 Y21.973 E12.56091
G1 X48.888 Y22.445 E12.58936
G1 X48.615 Y22.88 E12.61783
G1 X48.279 Y23.268 E12.64629
G1 X47.886 Y23.599 E12.67478
G1 X47.447 Y23.865 E12.70324
G1 X47.057 Y24.033 E12.72679
G1 X46.565 Y24.181 E12.75528
G1 X46.057 Y24.25 E12.7837
G1 X45.388 Y24.222 E12.82083
G1 X44.207 Y24.05 E12.887
G1 X41.5 Y23.695 E13.03838
G1 X38.77 Y23.415 E13.19054
G1 X36.062 Y23.215 E13.3411
G1 X33.316 Y23.089 E13.49352
G1 X30.571 Y23.042 E13.64574
G1 X27.822 Y23.073 E13.79817
G1 X25.113 Y23.179 E13.94849
G1 X22.403 Y23.363 E14.0991
G1 X19.644 Y23.627 E14.25278
G1 X16.967 Y23.962 E14.40237
G1 X16.525 Y24.029 E14.42715
G1 X15.322 Y24.197 E14.4945
G1 X14.81 Y24.229 E14.52295
G1 X14.39 Y24.194 E14.54631
G1 X13.457 Y24.058 E14.59859
G1 X10.705 Y23.698 E14.75248
G1 X7.974 Y23.419 E14.9047
G1 X5.264 Y23.22 E15.05536
G1 X2.522 Y23.095 E15.20755
G1 X-.226 Y23.049 E15.35994
G1 F1500 E8.85994
;MESH:W.stl(1)
G0 F3600 X0.791 Y18.489
G0 X1.134 Y16.942
G0 X-2.723 Y9.765
G0 X-2.832 Y8.252
G0 X-2.752 Y8.31
;TYPE:WALL-INNER
G1 F1500 E15.35994
G1 F1800 X-2.693 Y9.739 E15.43924
G1 X14.072 Y12.904 E16.38522
G1 X14.072 Y19.467 E16.74912
G1 X14.072 Y19.468 E16.74918
G1 X14.072 Y19.84 E16.7698
G1 X13.708 Y19.759 E16.78241
G1 X-14.128 Y13.566 E18.36355
G1 X-14.128 Y5.881 E18.78966
G1 X4.76 Y0.64 E19.87651
G1 X4.76 Y-.728 E19.95236
G1 X-14.128 Y-5.99 E21.03952
G1 X-14.128 Y-13.673 E21.46551
G1 X13.709 Y-19.809 E23.04603
G1 X14.072 Y-19.889 E23.06664
G1 X14.072 Y-19.518 E23.0792
G1 X14.072 Y-19.517 E23.07926
G1 X14.072 Y-12.997 E23.44077
G1 X-2.67 Y-9.827 E24.38555
G1 X-2.731 Y-8.4 E24.46474
G1 X14.072 Y-3.741 E25.43156
G1 X14.072 Y3.664 E25.84215
G1 X-2.752 Y8.31 E26.8099
G0 F3600 X-2.133 Y8.761
;TYPE:WALL-OUTER
G1 F1800 X-2.113 Y9.238 E26.83637
G1 X-1.853 Y9.287 E26.85104
G1 X14.672 Y12.406 E27.78347
G1 X14.672 Y20.214 E28.2164
G1 X14.672 Y20.215 E28.21645
G1 X14.672 Y20.588 E28.23714
G1 X14.307 Y20.507 E28.24978
G1 X-14.728 Y14.047 E29.89904
G1 X-14.728 Y5.425 E30.3771
G1 X3.912 Y0.252 E31.44969
G1 X4.16 Y0.184 E31.46394
G1 X4.16 Y-.272 E31.48923
G1 X3.912 Y-.341 E31.50185
G1 X-14.728 Y-5.534 E32.57473
G1 X-14.728 Y-14.155 E33.05274
G1 X14.308 Y-20.556 E34.70134
G1 X14.672 Y-20.636 E34.72201
G1 X14.672 Y-20.264 E34.73459
G1 X14.672 Y-20.263 E34.73465
G1 X14.672 Y-12.499 E35.16514
G1 X-1.828 Y-9.375 E36.09626
G1 X-2.091 Y-9.326 E36.11109
G1 X-2.111 Y-8.851 E36.13745
G1 X-1.853 Y-8.78 E36.15078
G1 X14.672 Y-4.197 E37.10162
G1 X14.672 Y4.12 E37.56277
G1 X-1.878 Y8.691 E38.51477
G1 X-2.133 Y8.761 E38.52797
G0 F3600 X-2.125 Y8.961
G0 X-2.785 Y8.987
G0 X-2.824 Y8.988
G0 X-2.587 Y2.717
G0 X4.791 Y0.664
G0 X4.791 Y-.752
G0 X-7.504 Y-9.129
;TYPE:SKIN
G1 F1800 X-9.328 Y-9.638 E38.63297
G1 X-9.328 Y-9.817 E38.64289
G1 X-7.457 Y-10.228 E38.7491
G1 X-7.504 Y-9.129 E38.8101
G0 F3600 X-6.938 Y-8.348
G1 F1800 X-9.928 Y-9.182 E38.98221
G1 X-9.928 Y-10.299 E39.04414
G1 X-6.824 Y-10.982 E39.22037
G1 X-6.938 Y-8.348 E39.36655
G0 F3600 X-6.371 Y-7.567
G1 F1800 X-10.528 Y-8.726 E39.60583
G1 X-10.528 Y-10.781 E39.71978
G1 X-6.192 Y-11.736 E39.96595
G1 X-6.371 Y-7.567 E40.19732
G0 F3600 X-5.804 Y-6.786
G1 F1800 X-11.128 Y-8.27 E40.50378
G1 X-11.128 Y-11.263 E40.66973
G1 X11.072 Y-16.155 E41.93017
G1 X11.072 Y-15.486 E41.96727
G1 X-5.566 Y-12.332 E42.90622
G1 X-5.804 Y-6.786 E43.21401
G0 F3600 X-5.211 Y-6.597
G1 F1800 X11.672 Y-1.917 E44.18541
G1 X11.672 Y1.838 E44.39362
G1 X-5.229 Y6.505 E45.36579
G1 X-5.013 Y11.744 E45.65652
G1 X11.672 Y14.896 E46.59801
G1 X11.672 Y16.848 E46.70625
G1 X-11.728 Y11.641 E48.03543
G1 X-11.728 Y7.705 E48.25367
G1 X7.16 Y2.464 E49.34051
G1 X7.16 Y-2.552 E49.61863
G1 X-11.728 Y-7.814 E50.70579
G1 X-11.728 Y-11.745 E50.92375
G1 X11.672 Y-16.902 E52.25234
G1 X11.672 Y-14.989 E52.35841
G1 X-4.987 Y-11.831 E53.29854
G1 X-5.211 Y-6.597 E53.58902
G0 F3600 X-4.591 Y-7.048
G1 F1800 X12.272 Y-2.373 E54.55928
G1 X12.272 Y2.294 E54.81805
G1 X-4.61 Y6.956 E55.78914
G1 X-4.433 Y11.243 E56.02704
G1 X12.272 Y14.398 E56.96965
G1 X12.272 Y17.596 E57.14697
G1 X-12.328 Y12.122 E58.54431
G1 X-12.328 Y7.249 E58.81451
G1 X6.56 Y2.008 E59.90135
G1 X6.56 Y-2.096 E60.1289
G1 X-12.328 Y-7.358 E61.21606
G1 X-12.328 Y-12.227 E61.48603
G1 X12.272 Y-17.649 E62.88276
G1 X12.272 Y-14.491 E63.05786
G1 X-4.408 Y-11.33 E63.99917
G1 X-4.591 Y-7.048 E64.23681
G0 F3600 X-3.971 Y-7.499
G1 F1800 X12.872 Y-2.829 E65.20593
G1 X12.872 Y2.751 E65.51532
G1 X-3.991 Y7.407 E66.4853
G1 X-3.853 Y10.742 E66.67037
G1 X12.872 Y13.9 E67.61411
G1 X12.872 Y18.344 E67.86051
G1 X-12.928 Y12.603 E69.32602
G1 X-12.928 Y6.793 E69.64817
G1 X5.96 Y1.552 E70.73501
G1 X5.96 Y-1.64 E70.912
G1 X-12.928 Y-6.902 E71.99915
G1 X-12.928 Y-12.709 E72.32113
G1 X12.872 Y-18.396 E73.786
G1 X12.872 Y-13.993 E74.03013
G1 X-3.829 Y-10.829 E74.97261
G1 X-3.971 Y-7.499 E75.15742
G0 F3600 X-3.351 Y-7.95
G1 F1800 X13.472 Y-3.285 E76.1254
G1 X13.472 Y3.208 E76.48541
G1 X-3.372 Y7.858 E77.45429
G1 X-3.273 Y10.241 E77.58653
G1 X-1.761 Y10.526 E77.67185
G1 X1.567 Y11.154 E77.85963
G1 X13.472 Y13.402 E78.53139
G1 X13.472 Y19.092 E78.84688
G1 X-13.528 Y13.084 E80.38055
G1 X-13.528 Y6.337 E80.75465
G1 X5.36 Y1.096 E81.84149
G1 X5.36 Y-1.184 E81.96791
G1 X-13.528 Y-6.446 E83.05507
G1 X-13.528 Y-13.191 E83.42906
G1 X13.472 Y-19.143 E84.96206
G1 X13.472 Y-13.495 E85.27522
G1 X2.151 Y-11.351 E85.91409
G1 X0.639 Y-11.065 E85.99941
G1 X-3.25 Y-10.328 E86.21888
G1 X-3.351 Y-7.95 E86.35086
G0 F3600 X7.76 Y-2.379
G1 F1800 X11.072 Y-1.461 E86.54142
G1 X11.072 Y1.382 E86.69905
G1 X7.76 Y2.296 E86.88956
G1 X7.76 Y-2.379 E87.14877
G0 F3600 X8.36 Y-1.59
G1 F1800 X10.472 Y-1.005 E87.27028
G1 X10.472 Y0.925 E87.37729
G1 X8.36 Y1.508 E87.49878
G1 X8.36 Y-1.59 E87.67055
G0 F3600 X8.96 Y-.801
G1 F1800 X9.872 Y-.549 E87.72301
G1 X9.872 Y0.468 E87.7794
G1 X8.96 Y0.72 E87.83186
G1 X8.96 Y-.801 E87.9162
G0 F3600 X-5.822 Y6.689
G1 F1800 X-5.593 Y12.245 E88.22452
G1 X11.072 Y15.394 E89.16489
G1 X11.072 Y16.1 E89.20404
G1 X-11.128 Y11.16 E90.46506
G1 X-11.128 Y8.161 E90.63134
G1 X-5.822 Y6.689 E90.93665
G0 F3600 X-6.39 Y7.469
G1 F1800 X-6.219 Y11.638 E91.16801
G1 X-10.528 Y10.679 E91.41277
G1 X-10.528 Y8.617 E91.5271
G1 X-6.39 Y7.469 E91.76521
G0 F3600 X-6.958 Y8.249
G1 F1800 X-6.85 Y10.883 E91.91138
G1 X-9.928 Y10.198 E92.08622
G1 X-9.928 Y9.073 E92.14859
G1 X-6.958 Y8.249 E92.31949
G0 F3600 X-7.526 Y9.029
G1 F1800 X-7.481 Y10.128 E92.38048
G1 X-9.328 Y9.717 E92.48539
G1 X-9.328 Y9.529 E92.49582
G1 X-7.526 Y9.029 E92.59951
G0 F3600 X-7.817 Y9.6
;TYPE:SKIN
G1 F1800 X-8.405 Y9.6 E92.61581
G0 F3600 X4.791 Y0.664
G0 X4.791 Y-.752
G0 X-8.021 Y-9.6
G1 F1800 X-7.799 Y-9.6 E92.62196
G0 F3600 X9.275 Y-.299
G1 F1800 X9.557 Y-.299 E92.62978
G0 F3600 X9.557 Y0.00
G1 F1800 X9.275 Y0.00 E92.6376
G0 F3600 X-2.784 Y8.287
G0 X-2.723 Y9.765
G0 X10.271 Y15.6
G1 F1800 X10.465 Y15.6 E92.64298
G1 F1500 E86.14298
;MESH:W.stl(2)
G0 F3600 X-14.108 Y8.286
G0 X-15.693 Y8.286
G0 X-16.447 Y5.207
G0 X-16.867 Y3.685
G0 X-33.756 Y8.286
G0 X-33.676 Y8.344
;TYPE:WALL-INNER
G1 F1500 E92.64298
G1 F1800 X-33.617 Y9.773 E92.72228
G1 X-16.852 Y12.937 E93.66825
G1 X-16.852 Y19.5 E94.03214
G1 X-16.852 Y19.501 E94.0322
G1 X-16.852 Y19.873 E94.05283
G1 X-17.216 Y19.792 E94.06543
G1 X-45.052 Y13.599 E95.64658
G1 X-45.052 Y5.915 E96.07263
G1 X-26.164 Y0.673 E97.15949
G1 X-26.164 Y-.695 E97.23534
G1 X-45.052 Y-5.957 E98.3225
G1 X-45.052 Y-13.64 E98.7485
G1 X-17.215 Y-19.776 E100.32902
G1 X-16.852 Y-19.856 E100.34963
G1 X-16.852 Y-19.485 E100.36218
G1 X-16.852 Y-19.484 E100.36224
G1 X-16.852 Y-12.964 E100.72375
G1 X-33.594 Y-9.794 E101.66853
G1 X-33.655 Y-8.367 E101.74773
G1 X-16.852 Y-3.708 E102.71455
G1 X-16.852 Y3.697 E103.12513
G1 X-33.676 Y8.344 E104.09289
G0 F3600 X-33.057 Y8.795
;TYPE:WALL-OUTER
G1 F1800 X-33.037 Y9.272 E104.11937
G1 X-32.777 Y9.321 E104.13404
G1 X-16.252 Y12.439 E105.06646
G1 X-16.252 Y20.247 E105.49939
G1 X-16.252 Y20.248 E105.49944
G1 X-16.252 Y20.621 E105.52012
G1 X-16.617 Y20.54 E105.53277
G1 X-45.652 Y14.08 E107.18203
G1 X-45.652 Y5.459 E107.66003
G1 X-27.012 Y0.285 E108.73263
G1 X-26.764 Y0.217 E108.74689
G1 X-26.764 Y-.239 E108.77217
G1 X-27.012 Y-.308 E108.7848
G1 X-45.652 Y-5.501 E109.85768
G1 X-45.652 Y-14.122 E110.33568
G1 X-16.616 Y-20.523 E111.98429
G1 X-16.252 Y-20.603 E112.00495
G1 X-16.252 Y-20.231 E112.01754
G1 X-16.252 Y-20.23 E112.0176
G1 X-16.252 Y-12.466 E112.44808
G1 X-32.752 Y-9.342 E113.37921
G1 X-33.015 Y-9.293 E113.39404
G1 X-33.035 Y-8.818 E113.4204
G1 X-32.777 Y-8.747 E113.43373
G1 X-16.252 Y-4.164 E114.38457
G1 X-16.252 Y4.153 E114.84572
G1 X-32.802 Y8.725 E115.79773
G1 X-33.057 Y8.795 E115.81093
G0 F3600 X-33.049 Y8.995
G0 X-33.709 Y9.021
G0 X-33.748 Y9.022
G0 X-33.51 Y2.751
G0 X-26.133 Y0.697
G0 X-26.133 Y-.719
G0 X-38.428 Y-9.096
;TYPE:SKIN
G1 F1800 X-40.252 Y-9.605 E115.91593
G1 X-40.252 Y-9.784 E115.92585
G1 X-38.381 Y-10.195 E116.03207
G1 X-38.428 Y-9.096 E116.09306
G0 F3600 X-37.862 Y-8.315
G1 F1800 X-40.852 Y-9.149 E116.26517
G1 X-40.852 Y-10.266 E116.32711
G1 X-37.748 Y-10.949 E116.50333
G1 X-37.862 Y-8.315 E116.64951
G0 F3600 X-37.295 Y-7.534
G1 F1800 X-41.452 Y-8.693 E116.8888
G1 X-41.452 Y-10.748 E117.00274
G1 X-37.116 Y-11.703 E117.24892
G1 X-37.295 Y-7.534 E117.48029
G0 F3600 X-36.728 Y-6.753
G1 F1800 X-42.052 Y-8.237 E117.78674
G1 X-42.052 Y-11.23 E117.95269
G1 X-19.852 Y-16.122 E119.21314
G1 X-19.852 Y-15.453 E119.25023
G1 X-36.49 Y-12.299 E120.18918
G1 X-36.728 Y-6.753 E120.49697
G0 F3600 X-36.135 Y-6.564
G1 F1800 X-19.252 Y-1.884 E121.46838
G1 X-19.252 Y1.872 E121.67663
G1 X-36.153 Y6.539 E122.64881
G1 X-35.937 Y11.778 E122.93954
G1 X-19.252 Y14.929 E123.88102
G1 X-19.252 Y16.881 E123.98925
G1 X-42.652 Y11.674 E125.31844
G1 X-42.652 Y7.739 E125.53662
G1 X-23.764 Y2.497 E126.62348
G1 X-23.764 Y-2.519 E126.9016
G1 X-42.652 Y-7.781 E127.98876
G1 X-42.652 Y-11.712 E128.20672
G1 X-19.252 Y-16.869 E129.5353
G1 X-19.252 Y-14.956 E129.64137
G1 X-35.911 Y-11.798 E130.58151
G1 X-36.135 Y-6.564 E130.87198
G0 F3600 X-35.515 Y-7.015
G1 F1800 X-18.652 Y-2.34 E131.84225
G1 X-18.652 Y2.328 E132.10107
G1 X-35.534 Y6.99 E133.07216
G1 X-35.357 Y11.277 E133.31006
G1 X-18.652 Y14.431 E134.25266
G1 X-18.652 Y17.629 E134.42998
G1 X-43.252 Y12.155 E135.82733
G1 X-43.252 Y7.283 E136.09746
G1 X-24.364 Y2.041 E137.18432
G1 X-24.364 Y-2.063 E137.41188
G1 X-43.252 Y-7.325 E138.49903
G1 X-43.252 Y-12.194 E138.769
G1 X-18.652 Y-17.616 E140.16573
G1 X-18.652 Y-14.458 E140.34083
G1 X-35.332 Y-11.297 E141.28214
G1 X-35.515 Y-7.015 E141.51978
G0 F3600 X-34.895 Y-7.466
G1 F1800 X-18.052 Y-2.796 E142.4889
G1 X-18.052 Y2.785 E142.79835
G1 X-34.915 Y7.441 E143.76833
G1 X-34.777 Y10.776 E143.9534
G1 X-18.052 Y13.933 E144.89712
G1 X-18.052 Y18.377 E145.14353
G1 X-43.852 Y12.636 E146.60904
G1 X-43.852 Y6.827 E146.93113
G1 X-24.964 Y1.585 E148.01799
G1 X-24.964 Y-1.607 E148.19497
G1 X-43.852 Y-6.869 E149.28213
G1 X-43.852 Y-12.676 E149.60411
G1 X-18.052 Y-18.363 E151.06897
G1 X-18.052 Y-13.96 E151.3131
G1 X-34.753 Y-10.796 E152.25559
G1 X-34.895 Y-7.466 E152.4404
G0 F3600 X-34.275 Y-7.917
G1 F1800 X-17.452 Y-3.252 E153.40837
G1 X-17.452 Y3.241 E153.76839
G1 X-34.296 Y7.892 E154.73728
G1 X-34.197 Y10.275 E154.86952
G1 X-17.452 Y13.435 E155.81437
G1 X-17.452 Y19.125 E156.12986
G1 X-30.194 Y16.29 E156.85363
G1 X-33.274 Y15.605 E157.02858
G1 X-33.275 Y15.604 E157.02866
G1 X-44.452 Y13.117 E157.66354
G1 X-44.452 Y6.371 E158.03759
G1 X-25.564 Y1.129 E159.12445
G1 X-25.564 Y-1.151 E159.25086
G1 X-44.452 Y-6.413 E160.33802
G1 X-44.452 Y-13.158 E160.71201
G1 X-17.452 Y-19.11 E162.24501
G1 X-17.452 Y-13.462 E162.55818
G1 X-28.773 Y-11.318 E163.19704
G1 X-30.285 Y-11.032 E163.28237
G1 X-34.174 Y-10.295 E163.50184
G1 X-34.275 Y-7.917 E163.63381
G0 F3600 X-23.164 Y-2.346
G1 F1800 X-19.852 Y-1.428 E163.82437
G1 X-19.852 Y1.416 E163.98206
G1 X-23.164 Y2.33 E164.17256
G1 X-23.164 Y-2.346 E164.43183
G0 F3600 X-22.564 Y-1.557
G1 F1800 X-20.452 Y-.972 E164.55334
G1 X-20.452 Y0.959 E164.66041
G1 X-22.564 Y1.542 E164.78189
G1 X-22.564 Y-1.557 E164.95372
G0 F3600 X-21.964 Y-.768
G1 F1800 X-21.052 Y-.516 E165.00619
G1 X-21.052 Y0.502 E165.06263
G1 X-21.964 Y0.754 E165.11509
G1 X-21.964 Y-.768 E165.19948
G0 F3600 X-36.746 Y6.722
