;FLAVOR:Marlin
;TIME:1042
;Filament used: 1.78669m
;Layer height: 0.2
;MINX:-19.63
;MINY:-49.258
;MINZ:0.2
;MAXX:19.59
;MAXY:49.257
;MAXZ:3.6
;POSTPROCESSED
;Generated with Cura_SteamEngine 4.8.0
M140 S60
M105
M190 S60
M104 S195
M105
M109 S195
M82 ;absolute extrusion mode
G28 ;Home
G1 Z15.0 F6000 ;Move the platform down 15mm
;Prime the extruder
G92 E0
G1 F200 E3
G92 E0
G92 E0
G92 E0
G1 F1500 E-6.5
;LAYER_COUNT:18
;LAYER:0
M107
G0 F3600 X18.385 Y0.435 Z0.2
;TYPE:SKIRT
G1 F1500 E0
G1 F1800 X18.42 Y3.188 E0.15266
G1 X18.532 Y5.902 E0.30327
G1 X18.722 Y8.642 E0.45556
G1 X18.988 Y11.357 E0.60681
G1 X19.362 Y14.282 E0.77032
G1 X19.535 Y15.485 E0.8377
G1 X19.569 Y15.998 E0.86621
G1 X19.522 Y16.507 E0.89455
G1 X19.341 Y17.577 E0.95472
G1 X18.911 Y20.335 E1.10949
G1 X18.566 Y23.053 E1.26141
G1 X18.301 Y25.75 E1.41167
G1 X18.11 Y28.496 E1.56429
G1 X17.998 Y31.206 E1.71468
G1 X17.962 Y33.953 E1.867
G1 X18.003 Y36.7 E2.01933
G1 X18.123 Y39.444 E2.17162
G1 X18.314 Y42.105 E2.31955
G1 X18.592 Y44.877 E2.47402
G1 X18.611 Y45.04 E2.48312
G1 X18.67 Y45.603 E2.5145
G1 X18.684 Y46.116 E2.54296
G1 X18.618 Y46.625 E2.57142
G1 X18.473 Y47.118 E2.59991
G1 X18.254 Y47.583 E2.62841
G1 X17.966 Y48.007 E2.65683
G1 X17.615 Y48.382 E2.68531
G1 X17.21 Y48.698 E2.71379
G1 X16.762 Y48.948 E2.74224
G1 X16.28 Y49.124 E2.77069
G1 X15.776 Y49.224 E2.79918
G1 X15.236 Y49.254 E2.82916
G1 X14.907 Y49.257 E2.84741
G1 X5.951 Y49.257 E3.34399
G1 X5.237 Y49.247 E3.38358
G1 X4.179 Y49.203 E3.44229
G1 X1.387 Y49.124 E3.59716
G1 X-1.32 Y49.124 E3.74726
G1 X-4.302 Y49.212 E3.91267
G1 X-5.061 Y49.244 E3.95479
G1 X-5.921 Y49.257 E4.00248
G1 X-14.739 Y49.257 E4.49141
G1 X-15.435 Y49.247 E4.53
G1 X-15.947 Y49.199 E4.55852
G1 X-16.444 Y49.073 E4.58695
G1 X-16.917 Y48.872 E4.61544
G1 X-17.352 Y48.599 E4.64392
G1 X-17.739 Y48.262 E4.67237
G1 X-18.07 Y47.87 E4.70082
G1 X-18.336 Y47.43 E4.72933
G1 X-18.53 Y46.955 E4.75778
G1 X-18.649 Y46.456 E4.78622
G1 X-18.688 Y45.944 E4.81469
G1 X-18.667 Y45.576 E4.83513
G1 X-18.588 Y44.877 E4.87413
G1 X-18.321 Y42.163 E5.02534
G1 X-18.13 Y39.421 E5.17774
G1 X-18.018 Y36.711 E5.32813
G1 X-17.982 Y33.956 E5.4809
G1 X-18.023 Y31.216 E5.63284
G1 X-18.143 Y28.473 E5.78508
G1 X-18.334 Y25.811 E5.93306
G1 X-18.612 Y23.035 E6.08775
G1 X-18.96 Y20.34 E6.23841
G1 X-19.462 Y17.202 E6.41462
G1 X-19.581 Y16.528 E6.45257
G1 X-19.63 Y16.017 E6.48103
G1 X-19.6 Y15.506 E6.50941
G1 X-19.481 Y14.639 E6.55794
G1 X-19.333 Y13.673 E6.61212
G1 X-18.996 Y10.957 E6.76387
G1 X-18.738 Y8.251 E6.91459
G1 X-18.554 Y5.509 E7.06697
G1 X-18.449 Y2.768 E7.21906
G1 X-18.421 Y0.019 E7.37149
G1 X-18.47 Y-2.694 E7.52194
G1 X-18.596 Y-5.403 E7.67231
G1 X-18.803 Y-8.175 E7.82643
G1 X-19.077 Y-10.826 E7.9742
G1 X-19.461 Y-13.73 E8.13662
G1 X-19.574 Y-14.504 E8.17999
G1 X-19.608 Y-15.017 E8.2085
G1 X-19.577 Y-15.429 E8.23141
G1 X-19.431 Y-16.493 E8.29096
G1 X-19.308 Y-17.307 E8.3366
G1 X-18.976 Y-20.027 E8.48854
G1 X-18.72 Y-22.761 E8.64079
G1 X-18.544 Y-25.472 E8.79142
G1 X-18.443 Y-28.216 E8.94367
G1 X-18.42 Y-30.966 E9.09615
G1 X-18.474 Y-33.675 E9.24639
G1 X-18.606 Y-36.421 E9.39882
G1 X-18.813 Y-39.126 E9.54924
G1 X-19.102 Y-41.866 E9.70201
G1 X-19.454 Y-44.507 E9.84974
G1 X-19.594 Y-45.466 E9.90348
G1 X-19.629 Y-45.979 E9.93199
G1 X-19.583 Y-46.49 E9.96043
G1 X-19.459 Y-46.988 E9.98889
G1 X-19.259 Y-47.461 E10.01736
G1 X-18.988 Y-47.897 E10.04583
G1 X-18.653 Y-48.286 E10.07429
G1 X-18.261 Y-48.618 E10.10278
G1 X-17.823 Y-48.885 E10.13122
G1 X-17.349 Y-49.082 E10.15968
G1 X-16.849 Y-49.202 E10.18819
G1 X-16.386 Y-49.243 E10.21396
G1 X-15.524 Y-49.258 E10.26176
G1 X-6.648 Y-49.258 E10.75391
G1 X-5.942 Y-49.248 E10.79306
G1 X-4.624 Y-49.193 E10.8662
G1 X-4.158 Y-49.167 E10.89208
G1 X-1.413 Y-49.09 E11.04434
G1 X1.299 Y-49.09 E11.19471
G1 X4.059 Y-49.169 E11.34781
G1 X4.309 Y-49.183 E11.36169
G1 X5.779 Y-49.247 E11.44327
G1 X6.548 Y-49.258 E11.48592
G1 X15.617 Y-49.258 E11.98876
G1 X16.312 Y-49.248 E12.0273
G1 X16.824 Y-49.2 E12.05581
G1 X17.321 Y-49.074 E12.08424
G1 X17.794 Y-48.873 E12.11274
G1 X18.229 Y-48.6 E12.14121
G1 X18.616 Y-48.263 E12.16967
G1 X18.947 Y-47.871 E12.19811
G1 X19.213 Y-47.431 E12.22662
G1 X19.407 Y-46.956 E12.25507
G1 X19.526 Y-46.457 E12.28352
G1 X19.565 Y-45.945 E12.31199
G1 X19.533 Y-45.486 E12.3375
G1 X19.351 Y-44.199 E12.40957
G1 X19.348 Y-44.11 E12.41451
G1 X19.129 Y-42.54 E12.5024
G1 X18.827 Y-39.815 E12.65442
G1 X18.603 Y-37.077 E12.80674
G1 X18.457 Y-34.368 E12.95716
G1 X18.387 Y-31.622 E13.10947
G1 X18.396 Y-28.873 E13.26189
G1 X18.48 Y-26.162 E13.41228
G1 X18.644 Y-23.421 E13.56453
G1 X18.882 Y-20.708 E13.71553
G1 X19.357 Y-16.839 E13.93167
G1 X19.557 Y-15.44 E14.01002
G1 X19.59 Y-14.928 E14.03847
G1 X19.557 Y-14.511 E14.06167
G1 X19.397 Y-13.383 E14.12484
G1 X19.369 Y-13.207 E14.13472
G1 X19.014 Y-10.458 E14.28841
G1 X18.743 Y-7.757 E14.43892
G1 X18.547 Y-5.046 E14.58963
G1 X18.427 Y-2.306 E14.7417
G1 X18.385 Y0.435 E14.89369
G1 F1500 E8.39369
;MESH:X.stl
G0 F3600 X10.404 Y-4.837
G0 X9.348 Y-5.534
G0 X-.295 Y-4.028
;TYPE:WALL-INNER
G1 F1500 E14.89369
G1 F1800 X-0.04 Y-3.614 E14.92065
G1 X0.215 Y-4.028 E14.93613
G1 X6.387 Y-14.071 E15.58973
G1 X14.071 Y-14.071 E16.01578
G1 X14.073 Y-14.071 E16.01589
G1 X14.627 Y-14.071 E16.04661
G1 X14.321 Y-13.608 E16.06383
G1 X5.008 Y0.493 E17.00081
G1 X13.476 Y13.668 E17.8692
G1 X13.772 Y14.129 E17.89958
G1 X13.225 Y14.129 E17.9166
G1 X13.224 Y14.129 E17.91665
G1 X5.839 Y14.129 E18.32613
G1 X0.673 Y4.902 E18.91246
G1 X-.375 Y4.896 E18.97057
G1 X-5.688 Y14.129 E19.56122
G1 X-13.159 Y14.129 E19.97546
G1 X-13.16 Y14.129 E19.97551
G1 X-13.713 Y14.129 E20.00618
G1 X-13.41 Y13.666 E20.02336
G1 X-4.894 Y0.66 E20.88533
G1 X-14.338 Y-13.607 E21.834
G1 X-14.645 Y-14.071 E21.86485
G1 X-14.089 Y-14.071 E21.88211
G1 X-14.088 Y-14.071 E21.88216
G1 X-6.468 Y-14.071 E22.30467
G1 X-.295 Y-4.028 E22.9583
G0 F3600 X-0.04 Y-4.76
;TYPE:WALL-OUTER
G1 F1800 X0.215 Y-5.175 E22.9853
G1 X6.052 Y-14.671 E23.60334
G1 X15.186 Y-14.671 E24.10979
G1 X15.188 Y-14.671 E24.1099
G1 X15.743 Y-14.671 E24.14067
G1 X15.437 Y-14.207 E24.15792
G1 X5.724 Y0.497 E25.13502
G1 X14.575 Y14.268 E26.04269
G1 X14.871 Y14.729 E26.07306
G1 X14.324 Y14.729 E26.09009
G1 X14.322 Y14.729 E26.0902
G1 X5.487 Y14.729 E26.58007
G1 X0.427 Y5.692 E27.15434
G1 X0.32 Y5.5 E27.16653
G1 X-0.029 Y5.498 E27.18588
G1 X-.139 Y5.689 E27.1981
G1 X-5.341 Y14.729 E27.7764
G1 X-14.268 Y14.729 E28.27137
G1 X-14.269 Y14.729 E28.27143
G1 X-14.823 Y14.729 E28.30214
G1 X-14.519 Y14.265 E28.31937
G1 X-5.612 Y0.662 E29.22091
G1 X-15.454 Y-14.206 E30.20955
G1 X-15.761 Y-14.671 E30.24044
G1 X-15.204 Y-14.671 E30.25773
G1 X-15.203 Y-14.671 E30.25778
G1 X-6.133 Y-14.671 E30.76068
G1 X-.295 Y-5.175 E31.37875
G1 X-0.04 Y-4.76 E31.39425
G0 F3600 X0.064 Y-4.93
G0 X0.626 Y-4.584
G0 X1.25 Y1.306
;TYPE:SKIN
G1 F1800 X1.163 Y1.305 E31.39907
G1 X1.205 Y1.236 E31.40355
G1 X1.25 Y1.306 E31.40817
G0 F3600 X1.428 Y0.473
G1 F1800 X2.353 Y1.912 E31.50302
G1 X0.094 Y1.899 E31.62827
G1 X8.063 Y-11.071 E32.47231
G1 X9.049 Y-11.071 E32.52698
G1 X1.428 Y0.473 E33.29396
G0 F3600 X2.144 Y0.477
G1 F1800 X9.377 Y11.729 E34.03562
G1 X7.246 Y11.729 E34.15378
G1 X2.084 Y2.51 E34.73962
G1 X-1.759 Y2.488 E34.9527
G1 X-7.077 Y11.729 E35.54387
G1 X-9.273 Y11.729 E35.66563
G1 X-2.022 Y0.652 E36.39971
G1 X-10.181 Y-11.671 E37.21916
G1 X-7.809 Y-11.671 E37.35068
G1 X-0.04 Y0.97 E38.17337
G1 X7.728 Y-11.671 E38.99604
G1 X10.165 Y-11.671 E39.13116
G1 X2.144 Y0.477 E39.9383
G0 F3600 X2.86 Y0.481
G1 F1800 X10.476 Y12.329 E40.71925
G1 X6.895 Y12.329 E40.91781
G1 X1.731 Y3.108 E41.5038
G1 X-1.413 Y3.09 E41.67812
G1 X-6.73 Y12.329 E42.26917
G1 X-10.383 Y12.329 E42.47172
G1 X-2.74 Y0.654 E43.24543
G1 X-11.297 Y-12.271 E44.1049
G1 X-7.474 Y-12.271 E44.31688
G1 X-0.04 Y-.176 E45.10405
G1 X7.393 Y-12.271 E45.89119
G1 X11.281 Y-12.271 E46.10677
G1 X2.86 Y0.481 E46.95408
G0 F3600 X3.004 Y2.925
G1 F1800 X8.278 Y11.129 E47.49485
G1 X7.598 Y11.129 E47.53256
G1 X3.004 Y2.925 E48.0539
G0 F3600 X1.378 Y3.706
G1 F1800 X-1.067 Y3.692 E48.18947
G1 X-6.383 Y12.929 E48.78039
G1 X-11.493 Y12.929 E49.06373
G1 X-3.458 Y0.656 E49.87709
G1 X-12.413 Y-12.871 E50.77658
G1 X-7.139 Y-12.871 E51.069
G1 X-0.04 Y-1.322 E51.82066
G1 X7.058 Y-12.871 E52.57228
G1 X12.397 Y-12.871 E52.86831
G1 X3.576 Y0.485 E53.75579
G1 X11.575 Y12.929 E54.57602
G1 X6.543 Y12.929 E54.85503
G1 X1.378 Y3.706 E55.44114
G0 F3600 X1.025 Y4.304
G1 F1800 X-.721 Y4.294 E55.53795
G1 X-6.036 Y13.529 E56.12875
G1 X-12.603 Y13.529 E56.49287
G1 X-4.176 Y0.658 E57.34588
G1 X-13.529 Y-13.471 E58.28538
G1 X-6.804 Y-13.471 E58.65826
G1 X-0.04 Y-2.468 E59.3744
G1 X0.518 Y-3.376 E59.43349
G1 X6.723 Y-13.471 E60.0905
G1 X13.513 Y-13.471 E60.46699
G1 X4.292 Y0.489 E61.39463
G1 X12.674 Y13.529 E62.25415
G1 X6.191 Y13.529 E62.61361
G1 X1.025 Y4.304 E63.19984
G0 F3600 X-.175 Y1.897
G1 F1800 X-2.105 Y1.886 E63.30686
G1 X-7.424 Y11.129 E63.89815
G1 X-8.163 Y11.129 E63.93913
G1 X-1.304 Y0.65 E64.63355
G1 X-9.065 Y-11.071 E65.41299
G1 X-8.144 Y-11.071 E65.46406
G1 X-.175 Y1.897 E66.308
G0 F3600 X-.787 Y1.5
;TYPE:SKIN
G1 F1800 X-1.484 Y1.5 E66.32733
G0 F3600 X-1.287 Y1.2
G1 F1800 X-.972 Y1.2 E66.33606
G0 F3600 X0.708 Y1.5
G1 F1800 X0.927 Y1.5 E66.34213
G0 F3600 X1.486 Y1.5
G1 F1800 X1.714 Y1.5 E66.34845
G0 F3600 X2.592 Y2.1
G1 F1800 X2.814 Y2.1 E66.35461
G0 F3600 X3.006 Y2.4
G1 F1800 X2.383 Y2.4 E66.37188
G0 F3600 X2.551 Y2.7
G1 F1800 X2.796 Y2.7 E66.37867
G0 F3600 X8.472 Y11.4
G1 F1800 X8.792 Y11.4 E66.38754
G0 F3600 X9.571 Y12
G1 F1800 X9.891 Y12 E66.39641
G0 F3600 X10.67 Y12.6
G1 F1800 X10.99 Y12.6 E66.40529
G0 F3600 X11.769 Y13.2
G1 F1800 X12.089 Y13.2 E66.41416
G0 F3600 X12.885 Y13.8
G1 F1800 X13.205 Y13.8 E66.42303
G0 F3600 X0.516 Y5.167
G0 X-8.357 Y11.4
G1 F1800 X-8.68 Y11.4 E66.43198
G0 F3600 X-9.467 Y12
G1 F1800 X-9.79 Y12 E66.44094
G0 F3600 X-10.577 Y12.6
G1 F1800 X-10.9 Y12.6 E66.44989
G0 F3600 X-11.687 Y13.2
G1 F1800 X-12.01 Y13.2 E66.45885
G0 F3600 X-12.814 Y13.8
G1 F1800 X-13.139 Y13.8 E66.46786
G0 F3600 X-5.213 Y0.66
G0 X-7.116 Y-8.7
G1 F1800 X-7.055 Y-8.7 E66.46955
G0 F3600 X-7.239 Y-9
G1 F1800 X-7.315 Y-9 E66.47165
G0 F3600 X-7.424 Y-9.3
G1 F1800 X-7.514 Y-9.3 E66.47415
G0 F3600 X-7.608 Y-9.6
G1 F1800 X-7.712 Y-9.6 E66.47703
G0 F3600 X-7.792 Y-9.9
G1 F1800 X-7.911 Y-9.9 E66.48033
G0 F3600 X-7.977 Y-10.2
G1 F1800 X-8.109 Y-10.2 E66.48399
G0 F3600 X-8.161 Y-10.5
G1 F1800 X-8.309 Y-10.5 E66.48809
G0 F3600 X-0.04 Y-4.146
G0 X6.055 Y-7.2
G1 F1800 X6.115 Y-7.2 E66.48976
G0 F3600 X6.239 Y-7.5
G1 F1800 X6.314 Y-7.5 E66.49184
G0 F3600 X6.423 Y-7.8
G1 F1800 X6.512 Y-7.8 E66.4943
G0 F3600 X6.608 Y-8.1
G1 F1800 X6.71 Y-8.1 E66.49713
G0 F3600 X6.792 Y-8.4
G1 F1800 X6.908 Y-8.4 E66.50035
G0 F3600 X6.976 Y-8.7
G1 F1800 X7.106 Y-8.7 E66.50395
G0 F3600 X7.161 Y-9
G1 F1800 X7.304 Y-9 E66.50792
G0 F3600 X7.345 Y-9.3
G1 F1800 X7.502 Y-9.3 E66.51227
G0 F3600 X7.529 Y-9.6
G1 F1800 X7.7 Y-9.6 E66.51701
G0 F3600 X7.714 Y-9.9
G1 F1800 X7.898 Y-9.9 E66.52211
G0 F3600 X7.898 Y-10.2
G1 F1800 X8.096 Y-10.2 E66.5276
G0 F3600 X8.082 Y-10.5
G1 F1800 X8.294 Y-10.5 E66.53348
G1 F1500 E60.03348
;MESH:X.stl(1)
G0 F3600 X5.326 Y0.496
G0 X5.673 Y14.412
G0 X6.208 Y16.574
G0 X-0.062 Y26.782
G0 X-.317 Y26.9
;TYPE:WALL-INNER
G1 F1500 E66.53348
G1 F1800 X-0.062 Y27.314 E66.56044
G1 X0.193 Y26.9 E66.57591
G1 X6.366 Y16.857 E67.22955
G1 X14.05 Y16.857 E67.6556
G1 X14.052 Y16.857 E67.65571
G1 X14.606 Y16.857 E67.68643
G1 X14.3 Y17.32 E67.70364
G1 X4.987 Y31.422 E68.64067
G1 X13.455 Y44.596 E69.50901
G1 X13.751 Y45.057 E69.53939
G1 X13.204 Y45.057 E69.55641
G1 X13.203 Y45.057 E69.55647
G1 X5.817 Y45.057 E69.966
G1 X0.651 Y35.831 E70.55228
G1 X-.397 Y35.825 E70.61039
G1 X-5.709 Y45.057 E71.20096
G1 X-13.18 Y45.057 E71.6152
G1 X-13.181 Y45.057 E71.61526
G1 X-13.734 Y45.057 E71.64592
G1 X-13.431 Y44.594 E71.66311
G1 X-4.915 Y31.588 E72.52508
G1 X-14.36 Y17.321 E73.47378
G1 X-14.667 Y16.857 E73.50462
G1 X-14.111 Y16.857 E73.52188
G1 X-14.11 Y16.857 E73.52194
G1 X-6.489 Y16.857 E73.9445
G1 X-.317 Y26.9 E74.5981
G0 F3600 X-0.062 Y26.168
;TYPE:WALL-OUTER
G1 F1800 X0.193 Y25.753 E74.62511
G1 X6.031 Y16.257 E75.24317
G1 X15.165 Y16.257 E75.74962
G1 X15.167 Y16.257 E75.74973
G1 X15.722 Y16.257 E75.7805
G1 X15.416 Y16.721 E75.79775
G1 X5.703 Y31.426 E76.7749
G1 X14.554 Y45.196 E77.68252
G1 X14.85 Y45.657 E77.71289
G1 X14.303 Y45.657 E77.72992
G1 X14.301 Y45.657 E77.73003
G1 X5.466 Y45.657 E78.2199
G1 X0.405 Y36.621 E78.79415
G1 X0.298 Y36.429 E78.80633
G1 X-0.051 Y36.427 E78.82569
G1 X-.161 Y36.618 E78.83791
G1 X-5.362 Y45.657 E79.41613
G1 X-14.289 Y45.657 E79.9111
G1 X-14.29 Y45.657 E79.91116
G1 X-14.844 Y45.657 E79.94188
G1 X-14.54 Y45.193 E79.9591
G1 X-5.633 Y31.59 E80.86064
G1 X-15.475 Y16.722 E81.84928
G1 X-15.783 Y16.257 E81.8802
G1 X-15.226 Y16.257 E81.89748
G1 X-15.225 Y16.257 E81.89753
G1 X-6.154 Y16.257 E82.40049
G1 X-.317 Y25.753 E83.01852
G1 X-0.062 Y26.168 E83.03402
G0 F3600 X0.042 Y25.998
G0 X0.604 Y26.344
G0 X1.229 Y32.235
;TYPE:SKIN
G1 F1800 X1.14 Y32.234 E83.03896
G1 X1.183 Y32.164 E83.04351
G1 X1.229 Y32.235 E83.04821
G0 F3600 X1.407 Y31.402
G1 F1800 X2.332 Y32.841 E83.14306
G1 X0.071 Y32.828 E83.26842
G1 X8.042 Y19.857 E84.11257
G1 X9.028 Y19.857 E84.16724
G1 X1.407 Y31.402 E84.93426
G0 F3600 X2.123 Y31.406
G1 F1800 X9.356 Y42.657 E85.67588
G1 X7.224 Y42.657 E85.79409
G1 X2.062 Y33.439 E86.37988
G1 X-1.781 Y33.417 E86.59297
G1 X-7.098 Y42.657 E87.18406
G1 X-9.294 Y42.657 E87.30582
G1 X-2.043 Y31.58 E88.03989
G1 X-10.203 Y19.257 E88.85938
G1 X-7.83 Y19.257 E88.99096
G1 X-0.062 Y31.898 E89.81362
G1 X7.707 Y19.257 E90.63631
G1 X10.144 Y19.257 E90.77143
G1 X2.123 Y31.406 E91.57862
G0 F3600 X2.839 Y31.41
G1 F1800 X10.455 Y43.257 E92.35953
G1 X6.872 Y43.257 E92.55819
G1 X1.709 Y34.037 E93.1441
G1 X-1.435 Y34.019 E93.31843
G1 X-6.751 Y43.257 E93.9094
G1 X-10.404 Y43.257 E94.11195
G1 X-2.761 Y31.582 E94.88566
G1 X-11.319 Y18.657 E95.74517
G1 X-7.495 Y18.657 E95.9572
G1 X-0.062 Y30.752 E96.74434
G1 X7.372 Y18.657 E97.53151
G1 X11.26 Y18.657 E97.74709
G1 X2.839 Y31.41 E98.59445
G0 F3600 X2.975 Y33.841
G1 F1800 X8.257 Y42.057 E99.13602
G1 X7.576 Y42.057 E99.17378
G1 X2.975 Y33.841 E99.69589
G0 F3600 X1.356 Y34.635
G1 F1800 X-1.089 Y34.621 E99.83146
G1 X-6.404 Y43.857 E100.42231
G1 X-11.514 Y43.857 E100.70564
G1 X-3.479 Y31.584 E101.519
G1 X-12.435 Y18.057 E102.41852
G1 X-7.16 Y18.057 E102.711
G1 X-0.062 Y29.606 E103.46263
G1 X7.037 Y18.057 E104.21428
G1 X12.376 Y18.057 E104.51031
G1 X3.555 Y31.414 E105.39784
G1 X11.554 Y43.857 E106.21802
G1 X6.52 Y43.857 E106.49714
G1 X1.356 Y34.635 E107.08318
G0 F3600 X1.003 Y35.233
G1 F1800 X-.743 Y35.223 E107.17999
G1 X-6.057 Y44.457 E107.77071
G1 X-12.624 Y44.457 E108.13483
G1 X-4.197 Y31.586 E108.98784
G1 X-13.551 Y17.457 E109.92737
G1 X-6.825 Y17.457 E110.3003
G1 X-0.062 Y28.46 E111.01641
G1 X0.496 Y27.552 E111.0755
G1 X6.702 Y17.457 E111.73255
G1 X13.492 Y17.457 E112.10903
G1 X4.271 Y31.418 E113.03673
G1 X12.653 Y44.457 E113.89619
G1 X6.169 Y44.457 E114.25571
G1 X1.003 Y35.233 E114.8419
G0 F3600 X-.196 Y32.826
G1 F1800 X-2.127 Y32.815 E114.94896
G1 X-7.445 Y42.057 E115.54018
G1 X-8.184 Y42.057 E115.58116
G1 X-1.325 Y31.578 E116.27558
G1 X-9.087 Y19.857 E117.05506
G1 X-8.165 Y19.857 E117.10618
G1 X-.196 Y32.826 E117.95017
G0 F3600 X-.826 Y32.4
;TYPE:SKIN
G1 F1800 X-1.485 Y32.4 E117.96844
G0 F3600 X-1.289 Y32.1
G1 F1800 X-1.01 Y32.1 E117.97617
G0 F3600 X0.703 Y32.4
G1 F1800 X0.888 Y32.4 E117.9813
G0 F3600 X1.48 Y32.4
G1 F1800 X1.674 Y32.4 E117.98668
G0 F3600 X2.587 Y33
G1 F1800 X2.773 Y33 E117.99184
