;FLAVOR:Marlin
;TIME:824
;Filament used: 1.39205m
;Layer height: 0.2
;MINX:-39.347
;MINY:-26.411
;MINZ:0.2
;MAXX:39.371
;MAXY:18.942
;MAXZ:3.6
;POSTPROCESSED
;Generated with Cura_SteamEngine 4.8.0
M140 S60
M105
M190 S60
M104 S195
M105
M109 S195
M82 ;absolute extrusion mode
G28 ;Home
G1 Z15.0 F6000 ;Move the platform down 15mm
;Prime the extruder
G92 E0
G1 F200 E3
G92 E0
G92 E0
G92 E0
G1 F1500 E-6.5
;LAYER_COUNT:18
;LAYER:0
M107
G0 F3600 X1.25 Y18.761 Z0.2
;TYPE:SKIRT
G1 F1500 E0
G1 F1800 X-1.426 Y18.764 E0.14838
G1 X-5.47 Y18.908 E0.37274
G1 X-6.336 Y18.941 E0.4208
G1 X-15.66 Y18.942 E0.93778
G1 X-16.364 Y18.931 E0.97682
G1 X-16.92 Y18.882 E1.00777
G1 X-17.463 Y18.754 E1.0387
G1 X-17.983 Y18.551 E1.06965
G1 X-18.468 Y18.275 E1.10059
G1 X-18.909 Y17.932 E1.13157
G1 X-19.194 Y17.649 E1.15384
G1 X-19.644 Y17.152 E1.19101
G1 X-21.5 Y15.162 E1.34189
G1 X-23.403 Y13.233 E1.49214
G1 X-25.365 Y11.354 E1.64277
G1 X-26.456 Y10.341 E1.72531
G1 X-26.836 Y9.933 E1.75623
G1 X-27.155 Y9.475 E1.78717
G1 X-27.405 Y8.975 E1.81817
G1 X-27.601 Y8.364 E1.85375
G1 X-27.84 Y7.331 E1.91254
G1 X-27.993 Y6.622 E1.95275
G1 X-28.644 Y3.977 E2.10379
G1 X-29.369 Y1.356 E2.25457
G1 X-30.161 Y-1.222 E2.4041
G1 X-31.046 Y-3.841 E2.55739
G1 X-31.975 Y-6.351 E2.70578
G1 X-32.993 Y-8.88 E2.85694
G1 X-34.077 Y-11.367 E3.00737
G1 X-35.248 Y-13.858 E3.15999
G1 X-36.447 Y-16.232 E3.30745
G1 X-38.213 Y-19.461 E3.51152
G1 X-38.84 Y-20.56 E3.58167
G1 X-39.082 Y-21.063 E3.61262
G1 X-39.248 Y-21.596 E3.64357
G1 X-39.338 Y-22.147 E3.67453
G1 X-39.347 Y-22.705 E3.70547
G1 X-39.277 Y-23.259 E3.73644
G1 X-39.129 Y-23.797 E3.76737
G1 X-38.905 Y-24.308 E3.79831
G1 X-38.61 Y-24.783 E3.82931
G1 X-38.251 Y-25.21 E3.86024
G1 X-37.834 Y-25.581 E3.89119
G1 X-37.369 Y-25.89 E3.92215
G1 X-36.865 Y-26.129 E3.95308
G1 X-36.331 Y-26.293 E3.98405
G1 X-35.527 Y-26.392 E4.02896
G1 X-34.506 Y-26.411 E4.08559
G1 X-25.885 Y-26.411 E4.56359
G1 X-25.179 Y-26.401 E4.60274
G1 X-23.969 Y-26.35 E4.66989
G1 X-23.158 Y-26.305 E4.71493
G1 X-20.473 Y-26.23 E4.86386
G1 X-17.764 Y-26.232 E5.01406
G1 X-13.677 Y-26.377 E5.24082
G1 X-12.805 Y-26.41 E5.2892
G1 X-3.488 Y-26.411 E5.8058
G1 X-2.272 Y-26.393 E5.87323
G1 X-.429 Y-26.341 E5.97546
G1 X2.848 Y-26.35 E6.15716
G1 X3.804 Y-26.368 E6.21017
G1 X12.438 Y-26.368 E6.6889
G1 X13.144 Y-26.358 E6.72805
G1 X14.354 Y-26.307 E6.7952
G1 X15.147 Y-26.263 E6.83923
G1 X17.901 Y-26.187 E6.99199
G1 X20.575 Y-26.189 E7.14026
G1 X24.647 Y-26.334 E7.36618
G1 X25.519 Y-26.367 E7.41456
G1 X34.837 Y-26.368 E7.93121
G1 X35.528 Y-26.358 E7.96953
G1 X36.085 Y-26.31 E8.00053
G1 X36.628 Y-26.183 E8.03145
G1 X37.148 Y-25.979 E8.06242
G1 X37.634 Y-25.704 E8.09338
G1 X38.075 Y-25.362 E8.12433
G1 X38.463 Y-24.961 E8.15527
G1 X38.79 Y-24.508 E8.18624
G1 X39.048 Y-24.014 E8.21714
G1 X39.234 Y-23.487 E8.24813
G1 X39.342 Y-22.94 E8.27905
G1 X39.371 Y-22.382 E8.31003
G1 X39.32 Y-21.826 E8.34098
G1 X39.191 Y-21.283 E8.37193
G1 X38.878 Y-20.558 E8.41572
G1 X38.707 Y-20.253 E8.4351
G1 X37.648 Y-18.413 E8.55282
G1 X36.357 Y-16.017 E8.70372
G1 X35.136 Y-13.59 E8.85436
G1 X33.992 Y-11.14 E9.00429
G1 X32.898 Y-8.619 E9.15666
G1 X31.899 Y-6.123 E9.30573
G1 X30.956 Y-3.561 E9.4571
G1 X30.086 Y-.973 E9.60849
G1 X29.302 Y1.598 E9.75752
G1 X28.574 Y4.247 E9.90985
G1 X27.578 Y8.439 E10.14875
G1 X27.462 Y8.851 E10.17248
G1 X27.236 Y9.361 E10.20341
G1 X26.939 Y9.833 E10.23433
G1 X26.401 Y10.428 E10.27881
G1 X24.323 Y12.364 E10.43628
G1 X22.414 Y14.248 E10.585
G1 X20.528 Y16.217 E10.73617
G1 X19.355 Y17.507 E10.83285
G1 X19.175 Y17.698 E10.8474
G1 X18.764 Y18.076 E10.87836
G1 X18.304 Y18.391 E10.90927
G1 X17.803 Y18.637 E10.94022
G1 X17.272 Y18.809 E10.97117
G1 X16.722 Y18.904 E11.00212
G1 X16.413 Y18.922 E11.01928
G1 X15.365 Y18.942 E11.0774
G1 X6.744 Y18.942 E11.5554
G1 X5.93 Y18.929 E11.60054
G1 X4.807 Y18.881 E11.66287
G1 X3.996 Y18.836 E11.7079
G1 X1.25 Y18.761 E11.86022
G0 F3600 X1.266 Y18.161
G1 F1800 X-1.447 Y18.164 E12.01064
G1 X-5.474 Y18.308 E12.23407
G1 X-6.351 Y18.341 E12.28273
G1 X-15.651 Y18.342 E12.79838
G1 X-16.355 Y18.331 E12.83742
G1 X-16.866 Y18.283 E12.86588
G1 X-17.363 Y18.156 E12.89432
G1 X-17.835 Y17.954 E12.92279
G1 X-18.27 Y17.681 E12.95127
G1 X-18.749 Y17.246 E12.98714
G1 X-19.166 Y16.785 E13.02161
G1 X-21.059 Y14.756 E13.17547
G1 X-22.985 Y12.803 E13.32756
G1 X-24.993 Y10.88 E13.48171
G1 X-26.047 Y9.901 E13.56147
G1 X-26.395 Y9.524 E13.58992
G1 X-26.68 Y9.097 E13.61839
G1 X-26.896 Y8.631 E13.64687
G1 X-27.017 Y8.228 E13.6702
G1 X-27.254 Y7.204 E13.72847
G1 X-27.414 Y6.465 E13.7704
G1 X-28.059 Y3.844 E13.92006
G1 X-28.79 Y1.199 E14.07221
G1 X-29.602 Y-1.444 E14.22552
G1 X-30.465 Y-3.999 E14.37505
G1 X-31.43 Y-6.604 E14.52908
G1 X-32.436 Y-9.103 E14.67845
G1 X-33.528 Y-11.609 E14.83002
G1 X-34.706 Y-14.115 E14.98355
G1 X-35.927 Y-16.534 E15.13379
G1 X-37.67 Y-19.72 E15.33515
G1 X-38.319 Y-20.857 E15.40774
G1 X-38.538 Y-21.322 E15.43624
G1 X-38.682 Y-21.814 E15.46467
G1 X-38.749 Y-22.324 E15.49319
G1 X-38.735 Y-22.837 E15.52164
G1 X-38.642 Y-23.342 E15.55011
G1 X-38.472 Y-23.826 E15.57856
G1 X-38.228 Y-24.278 E15.60704
G1 X-37.918 Y-24.687 E15.63549
G1 X-37.548 Y-25.043 E15.66396
G1 X-37.127 Y-25.337 E15.69243
G1 X-36.666 Y-25.562 E15.72088
G1 X-36.175 Y-25.713 E15.74936
G1 X-35.516 Y-25.792 E15.78616
G1 X-34.506 Y-25.811 E15.84217
G1 X-25.893 Y-25.811 E16.31973
G1 X-25.187 Y-25.801 E16.35888
G1 X-24.002 Y-25.751 E16.42465
G1 X-23.207 Y-25.707 E16.46879
G1 X-20.454 Y-25.63 E16.6215
G1 X-17.743 Y-25.632 E16.77181
G1 X-13.669 Y-25.777 E16.99785
G1 X-12.79 Y-25.81 E17.04662
G1 X-3.496 Y-25.811 E17.56194
G1 X-2.289 Y-25.794 E17.62887
G1 X-.412 Y-25.741 E17.73298
G1 X2.862 Y-25.75 E17.91452
G1 X3.804 Y-25.768 E17.96676
G1 X12.43 Y-25.768 E18.44504
G1 X13.136 Y-25.758 E18.48419
G1 X14.321 Y-25.708 E18.54995
G1 X15.134 Y-25.663 E18.5951
G1 X17.884 Y-25.587 E18.74764
G1 X20.597 Y-25.589 E18.89806
G1 X24.653 Y-25.733 E19.1231
G1 X25.534 Y-25.767 E19.17198
G1 X34.829 Y-25.768 E19.68736
G1 X35.52 Y-25.758 E19.72568
G1 X36.031 Y-25.71 E19.75413
G1 X36.529 Y-25.584 E19.78262
G1 X37.001 Y-25.383 E19.81106
G1 X37.436 Y-25.11 E19.83954
G1 X37.824 Y-24.773 E19.86803
G1 X38.154 Y-24.38 E19.89649
G1 X38.42 Y-23.941 E19.92495
G1 X38.614 Y-23.466 E19.9534
G1 X38.733 Y-22.966 E19.98189
G1 X38.772 Y-22.454 E20.01036
G1 X38.732 Y-21.943 E20.03878
G1 X38.612 Y-21.443 E20.06729
G1 X38.354 Y-20.851 E20.1031
G1 X38.187 Y-20.552 E20.12209
G1 X37.13 Y-18.715 E20.2396
G1 X35.814 Y-16.274 E20.39336
G1 X34.607 Y-13.873 E20.54237
G1 X33.442 Y-11.38 E20.69494
G1 X32.34 Y-8.84 E20.84846
G1 X31.34 Y-6.343 E20.9976
G1 X30.386 Y-3.749 E21.15085
G1 X29.516 Y-1.16 E21.30229
G1 X28.722 Y1.443 E21.45318
G1 X28.001 Y4.068 E21.60412
G1 X27.001 Y8.276 E21.84394
G1 X26.884 Y8.686 E21.86758
G1 X26.667 Y9.151 E21.89603
G1 X26.38 Y9.577 E21.92451
G1 X26 Y9.981 E21.95526
G1 X23.934 Y11.905 E22.1118
G1 X21.983 Y13.83 E22.26376
G1 X20.093 Y15.804 E22.41529
G1 X18.919 Y17.095 E22.51205
G1 X18.739 Y17.286 E22.5266
G1 X18.358 Y17.631 E22.5551
G1 X17.929 Y17.913 E22.58356
G1 X17.462 Y18.125 E22.612
G1 X16.967 Y18.262 E22.64048
G1 X16.401 Y18.322 E22.67204
G1 X15.365 Y18.342 E22.72949
G1 X6.752 Y18.342 E23.20705
G1 X6.047 Y18.332 E23.24615
G1 X4.841 Y18.282 E23.31307
G1 X4.013 Y18.236 E23.35905
G1 X1.266 Y18.161 E23.51142
G1 F1500 E17.01142
;MESH:Y.stl
G0 F3600 X5.343 Y15.083
G0 X6.441 Y14.425
G0 X0.291 Y3.597
;TYPE:WALL-INNER
G1 F1500 E23.51142
G1 F1800 X0.035 Y3.168 E23.53912
G1 X-.221 Y3.597 E23.55491
G1 X-6.521 Y14.142 E24.236
G1 X-14.059 Y14.142 E24.65396
G1 X-14.06 Y14.142 E24.65401
G1 X-14.62 Y14.142 E24.68506
G1 X-14.308 Y13.676 E24.70244
G1 X-3.722 Y-2.12 E25.75677
G1 X-3.722 Y-14.058 E26.41869
G1 X3.769 Y-14.058 E26.83404
G1 X3.769 Y-2.12 E27.49596
G1 X14.337 Y13.677 E28.54978
G1 X14.648 Y14.142 E28.5808
G1 X14.089 Y14.142 E28.59813
G1 X14.088 Y14.142 E28.59818
G1 X6.602 Y14.142 E29.01326
G1 X0.291 Y3.597 E29.69465
G0 F3600 X0.035 Y4.337
;TYPE:WALL-OUTER
G1 F1800 X-.221 Y4.767 E29.7224
G1 X-6.18 Y14.742 E30.36666
G1 X-15.182 Y14.742 E30.86579
G1 X-15.184 Y14.742 E30.8659
G1 X-15.744 Y14.742 E30.89695
G1 X-15.432 Y14.276 E30.91433
G1 X-4.322 Y-2.302 E32.02085
G1 X-4.322 Y-14.658 E32.70595
G1 X4.369 Y-14.658 E33.18784
G1 X4.369 Y-2.302 E33.87293
G1 X15.461 Y14.276 E34.9789
G1 X15.772 Y14.742 E35.00996
G1 X15.212 Y14.742 E35.02733
G1 X15.211 Y14.742 E35.02739
G1 X6.262 Y14.742 E35.52358
G1 X0.292 Y4.766 E36.1682
G1 X0.035 Y4.337 E36.18402
G0 F3600 X-0.067 Y4.509
G0 X-.633 Y4.17
G0 X0.169 Y-3.623
;TYPE:SKIN
G1 F1800 X0.035 Y-3.847 E36.19849
G1 X-.122 Y-3.584 E36.21547
G1 X-.122 Y-10.458 E36.59661
G1 X0.169 Y-10.458 E36.61275
G1 X0.169 Y-3.623 E36.99172
G0 F3600 X0.035 Y-2.678
G1 F1800 X-.722 Y-1.411 E37.07356
G1 X-.722 Y-11.058 E37.60845
G1 X0.769 Y-11.058 E37.69112
G1 X0.769 Y-1.451 E38.2238
G1 X0.035 Y-2.678 E38.30308
G0 F3600 X0.035 Y-1.509
G1 F1800 X-7.884 Y11.742 E39.159
G1 X-10.124 Y11.742 E39.2832
G1 X-1.322 Y-1.392 E40.15985
G1 X-1.322 Y-11.658 E40.72907
G1 X1.369 Y-11.658 E40.87827
G1 X1.369 Y-1.392 E41.44749
G1 X10.154 Y11.742 E42.32361
G1 X7.962 Y11.742 E42.44515
G1 X0.035 Y-1.509 E43.30131
G0 F3600 X1.969 Y-1.574
G1 F1800 X11.278 Y12.342 E44.22962
G1 X7.622 Y12.342 E44.43234
G1 X0.035 Y-.34 E45.25174
G1 X-7.544 Y12.342 E46.07091
G1 X-11.248 Y12.342 E46.27629
G1 X-1.922 Y-1.574 E47.20513
G1 X-1.922 Y-12.258 E47.79752
G1 X1.969 Y-12.258 E48.01326
G1 X1.969 Y-1.574 E48.60566
G0 F3600 X2.569 Y-1.756
G1 F1800 X12.402 Y12.942 E49.58617
G1 X7.282 Y12.942 E49.87005
G1 X0.035 Y0.829 E50.6527
G1 X-7.204 Y12.942 E51.43513
G1 X-12.372 Y12.942 E51.72167
G1 X-2.522 Y-1.756 E52.70271
G1 X-2.522 Y-12.858 E53.31828
G1 X2.569 Y-12.858 E53.60056
G1 X2.569 Y-1.756 E54.21613
G0 F3600 X3.169 Y-1.938
G1 F1800 X13.526 Y13.542 E55.24883
G1 X6.942 Y13.542 E55.61389
G1 X0.035 Y1.998 E56.35979
G1 X-6.863 Y13.542 E57.10543
G1 X-13.496 Y13.542 E57.47321
G1 X-3.122 Y-1.938 E58.50644
G1 X-3.122 Y-13.458 E59.14518
G1 X3.169 Y-13.458 E59.494
G1 X3.169 Y-1.938 E60.13274
G0 F3600 X2.135 Y0.832
G1 F1800 X9.03 Y11.142 E60.82045
G1 X8.302 Y11.142 E60.86082
G1 X2.135 Y0.832 E61.52693
G0 F3600 X-1.834 Y0.449
G1 F1800 X-8.224 Y11.142 E62.21762
G1 X-9 Y11.142 E62.26065
G1 X-1.834 Y0.449 E62.97437
G0 F3600 X-1.509 Y0.299
;TYPE:SKIN
G1 F1800 X-1.413 Y0.299 E62.97703
G0 F3600 X-1.234 Y0.00
G1 F1800 X-1.875 Y0.00 E62.9948
G0 F3600 X-1.674 Y-.3
G1 F1800 X-1.055 Y-.3 E63.01196
G0 F3600 X-.875 Y-.6
G1 F1800 X-1.473 Y-.6 E63.02854
G0 F3600 X-1.272 Y-.9
G1 F1800 X-.696 Y-.9 E63.04451
G0 F3600 X0.765 Y-.9
G1 F1800 X1.32 Y-.899 E63.05989
G0 F3600 X1.521 Y-.599
G1 F1800 X0.945 Y-.599 E63.07586
G0 F3600 X1.125 Y-.299
G1 F1800 X1.722 Y-.299 E63.09241
G0 F3600 X1.922 Y0.00
G1 F1800 X1.305 Y0.00 E63.10952
G0 F3600 X1.484 Y0.3
G1 F1800 X2.123 Y0.3 E63.12723
G0 F3600 X1.938 Y0.6
G1 F1800 X1.664 Y0.6 E63.13483
G0 F3600 X1.119 Y-1.2
G1 F1800 X0.986 Y-1.2 E63.13852
G0 F3600 X0.453 Y-2.7
G1 F1800 X0.387 Y-2.7 E63.14035
G0 F3600 X0.453 Y-3
G1 F1800 X0.208 Y-3 E63.14714
G0 F3600 X0.126 Y-3.3
G1 F1800 X0.453 Y-3.3 E63.1562
G0 F3600 X-.139 Y-3
G1 F1800 X-.406 Y-3 E63.16361
G0 F3600 X-.406 Y-3.3
G1 F1800 X-.219 Y-3.3 E63.16879
G0 F3600 X-.318 Y-2.7
G1 F1800 X-.406 Y-2.7 E63.17123
G0 F3600 X-9.202 Y11.4
G1 F1800 X-9.515 Y11.4 E63.17991
G0 F3600 X-10.326 Y12
G1 F1800 X-10.639 Y12 E63.18858
G0 F3600 X-11.45 Y12.6
G1 F1800 X-11.763 Y12.6 E63.19726
G0 F3600 X-12.574 Y13.2
G1 F1800 X-12.887 Y13.2 E63.20594
G0 F3600 X-13.715 Y13.8
G1 F1800 X-14.029 Y13.8 E63.21464
G0 F3600 X0.035 Y3.712
G0 X9.233 Y11.4
G1 F1800 X9.546 Y11.4 E63.22332
G0 F3600 X10.357 Y12
G1 F1800 X10.67 Y12 E63.232
G0 F3600 X11.481 Y12.6
G1 F1800 X11.794 Y12.6 E63.24068
G0 F3600 X12.605 Y13.2
G1 F1800 X12.918 Y13.2 E63.24935
G0 F3600 X13.746 Y13.8
G1 F1800 X14.059 Y13.8 E63.25803
G0 F3600 X14.059 Y13.798
G1 F1500 E56.75803
;MESH:Y.stl(1)
G0 F3600 X4.58 Y-1.448
G0 X5.63 Y-2.151
G0 X12.546 Y-6.776
G0 X13.597 Y-7.48
G0 X18.891 Y-11.022
;TYPE:WALL-INNER
G1 F1500 E63.25803
G1 F1800 X19.147 Y-10.593 E63.28573
G1 X19.403 Y-11.022 E63.30152
G1 X25.703 Y-21.568 E63.98266
G1 X33.241 Y-21.568 E64.40061
G1 X33.242 Y-21.568 E64.40067
G1 X33.802 Y-21.568 E64.43172
G1 X33.49 Y-21.102 E64.4491
G1 X22.903 Y-5.305 E65.5035
G1 X22.903 Y6.632 E66.16537
G1 X15.413 Y6.632 E66.58066
G1 X15.413 Y-5.305 E67.24253
G1 X4.844 Y-21.103 E68.29643
G1 X4.533 Y-21.568 E68.32744
G1 X5.092 Y-21.568 E68.34477
G1 X5.093 Y-21.568 E68.34483
G1 X12.58 Y-21.568 E68.75996
G1 X18.891 Y-11.022 E69.4414
G0 F3600 X19.147 Y-11.762
;TYPE:WALL-OUTER
G1 F1800 X19.403 Y-12.192 E69.46915
G1 X25.362 Y-22.168 E70.11345
G1 X34.364 Y-22.168 E70.61258
G1 X34.366 Y-22.168 E70.61269
G1 X34.926 Y-22.168 E70.64374
G1 X34.614 Y-21.702 E70.66112
G1 X23.503 Y-5.123 E71.76772
G1 X23.503 Y7.232 E72.45276
G1 X14.813 Y7.232 E72.9346
G1 X14.813 Y-5.123 E73.61964
G1 X3.72 Y-21.702 E74.72568
G1 X3.409 Y-22.168 E74.75675
G1 X3.969 Y-22.168 E74.77411
G1 X3.97 Y-22.168 E74.77417
G1 X12.92 Y-22.168 E75.27042
G1 X18.89 Y-12.191 E75.91508
G1 X19.147 Y-11.762 E75.9309
G0 F3600 X19.249 Y-11.934
G0 X19.815 Y-11.595
G0 X19.303 Y3.032
;TYPE:SKIN
G1 F1800 X19.013 Y3.032 E75.94698
G1 X19.013 Y-3.802 E76.3259
G1 X19.147 Y-3.578 E76.34038
G1 X19.303 Y-3.839 E76.35723
G1 X19.303 Y3.032 E76.73821
G0 F3600 X19.903 Y3.632
G1 F1800 X18.413 Y3.632 E76.82082
G1 X18.413 Y-5.974 E77.35344
G1 X19.147 Y-4.747 E77.43272
G1 X19.903 Y-6.012 E77.51443
G1 X19.903 Y3.632 E78.04916
G0 F3600 X20.503 Y4.232
G1 F1800 X17.813 Y4.232 E78.19831
G1 X17.813 Y-6.033 E78.76747
G1 X9.027 Y-19.168 E79.64367
G1 X11.22 Y-19.168 E79.76527
G1 X19.147 Y-5.916 E80.62147
G1 X27.066 Y-19.168 E81.47744
G1 X29.306 Y-19.168 E81.60164
G1 X20.503 Y-6.033 E82.47837
G1 X20.503 Y4.232 E83.04753
G0 F3600 X21.103 Y4.832
G1 F1800 X17.213 Y4.832 E83.26322
G1 X17.213 Y-5.851 E83.85555
G1 X7.903 Y-19.768 E84.78395
G1 X11.56 Y-19.768 E84.98671
G1 X19.147 Y-7.085 E85.80616
G1 X26.726 Y-19.768 E86.62539
G1 X30.43 Y-19.768 E86.83076
G1 X21.103 Y-5.851 E87.75968
G1 X21.103 Y4.832 E88.35202
G0 F3600 X21.703 Y5.432
G1 F1800 X16.613 Y5.432 E88.63424
G1 X16.613 Y-5.669 E89.24975
G1 X6.779 Y-20.368 E90.23034
G1 X11.9 Y-20.368 E90.51428
G1 X19.147 Y-8.254 E91.29698
G1 X26.386 Y-20.368 E92.07945
G1 X31.554 Y-20.368 E92.366
G1 X21.703 Y-5.669 E93.34711
G1 X21.703 Y5.432 E93.96262
G0 F3600 X22.303 Y6.032
G1 F1800 X16.013 Y6.032 E94.31138
G1 X16.013 Y-5.487 E94.95007
G1 X5.655 Y-20.968 E95.98285
G1 X12.24 Y-20.968 E96.34797
G1 X19.147 Y-9.423 E97.09392
G1 X26.045 Y-20.968 E97.8396
G1 X32.678 Y-20.968 E98.20738
G1 X22.303 Y-5.487 E99.24069
G1 X22.303 Y6.032 E99.87938
G0 F3600 X21.023 Y-7.886
G1 F1800 X27.406 Y-18.568 E100.56934
G1 X28.182 Y-18.568 E100.61237
G1 X21.023 Y-7.886 E101.32536
G0 F3600 X17.049 Y-8.254
G1 F1800 X10.151 Y-18.568 E102.01335
G1 X10.88 Y-18.568 E102.05377
G1 X17.049 Y-8.254 E102.72014
G0 F3600 X17.367 Y-8.099
;TYPE:SKIN
G1 F1800 X17.474 Y-8.099 E102.7231
G0 F3600 X17.653 Y-7.799
G1 F1800 X17.009 Y-7.799 E102.74096
G0 F3600 X17.21 Y-7.499
G1 F1800 X17.833 Y-7.499 E102.75823
G0 F3600 X18.012 Y-7.199
G1 F1800 X17.411 Y-7.199 E102.77489
G0 F3600 X17.611 Y-6.899
G1 F1800 X18.192 Y-6.899 E102.791
G0 F3600 X18.371 Y-6.599
G1 F1800 X17.812 Y-6.599 E102.80649
G0 F3600 X18.013 Y-6.299
G1 F1800 X18.465 Y-6.299 E102.81903
G0 F3600 X19.923 Y-6.599
G1 F1800 X20.503 Y-6.599 E102.8351
G0 F3600 X20.302 Y-6.299
G1 F1800 X19.986 Y-6.299 E102.84387
G0 F3600 X20.102 Y-6.899
G1 F1800 X20.704 Y-6.899 E102.86055
G0 F3600 X20.905 Y-7.199
G1 F1800 X20.281 Y-7.199 E102.87785
